
;Inkscape Lasertools G-code
;https://github.com/ChrisWag91/Inkscape-Lasertools-Plugin

G90	;Absolute programming
G21	;Programming in millimeters (mm)
M5
M03 S1 ;Activate laser and set power to 0 (CUSTOM)

; START perimeter strategy
G01 F3000.0
M5
G00 X19.64 Y1.88 F3000.0
M3 F3000.0
G01 X19.34 Y2.04 F3000.0
G01 X18.46 Y2.52 F3000.0
G01 X17.58 Y2.99 F3000.0
G01 X16.7 Y3.47 F3000.0
G01 X15.82 Y3.94 F3000.0
G01 X14.94 Y4.42 F3000.0
G01 X13.76 Y5.05 F3000.0
G01 X13.32 Y5.26 F3000.0
G01 X12.42 Y5.7 F3000.0
G01 X11.09 Y6.35 F3000.0
G01 X11.0 Y6.39 F3000.0
G01 X10.02 Y6.9 F3000.0
G01 X9.63 Y7.26 F3000.0
G01 X9.42 Y7.74 F3000.0
G01 X9.41 Y7.94 F3000.0
G01 X9.37 Y8.94 F3000.0
G01 X9.33 Y10.14 F3000.0
G01 Y10.29 F3000.0
G01 X9.38 Y11.29 F3000.0
G01 X9.43 Y12.45 F3000.0
G01 X9.46 Y12.56 F3000.0
G01 X9.81 Y13.62 F3000.0
G01 X10.16 Y14.35 F3000.0
G01 X9.77 Y14.68 F3000.0
G01 X9.23 Y15.13 F3000.0
G01 X9.21 Y15.16 F3000.0
G01 X8.69 Y16.04 F3000.0
G01 X8.63 Y16.2 F3000.0
G01 X8.29 Y17.14 F3000.0
G01 X7.95 Y18.08 F3000.0
G01 X7.61 Y19.01 F3000.0
G01 X7.21 Y20.11 F3000.0
G01 X7.07 Y20.57 F3000.0
G01 X6.78 Y21.53 F3000.0
G01 X6.49 Y22.48 F3000.0
G01 X6.07 Y23.9 F3000.0
G01 X6.04 Y24.03 F3000.0
G01 X5.35 Y26.95 F3000.0
G01 X5.09 Y28.05 F3000.0
G01 X5.02 Y28.33 F3000.0
G01 X4.06 Y32.21 F3000.0
G01 X3.75 Y33.47 F3000.0
G01 X3.65 Y33.94 F3000.0
G01 X3.42 Y34.92 F3000.0
G01 X3.2 Y35.89 F3000.0
G01 X2.76 Y37.84 F3000.0
G01 X2.43 Y39.29 F3000.0
G01 X2.4 Y39.45 F3000.0
G01 X2.19 Y40.43 F3000.0
G01 X1.99 Y41.41 F3000.0
G01 X1.78 Y42.39 F3000.0
G01 X1.54 Y43.52 F3000.0
G01 Y43.53 F3000.0
G01 X1.21 Y45.51 F3000.0
G01 X1.05 Y46.49 F3000.0
G01 X0.89 Y47.49 F3000.0
G01 X0.85 Y47.83 F3000.0
G01 X0.74 Y48.82 F3000.0
G01 X0.3 Y52.8 F3000.0
G01 X0.15 Y54.12 F3000.0
G01 X0.12 Y54.43 F3000.0
G01 X0.0 Y55.73 F3000.0
G01 X0.33 Y56.01 F3000.0
G01 X1.42 Y56.94 F3000.0
G01 X1.51 Y57.01 F3000.0
G01 X2.3 Y57.62 F3000.0
G01 X3.19 Y58.31 F3000.0
G01 X3.42 Y58.46 F3000.0
G01 X4.25 Y59.01 F3000.0
G01 X5.32 Y59.71 F3000.0
G01 X5.68 Y59.91 F3000.0
G01 X6.56 Y60.39 F3000.0
G01 X7.44 Y60.87 F3000.0
G01 X8.32 Y61.35 F3000.0
G01 X9.19 Y61.83 F3000.0
G01 X10.07 Y62.3 F3000.0
G01 X11.31 Y62.98 F3000.0
G01 X11.41 Y63.03 F3000.0
G01 X12.32 Y63.46 F3000.0
G01 X13.22 Y63.89 F3000.0
G01 X14.13 Y64.31 F3000.0
G01 X15.03 Y64.74 F3000.0
G01 X15.94 Y65.17 F3000.0
G01 X16.94 Y65.65 F3000.0
G01 X17.4 Y65.82 F3000.0
G01 X18.34 Y66.17 F3000.0
G01 X19.27 Y66.52 F3000.0
G01 X20.21 Y66.88 F3000.0
G01 X21.14 Y67.23 F3000.0
G01 X22.08 Y67.58 F3000.0
G01 X23.01 Y67.94 F3000.0
G01 X24.41 Y68.46 F3000.0
G01 X24.58 Y68.52 F3000.0
G01 X25.52 Y68.86 F3000.0
G01 X26.46 Y69.2 F3000.0
G01 X27.4 Y69.54 F3000.0
G01 X28.51 Y69.94 F3000.0
G01 X28.52 F3000.0
G01 X32.52 Y69.96 F3000.0
G01 X33.53 F3000.0
G01 X33.97 Y69.95 F3000.0
G01 X34.97 Y69.93 F3000.0
G01 X36.97 Y69.88 F3000.0
G01 X37.97 Y69.86 F3000.0
G01 X40.97 Y69.79 F3000.0
G01 X41.97 Y69.77 F3000.0
G01 X43.4 Y69.74 F3000.0
G01 X43.51 Y69.73 F3000.0
G01 X44.51 Y69.68 F3000.0
G01 X45.51 Y69.64 F3000.0
G01 X46.51 Y69.59 F3000.0
G01 X48.51 Y69.49 F3000.0
G01 X49.51 Y69.45 F3000.0
G01 X50.51 Y69.4 F3000.0
G01 X51.51 Y69.35 F3000.0
G01 X53.5 Y69.26 F3000.0
G01 X54.5 Y69.21 F3000.0
G01 X55.5 Y69.16 F3000.0
G01 X56.61 Y69.11 F3000.0
G01 X56.83 Y69.09 F3000.0
G01 X57.82 Y69.01 F3000.0
G01 X59.04 Y68.91 F3000.0
G01 X59.3 Y68.84 F3000.0
G01 X60.53 Y68.53 F3000.0
G01 X60.61 Y68.47 F3000.0
G01 X61.48 Y67.79 F3000.0
G01 X61.62 Y67.58 F3000.0
G01 X62.3 Y66.52 F3000.0
G01 X62.51 Y66.09 F3000.0
G01 X63.15 Y64.75 F3000.0
G01 X63.22 Y64.55 F3000.0
G01 X63.56 Y63.61 F3000.0
G01 X63.98 Y62.48 F3000.0
G01 X64.11 Y62.0 F3000.0
G01 X64.37 Y61.03 F3000.0
G01 X64.63 Y60.07 F3000.0
G01 X64.9 Y59.1 F3000.0
G01 X65.16 Y58.14 F3000.0
G01 X65.69 Y56.21 F3000.0
G01 X66.08 Y54.77 F3000.0
G01 X66.17 Y54.45 F3000.0
G01 X66.42 Y53.48 F3000.0
G01 X66.94 Y51.55 F3000.0
G01 X67.2 Y50.58 F3000.0
G01 X67.46 Y49.61 F3000.0
G01 X67.71 Y48.65 F3000.0
G01 X68.06 Y47.36 F3000.0
G01 X68.07 Y47.29 F3000.0
G01 X68.31 Y46.32 F3000.0
G01 X68.56 Y45.35 F3000.0
G01 X68.8 Y44.38 F3000.0
G01 X69.28 Y42.44 F3000.0
G01 X69.52 Y41.47 F3000.0
G01 X69.76 Y40.5 F3000.0
G01 X70.0 Y39.53 F3000.0
G01 X70.24 Y38.56 F3000.0
G01 X70.48 Y37.59 F3000.0
G01 X70.74 Y36.55 F3000.0
G01 X70.81 Y36.22 F3000.0
G01 X71.01 Y35.24 F3000.0
G01 X71.21 Y34.26 F3000.0
G01 X71.42 Y33.28 F3000.0
G01 X71.69 Y31.98 F3000.0
G01 X71.7 Y31.89 F3000.0
G01 X71.86 Y30.9 F3000.0
G01 X72.01 Y29.92 F3000.0
G01 X72.18 Y28.84 F3000.0
G01 X72.19 Y28.52 F3000.0
G01 X72.22 Y27.21 F3000.0
G01 X72.18 Y27.07 F3000.0
G01 X71.8 Y26.0 F3000.0
G01 X71.55 Y25.67 F3000.0
G01 X70.68 Y24.55 F3000.0
G01 X70.03 Y24.02 F3000.0
G01 X69.54 Y23.81 F3000.0
G01 X69.36 Y23.74 F3000.0
G01 X68.26 Y23.3 F3000.0
G01 X68.13 Y23.25 F3000.0
G01 X67.19 Y22.89 F3000.0
G01 X66.26 Y22.53 F3000.0
G01 X64.39 Y21.82 F3000.0
G01 X63.46 Y21.46 F3000.0
G01 X62.39 Y21.05 F3000.0
G01 X62.08 Y20.81 F3000.0
G01 X62.33 Y20.48 F3000.0
G01 X62.49 Y20.41 F3000.0
G01 X63.41 Y20.03 F3000.0
G01 X64.49 Y19.59 F3000.0
G01 X64.77 Y19.48 F3000.0
G01 X65.7 Y19.12 F3000.0
G01 X66.92 Y18.64 F3000.0
G01 X67.35 Y18.12 F3000.0
G01 F3000.0
G01 X67.75 Y17.2 F3000.0
G01 X67.83 Y16.9 F3000.0
G01 X68.07 Y15.93 F3000.0
G01 X68.39 Y14.67 F3000.0
G01 X68.42 Y14.38 F3000.0
G01 X68.53 Y13.38 F3000.0
G01 X68.66 Y12.09 F3000.0
G01 X68.59 Y11.11 F3000.0
G01 X68.36 Y10.5 F3000.0
G01 X67.94 Y10.2 F3000.0
G01 X67.91 Y10.19 F3000.0
G01 X66.95 Y9.8 F3000.0
G01 X66.5 Y9.66 F3000.0
G01 X65.55 Y9.36 F3000.0
G01 X64.59 Y9.06 F3000.0
G01 X63.64 Y8.77 F3000.0
G01 X62.24 Y8.33 F3000.0
G01 X61.83 Y8.2 F3000.0
G01 X59.91 Y7.62 F3000.0
G01 X58.54 Y7.21 F3000.0
G01 X58.18 Y7.11 F3000.0
G01 X57.21 Y6.85 F3000.0
G01 X56.25 Y6.58 F3000.0
G01 X55.28 Y6.32 F3000.0
G01 X53.96 Y5.96 F3000.0
G01 X53.77 Y5.92 F3000.0
G01 X50.84 Y5.27 F3000.0
G01 X49.67 Y5.02 F3000.0
G01 X49.29 Y4.93 F3000.0
G01 X48.32 Y4.69 F3000.0
G01 X46.97 Y4.36 F3000.0
G01 X46.81 Y4.3 F3000.0
G01 X45.88 Y3.95 F3000.0
G01 X44.94 Y3.6 F3000.0
G01 X43.85 Y3.19 F3000.0
G01 X43.43 Y3.05 F3000.0
G01 X42.48 Y2.74 F3000.0
G01 X41.52 Y2.44 F3000.0
G01 X40.15 Y1.99 F3000.0
G01 F3000.0
G01 X39.19 Y1.7 F3000.0
G01 X38.24 Y1.4 F3000.0
G01 X37.28 Y1.11 F3000.0
G01 X36.33 Y0.81 F3000.0
G01 X35.37 Y0.52 F3000.0
G01 X35.04 Y0.44 F3000.0
G01 X33.74 Y0.15 F3000.0
G01 X33.4 Y0.12 F3000.0
G01 X32.06 Y0.03 F3000.0
G01 X32.04 F3000.0
G01 X31.02 Y0.09 F3000.0
G01 X30.82 Y0.13 F3000.0
G01 X30.89 Y0.18 F3000.0
G01 X31.31 Y0.29 F3000.0
G01 X32.29 Y0.52 F3000.0
G01 X33.26 Y0.76 F3000.0
G01 X34.23 Y0.99 F3000.0
G01 X35.63 Y1.33 F3000.0
G01 X35.74 Y1.36 F3000.0
G01 X36.69 Y1.65 F3000.0
G01 X37.76 Y1.98 F3000.0
G01 X38.05 Y2.07 F3000.0
G01 X40.9 Y3.01 F3000.0
G01 X42.13 Y3.42 F3000.0
G01 X42.5 Y3.54 F3000.0
G01 X43.45 Y3.85 F3000.0
G01 X45.35 Y4.48 F3000.0
G01 X46.66 Y4.92 F3000.0
G01 X47.21 Y5.19 F3000.0
G01 X47.51 Y5.53 F3000.0
G01 X47.56 Y5.89 F3000.0
G01 X47.76 Y7.24 F3000.0
G01 X47.78 Y7.59 F3000.0
G01 X47.84 Y8.94 F3000.0
G01 Y8.95 F3000.0
G01 X47.74 Y9.96 F3000.0
G01 X47.41 Y10.45 F3000.0
G01 X46.8 Y10.57 F3000.0
G01 X46.51 Y10.53 F3000.0
G01 X45.52 Y10.37 F3000.0
G01 X44.25 Y10.17 F3000.0
G01 X43.8 Y10.08 F3000.0
G01 X42.82 Y9.87 F3000.0
G01 X41.84 Y9.67 F3000.0
G01 X40.41 Y9.37 F3000.0
G01 X40.3 Y9.34 F3000.0
G01 X39.33 Y9.09 F3000.0
G01 X38.37 Y8.83 F3000.0
G01 X37.4 Y8.57 F3000.0
G01 X36.43 Y8.32 F3000.0
G01 X35.35 Y8.03 F3000.0
G01 X35.31 Y8.02 F3000.0
G01 X34.36 Y7.72 F3000.0
G01 X33.4 Y7.42 F3000.0
G01 X32.45 Y7.11 F3000.0
G01 X31.5 Y6.81 F3000.0
G01 X30.54 Y6.51 F3000.0
G01 X29.54 Y6.2 F3000.0
G01 X29.43 Y6.15 F3000.0
G01 X28.38 Y5.72 F3000.0
G01 X27.76 Y5.16 F3000.0
G01 X27.48 Y4.21 F3000.0
G01 X27.46 Y3.87 F3000.0
G01 X27.36 Y2.54 F3000.0
G01 Y2.53 F3000.0
G01 X27.28 Y1.53 F3000.0
G01 X27.2 Y0.52 F3000.0
G01 X27.06 Y0.11 F3000.0
G01 X26.87 Y-0.0 F3000.0
G01 X26.68 Y0.08 F3000.0
G01 X26.58 Y0.37 F3000.0
G01 X26.59 Y0.64 F3000.0
G01 X26.64 Y1.92 F3000.0
G01 Y1.95 F3000.0
G01 X26.69 Y2.95 F3000.0
G01 X26.74 Y3.98 F3000.0
G01 X26.61 Y4.68 F3000.0
G01 X26.27 Y5.25 F3000.0
G01 X25.66 Y5.79 F3000.0
G01 X25.61 Y5.82 F3000.0
G01 X24.7 Y6.36 F3000.0
G01 X24.45 Y6.48 F3000.0
G01 X23.55 Y6.92 F3000.0
G01 X22.65 Y7.36 F3000.0
G01 X21.49 Y7.92 F3000.0
G01 X21.12 Y8.08 F3000.0
G01 X20.21 Y8.49 F3000.0
G01 X19.29 Y8.9 F3000.0
G01 X18.38 Y9.3 F3000.0
G01 X17.47 Y9.71 F3000.0
G01 X16.55 Y10.12 F3000.0
G01 X15.64 Y10.52 F3000.0
G01 X14.35 Y11.1 F3000.0
G01 X14.21 Y11.15 F3000.0
G01 X12.35 Y11.89 F3000.0
G01 X11.27 Y12.32 F3000.0
G01 X10.63 Y12.52 F3000.0
G01 X10.28 Y12.51 F3000.0
G01 X10.13 Y11.76 F3000.0
G01 Y11.56 F3000.0
G01 X10.12 Y10.37 F3000.0
G01 X10.14 Y10.17 F3000.0
G01 X10.24 Y8.97 F3000.0
G01 X10.45 Y8.16 F3000.0
G01 X11.09 Y7.63 F3000.0
G01 X11.37 Y7.46 F3000.0
G01 X12.5 Y6.79 F3000.0
G01 X12.94 Y6.57 F3000.0
G01 X13.83 Y6.11 F3000.0
G01 X14.72 Y5.65 F3000.0
G01 X15.61 Y5.2 F3000.0
G01 X16.5 Y4.74 F3000.0
G01 X17.39 Y4.28 F3000.0
G01 X18.72 Y3.6 F3000.0
G01 X19.09 Y3.41 F3000.0
G01 X21.76 Y2.04 F3000.0
G01 X22.65 Y1.59 F3000.0
G01 X23.54 Y1.13 F3000.0
G01 X24.8 Y0.48 F3000.0
G01 X25.6 Y0.0 F3000.0
G01 X25.5 F3000.0
G01 X24.41 F3000.0
G01 X23.66 Y0.09 F3000.0
G01 X22.74 Y0.38 F3000.0
G01 X22.54 Y0.48 F3000.0
G01 X20.74 Y1.35 F3000.0
G01 X19.64 Y1.88 F3000.0
G01 F3000.0
M5
G00 X29.57 Y6.98 F3000.0
M3 F3000.0
G01 X29.92 Y7.08 F3000.0
G01 X30.88 Y7.37 F3000.0
G01 X31.84 Y7.66 F3000.0
G01 X33.14 Y8.05 F3000.0
G01 X33.27 Y8.09 F3000.0
G01 X34.24 Y8.35 F3000.0
G01 X35.2 Y8.61 F3000.0
G01 X36.17 Y8.87 F3000.0
G01 X37.13 Y9.14 F3000.0
G01 X38.1 Y9.4 F3000.0
G01 X39.2 Y9.7 F3000.0
G01 X39.52 Y9.77 F3000.0
G01 X40.49 Y10.0 F3000.0
G01 X41.47 Y10.22 F3000.0
G01 X42.44 Y10.45 F3000.0
G01 X43.42 Y10.67 F3000.0
G01 X44.71 Y10.97 F3000.0
G01 X44.86 Y11.02 F3000.0
G01 X45.96 Y11.36 F3000.0
G01 X45.51 Y11.76 F3000.0
G01 X45.32 Y11.86 F3000.0
G01 X44.25 Y12.42 F3000.0
G01 X43.85 Y12.57 F3000.0
G01 X42.51 Y13.08 F3000.0
G01 X42.33 F3000.0
G01 X41.15 F3000.0
G01 X40.67 Y12.97 F3000.0
G01 X39.22 Y12.64 F3000.0
G01 X38.79 Y12.51 F3000.0
G01 X37.83 Y12.23 F3000.0
G01 X36.88 Y11.95 F3000.0
G01 X35.49 Y11.54 F3000.0
G01 X35.21 Y11.49 F3000.0
G01 X34.22 Y11.32 F3000.0
G01 X33.24 Y11.14 F3000.0
G01 X31.98 Y10.92 F3000.0
G01 X31.6 Y10.93 F3000.0
G01 X30.6 Y10.96 F3000.0
G01 X29.23 Y11.0 F3000.0
G01 F3000.0
G01 X26.24 Y11.3 F3000.0
G01 X25.24 Y11.4 F3000.0
G01 X25.05 Y11.43 F3000.0
G01 X22.08 Y11.85 F3000.0
G01 X20.89 Y12.01 F3000.0
G01 X20.45 Y12.1 F3000.0
G01 X18.48 Y12.47 F3000.0
G01 X17.06 Y12.73 F3000.0
G01 X16.6 Y12.81 F3000.0
G01 X15.62 Y12.98 F3000.0
G01 X14.63 Y13.16 F3000.0
G01 X13.18 Y13.4 F3000.0
G01 F3000.0
G01 X12.18 Y13.38 F3000.0
G01 X11.92 Y13.28 F3000.0
G01 X11.84 Y13.11 F3000.0
G01 X12.3 Y12.76 F3000.0
G01 X12.41 Y12.71 F3000.0
G01 X13.43 Y12.25 F3000.0
G01 X13.56 Y12.2 F3000.0
G01 X14.48 Y11.82 F3000.0
G01 X15.54 Y11.39 F3000.0
G01 X15.71 Y11.32 F3000.0
G01 X16.63 Y10.91 F3000.0
G01 X17.54 Y10.5 F3000.0
G01 X18.45 Y10.1 F3000.0
G01 X19.37 Y9.69 F3000.0
G01 X20.28 Y9.29 F3000.0
G01 X21.36 Y8.8 F3000.0
G01 X21.7 Y8.66 F3000.0
G01 X22.62 Y8.27 F3000.0
G01 X23.54 Y7.87 F3000.0
G01 X24.8 Y7.33 F3000.0
G01 X24.96 Y7.28 F3000.0
G01 X26.06 Y6.87 F3000.0
G01 X26.13 Y6.86 F3000.0
G01 X27.18 Y6.67 F3000.0
G01 X27.24 F3000.0
G01 X28.3 Y6.71 F3000.0
G01 X28.45 Y6.74 F3000.0
G01 X29.57 Y6.98 F3000.0
G01 F3000.0
M5
G00 X29.7 Y12.1 F3000.0
M3 F3000.0
G01 X29.61 Y12.33 F3000.0
G01 X29.24 Y13.26 F3000.0
G01 X28.87 Y14.19 F3000.0
G01 X28.14 Y16.05 F3000.0
G01 X27.68 Y17.2 F3000.0
G01 X27.62 Y17.36 F3000.0
G01 X27.27 Y18.29 F3000.0
G01 X26.91 Y19.23 F3000.0
G01 X26.56 Y20.16 F3000.0
G01 X26.21 Y21.1 F3000.0
G01 X25.85 Y22.03 F3000.0
G01 X25.5 Y22.97 F3000.0
G01 X25.08 Y24.07 F3000.0
G01 Y24.08 F3000.0
G01 X24.77 Y25.03 F3000.0
G01 X24.47 Y25.98 F3000.0
G01 X24.16 Y26.95 F3000.0
G01 X24.12 Y27.13 F3000.0
G01 X23.87 Y28.09 F3000.0
G01 X23.57 Y29.24 F3000.0
G01 X23.47 Y29.62 F3000.0
G01 X22.97 Y31.55 F3000.0
G01 X22.72 Y32.52 F3000.0
G01 X22.37 Y33.87 F3000.0
G01 X22.32 Y34.06 F3000.0
G01 X22.08 Y35.03 F3000.0
G01 X21.59 Y36.97 F3000.0
G01 X21.35 Y37.94 F3000.0
G01 X20.87 Y39.88 F3000.0
G01 X20.62 Y40.85 F3000.0
G01 X20.38 Y41.82 F3000.0
G01 X20.14 Y42.79 F3000.0
G01 X19.85 Y43.96 F3000.0
G01 X19.8 Y44.18 F3000.0
G01 X19.6 Y45.16 F3000.0
G01 X19.4 Y46.14 F3000.0
G01 X19.2 Y47.12 F3000.0
G01 X18.95 Y48.33 F3000.0
G01 F3000.0
G01 X18.8 Y49.32 F3000.0
G01 X18.66 Y50.3 F3000.0
G01 X18.51 Y51.29 F3000.0
G01 X18.33 Y52.17 F3000.0
G01 X18.04 Y52.65 F3000.0
G01 X17.84 Y52.7 F3000.0
G01 X16.87 Y52.92 F3000.0
G01 X15.7 Y53.2 F3000.0
G01 X15.51 Y53.22 F3000.0
G01 X14.34 Y53.38 F3000.0
G01 X13.65 Y53.37 F3000.0
G01 X13.67 Y53.19 F3000.0
G01 X13.75 Y52.02 F3000.0
G01 X13.76 Y52.0 F3000.0
G01 X14.06 Y50.03 F3000.0
G01 X14.22 Y49.02 F3000.0
G01 Y49.0 F3000.0
G01 X14.39 Y48.01 F3000.0
G01 X14.56 Y47.02 F3000.0
G01 X14.73 Y46.04 F3000.0
G01 X14.9 Y45.05 F3000.0
G01 X15.24 Y43.08 F3000.0
G01 X15.41 Y42.07 F3000.0
G01 X15.47 Y41.81 F3000.0
G01 X15.9 Y39.86 F3000.0
G01 X16.11 Y38.88 F3000.0
G01 X16.55 Y36.93 F3000.0
G01 X16.82 Y35.7 F3000.0
G01 X16.91 Y35.36 F3000.0
G01 X17.16 Y34.39 F3000.0
G01 X17.42 Y33.43 F3000.0
G01 X17.93 Y31.5 F3000.0
G01 X18.19 Y30.53 F3000.0
G01 X18.7 Y28.6 F3000.0
G01 X19.05 Y27.29 F3000.0
G01 X19.11 Y27.11 F3000.0
G01 X19.39 Y26.15 F3000.0
G01 X19.68 Y25.19 F3000.0
G01 X19.96 Y24.24 F3000.0
G01 X20.25 Y23.28 F3000.0
G01 X20.53 Y22.32 F3000.0
G01 X20.82 Y21.36 F3000.0
G01 X21.1 Y20.4 F3000.0
G01 X21.44 Y19.26 F3000.0
G01 X21.54 Y19.0 F3000.0
G01 X22.21 Y17.11 F3000.0
G01 X22.54 Y16.17 F3000.0
G01 X22.88 Y15.23 F3000.0
G01 X23.31 Y14.02 F3000.0
G01 X23.37 Y13.88 F3000.0
G01 X23.85 Y12.83 F3000.0
G01 X24.09 Y12.79 F3000.0
G01 X25.08 Y12.62 F3000.0
G01 X26.31 Y12.4 F3000.0
G01 X26.72 Y12.34 F3000.0
G01 X27.71 Y12.18 F3000.0
G01 X29.11 Y11.96 F3000.0
G01 X29.58 Y11.97 F3000.0
G01 X29.7 Y12.1 F3000.0
G01 F3000.0
M5
G00 X33.52 Y16.44 F3000.0
M3 F3000.0
G01 X33.03 Y16.77 F3000.0
G01 X32.62 Y17.33 F3000.0
G01 X32.53 Y17.56 F3000.0
G01 X32.16 Y18.49 F3000.0
G01 X31.71 Y19.65 F3000.0
G01 X31.6 Y19.95 F3000.0
G01 X30.96 Y21.84 F3000.0
G01 X30.64 Y22.79 F3000.0
G01 X30.31 Y23.73 F3000.0
G01 X29.99 Y24.68 F3000.0
G01 X29.56 Y25.93 F3000.0
G01 X29.44 Y26.29 F3000.0
G01 X28.82 Y28.19 F3000.0
G01 X28.5 Y29.14 F3000.0
G01 X28.19 Y30.09 F3000.0
G01 X27.88 Y31.04 F3000.0
G01 X27.56 Y31.99 F3000.0
G01 X27.13 Y33.3 F3000.0
G01 X26.99 Y33.77 F3000.0
G01 X26.71 Y34.73 F3000.0
G01 X26.43 Y35.69 F3000.0
G01 X26.15 Y36.65 F3000.0
G01 X25.86 Y37.61 F3000.0
G01 X25.58 Y38.57 F3000.0
G01 X25.16 Y40.0 F3000.0
G01 X25.1 Y40.24 F3000.0
G01 X24.86 Y41.21 F3000.0
G01 X24.62 Y42.18 F3000.0
G01 X24.38 Y43.15 F3000.0
G01 X24.14 Y44.12 F3000.0
G01 X23.84 Y45.33 F3000.0
G01 X23.81 Y45.48 F3000.0
G01 X23.67 Y46.46 F3000.0
G01 X23.52 Y47.45 F3000.0
G01 X23.35 Y48.59 F3000.0
G01 X23.36 Y48.72 F3000.0
G01 X23.48 Y49.84 F3000.0
G01 X23.49 Y49.85 F3000.0
G01 X24.14 Y50.63 F3000.0
G01 X24.51 Y50.86 F3000.0
G01 X25.37 Y51.38 F3000.0
G01 X26.59 Y52.13 F3000.0
G01 X26.94 Y52.32 F3000.0
G01 X27.82 Y52.8 F3000.0
G01 X29.05 Y53.46 F3000.0
G01 X29.44 Y53.65 F3000.0
G01 X30.74 Y54.26 F3000.0
G01 X30.9 Y54.32 F3000.0
G01 X31.84 Y54.69 F3000.0
G01 X32.77 Y55.05 F3000.0
G01 X33.87 Y55.47 F3000.0
G01 X34.12 Y55.56 F3000.0
G01 X36.96 Y56.54 F3000.0
G01 X37.9 Y56.87 F3000.0
G01 X43.57 Y58.83 F3000.0
G01 X44.77 Y59.24 F3000.0
G01 X45.2 Y59.38 F3000.0
G01 X46.15 Y59.68 F3000.0
G01 X47.1 Y59.99 F3000.0
G01 X48.05 Y60.29 F3000.0
G01 X49.01 Y60.6 F3000.0
G01 X49.96 Y60.9 F3000.0
G01 X50.91 Y61.21 F3000.0
G01 X52.28 Y61.65 F3000.0
G01 X52.32 Y61.66 F3000.0
G01 X53.29 Y61.9 F3000.0
G01 X54.29 Y62.16 F3000.0
G01 X54.49 Y62.19 F3000.0
G01 X55.69 Y62.36 F3000.0
G01 X56.12 Y62.37 F3000.0
G01 X57.54 Y62.4 F3000.0
G01 X58.0 Y62.24 F3000.0
G01 X58.42 Y61.9 F3000.0
G01 X58.44 Y61.87 F3000.0
G01 X59.13 Y61.08 F3000.0
G01 X59.19 Y60.98 F3000.0
G01 X59.78 Y60.03 F3000.0
G01 X59.96 Y59.58 F3000.0
G01 X60.33 Y58.65 F3000.0
G01 X60.87 Y57.28 F3000.0
G01 X60.89 Y57.23 F3000.0
G01 X61.17 Y56.27 F3000.0
G01 X61.75 Y54.36 F3000.0
G01 X62.04 Y53.4 F3000.0
G01 X62.34 Y52.39 F3000.0
G01 X62.41 Y52.13 F3000.0
G01 X62.67 Y51.17 F3000.0
G01 X63.19 Y49.24 F3000.0
G01 X63.45 Y48.27 F3000.0
G01 X63.71 Y47.3 F3000.0
G01 X64.04 Y46.08 F3000.0
G01 X64.12 Y45.74 F3000.0
G01 X64.36 Y44.76 F3000.0
G01 X64.6 Y43.79 F3000.0
G01 X64.84 Y42.82 F3000.0
G01 X65.07 Y41.85 F3000.0
G01 X65.31 Y40.88 F3000.0
G01 X65.55 Y39.91 F3000.0
G01 X65.79 Y38.94 F3000.0
G01 X66.02 Y37.96 F3000.0
G01 X66.35 Y36.64 F3000.0
G01 X66.37 Y36.52 F3000.0
G01 X66.58 Y35.54 F3000.0
G01 X66.79 Y34.56 F3000.0
G01 X67.0 Y33.59 F3000.0
G01 X67.22 Y32.61 F3000.0
G01 X67.45 Y31.51 F3000.0
G01 X67.47 Y31.36 F3000.0
G01 X67.57 Y30.36 F3000.0
G01 X67.69 Y29.22 F3000.0
G01 X67.5 Y28.87 F3000.0
G01 X67.08 Y28.5 F3000.0
G01 X66.65 Y28.27 F3000.0
G01 X65.35 Y27.56 F3000.0
G01 X65.33 Y27.55 F3000.0
G01 X64.42 Y27.15 F3000.0
G01 X63.5 Y26.75 F3000.0
G01 X62.56 Y26.34 F3000.0
G01 X62.35 Y26.24 F3000.0
G01 X61.43 Y25.84 F3000.0
G01 X60.52 Y25.45 F3000.0
G01 X59.6 Y25.05 F3000.0
G01 X58.46 Y24.56 F3000.0
G01 X58.43 Y24.54 F3000.0
G01 X54.73 Y23.0 F3000.0
G01 X53.77 Y22.6 F3000.0
G01 X53.73 Y22.58 F3000.0
G01 X52.79 Y22.23 F3000.0
G01 X50.92 Y21.52 F3000.0
G01 X49.94 Y21.15 F3000.0
G01 X49.92 F3000.0
G01 X47.13 Y20.05 F3000.0
G01 X46.2 Y19.68 F3000.0
G01 X45.26 Y19.31 F3000.0
G01 X45.21 Y19.29 F3000.0
G01 X42.34 Y18.41 F3000.0
G01 X41.34 Y18.11 F3000.0
G01 X41.32 Y18.1 F3000.0
G01 X40.36 Y17.81 F3000.0
G01 X39.4 Y17.52 F3000.0
G01 X37.49 Y16.95 F3000.0
G01 X36.51 Y16.66 F3000.0
G01 X36.08 Y16.55 F3000.0
G01 X34.69 Y16.19 F3000.0
G01 X34.09 Y16.23 F3000.0
G01 X33.52 Y16.44 F3000.0
G01 F3000.0
M5
G00 X37. Y12.85 F3000.0
M3 F3000.0
G01 X37.23 Y12.92 F3000.0
G01 X38.19 Y13.22 F3000.0
G01 X39.14 Y13.53 F3000.0
G01 X40.09 Y13.83 F3000.0
G01 X41.05 Y14.13 F3000.0
G01 X42.0 Y14.43 F3000.0
G01 X43.19 Y14.81 F3000.0
G01 X43.35 Y14.87 F3000.0
G01 X45.23 Y15.57 F3000.0
G01 X46.16 Y15.92 F3000.0
G01 X47.1 Y16.27 F3000.0
G01 X48.03 Y16.62 F3000.0
G01 X48.97 Y16.97 F3000.0
G01 X50.07 Y17.38 F3000.0
G01 X50.14 Y17.41 F3000.0
G01 X51.07 Y17.79 F3000.0
G01 X52.0 Y18.17 F3000.0
G01 X52.92 Y18.54 F3000.0
G01 X53.85 Y18.92 F3000.0
G01 X54.77 Y19.3 F3000.0
G01 X55.7 Y19.67 F3000.0
G01 X56.7 Y20.08 F3000.0
G01 X56.73 Y20.09 F3000.0
G01 X58.6 Y20.8 F3000.0
G01 X59.54 Y21.15 F3000.0
G01 X61.41 Y21.86 F3000.0
G01 X62.37 Y22.22 F3000.0
G01 X62.58 Y22.3 F3000.0
G01 X64.44 Y23.03 F3000.0
G01 X65.37 Y23.39 F3000.0
G01 X67.23 Y24.12 F3000.0
G01 X68.37 Y24.57 F3000.0
G01 X68.72 Y24.75 F3000.0
G01 X69.97 Y25.38 F3000.0
G01 F3000.0
G01 X70.77 Y26.01 F3000.0
G01 X71.07 Y26.81 F3000.0
G01 X71.09 Y26.95 F3000.0
G01 X71.22 Y28.08 F3000.0
G01 Y28.34 F3000.0
G01 X71.19 Y29.59 F3000.0
G01 X71.16 Y29.84 F3000.0
G01 X70.99 Y31.09 F3000.0
G01 X70.88 Y31.57 F3000.0
G01 X70.66 Y32.55 F3000.0
G01 X70.44 Y33.52 F3000.0
G01 X69.99 Y35.47 F3000.0
G01 X69.77 Y36.45 F3000.0
G01 X69.55 Y37.42 F3000.0
G01 X69.33 Y38.4 F3000.0
G01 X68.88 Y40.35 F3000.0
G01 X68.66 Y41.32 F3000.0
G01 X68.44 Y42.3 F3000.0
G01 X68.11 Y43.75 F3000.0
G01 X68.1 Y43.76 F3000.0
G01 X67.59 Y45.7 F3000.0
G01 X67.34 Y46.67 F3000.0
G01 X66.57 Y49.57 F3000.0
G01 X66.32 Y50.53 F3000.0
G01 X65.81 Y52.47 F3000.0
G01 X65.55 Y53.45 F3000.0
G01 X65.51 Y53.57 F3000.0
G01 X65.21 Y54.52 F3000.0
G01 X64.9 Y55.47 F3000.0
G01 X64.6 Y56.42 F3000.0
G01 X63.99 Y58.33 F3000.0
G01 X63.68 Y59.28 F3000.0
G01 X63.34 Y60.36 F3000.0
G01 X63.27 Y60.55 F3000.0
G01 X62.6 Y62.44 F3000.0
G01 X62.27 Y63.38 F3000.0
G01 X61.87 Y64.52 F3000.0
G01 X61.8 Y64.68 F3000.0
G01 X61.37 Y65.59 F3000.0
G01 X60.87 Y66.66 F3000.0
G01 X60.46 Y67.2 F3000.0
G01 X60.06 Y67.51 F3000.0
G01 X59.36 Y67.69 F3000.0
G01 X59.33 Y67.68 F3000.0
G01 X58.3 Y67.67 F3000.0
G01 X58.17 Y67.65 F3000.0
G01 X57.19 Y67.46 F3000.0
G01 X56.2 Y67.27 F3000.0
G01 X55.09 Y67.06 F3000.0
G01 X54.69 Y66.94 F3000.0
G01 X53.73 Y66.65 F3000.0
G01 X51.81 Y66.08 F3000.0
G01 X50.45 Y65.67 F3000.0
G01 X50.24 Y65.6 F3000.0
G01 X49.3 Y65.26 F3000.0
G01 X48.36 Y64.93 F3000.0
G01 X46.48 Y64.26 F3000.0
G01 X45.53 Y63.92 F3000.0
G01 X44.38 Y63.51 F3000.0
G01 X44.28 Y63.48 F3000.0
G01 X40.52 Y62.11 F3000.0
G01 X39.49 Y61.74 F3000.0
G01 F3000.0
G01 X37.63 Y60.98 F3000.0
G01 X36.71 Y60.6 F3000.0
G01 X35.78 Y60.23 F3000.0
G01 X34.86 Y59.85 F3000.0
G01 X33.93 Y59.47 F3000.0
G01 X33.53 Y59.3 F3000.0
G01 X32.62 Y58.9 F3000.0
G01 X31.7 Y58.5 F3000.0
G01 X30.78 Y58.09 F3000.0
G01 X29.87 Y57.69 F3000.0
G01 X28.95 Y57.29 F3000.0
G01 X27.64 Y56.72 F3000.0
G01 X27.34 Y56.58 F3000.0
G01 X25.53 Y55.73 F3000.0
G01 X24.63 Y55.3 F3000.0
G01 X23.72 Y54.88 F3000.0
G01 X22.52 Y54.32 F3000.0
G01 X22.49 Y54.3 F3000.0
G01 X21.62 Y53.82 F3000.0
G01 X20.71 Y53.31 F3000.0
G01 X20.64 Y53.27 F3000.0
G01 X19.76 Y52.64 F3000.0
G01 X19.52 Y52.3 F3000.0
G01 X19.42 Y51.87 F3000.0
G01 X19.46 Y51.46 F3000.0
G01 X19.59 Y50.06 F3000.0
G01 X19.66 Y49.69 F3000.0
G01 X19.85 Y48.71 F3000.0
G01 X20.05 Y47.73 F3000.0
G01 X20.24 Y46.75 F3000.0
G01 X20.5 Y45.39 F3000.0
G01 X20.58 Y45.1 F3000.0
G01 X20.82 Y44.13 F3000.0
G01 X21.06 Y43.16 F3000.0
G01 X21.3 Y42.19 F3000.0
G01 X21.54 Y41.22 F3000.0
G01 X21.79 Y40.25 F3000.0
G01 X22.03 Y39.28 F3000.0
G01 X22.27 Y38.31 F3000.0
G01 X22.58 Y37.04 F3000.0
G01 X22.71 Y36.58 F3000.0
G01 X22.97 Y35.62 F3000.0
G01 X23.24 Y34.66 F3000.0
G01 X23.5 Y33.69 F3000.0
G01 X23.77 Y32.73 F3000.0
G01 X24.04 Y31.76 F3000.0
G01 X24.3 Y30.8 F3000.0
G01 X24.57 Y29.84 F3000.0
G01 X25.1 Y27.91 F3000.0
G01 X25.49 Y26.49 F3000.0
G01 X25.64 Y26.02 F3000.0
G01 X25.96 Y25.07 F3000.0
G01 X26.27 Y24.12 F3000.0
G01 X26.58 Y23.17 F3000.0
G01 X26.89 Y22.22 F3000.0
G01 X27.21 Y21.27 F3000.0
G01 X27.52 Y20.32 F3000.0
G01 X27.99 Y18.9 F3000.0
G01 X28.16 Y18.46 F3000.0
G01 X28.54 Y17.54 F3000.0
G01 X29.09 Y16.18 F3000.0
G01 X29.15 Y16.06 F3000.0
G01 X29.61 Y15.17 F3000.0
G01 X30.12 Y14.16 F3000.0
G01 X30.3 Y13.9 F3000.0
G01 X31.05 Y12.83 F3000.0
G01 X31.09 Y12.8 F3000.0
G01 X31.92 Y12.17 F3000.0
G01 X32.58 Y12.05 F3000.0
G01 X33.57 Y12.11 F3000.0
G01 X33.82 Y12.16 F3000.0
G01 X35.78 Y12.58 F3000.0
G01 X37.0 Y12.85 F3000.0
G01 F3000.0
M5
G00 X49.64 Y8.29 F3000.0
M3 F3000.0
G01 Y8.31 F3000.0
G01 X49.58 Y9.31 F3000.0
G01 X49.52 Y10.33 F3000.0
G01 X49.49 Y10.49 F3000.0
G01 X49.28 Y11.64 F3000.0
G01 X49.27 Y11.65 F3000.0
G01 X48.63 Y12.45 F3000.0
G01 X48.46 Y12.58 F3000.0
G01 X47.49 Y13.32 F3000.0
G01 X47.3 Y13.42 F3000.0
G01 X46.23 Y14.01 F3000.0
G01 X46.2 F3000.0
G01 X45.21 Y14.29 F3000.0
G01 X44.66 Y14.22 F3000.0
G01 X44.59 Y13.99 F3000.0
G01 X44.85 Y13.79 F3000.0
G01 X45.9 Y12.97 F3000.0
G01 X46.29 Y12.71 F3000.0
G01 X47.51 Y11.89 F3000.0
G01 X47.59 Y11.82 F3000.0
G01 X48.36 Y11.02 F3000.0
G01 X48.38 Y10.97 F3000.0
G01 X48.69 Y9.97 F3000.0
G01 X48.7 Y9.65 F3000.0
G01 X48.75 Y8.33 F3000.0
G01 X48.76 Y8.17 F3000.0
G01 X48.81 Y7.17 F3000.0
G01 X48.87 Y6.01 F3000.0
G01 X49.07 Y5.64 F3000.0
G01 X49.39 F3000.0
G01 X49.59 Y6.39 F3000.0
G01 X49.6 Y6.84 F3000.0
G01 X49.64 Y8.29 F3000.0
G01 F3000.0
M5
G00 X53.11 Y6.75 F3000.0
M3 F3000.0
G01 X53.33 Y6.8 F3000.0
G01 X54.31 Y7.02 F3000.0
G01 X55.29 Y7.24 F3000.0
G01 X56.26 Y7.45 F3000.0
G01 X57.46 Y7.72 F3000.0
G01 X57.78 Y7.81 F3000.0
G01 X58.74 Y8.07 F3000.0
G01 X59.71 Y8.33 F3000.0
G01 X60.67 Y8.59 F3000.0
G01 X61.96 Y8.93 F3000.0
G01 X62.37 Y9.07 F3000.0
G01 X63.32 Y9.37 F3000.0
G01 X64.27 Y9.68 F3000.0
G01 X65.64 Y10.11 F3000.0
G01 X65.67 Y10.13 F3000.0
G01 X66.58 Y10.54 F3000.0
G01 X67.52 Y10.96 F3000.0
G01 X67.75 Y11.25 F3000.0
G01 X67.83 Y11.66 F3000.0
G01 X67.79 Y12.14 F3000.0
G01 X67.63 Y13.6 F3000.0
G01 X67.54 Y14.02 F3000.0
G01 X67.32 Y14.99 F3000.0
G01 X67.01 Y16.39 F3000.0
G01 X66.58 Y16.79 F3000.0
G01 X65.86 Y16.92 F3000.0
G01 X65.84 F3000.0
G01 X64.83 Y16.8 F3000.0
G01 X64.64 Y16.74 F3000.0
G01 X63.5 Y16.4 F3000.0
G01 X63.49 F3000.0
G01 X62.53 Y16.14 F3000.0
G01 X61.56 Y15.87 F3000.0
G01 X61.37 Y15.82 F3000.0
G01 X60.4 Y15.56 F3000.0
G01 X59.24 Y15.24 F3000.0
G01 X59.23 F3000.0
G01 X58.27 Y14.94 F3000.0
G01 X57.32 Y14.65 F3000.0
G01 X56.36 Y14.36 F3000.0
G01 X55.41 Y14.07 F3000.0
G01 X54.44 Y13.77 F3000.0
G01 X54.02 Y13.63 F3000.0
G01 X53.08 Y13.32 F3000.0
G01 X52.13 Y13.0 F3000.0
G01 X50.77 Y12.54 F3000.0
G01 X50.05 Y12.09 F3000.0
G01 X49.94 Y11.67 F3000.0
G01 X49.97 Y11.4 F3000.0
G01 X50.09 Y10.41 F3000.0
G01 X50.24 Y9.14 F3000.0
G01 X50.25 Y9.0 F3000.0
G01 X50.35 Y8.0 F3000.0
G01 X50.46 Y6.87 F3000.0
G01 X50.6 Y6.46 F3000.0
G01 X50.79 Y6.35 F3000.0
G01 X50.97 Y6.38 F3000.0
G01 X51.95 Y6.55 F3000.0
G01 X53.11 Y6.75 F3000.0
G01 F3000.0
M5
G00 X51.67 Y13.65 F3000.0
M3 F3000.0
G01 X51.71 Y13.66 F3000.0
G01 X52.66 Y13.96 F3000.0
G01 X53.61 Y14.27 F3000.0
G01 X55.52 Y14.88 F3000.0
G01 X56.47 Y15.18 F3000.0
G01 X57.46 Y15.5 F3000.0
G01 X57.73 Y15.57 F3000.0
G01 X58.69 Y15.85 F3000.0
G01 X59.65 Y16.12 F3000.0
G01 X60.61 Y16.4 F3000.0
G01 X61.58 Y16.67 F3000.0
G01 X62.54 Y16.95 F3000.0
G01 X63.77 Y17.3 F3000.0
G01 X64.07 Y17.39 F3000.0
G01 X65.32 Y17.77 F3000.0
G01 X65.97 Y18.1 F3000.0
G01 X65.62 Y18.42 F3000.0
G01 X65.61 F3000.0
G01 X64.68 Y18.83 F3000.0
G01 X64.62 Y18.85 F3000.0
G01 X63.66 Y19.12 F3000.0
G01 X62.7 Y19.4 F3000.0
G01 X61.68 Y19.7 F3000.0
G01 X61.26 Y19.8 F3000.0
G01 X59.86 Y20.11 F3000.0
G01 X59.7 Y20.06 F3000.0
G01 X58.77 Y19.71 F3000.0
G01 X57.68 Y19.3 F3000.0
G01 X57.46 Y19.22 F3000.0
G01 X56.53 Y18.86 F3000.0
G01 X55.59 Y18.5 F3000.0
G01 X54.66 Y18.15 F3000.0
G01 X53.51 Y17.71 F3000.0
G01 X53.27 Y17.61 F3000.0
G01 X52.34 Y17.25 F3000.0
G01 X51.4 Y16.89 F3000.0
G01 X50.47 Y16.53 F3000.0
G01 X49.3 Y16.08 F3000.0
G01 X48.96 Y15.93 F3000.0
G01 X47.7 Y15.39 F3000.0
G01 X46.99 Y14.95 F3000.0
G01 X47.27 Y14.51 F3000.0
G01 X48.02 Y13.85 F3000.0
G01 X48.03 Y13.83 F3000.0
G01 X48.86 Y13.24 F3000.0
G01 X49.46 Y12.97 F3000.0
G01 X49.61 Y13.01 F3000.0
G01 X50.57 Y13.31 F3000.0
G01 X51.67 Y13.65 F3000.0
G01 F3000.0
M5
G00 X43.6 Y33.96 F3000.0
M3 F3000.0
G01 X43.93 Y34.11 F3000.0
G01 X45.18 Y34.65 F3000.0
G01 X45.3 Y34.7 F3000.0
G01 X46.23 Y35.06 F3000.0
G01 X47.29 Y35.46 F3000.0
G01 X47.46 Y35.53 F3000.0
G01 X50.22 Y36.7 F3000.0
G01 X51.15 Y37.09 F3000.0
G01 X52.23 Y37.55 F3000.0
G01 X53.03 Y37.88 F3000.0
G01 X53.52 Y38.24 F3000.0
G01 X53.68 Y38.63 F3000.0
G01 X53.51 Y39.03 F3000.0
G01 X53.2 Y39.26 F3000.0
G01 X52.76 Y39.28 F3000.0
G01 X52.34 Y39.13 F3000.0
G01 X51.0 Y38.62 F3000.0
G01 X50.84 Y38.55 F3000.0
G01 X49.0 Y37.77 F3000.0
G01 X48.08 Y37.39 F3000.0
G01 X47.16 Y37.0 F3000.0
G01 X46.08 Y36.54 F3000.0
G01 X46.02 Y36.51 F3000.0
G01 X45.09 Y36.13 F3000.0
G01 X44.11 Y35.71 F3000.0
G01 X43.9 Y35.63 F3000.0
G01 X42.77 Y35.19 F3000.0
G01 X42.5 Y35.08 F3000.0
G01 X42.31 Y34.79 F3000.0
G01 X42.24 Y34.4 F3000.0
G01 X42.3 Y34.0 F3000.0
G01 X42.49 Y33.72 F3000.0
G01 X42.77 Y33.62 F3000.0
G01 X43.6 Y33.96 F3000.0
G01 F3000.0
M5
G00 X38.22 Y38.55 F3000.0
M3 F3000.0
G01 X38.73 Y39.21 F3000.0
G01 X38.94 Y39.91 F3000.0
G01 X38.83 Y40.64 F3000.0
G01 X38.41 Y41.37 F3000.0
G01 X37.88 Y41.83 F3000.0
G01 X37.24 Y42.05 F3000.0
G01 X36.62 Y42.03 F3000.0
G01 X36.1 Y41.75 F3000.0
G01 X35.88 Y41.16 F3000.0
G01 X35.78 Y40.19 F3000.0
G01 X35.79 Y40.12 F3000.0
G01 X35.92 Y39.07 F3000.0
G01 X36.51 Y38.39 F3000.0
G01 X37.04 Y38.01 F3000.0
G01 X37.38 Y37.9 F3000.0
G01 X37.71 Y38.07 F3000.0
G01 X38.22 Y38.55 F3000.0
G01 F3000.0
M5
G00 X55.1 Y46.5 F3000.0
M3 F3000.0
G01 X54.98 Y47.29 F3000.0
G01 X54.66 Y47.89 F3000.0
G01 X54.16 Y48.28 F3000.0
G01 X53.51 Y48.42 F3000.0
G01 X52.82 Y48.27 F3000.0
G01 X52.32 Y47.87 F3000.0
G01 X52.02 Y47.24 F3000.0
G01 X51.97 Y46.41 F3000.0
G01 X52.2 Y45.53 F3000.0
G01 X52.85 Y44.97 F3000.0
G01 X53.63 Y44.66 F3000.0
G01 X54.37 Y45.03 F3000.0
G01 X54.95 Y45.64 F3000.0
G01 X55.1 Y46.5 F3000.0
G01 F3000.0
M5
G00 X19.23 Y53.94 F3000.0
M3 F3000.0
G01 X19.38 Y54.02 F3000.0
G01 X20.27 Y54.49 F3000.0
G01 X22.93 Y55.88 F3000.0
G01 X23.81 Y56.34 F3000.0
G01 X24.86 Y56.89 F3000.0
G01 X24.98 Y56.95 F3000.0
G01 X25.89 Y57.37 F3000.0
G01 X26.79 Y57.8 F3000.0
G01 X27.7 Y58.22 F3000.0
G01 X28.6 Y58.65 F3000.0
G01 X29.51 Y59.07 F3000.0
G01 X30.41 Y59.5 F3000.0
G01 X31.32 Y59.92 F3000.0
G01 X32.34 Y60.41 F3000.0
G01 X32.56 Y60.5 F3000.0
G01 X33.48 Y60.89 F3000.0
G01 X34.39 Y61.29 F3000.0
G01 X35.31 Y61.68 F3000.0
G01 X36.45 Y62.17 F3000.0
G01 X36.55 Y62.21 F3000.0
G01 X40.24 Y63.74 F3000.0
G01 X41.27 Y64.17 F3000.0
G01 X41.45 Y64.23 F3000.0
G01 X42.39 Y64.56 F3000.0
G01 X43.34 Y64.89 F3000.0
G01 X44.28 Y65.22 F3000.0
G01 X45.22 Y65.55 F3000.0
G01 X46.17 Y65.89 F3000.0
G01 X47.29 Y66.28 F3000.0
G01 X47.32 Y66.29 F3000.0
G01 X48.26 Y66.63 F3000.0
G01 X49.2 Y66.96 F3000.0
G01 X50.17 Y67.31 F3000.0
G01 X50.95 Y67.65 F3000.0
G01 X51.13 Y67.81 F3000.0
G01 X50.77 Y67.84 F3000.0
G01 X48.78 Y68.0 F3000.0
G01 X47.42 Y68.1 F3000.0
G01 X47.36 Y68.11 F3000.0
G01 X45.36 Y68.12 F3000.0
G01 X44.29 Y68.13 F3000.0
G01 X44.06 Y68.08 F3000.0
G01 X43.08 Y67.87 F3000.0
G01 X41.87 Y67.61 F3000.0
G01 X41.74 Y67.57 F3000.0
G01 X40.79 Y67.27 F3000.0
G01 X39.84 Y66.98 F3000.0
G01 X38.88 Y66.68 F3000.0
G01 X37.8 Y66.34 F3000.0
G01 X37.67 Y66.29 F3000.0
G01 X36.74 Y65.93 F3000.0
G01 X34.87 Y65.23 F3000.0
G01 X33.8 Y64.82 F3000.0
G01 X33.51 Y64.69 F3000.0
G01 X32.59 Y64.29 F3000.0
G01 X31.68 Y63.88 F3000.0
G01 X30.76 Y63.48 F3000.0
G01 X29.55 Y62.94 F3000.0
G01 X29.37 Y62.85 F3000.0
G01 X28.47 Y62.41 F3000.0
G01 X27.58 Y61.96 F3000.0
G01 X25.78 Y61.08 F3000.0
G01 X24.7 Y60.55 F3000.0
G01 X24.52 Y60.45 F3000.0
G01 X23.64 Y59.98 F3000.0
G01 X22.75 Y59.51 F3000.0
G01 X21.87 Y59.04 F3000.0
G01 X20.99 Y58.58 F3000.0
G01 X19.92 Y58.01 F3000.0
G01 X19.58 Y57.81 F3000.0
G01 X18.72 Y57.31 F3000.0
G01 X17.85 Y56.81 F3000.0
G01 X16.13 Y55.8 F3000.0
G01 X14.93 Y55.1 F3000.0
G01 X14.52 Y54.78 F3000.0
G01 X14.56 Y54.54 F3000.0
G01 X14.88 Y54.45 F3000.0
G01 X16.16 Y54.07 F3000.0
G01 X16.26 Y54.06 F3000.0
G01 X17.25 Y53.92 F3000.0
G01 X18.35 Y53.76 F3000.0
G01 X18.94 Y53.79 F3000.0
G01 X19.23 Y53.94 F3000.0
G01 F3000.0
M5
G00 X13.14 Y54.99 F3000.0
M3 F3000.0
G01 X13.18 Y55.02 F3000.0
G01 X14.85 Y56.13 F3000.0
G01 X15.71 Y56.71 F3000.0
G01 X15.77 Y56.74 F3000.0
G01 X17.51 Y57.73 F3000.0
G01 X18.38 Y58.22 F3000.0
G01 X19.25 Y58.71 F3000.0
G01 X20.17 Y59.23 F3000.0
G01 X20.55 Y59.43 F3000.0
G01 X21.43 Y59.89 F3000.0
G01 X22.32 Y60.35 F3000.0
G01 X23.21 Y60.81 F3000.0
G01 X24.1 Y61.27 F3000.0
G01 X25.36 Y61.92 F3000.0
G01 X25.46 Y61.97 F3000.0
G01 X26.37 Y62.4 F3000.0
G01 X27.27 Y62.82 F3000.0
G01 X28.18 Y63.25 F3000.0
G01 X29.08 Y63.67 F3000.0
G01 X30.09 Y64.15 F3000.0
G01 X30.18 Y64.19 F3000.0
G01 X33.85 Y65.78 F3000.0
G01 X34.86 Y66.22 F3000.0
G01 X35.27 Y66.38 F3000.0
G01 X37.14 Y67.11 F3000.0
G01 X38.48 Y67.64 F3000.0
G01 X38.63 Y67.69 F3000.0
G01 X39.71 Y68.1 F3000.0
G01 X39.8 Y68.28 F3000.0
G01 X39.52 Y68.43 F3000.0
G01 X39.1 Y68.49 F3000.0
G01 X37.7 Y68.69 F3000.0
G01 X37.35 Y68.71 F3000.0
G01 X36.35 Y68.78 F3000.0
G01 X35.35 Y68.85 F3000.0
G01 X34.01 Y68.95 F3000.0
G01 X33.67 F3000.0
G01 X32.67 Y68.97 F3000.0
G01 X31.35 Y68.99 F3000.0
G01 X31.14 Y68.97 F3000.0
G01 X30.15 Y68.89 F3000.0
G01 X28.95 Y68.78 F3000.0
G01 X28.81 Y68.75 F3000.0
G01 X27.83 Y68.54 F3000.0
G01 X26.72 Y68.3 F3000.0
G01 X26.59 Y68.26 F3000.0
G01 X25.64 Y67.92 F3000.0
G01 X24.57 Y67.54 F3000.0
G01 X24.5 Y67.51 F3000.0
G01 X23.57 Y67.15 F3000.0
G01 X22.64 Y66.78 F3000.0
G01 X21.71 Y66.41 F3000.0
G01 X20.7 Y66.02 F3000.0
G01 X20.34 Y65.87 F3000.0
G01 X17.55 Y64.77 F3000.0
G01 X16.25 Y64.26 F3000.0
G01 X15.93 Y64.11 F3000.0
G01 X14.13 Y63.25 F3000.0
G01 X13.22 Y62.82 F3000.0
G01 X12.0 Y62.24 F3000.0
G01 X11.74 Y62.1 F3000.0
G01 X9.13 Y60.62 F3000.0
G01 X8.01 Y59.99 F3000.0
G01 X7.83 Y59.88 F3000.0
G01 X7.0 Y59.32 F3000.0
G01 X5.34 Y58.21 F3000.0
G01 X4.33 Y57.54 F3000.0
G01 X4.04 Y57.3 F3000.0
G01 X3.26 Y56.67 F3000.0
G01 X2.18 Y55.81 F3000.0
G01 X2.38 Y55.79 F3000.0
G01 X3.37 Y55.68 F3000.0
G01 X4.37 Y55.58 F3000.0
G01 X5.55 Y55.46 F3000.0
G01 X5.87 Y55.43 F3000.0
G01 X7.86 Y55.25 F3000.0
G01 X9.17 Y55.13 F3000.0
G01 X9.35 Y55.1 F3000.0
G01 X11.32 Y54.74 F3000.0
G01 X12.48 Y54.53 F3000.0
G01 X13.14 Y54.99 F3000.0
G01 F3000.0
M5
G00 X22.08 Y13.23 F3000.0
M3 F3000.0
G01 X22.23 Y13.54 F3000.0
G01 X22.18 Y14.31 F3000.0
G01 Y14.32 F3000.0
G01 X21.92 Y15.28 F3000.0
G01 X21.65 Y16.25 F3000.0
G01 X21.59 Y16.43 F3000.0
G01 X21.29 Y17.38 F3000.0
G01 X20.98 Y18.33 F3000.0
G01 X20.67 Y19.28 F3000.0
G01 X20.36 Y20.23 F3000.0
G01 X20.06 Y21.19 F3000.0
G01 X19.75 Y22.14 F3000.0
G01 X19.44 Y23.09 F3000.0
G01 X19.14 Y24.04 F3000.0
G01 X18.83 Y24.99 F3000.0
G01 X18.52 Y25.94 F3000.0
G01 X18.21 Y26.89 F3000.0
G01 X17.9 Y27.85 F3000.0
G01 X17.54 Y28.97 F3000.0
G01 X17.44 Y29.42 F3000.0
G01 X16.76 Y32.34 F3000.0
G01 X16.53 Y33.31 F3000.0
G01 X15.63 Y37.21 F3000.0
G01 X15.3 Y38.63 F3000.0
G01 X15.21 Y39.04 F3000.0
G01 X15.01 Y40.02 F3000.0
G01 X14.81 Y41.0 F3000.0
G01 X14.61 Y41.98 F3000.0
G01 X14.4 Y42.95 F3000.0
G01 X14.2 Y43.93 F3000.0
G01 X14.0 Y44.91 F3000.0
G01 X13.71 Y46.3 F3000.0
G01 X13.67 Y46.52 F3000.0
G01 X13.48 Y47.5 F3000.0
G01 X13.29 Y48.48 F3000.0
G01 X13.11 Y49.47 F3000.0
G01 X12.88 Y50.67 F3000.0
G01 X12.87 Y50.68 F3000.0
G01 X12.7 Y51.66 F3000.0
G01 X12.53 Y52.65 F3000.0
G01 X12.35 Y53.64 F3000.0
G01 X11.87 Y53.9 F3000.0
G01 X11.79 Y53.91 F3000.0
G01 X10.72 Y54.03 F3000.0
G01 X10.61 F3000.0
G01 X9.61 Y54.02 F3000.0
G01 X6.61 Y54.01 F3000.0
G01 X5.49 Y54.0 F3000.0
G01 X5.04 Y53.98 F3000.0
G01 X4.04 Y53.93 F3000.0
G01 X3.04 Y53.88 F3000.0
G01 X1.59 Y53.8 F3000.0
G01 X1.26 Y53.49 F3000.0
G01 X1.14 Y52.74 F3000.0
G01 X1.15 Y52.66 F3000.0
G01 X1.4 Y50.68 F3000.0
G01 X1.53 Y49.61 F3000.0
G01 X1.54 Y49.52 F3000.0
G01 X1.71 Y48.54 F3000.0
G01 X1.88 Y47.55 F3000.0
G01 X2.05 Y46.57 F3000.0
G01 X2.39 Y44.59 F3000.0
G01 X2.57 Y43.52 F3000.0
G01 X2.58 Y43.45 F3000.0
G01 X2.77 Y42.46 F3000.0
G01 X2.96 Y41.48 F3000.0
G01 X3.33 Y39.52 F3000.0
G01 X3.51 Y38.53 F3000.0
G01 X3.7 Y37.55 F3000.0
G01 X3.9 Y36.49 F3000.0
G01 X3.92 Y36.42 F3000.0
G01 X4.15 Y35.45 F3000.0
G01 X4.39 Y34.48 F3000.0
G01 X4.87 Y32.53 F3000.0
G01 X5.11 Y31.56 F3000.0
G01 X5.59 Y29.62 F3000.0
G01 X5.84 Y28.57 F3000.0
G01 X5.96 Y28.15 F3000.0
G01 X6.47 Y26.22 F3000.0
G01 X6.74 Y25.25 F3000.0
G01 X6.99 Y24.29 F3000.0
G01 X7.25 Y23.32 F3000.0
G01 X7.63 Y21.93 F3000.0
G01 X7.75 Y21.53 F3000.0
G01 X8.05 Y20.58 F3000.0
G01 X8.35 Y19.62 F3000.0
G01 X8.77 Y18.27 F3000.0
G01 X8.8 Y18.21 F3000.0
G01 X9.23 Y17.23 F3000.0
G01 X9.69 Y16.53 F3000.0
G01 X9.86 Y16.4 F3000.0
G01 X10.8 Y15.63 F3000.0
G01 X10.98 Y15.55 F3000.0
G01 X11.91 Y15.16 F3000.0
G01 X13.02 Y14.7 F3000.0
G01 X13.2 Y14.65 F3000.0
G01 X14.16 Y14.39 F3000.0
G01 X15.12 Y14.12 F3000.0
G01 X16.27 Y13.81 F3000.0
G01 X16.38 Y13.79 F3000.0
G01 X17.36 Y13.6 F3000.0
G01 X18.35 Y13.41 F3000.0
G01 X19.44 Y13.2 F3000.0
G01 X19.55 Y13.19 F3000.0
G01 X20.66 Y13.08 F3000.0
G01 X21.45 Y13.13 F3000.0
G01 X22.08 Y13.23 F3000.0
G01 F3000.0
M5
;END perimeter

G00 X0 Y0

M5 ;Deactivate laser and set power to 0 (CUSTOM)
G1 X0 Y0
M2 ;End of program
