
;Inkscape Lasertools G-code
;https://github.com/ChrisWag91/Inkscape-Lasertools-Plugin

G90	;Absolute programming
G21	;Programming in millimeters (mm)
M5
M03 S1 ;Activate laser and set power to 0 (CUSTOM)

; START perimeter strategy
G01 F3000.0
M5
G00 X0. Y2.82 F3000.0
M3 F3000.0
G01 Y3.23 F3000.0
G01 Y4.23 F3000.0
G01 Y5.63 F3000.0
G01 X0.45 Y6.34 F3000.0
G01 X0.97 Y7.13 F3000.0
G01 X1.07 Y7.26 F3000.0
G01 X1.68 Y8.05 F3000.0
G01 X2.29 Y8.84 F3000.0
G01 X3.0 Y9.77 F3000.0
G01 X3.17 Y9.96 F3000.0
G01 X3.82 Y10.72 F3000.0
G01 X4.47 Y11.48 F3000.0
G01 X5.3 Y12.43 F3000.0
G01 X5.34 Y12.48 F3000.0
G01 X6.04 Y13.29 F3000.0
G01 X6.67 Y13.9 F3000.0
G01 X7.39 Y14.4 F3000.0
G01 X8.08 Y14.71 F3000.0
G01 X8.64 Y14.77 F3000.0
G01 X9.01 Y14.82 F3000.0
G01 X9.48 Y15.16 F3000.0
G01 X9.58 Y15.22 F3000.0
G01 X10.55 Y15.78 F3000.0
G01 X10.89 Y15.86 F3000.0
G01 X11.86 Y16.11 F3000.0
G01 X13.8 Y16.6 F3000.0
G01 X14.77 Y16.84 F3000.0
G01 X15.74 Y17.08 F3000.0
G01 X16.71 Y17.33 F3000.0
G01 X18.02 Y17.66 F3000.0
G01 X18.36 Y17.75 F3000.0
G01 X19.32 Y18.01 F3000.0
G01 X20.29 Y18.27 F3000.0
G01 X21.58 Y18.62 F3000.0
G01 X21.59 Y18.63 F3000.0
G01 X23.49 Y19.25 F3000.0
G01 X24.45 Y19.56 F3000.0
G01 X24.65 Y19.62 F3000.0
G01 X25.6 Y19.93 F3000.0
G01 X26.75 Y20.31 F3000.0
G01 X27.01 Y20.45 F3000.0
G01 X26.94 Y20.55 F3000.0
G01 X26.82 Y20.65 F3000.0
G01 X26.9 Y20.74 F3000.0
G01 X26.91 Y20.75 F3000.0
G01 X27.87 Y21.02 F3000.0
G01 X28.13 Y21.1 F3000.0
G01 X29.36 Y21.47 F3000.0
G01 X29.8 Y21.76 F3000.0
G01 X29.95 Y22.47 F3000.0
G01 X29.97 Y23.22 F3000.0
G01 X29.52 Y23.71 F3000.0
G01 X29.05 Y24.04 F3000.0
G01 X28.71 Y24.08 F3000.0
G01 X27.76 Y24.04 F3000.0
G01 X27.73 Y24.05 F3000.0
G01 X26.87 Y24.61 F3000.0
G01 X26.23 Y25.12 F3000.0
G01 X25.41 Y25.3 F3000.0
G01 X24.52 Y25.52 F3000.0
G01 X23.85 Y25.97 F3000.0
G01 X23.36 Y26.66 F3000.0
G01 F3000.0
G01 X23.04 Y27.61 F3000.0
G01 X23.01 Y27.66 F3000.0
G01 X22.57 Y28.61 F3000.0
G01 X22.48 Y28.71 F3000.0
G01 X21.71 Y29.55 F3000.0
G01 X21.67 Y29.63 F3000.0
G01 X21.18 Y30.59 F3000.0
G01 X21.02 Y30.99 F3000.0
G01 X20.47 Y32.31 F3000.0
G01 X20.36 Y32.61 F3000.0
G01 X19.9 Y33.85 F3000.0
G01 X19.88 Y34.08 F3000.0
G01 X19.76 Y35.31 F3000.0
G01 X19.8 Y35.52 F3000.0
G01 X20.05 Y36.72 F3000.0
G01 X20.17 Y36.96 F3000.0
G01 X20.77 Y38.09 F3000.0
G01 X20.8 Y38.16 F3000.0
G01 X21.31 Y39.11 F3000.0
G01 X20.66 Y39.53 F3000.0
G01 X20.43 Y39.68 F3000.0
G01 X19.37 Y40.38 F3000.0
G01 X19.2 Y40.56 F3000.0
G01 X18.32 Y41.45 F3000.0
G01 X18.17 Y41.73 F3000.0
G01 X17.55 Y42.9 F3000.0
G01 X17.46 Y43.25 F3000.0
G01 X17.09 Y44.57 F3000.0
G01 X17.07 Y44.67 F3000.0
G01 X16.87 Y45.75 F3000.0
G01 X16.85 Y45.96 F3000.0
G01 X16.79 Y46.96 F3000.0
G01 X16.71 Y48.16 F3000.0
G01 X16.73 Y48.34 F3000.0
G01 X16.84 Y49.33 F3000.0
G01 X16.97 Y50.5 F3000.0
G01 X16.98 Y50.55 F3000.0
G01 X17.36 Y51.52 F3000.0
G01 X17.39 Y52.05 F3000.0
G01 X17.38 Y52.09 F3000.0
G01 X17.15 Y53.06 F3000.0
G01 X16.91 Y54.07 F3000.0
G01 X16.9 Y54.09 F3000.0
G01 X16.75 Y56.08 F3000.0
G01 X16.68 Y57.1 F3000.0
G01 X16.69 Y57.35 F3000.0
G01 X16.72 Y58.35 F3000.0
G01 X16.75 Y59.35 F3000.0
G01 X16.78 Y60.35 F3000.0
G01 X16.82 Y61.61 F3000.0
G01 Y61.67 F3000.0
G01 X16.94 Y63.66 F3000.0
G01 X17.0 Y64.66 F3000.0
G01 X17.06 Y65.71 F3000.0
G01 X17.07 Y65.81 F3000.0
G01 X17.2 Y66.8 F3000.0
G01 X17.34 Y67.9 F3000.0
G01 X17.39 Y68.08 F3000.0
G01 X17.61 Y69.05 F3000.0
G01 X17.89 Y70.21 F3000.0
G01 X18.02 Y70.87 F3000.0
G01 X18.11 Y71.2 F3000.0
G01 X18.47 Y72.49 F3000.0
G01 X18.52 Y72.63 F3000.0
G01 X18.91 Y73.55 F3000.0
G01 X19.34 Y74.61 F3000.0
G01 X19.46 Y74.81 F3000.0
G01 X19.96 Y75.68 F3000.0
G01 X20.57 Y76.74 F3000.0
G01 X20.64 Y76.83 F3000.0
G01 X21.27 Y77.6 F3000.0
G01 X21.91 Y78.37 F3000.0
G01 X22.61 Y79.24 F3000.0
G01 X22.84 Y79.5 F3000.0
G01 X23.5 Y80.26 F3000.0
G01 X24.15 Y81.01 F3000.0
G01 X25.03 Y82.03 F3000.0
G01 X25.27 Y82.27 F3000.0
G01 X25.96 Y82.99 F3000.0
G01 X26.66 Y83.7 F3000.0
G01 X27.6 Y84.66 F3000.0
G01 X27.95 Y84.92 F3000.0
G01 X28.75 Y85.51 F3000.0
G01 X29.91 Y86.36 F3000.0
G01 X30.24 Y86.55 F3000.0
G01 X31.11 Y87.05 F3000.0
G01 X32.31 Y87.74 F3000.0
G01 X32.57 Y87.85 F3000.0
G01 X33.49 Y88.23 F3000.0
G01 X34.67 Y88.73 F3000.0
G01 X34.79 Y88.76 F3000.0
G01 X35.76 Y89.0 F3000.0
G01 X36.86 Y89.27 F3000.0
G01 X37.27 Y89.36 F3000.0
G01 X38.66 Y89.68 F3000.0
G01 X38.76 Y89.71 F3000.0
G01 X39.72 Y89.98 F3000.0
G01 X40.78 Y90.27 F3000.0
G01 X41.27 Y90.35 F3000.0
G01 X42.75 Y90.59 F3000.0
G01 X43.03 Y90.6 F3000.0
G01 X44.03 Y90.65 F3000.0
G01 X45.3 Y90.71 F3000.0
G01 X45.56 Y90.7 F3000.0
G01 X46.56 Y90.67 F3000.0
G01 X47.82 Y90.63 F3000.0
G01 X47.99 Y90.61 F3000.0
G01 X48.99 Y90.5 F3000.0
G01 X50.16 Y90.37 F3000.0
G01 X50.19 Y90.36 F3000.0
G01 X51.17 Y90.16 F3000.0
G01 X52.18 Y89.94 F3000.0
G01 X52.4 Y89.88 F3000.0
G01 X53.58 Y89.55 F3000.0
G01 X53.77 Y89.48 F3000.0
G01 X55.65 Y88.78 F3000.0
G01 X56.78 Y88.36 F3000.0
G01 X56.88 Y88.31 F3000.0
G01 X57.77 Y87.88 F3000.0
G01 X58.67 Y87.44 F3000.0
G01 X59.67 Y86.96 F3000.0
G01 X59.95 Y86.8 F3000.0
G01 X60.81 Y86.3 F3000.0
G01 X61.96 Y85.64 F3000.0
G01 X62.15 Y85.52 F3000.0
G01 X63.18 Y84.86 F3000.0
G01 X63.41 Y84.68 F3000.0
G01 X64.4 Y83.86 F3000.0
G01 X64.84 Y83.54 F3000.0
G01 X65.08 Y83.28 F3000.0
G01 X66.0 Y82.27 F3000.0
G01 X66.23 Y81.95 F3000.0
G01 X66.84 Y81.16 F3000.0
G01 X67.68 Y80.05 F3000.0
G01 X67.82 Y79.86 F3000.0
G01 X68.4 Y79.05 F3000.0
G01 X69.12 Y78.05 F3000.0
G01 F3000.0
G01 X69.66 Y77.2 F3000.0
G01 X70.19 Y76.36 F3000.0
G01 X70.72 Y75.51 F3000.0
G01 X70.75 Y75.47 F3000.0
G01 X71.18 Y74.57 F3000.0
G01 X71.62 Y73.67 F3000.0
G01 X72.07 Y72.72 F3000.0
G01 X72.23 Y72.26 F3000.0
G01 X72.7 Y70.85 F3000.0
G01 X72.74 Y70.71 F3000.0
G01 X72.99 Y69.75 F3000.0
G01 X73.28 Y68.64 F3000.0
G01 X73.36 Y68.18 F3000.0
G01 X73.54 Y67.2 F3000.0
G01 X73.72 Y66.21 F3000.0
G01 X74.08 Y64.24 F3000.0
G01 X74.34 Y62.8 F3000.0
G01 Y62.78 F3000.0
G01 X74.37 Y61.78 F3000.0
G01 X74.39 Y60.78 F3000.0
G01 X74.42 Y59.78 F3000.0
G01 X74.48 Y57.78 F3000.0
G01 X74.5 Y56.76 F3000.0
G01 Y56.74 F3000.0
G01 X74.48 Y55.74 F3000.0
G01 X74.42 Y53.74 F3000.0
G01 X74.4 Y52.74 F3000.0
G01 X74.37 Y51.74 F3000.0
G01 X74.34 Y50.71 F3000.0
G01 X74.29 Y50.34 F3000.0
G01 X74.16 Y49.35 F3000.0
G01 X73.97 Y47.99 F3000.0
G01 X73.88 Y47.51 F3000.0
G01 X73.53 Y45.54 F3000.0
G01 X73.26 Y44.08 F3000.0
G01 X73.14 Y43.65 F3000.0
G01 X72.87 Y42.69 F3000.0
G01 X72.6 Y41.73 F3000.0
G01 X72.21 Y40.34 F3000.0
G01 X72.1 Y40.06 F3000.0
G01 X71.73 Y39.13 F3000.0
G01 X71.37 Y38.2 F3000.0
G01 X70.89 Y36.99 F3000.0
G01 X70.86 Y36.94 F3000.0
G01 X70.38 Y36.06 F3000.0
G01 X69.89 Y35.18 F3000.0
G01 X69.38 Y34.26 F3000.0
G01 X68.99 Y33.48 F3000.0
G01 X68.98 Y33.43 F3000.0
G01 X68.75 Y32.41 F3000.0
G01 X68.74 Y32.31 F3000.0
G01 X68.57 Y31.33 F3000.0
G01 X68.39 Y30.25 F3000.0
G01 X68.36 Y30.05 F3000.0
G01 X68.22 Y29.07 F3000.0
G01 X68.07 Y28.08 F3000.0
G01 X67.9 Y26.89 F3000.0
G01 X67.86 Y26.55 F3000.0
G01 X67.72 Y25.56 F3000.0
G01 X67.53 Y24.23 F3000.0
G01 X67.51 Y24.1 F3000.0
G01 X67.31 Y23.12 F3000.0
G01 X67.08 Y22.0 F3000.0
G01 X67.0 Y21.75 F3000.0
G01 X66.69 Y20.8 F3000.0
G01 X66.29 Y19.59 F3000.0
G01 Y19.58 F3000.0
G01 X65.87 Y18.67 F3000.0
G01 X65.44 Y17.76 F3000.0
G01 X65.1 Y17.15 F3000.0
G01 X65.46 Y16.87 F3000.0
G01 X65.63 Y16.8 F3000.0
G01 X66.72 Y16.35 F3000.0
G01 X67.06 Y16.23 F3000.0
G01 X68.0 Y15.9 F3000.0
G01 X68.95 Y15.58 F3000.0
G01 X69.89 Y15.25 F3000.0
G01 X70.84 Y14.93 F3000.0
G01 X71.78 Y14.6 F3000.0
G01 X73.07 Y14.16 F3000.0
G01 X73.48 Y14.02 F3000.0
G01 X74.43 Y13.68 F3000.0
G01 X75.79 Y13.21 F3000.0
G01 X75.88 Y13.17 F3000.0
G01 X76.8 Y12.78 F3000.0
G01 X77.82 Y12.36 F3000.0
G01 X77.83 Y12.35 F3000.0
G01 X78.73 Y11.93 F3000.0
G01 X79.65 Y11.5 F3000.0
G01 X79.87 Y11.38 F3000.0
G01 X80.97 Y10.77 F3000.0
G01 X81.11 Y10.69 F3000.0
G01 X82.09 Y10.1 F3000.0
G01 X82.33 Y9.86 F3000.0
G01 X83.26 Y8.92 F3000.0
G01 X83.5 Y8.64 F3000.0
G01 X84.14 Y7.88 F3000.0
G01 X84.79 Y7.11 F3000.0
G01 X85.44 Y6.35 F3000.0
G01 X86.31 Y5.31 F3000.0
G01 X86.44 Y5.15 F3000.0
G01 X87.18 Y4.19 F3000.0
G01 X87.32 Y3.98 F3000.0
G01 X88.0 Y2.93 F3000.0
G01 X88.19 Y2.7 F3000.0
G01 X88.8 Y1.9 F3000.0
G01 X89.59 Y0.87 F3000.0
G01 X89.67 Y0.79 F3000.0
G01 X90.45 Y0.0 F3000.0
G01 X90.25 F3000.0
G01 X80.25 F3000.0
G01 X79.06 F3000.0
G01 X78.86 F3000.0
G01 X68.86 F3000.0
G01 X67.67 F3000.0
G01 X67.72 Y0.4 F3000.0
G01 Y0.42 F3000.0
G01 X67.5 Y1.41 F3000.0
G01 X67.38 Y1.74 F3000.0
G01 X66.91 Y3.0 F3000.0
G01 X66.88 Y3.09 F3000.0
G01 X66.5 Y4.12 F3000.0
G01 X66.24 Y4.76 F3000.0
G01 X65.82 Y5.33 F3000.0
G01 X65.55 Y5.5 F3000.0
G01 X64.44 Y6.22 F3000.0
G01 X64.41 Y6.23 F3000.0
G01 X61.78 Y7.68 F3000.0
G01 X60.91 Y8.16 F3000.0
G01 X60.0 Y8.66 F3000.0
G01 X59.81 Y8.76 F3000.0
G01 X58.94 Y9.24 F3000.0
G01 X57.87 Y9.82 F3000.0
G01 X57.62 Y9.89 F3000.0
G01 X57.91 Y9.59 F3000.0
G01 X58.62 Y8.88 F3000.0
G01 X59.62 Y7.88 F3000.0
G01 X59.95 Y7.55 F3000.0
G01 X60.66 Y6.85 F3000.0
G01 X61.37 Y6.14 F3000.0
G01 X62.08 Y5.44 F3000.0
G01 X62.79 Y4.74 F3000.0
G01 X63.5 Y4.03 F3000.0
G01 X64.54 Y3.0 F3000.0
G01 X64.86 Y2.65 F3000.0
G01 X65.53 Y1.91 F3000.0
G01 X66.21 Y1.17 F3000.0
G01 X67.2 Y0.08 F3000.0
G01 X66.54 Y0.0 F3000.0
G01 X65.89 Y0.1 F3000.0
G01 X65.25 Y0.59 F3000.0
G01 X64.85 Y0.95 F3000.0
G01 X65.07 Y0.69 F3000.0
G01 X65.5 Y0.13 F3000.0
G01 X65.46 Y0.03 F3000.0
G01 X65.26 Y0.0 F3000.0
G01 X64.99 Y0.24 F3000.0
G01 X63.97 Y1.15 F3000.0
G01 X63.72 Y1.41 F3000.0
G01 X62.32 Y2.85 F3000.0
G01 X61.62 Y3.56 F3000.0
G01 X60.93 Y4.28 F3000.0
G01 X59.98 Y5.26 F3000.0
G01 X60.0 Y5.2 F3000.0
G01 X60.47 Y4.25 F3000.0
G01 X60.7 Y3.82 F3000.0
G01 X61.17 Y2.94 F3000.0
G01 X61.88 Y1.64 F3000.0
G01 X62.08 Y1.26 F3000.0
G01 X62.75 Y0.0 F3000.0
G01 X62.42 F3000.0
G01 X61.09 F3000.0
G01 X60.75 F3000.0
G01 X59.42 F3000.0
G01 X59.35 Y0.16 F3000.0
G01 X58.85 Y1.22 F3000.0
G01 X58.65 Y1.62 F3000.0
G01 X58.2 Y2.52 F3000.0
G01 X57.76 Y3.41 F3000.0
G01 X57.32 Y4.31 F3000.0
G01 X56.87 Y5.2 F3000.0
G01 X56.23 Y6.5 F3000.0
G01 X56.08 Y6.76 F3000.0
G01 X55.42 Y7.89 F3000.0
G01 X55.23 Y8.19 F3000.0
G01 X55.2 Y8.09 F3000.0
G01 X55.23 Y8.02 F3000.0
G01 X55.59 Y7.01 F3000.0
G01 X55.73 Y6.63 F3000.0
G01 X56.09 Y5.7 F3000.0
G01 X56.45 Y4.76 F3000.0
G01 X56.8 Y3.83 F3000.0
G01 X57.31 Y2.52 F3000.0
G01 X57.43 Y2.19 F3000.0
G01 X57.92 Y0.93 F3000.0
G01 X58.23 Y0.13 F3000.0
G01 X58.14 Y0.0 F3000.0
G01 X58.07 Y0.16 F3000.0
G01 X57.57 Y1.22 F3000.0
G01 X57.43 Y1.58 F3000.0
G01 X56.93 Y2.86 F3000.0
G01 X56.9 Y2.96 F3000.0
G01 X56.16 Y4.82 F3000.0
G01 X55.79 Y5.75 F3000.0
G01 X55.38 Y6.78 F3000.0
G01 X55.27 Y7.07 F3000.0
G01 X54.89 Y8.0 F3000.0
G01 X54.51 Y8.92 F3000.0
G01 X54.01 Y10.14 F3000.0
G01 X53.73 Y10.68 F3000.0
G01 X53.65 Y10.61 F3000.0
G01 X53.77 Y10.26 F3000.0
G01 X53.9 Y9.96 F3000.0
G01 X54.41 Y8.73 F3000.0
G01 X54.54 Y8.43 F3000.0
G01 X55.04 Y7.2 F3000.0
G01 X55.36 Y6.43 F3000.0
G01 X55.53 Y5.96 F3000.0
G01 X56.56 Y3.15 F3000.0
G01 X57.07 Y1.75 F3000.0
G01 X57.39 Y0.91 F3000.0
G01 X57.63 Y0.24 F3000.0
G01 X57.65 Y0.1 F3000.0
G01 X57.5 Y0.03 F3000.0
G01 X57.4 F3000.0
G01 X56.3 F3000.0
G01 X56.09 Y0.04 F3000.0
G01 X54.88 Y0.07 F3000.0
G01 X54.86 Y0.12 F3000.0
G01 X54.55 Y1.12 F3000.0
G01 X54.5 Y1.31 F3000.0
G01 X54.21 Y2.27 F3000.0
G01 X53.86 Y3.42 F3000.0
G01 X53.76 Y3.74 F3000.0
G01 X53.46 Y4.69 F3000.0
G01 X53.07 Y5.97 F3000.0
G01 X53.0 Y6.01 F3000.0
G01 X52.96 Y5.86 F3000.0
G01 X52.9 Y5.1 F3000.0
G01 X52.86 Y4.79 F3000.0
G01 X52.72 Y3.8 F3000.0
G01 X52.57 Y2.81 F3000.0
G01 X52.43 Y1.82 F3000.0
G01 X52.24 Y0.52 F3000.0
G01 X52.1 Y0.0 F3000.0
G01 X51.68 F3000.0
G01 X50.25 F3000.0
G01 X49.83 F3000.0
G01 X48.41 F3000.0
G01 X48.29 Y0.18 F3000.0
G01 X47.64 Y1.2 F3000.0
G01 X47.55 Y1.37 F3000.0
G01 X46.98 Y2.4 F3000.0
G01 X46.95 Y2.5 F3000.0
G01 X46.6 Y3.55 F3000.0
G01 X46.59 Y3.67 F3000.0
G01 X46.47 Y4.78 F3000.0
G01 X46.49 Y5.0 F3000.0
G01 X46.58 Y6.22 F3000.0
G01 X46.87 Y7.12 F3000.0
G01 X46.98 Y7.33 F3000.0
G01 X47.54 Y8.43 F3000.0
G01 X47.61 Y8.54 F3000.0
G01 X48.16 Y9.38 F3000.0
G01 X49.24 Y11.06 F3000.0
G01 X49.86 Y12.01 F3000.0
G01 X50.41 Y12.78 F3000.0
G01 X49.9 Y13.1 F3000.0
G01 X49.75 Y13.17 F3000.0
G01 X48.86 Y13.64 F3000.0
G01 X47.83 Y14.19 F3000.0
G01 X47.5 Y14.35 F3000.0
G01 X46.27 Y14.96 F3000.0
G01 X45.9 Y14.72 F3000.0
G01 X45.05 Y14.19 F3000.0
G01 X43.83 Y13.42 F3000.0
G01 X43.76 Y13.37 F3000.0
G01 X42.93 Y12.81 F3000.0
G01 X42.1 Y12.26 F3000.0
G01 X41.2 Y11.66 F3000.0
G01 X41.12 Y11.46 F3000.0
G01 X41.3 Y10.94 F3000.0
G01 X41.35 Y10.83 F3000.0
G01 X41.79 Y9.93 F3000.0
G01 X42.23 Y9.03 F3000.0
G01 X42.67 Y8.13 F3000.0
G01 X43.16 Y7.12 F3000.0
G01 X43.18 Y7.09 F3000.0
G01 X43.65 Y6.2 F3000.0
G01 X44.11 Y5.32 F3000.0
G01 X44.59 Y4.4 F3000.0
G01 X44.73 Y4.14 F3000.0
G01 X45.33 Y3.0 F3000.0
G01 X45.41 Y2.83 F3000.0
G01 X45.91 Y1.75 F3000.0
G01 X46.04 Y1.37 F3000.0
G01 X46.52 Y0.05 F3000.0
G01 X46.39 F3000.0
G01 X44.39 F3000.0
G01 X43.39 Y0.04 F3000.0
G01 X40.39 F3000.0
G01 X39.39 F3000.0
G01 X36.39 Y0.03 F3000.0
G01 X35.39 F3000.0
G01 X32.39 Y0.02 F3000.0
G01 X31.39 F3000.0
G01 X28.39 Y0.01 F3000.0
G01 X27.39 F3000.0
G01 X24.39 Y0.0 F3000.0
G01 X23.26 F3000.0
G01 X23.13 F3000.0
G01 X1.13 F3000.0
G01 X0.0 F3000.0
G01 Y0.41 F3000.0
G01 Y1.41 F3000.0
G01 Y2.82 F3000.0
M5
G00 X22.49 Y29.9 F3000.0
M3 F3000.0
G01 X22.34 Y30.04 F3000.0
G01 X22.28 Y29.9 F3000.0
G01 X22.43 Y29.76 F3000.0
G01 X22.49 Y29.9 F3000.0
G01 F3000.0
M5
G00 X25.61 Y37.89 F3000.0
M3 F3000.0
G01 X25.41 Y38.2 F3000.0
G01 X24.87 Y39.03 F3000.0
G01 X24.32 Y39.87 F3000.0
G01 X23.58 Y41.02 F3000.0
G01 X23.48 Y41.23 F3000.0
G01 X23.05 Y42.13 F3000.0
G01 X22.62 Y43.03 F3000.0
G01 X22.08 Y44.15 F3000.0
G01 X22.06 Y44.21 F3000.0
G01 X21.66 Y45.2 F3000.0
G01 X21.57 Y45.42 F3000.0
G01 X21.16 Y46.59 F3000.0
G01 X21.06 Y46.95 F3000.0
G01 X20.67 Y48.27 F3000.0
G01 X20.55 Y48.73 F3000.0
G01 X20.19 Y50.15 F3000.0
G01 X20.08 Y50.61 F3000.0
G01 X19.72 Y52.03 F3000.0
G01 X19.5 Y52.22 F3000.0
G01 X19.16 Y52.18 F3000.0
G01 X18.34 Y51.71 F3000.0
G01 X18.3 Y51.66 F3000.0
G01 X17.68 Y50.78 F3000.0
G01 X17.6 Y50.43 F3000.0
G01 X17.32 Y49.1 F3000.0
G01 X17.3 Y48.95 F3000.0
G01 X17.21 Y47.8 F3000.0
G01 X17.24 Y47.55 F3000.0
G01 X17.39 Y46.31 F3000.0
G01 X17.47 Y45.86 F3000.0
G01 X17.71 Y44.42 F3000.0
G01 X17.73 Y44.35 F3000.0
G01 X18.04 Y43.32 F3000.0
G01 X18.07 Y43.25 F3000.0
G01 X18.48 Y42.25 F3000.0
G01 X18.51 Y42.22 F3000.0
G01 X19.15 Y41.39 F3000.0
G01 X19.29 Y41.28 F3000.0
G01 X20.21 Y40.55 F3000.0
G01 X20.61 Y40.31 F3000.0
G01 X21.86 Y39.54 F3000.0
G01 X22.09 Y39.39 F3000.0
G01 X22.91 Y38.83 F3000.0
G01 X23.96 Y38.12 F3000.0
G01 X24.14 Y38.01 F3000.0
G01 X25.16 Y37.37 F3000.0
G01 X26.11 Y37.1 F3000.0
G01 X25.61 Y37.89 F3000.0
G01 F3000.0
M5
G00 X38.84 Y46.24 F3000.0
M3 F3000.0
G01 X38.99 Y46.38 F3000.0
G01 X39.05 Y46.24 F3000.0
G01 X38.9 Y46.1 F3000.0
G01 X38.84 Y46.24 F3000.0
G01 F3000.0
M5
G00 X41.77 Y45.54 F3000.0
M3 F3000.0
G01 X41.91 Y45.68 F3000.0
G01 X42.05 Y45.54 F3000.0
G01 X41.91 Y45.4 F3000.0
G01 X41.77 Y45.54 F3000.0
G01 F3000.0
M5
G00 X41.7 Y50.45 F3000.0
M3 F3000.0
G01 X41.48 Y50.5 F3000.0
G01 X41.43 Y50.28 F3000.0
G01 X41.64 Y50.23 F3000.0
G01 X41.7 Y50.45 F3000.0
G01 F3000.0
M5
G00 X43.45 Y51.55 F3000.0
M3 F3000.0
G01 X43.3 Y51.69 F3000.0
G01 X43.24 Y51.55 F3000.0
G01 X43.39 Y51.41 F3000.0
G01 X43.45 Y51.55 F3000.0
G01 F3000.0
M5
G00 X43.16 Y52.03 F3000.0
M3 F3000.0
G01 X43.23 Y52.59 F3000.0
G01 X43.06 Y52.89 F3000.0
G01 X42.63 Y52.92 F3000.0
G01 X42.21 Y52.82 F3000.0
G01 X42.08 Y52.56 F3000.0
G01 X42.2 Y52.03 F3000.0
G01 X42.68 Y51.84 F3000.0
G01 X43.16 Y52.03 F3000.0
G01 F3000.0
M5
G00 X39.75 Y62.06 F3000.0
M3 F3000.0
G01 X40.03 Y62.27 F3000.0
G01 X40.04 Y62.65 F3000.0
G01 X40.03 Y62.77 F3000.0
G01 X39.96 Y63.76 F3000.0
G01 X39.89 Y64.76 F3000.0
G01 X39.82 Y65.76 F3000.0
G01 X39.74 Y66.87 F3000.0
G01 X39.7 Y67.2 F3000.0
G01 X39.57 Y67.02 F3000.0
G01 X39.53 Y66.63 F3000.0
G01 X39.41 Y65.24 F3000.0
G01 X39.4 Y65.09 F3000.0
G01 X39.34 Y64.09 F3000.0
G01 X39.27 Y62.94 F3000.0
G01 Y62.91 F3000.0
G01 X39.32 Y61.89 F3000.0
G01 X39.75 Y62.06 F3000.0
G01 F3000.0
M5
G00 X47.41 Y63.53 F3000.0
M3 F3000.0
G01 X47.4 Y63.61 F3000.0
G01 X47.29 Y64.68 F3000.0
G01 X47.24 Y65.08 F3000.0
G01 X47.12 Y66.08 F3000.0
G01 X46.95 Y67.47 F3000.0
G01 X46.86 Y67.59 F3000.0
G01 X46.81 Y67.12 F3000.0
G01 X46.68 Y66.13 F3000.0
G01 X46.56 Y65.13 F3000.0
G01 X46.38 Y63.67 F3000.0
G01 X46.49 Y63.48 F3000.0
G01 X46.86 Y63.43 F3000.0
G01 X47.41 Y63.53 F3000.0
G01 F3000.0
M5
G00 X66.33 Y63.25 F3000.0
M3 F3000.0
G01 Y63.64 F3000.0
G01 X66.3 Y65.03 F3000.0
G01 X66.29 Y64.69 F3000.0
G01 X66.23 Y63.36 F3000.0
G01 X66.22 Y62.97 F3000.0
G01 X66.19 Y61.58 F3000.0
G01 X66.27 Y61.48 F3000.0
G01 X66.32 Y61.69 F3000.0
G01 Y61.97 F3000.0
G01 X66.33 Y63.25 F3000.0
G01 F3000.0
M5
G00 X68.72 Y61.16 F3000.0
M3 F3000.0
G01 Y61.18 F3000.0
G01 X68.59 Y62.2 F3000.0
G01 X68.47 Y61.51 F3000.0
G01 Y61.5 F3000.0
G01 X68.59 Y60.49 F3000.0
G01 X68.72 Y61.16 F3000.0
G01 F3000.0
M5
G00 X64.6 Y50.52 F3000.0
M3 F3000.0
G01 X64.53 Y51.09 F3000.0
G01 X64.14 Y51.41 F3000.0
G01 X63.93 Y51.31 F3000.0
G01 X63.81 Y51.07 F3000.0
G01 X63.94 Y50.44 F3000.0
G01 X64.3 Y50.25 F3000.0
G01 X64.6 Y50.52 F3000.0
G01 F3000.0
M5
G00 X63.57 Y49.18 F3000.0
M3 F3000.0
G01 X63.43 Y49.32 F3000.0
G01 X63.29 Y49.18 F3000.0
G01 X63.43 Y49.04 F3000.0
G01 X63.57 Y49.18 F3000.0
G01 F3000.0
M5
G00 X67.48 Y43.87 F3000.0
M3 F3000.0
G01 X67.61 Y44.01 F3000.0
G01 X67.83 Y43.87 F3000.0
G01 X67.7 Y43.73 F3000.0
G01 X67.48 Y43.87 F3000.0
G01 F3000.0
M5
G00 X60.15 Y42.88 F3000.0
M3 F3000.0
G01 X59.78 Y43.67 F3000.0
G01 X59.65 Y43.9 F3000.0
G01 X59.74 Y43.98 F3000.0
G01 X59.95 Y43.77 F3000.0
G01 X60.36 Y42.95 F3000.0
G01 X60.45 Y42.26 F3000.0
G01 X60.15 Y42.88 F3000.0
G01 F3000.0
M5
G00 X59.25 Y33.86 F3000.0
M3 F3000.0
G01 X59.72 Y34.01 F3000.0
G01 X60.07 Y33.95 F3000.0
G01 X59.63 Y33.81 F3000.0
G01 X59.25 Y33.86 F3000.0
G01 F3000.0
M5
G00 X58.82 Y33.81 F3000.0
M3 F3000.0
G01 X58.96 Y33.95 F3000.0
G01 X59.09 Y33.81 F3000.0
G01 X58.96 Y33.67 F3000.0
G01 X58.82 Y33.81 F3000.0
G01 F3000.0
M5
G00 X53.93 Y34.23 F3000.0
M3 F3000.0
G01 X53.68 Y34.33 F3000.0
G01 X54.0 Y34.34 F3000.0
G01 X54.7 Y34.23 F3000.0
G01 X54.87 Y34.13 F3000.0
G01 X54.62 Y34.11 F3000.0
G01 X53.93 Y34.23 F3000.0
G01 F3000.0
M5
G00 X51.48 Y25.49 F3000.0
M3 F3000.0
G01 X51.52 Y25.5 F3000.0
G01 X52.51 Y25.77 F3000.0
G01 X52.3 Y25.62 F3000.0
G01 X51.57 Y25.34 F3000.0
G01 X50.8 Y25.16 F3000.0
G01 X50.88 Y25.26 F3000.0
G01 X51.48 Y25.49 F3000.0
G01 F3000.0
M5
G00 X53.65 Y13.97 F3000.0
M3 F3000.0
G01 X53.59 Y14.11 F3000.0
G01 X53.44 Y13.97 F3000.0
G01 X53.5 Y13.83 F3000.0
G01 X53.65 Y13.97 F3000.0
G01 F3000.0
M5
G00 X51.06 Y12.85 F3000.0
M3 F3000.0
G01 X51.01 Y12.99 F3000.0
G01 X50.78 Y12.85 F3000.0
G01 X50.84 Y12.71 F3000.0
G01 X51.06 Y12.85 F3000.0
G01 F3000.0
M5
G00 X50.57 Y13.1 F3000.0
M3 F3000.0
G01 X50.53 Y13.13 F3000.0
G01 X49.65 Y13.69 F3000.0
G01 X50.02 Y13.34 F3000.0
G01 X50.49 Y13.02 F3000.0
G01 X50.57 Y13.1 F3000.0
G01 F3000.0
M5
G00 X50.88 Y8.1 F3000.0
M3 F3000.0
G01 X50.9 Y8.38 F3000.0
G01 X50.95 Y8.35 F3000.0
G01 Y7.86 F3000.0
G01 X50.9 Y7.83 F3000.0
G01 X50.88 Y8.1 F3000.0
G01 F3000.0
M5
G00 X50.71 Y7.02 F3000.0
M3 F3000.0
G01 X50.86 Y7.48 F3000.0
G01 X50.94 Y7.44 F3000.0
G01 X50.91 Y7.17 F3000.0
G01 X50.76 Y6.73 F3000.0
G01 X50.71 Y7.02 F3000.0
G01 F3000.0
M5
G00 X50.46 Y5.17 F3000.0
M3 F3000.0
G01 X50.57 Y5.87 F3000.0
G01 X50.66 Y6.09 F3000.0
G01 X50.68 Y5.94 F3000.0
G01 X50.57 Y5.24 F3000.0
G01 X50.48 Y4.95 F3000.0
G01 X50.46 Y5.17 F3000.0
G01 F3000.0
M5
G00 X50.93 Y4.53 F3000.0
M3 F3000.0
G01 X50.97 Y4.81 F3000.0
G01 X51.24 Y6.79 F3000.0
G01 X51.41 Y8.06 F3000.0
G01 X51.46 Y8.39 F3000.0
G01 X51.63 Y9.7 F3000.0
G01 X51.65 Y9.97 F3000.0
G01 X51.56 Y10.06 F3000.0
G01 X51.27 Y9.7 F3000.0
G01 X51.13 Y9.01 F3000.0
G01 X51.09 Y8.77 F3000.0
G01 X50.95 Y8.74 F3000.0
G01 X50.7 Y8.52 F3000.0
G01 X50.32 Y7.86 F3000.0
G01 X50.31 Y7.83 F3000.0
G01 X49.92 Y6.91 F3000.0
G01 X49.52 Y5.95 F3000.0
G01 X49.36 Y5.06 F3000.0
G01 F3000.0
G01 X49.41 Y4.06 F3000.0
G01 Y4.04 F3000.0
G01 X49.64 Y3.05 F3000.0
G01 X49.65 Y3.04 F3000.0
G01 X50.06 Y2.12 F3000.0
G01 X50.32 Y1.75 F3000.0
G01 X50.46 Y1.96 F3000.0
G01 X50.52 Y2.26 F3000.0
G01 X50.7 Y3.25 F3000.0
G01 X50.93 Y4.53 F3000.0
G01 F3000.0
M5
G00 X47.59 Y2.29 F3000.0
M3 F3000.0
G01 X47.31 Y2.9 F3000.0
G01 X47.13 Y3.68 F3000.0
G01 Y4.11 F3000.0
G01 X47.11 Y5.55 F3000.0
G01 X47.12 Y5.59 F3000.0
G01 X47.31 Y6.61 F3000.0
G01 X47.34 Y6.69 F3000.0
G01 X47.73 Y7.71 F3000.0
G01 X47.85 Y7.92 F3000.0
G01 X48.37 Y8.77 F3000.0
G01 X48.89 Y9.63 F3000.0
G01 X49.53 Y10.69 F3000.0
G01 X49.55 Y10.72 F3000.0
G01 X50.09 Y11.57 F3000.0
G01 X50.64 Y12.45 F3000.0
G01 X50.66 Y12.55 F3000.0
G01 X50.58 Y12.49 F3000.0
G01 X50.06 Y11.84 F3000.0
G01 X49.78 Y11.43 F3000.0
G01 X49.22 Y10.61 F3000.0
G01 X48.37 Y9.37 F3000.0
G01 X48.26 Y9.16 F3000.0
G01 X47.77 Y8.29 F3000.0
G01 X47.16 Y7.21 F3000.0
G01 X47.13 Y7.12 F3000.0
G01 X46.74 Y6.09 F3000.0
G01 X46.73 Y5.98 F3000.0
G01 X46.66 Y4.87 F3000.0
G01 X46.7 Y4.58 F3000.0
G01 X46.85 Y3.31 F3000.0
G01 X46.91 Y3.19 F3000.0
G01 X47.47 Y2.2 F3000.0
G01 X47.74 Y1.97 F3000.0
G01 X47.59 Y2.29 F3000.0
G01 F3000.0
M5
G00 X41.78 Y12.55 F3000.0
M3 F3000.0
G01 X42.12 Y12.78 F3000.0
G01 X42.95 Y13.33 F3000.0
G01 X43.79 Y13.88 F3000.0
G01 X44.96 Y14.66 F3000.0
G01 X45.33 Y14.89 F3000.0
G01 X46.17 Y15.44 F3000.0
G01 X47.38 Y16.22 F3000.0
G01 X48.07 Y15.79 F3000.0
G01 X48.84 Y15.37 F3000.0
G01 X48.87 Y15.35 F3000.0
G01 X49.74 Y14.79 F3000.0
G01 X49.92 Y14.7 F3000.0
G01 X50.98 Y14.17 F3000.0
G01 X51.32 Y14.18 F3000.0
G01 X51.24 Y14.5 F3000.0
G01 X51.23 F3000.0
G01 X50.74 Y15.39 F3000.0
G01 X50.7 Y15.43 F3000.0
G01 X50.04 Y16.26 F3000.0
G01 X49.78 Y16.48 F3000.0
G01 X49.01 Y17.13 F3000.0
G01 X47.99 Y18.0 F3000.0
G01 X47.93 Y18.04 F3000.0
G01 X47.11 Y18.61 F3000.0
G01 X46.29 Y19.18 F3000.0
G01 X45.4 Y19.8 F3000.0
G01 X45.36 Y19.83 F3000.0
G01 X43.7 Y20.94 F3000.0
G01 X42.87 Y21.49 F3000.0
G01 X42.03 Y22.05 F3000.0
G01 X41.2 Y22.61 F3000.0
G01 X40.33 Y23.19 F3000.0
G01 X39.65 Y23.59 F3000.0
G01 X39.53 Y23.66 F3000.0
G01 X38.66 Y24.15 F3000.0
G01 X37.67 Y24.72 F3000.0
G01 X37.42 Y24.85 F3000.0
G01 X36.29 Y25.44 F3000.0
G01 X36.38 Y25.05 F3000.0
G01 X36.46 Y24.81 F3000.0
G01 X36.82 Y23.61 F3000.0
G01 X36.89 Y23.47 F3000.0
G01 X37.38 Y22.42 F3000.0
G01 X37.46 Y22.32 F3000.0
G01 X38.11 Y21.41 F3000.0
G01 X38.22 Y21.31 F3000.0
G01 X39.05 Y20.52 F3000.0
G01 X39.15 Y20.45 F3000.0
G01 X40.06 Y19.81 F3000.0
G01 X40.16 Y19.77 F3000.0
G01 X41.18 Y19.34 F3000.0
G01 X41.28 Y19.3 F3000.0
G01 X42.33 Y18.95 F3000.0
G01 X42.19 F3000.0
G01 X41.04 Y18.98 F3000.0
G01 X40.92 Y18.99 F3000.0
G01 X39.8 Y19.1 F3000.0
G01 X39.77 Y19.11 F3000.0
G01 X38.84 Y19.56 F3000.0
G01 X38.7 Y19.64 F3000.0
G01 X37.7 Y20.19 F3000.0
G01 X37.1 Y20.72 F3000.0
G01 X36.98 Y20.87 F3000.0
G01 X36.25 Y21.8 F3000.0
G01 X36.24 Y21.82 F3000.0
G01 X35.73 Y22.67 F3000.0
G01 X35.21 Y23.53 F3000.0
G01 X34.68 Y24.4 F3000.0
G01 F3000.0
G01 X34.28 Y25.32 F3000.0
G01 X33.88 Y26.24 F3000.0
G01 X33.63 Y26.5 F3000.0
G01 X33.41 Y26.21 F3000.0
G01 X33.44 Y26.09 F3000.0
G01 X33.68 Y25.12 F3000.0
G01 X33.95 Y24.03 F3000.0
G01 X34.11 Y23.6 F3000.0
G01 X34.46 Y22.66 F3000.0
G01 X34.97 Y21.3 F3000.0
G01 X35.07 Y21.11 F3000.0
G01 X35.53 Y20.22 F3000.0
G01 X36.08 Y19.14 F3000.0
G01 Y19.13 F3000.0
G01 X36.68 Y18.33 F3000.0
G01 X37.28 Y17.53 F3000.0
G01 X37.55 Y17.31 F3000.0
G01 X38.59 Y16.45 F3000.0
G01 X38.74 Y16.38 F3000.0
G01 X39.64 Y15.94 F3000.0
G01 X40.69 Y15.43 F3000.0
G01 X41.59 Y15.04 F3000.0
G01 X41.58 Y14.96 F3000.0
G01 X41.34 Y14.92 F3000.0
G01 X41.26 F3000.0
G01 X40.18 Y14.95 F3000.0
G01 X40.11 Y14.96 F3000.0
G01 X39.05 Y15.17 F3000.0
G01 X38.84 Y15.22 F3000.0
G01 X38.97 Y15.01 F3000.0
G01 X39.55 Y14.32 F3000.0
G01 X39.69 Y14.08 F3000.0
G01 X40.31 Y12.96 F3000.0
G01 X40.33 Y12.92 F3000.0
G01 X40.84 Y12.02 F3000.0
G01 X40.88 Y12.03 F3000.0
G01 X41.78 Y12.55 F3000.0
G01 F3000.0
M5
G00 X35.13 Y7.95 F3000.0
M3 F3000.0
G01 X34.9 Y8.33 F3000.0
G01 X34.87 Y8.36 F3000.0
G01 X34.11 Y9.07 F3000.0
G01 X34.01 Y9.14 F3000.0
G01 X33.22 Y9.74 F3000.0
G01 X32.42 Y10.35 F3000.0
G01 X31.53 Y11.02 F3000.0
G01 X31.13 Y11.3 F3000.0
G01 X30.31 Y11.88 F3000.0
G01 X29.5 Y12.45 F3000.0
G01 X28.28 Y13.3 F3000.0
G01 X27.86 Y13.7 F3000.0
G01 X27.78 Y13.97 F3000.0
G01 X27.79 Y14.53 F3000.0
G01 X27.81 Y14.61 F3000.0
G01 X28.06 Y15.66 F3000.0
G01 X28.09 Y15.93 F3000.0
G01 X28.21 Y16.92 F3000.0
G01 X28.36 Y18.18 F3000.0
G01 X28.38 Y18.65 F3000.0
G01 X28.41 Y20.12 F3000.0
G01 X28.38 Y20.51 F3000.0
G01 X28.15 Y20.56 F3000.0
G01 X27.84 Y20.46 F3000.0
G01 X27.65 Y20.23 F3000.0
G01 X27.64 Y20.12 F3000.0
G01 X27.52 Y19.03 F3000.0
G01 X27.5 Y18.59 F3000.0
G01 X27.44 Y17.16 F3000.0
G01 X27.39 Y16.84 F3000.0
G01 X27.18 Y15.54 F3000.0
G01 X27.14 Y15.21 F3000.0
G01 X26.99 Y13.87 F3000.0
G01 X27.05 Y13.56 F3000.0
G01 X27.24 Y13.29 F3000.0
G01 X27.48 Y13.13 F3000.0
G01 X28.54 Y12.42 F3000.0
G01 X28.8 Y12.24 F3000.0
G01 X29.62 Y11.68 F3000.0
G01 X30.71 Y10.94 F3000.0
G01 X30.88 Y10.81 F3000.0
G01 X31.85 Y10.07 F3000.0
G01 X32.02 Y9.92 F3000.0
G01 X32.97 Y9.15 F3000.0
G01 X33.15 Y9.01 F3000.0
G01 X34.1 Y8.24 F3000.0
G01 X34.88 Y7.82 F3000.0
G01 X35.13 Y7.95 F3000.0
G01 F3000.0
M5
G00 X60.49 Y5.63 F3000.0
M3 F3000.0
G01 X60.38 Y5.75 F3000.0
G01 X59.55 Y6.57 F3000.0
G01 X59.44 Y6.68 F3000.0
G01 X58.61 Y7.47 F3000.0
G01 X58.71 Y7.36 F3000.0
G01 X59.51 Y6.53 F3000.0
G01 X59.56 Y6.48 F3000.0
G01 X60.32 Y5.71 F3000.0
G01 X60.49 Y5.63 F3000.0
G01 F3000.0
M5
G00 X60.67 Y3.18 F3000.0
M3 F3000.0
G01 X60.49 Y3.54 F3000.0
G01 X59.85 Y4.78 F3000.0
G01 X59.42 Y5.47 F3000.0
G01 X59.23 Y5.65 F3000.0
G01 X59.42 Y5.24 F3000.0
G01 X59.54 Y5.03 F3000.0
G01 X60.14 Y3.95 F3000.0
G01 X60.16 Y3.91 F3000.0
G01 X60.67 Y3.0 F3000.0
G01 X60.74 Y2.94 F3000.0
G01 X60.67 Y3.18 F3000.0
G01 F3000.0
M5
G00 X61.21 Y2.19 F3000.0
M3 F3000.0
G01 X61.06 Y2.35 F3000.0
G01 X61.14 Y2.03 F3000.0
G01 X61.29 Y1.87 F3000.0
G01 X61.21 Y2.19 F3000.0
G01 F3000.0
M5
G00 X61.91 Y0.88 F3000.0
M3 F3000.0
G01 X61.79 Y0.96 F3000.0
G01 X61.83 Y0.8 F3000.0
G01 X62.0 Y0.63 F3000.0
G01 X61.91 Y0.88 F3000.0
G01 F3000.0
M5
G00 X65.71 Y6.08 F3000.0
M3 F3000.0
G01 X65.5 Y6.29 F3000.0
G01 X65.49 F3000.0
G01 X64.61 Y6.77 F3000.0
G01 X64.49 Y6.84 F3000.0
G01 X63.62 Y7.34 F3000.0
G01 X62.63 Y7.91 F3000.0
G01 X62.41 Y8.03 F3000.0
G01 X61.52 Y8.5 F3000.0
G01 X60.42 Y9.09 F3000.0
G01 X60.36 Y9.12 F3000.0
G01 X59.48 Y9.59 F3000.0
G01 X58.54 Y10.09 F3000.0
G01 X58.19 Y10.28 F3000.0
G01 X56.97 Y10.94 F3000.0
G01 X56.3 Y11.21 F3000.0
G01 X56.66 Y10.89 F3000.0
G01 X57.01 Y10.7 F3000.0
G01 X58.24 Y10.03 F3000.0
G01 X58.6 Y9.83 F3000.0
G01 X61.24 Y8.4 F3000.0
G01 X62.48 Y7.73 F3000.0
G01 X63.07 Y7.4 F3000.0
G01 X63.91 Y6.92 F3000.0
G01 Y6.91 F3000.0
G01 X64.78 Y6.42 F3000.0
G01 X65.24 Y6.15 F3000.0
G01 X65.68 Y5.88 F3000.0
G01 X65.71 Y6.08 F3000.0
G01 F3000.0
M5
G00 X64.69 Y8.42 F3000.0
M3 F3000.0
G01 Y8.44 F3000.0
G01 X62.99 Y12.06 F3000.0
G01 X62.56 Y12.99 F3000.0
G01 X62.43 Y13.23 F3000.0
G01 X61.83 Y14.35 F3000.0
G01 X61.3 Y14.24 F3000.0
G01 X60.5 Y14.22 F3000.0
G01 X60.29 Y14.38 F3000.0
G01 X60.68 Y14.77 F3000.0
G01 X61.07 Y15.3 F3000.0
G01 X61.09 Y15.85 F3000.0
G01 X60.72 Y16.37 F3000.0
G01 X60.0 Y16.83 F3000.0
G01 X59.96 Y16.86 F3000.0
G01 X59.09 Y17.46 F3000.0
G01 X58.75 Y17.79 F3000.0
G01 X57.69 Y18.81 F3000.0
G01 X57.65 Y18.86 F3000.0
G01 X56.98 Y19.6 F3000.0
G01 X56.26 Y20.39 F3000.0
G01 X56.17 Y20.56 F3000.0
G01 X55.62 Y21.62 F3000.0
G01 X55.59 Y21.66 F3000.0
G01 X55.13 Y22.6 F3000.0
G01 X55.1 Y22.64 F3000.0
G01 X54.51 Y23.51 F3000.0
G01 X53.91 Y24.18 F3000.0
G01 X53.43 Y24.44 F3000.0
G01 X53.35 Y24.27 F3000.0
G01 X52.85 Y23.19 F3000.0
G01 X52.76 Y22.87 F3000.0
G01 X52.38 Y21.59 F3000.0
G01 X52.35 Y21.43 F3000.0
G01 X52.29 Y21.5 F3000.0
G01 X52.19 Y21.55 F3000.0
G01 X52.03 Y21.29 F3000.0
G01 X51.85 Y20.89 F3000.0
G01 X51.84 Y21.27 F3000.0
G01 X51.86 Y21.34 F3000.0
G01 X52.12 Y22.31 F3000.0
G01 X52.39 Y23.35 F3000.0
G01 X52.52 Y23.74 F3000.0
G01 X52.95 Y25.09 F3000.0
G01 X52.28 Y25.16 F3000.0
G01 X51.77 Y25.19 F3000.0
G01 X52.04 Y25.32 F3000.0
G01 X52.92 Y25.73 F3000.0
G01 X53.51 Y25.93 F3000.0
G01 X54.42 Y25.99 F3000.0
G01 X54.73 Y26.02 F3000.0
G01 X56.04 Y26.15 F3000.0
G01 X56.28 Y26.22 F3000.0
G01 X57.49 Y26.56 F3000.0
G01 X57.52 Y26.57 F3000.0
G01 X58.44 Y26.96 F3000.0
G01 X59.39 Y27.35 F3000.0
G01 X59.58 Y27.46 F3000.0
G01 X60.47 Y27.91 F3000.0
G01 X61.56 Y28.47 F3000.0
G01 X61.73 Y28.59 F3000.0
G01 X62.54 Y29.17 F3000.0
G01 X63.52 Y29.88 F3000.0
G01 X63.63 Y30.0 F3000.0
G01 X64.35 Y30.7 F3000.0
G01 X65.17 Y31.52 F3000.0
G01 X65.23 Y31.6 F3000.0
G01 X65.81 Y32.42 F3000.0
G01 X66.45 Y33.31 F3000.0
G01 X66.59 Y33.61 F3000.0
G01 X67.02 Y34.51 F3000.0
G01 X67.45 Y35.41 F3000.0
G01 X68.03 Y36.61 F3000.0
G01 X68.13 Y36.98 F3000.0
G01 X68.41 Y37.94 F3000.0
G01 X68.79 Y39.28 F3000.0
G01 X68.81 Y39.38 F3000.0
G01 X69.03 Y40.35 F3000.0
G01 X69.25 Y41.33 F3000.0
G01 X69.49 Y42.4 F3000.0
G01 X69.57 Y42.82 F3000.0
G01 X69.84 Y44.22 F3000.0
G01 X69.91 Y44.6 F3000.0
G01 X70.13 Y45.96 F3000.0
G01 X70.17 Y46.2 F3000.0
G01 X70.36 Y47.43 F3000.0
G01 X70.37 Y47.6 F3000.0
G01 X70.14 Y47.36 F3000.0
G01 X69.86 Y46.9 F3000.0
G01 X69.85 Y46.89 F3000.0
G01 X69.26 Y46.08 F3000.0
G01 X68.67 Y45.27 F3000.0
G01 X68.81 Y45.93 F3000.0
G01 X68.86 Y46.32 F3000.0
G01 X69.03 Y47.69 F3000.0
G01 X69.0 Y47.95 F3000.0
G01 X68.83 Y49.21 F3000.0
G01 X68.59 Y49.6 F3000.0
G01 X67.81 Y50.85 F3000.0
G01 X67.15 Y51.51 F3000.0
G01 X66.44 Y52.0 F3000.0
G01 X65.83 Y52.19 F3000.0
G01 X66.08 Y51.45 F3000.0
G01 X66.21 Y51.04 F3000.0
G01 X66.64 Y49.68 F3000.0
G01 X66.67 Y49.2 F3000.0
G01 X66.74 Y47.71 F3000.0
G01 X66.63 Y46.88 F3000.0
G01 X66.43 Y46.38 F3000.0
G01 X66.28 Y45.98 F3000.0
G01 X66.24 Y45.63 F3000.0
G01 X65.97 Y45.11 F3000.0
G01 X65.61 Y44.64 F3000.0
G01 X65.31 Y44.43 F3000.0
G01 X65.41 Y44.74 F3000.0
G01 X65.7 Y45.68 F3000.0
G01 Y46.28 F3000.0
G01 X65.36 Y46.83 F3000.0
G01 X64.87 Y47.29 F3000.0
G01 X63.98 Y47.36 F3000.0
G01 X63.82 Y47.34 F3000.0
G01 X62.66 Y47.22 F3000.0
G01 X62.39 Y47.0 F3000.0
G01 X62.31 Y46.67 F3000.0
G01 X62.27 Y46.29 F3000.0
G01 X62.17 Y46.27 F3000.0
G01 X61.96 Y47.13 F3000.0
G01 X61.97 Y47.45 F3000.0
G01 X62.03 Y48.77 F3000.0
G01 X62.15 Y49.1 F3000.0
G01 X62.59 Y50.38 F3000.0
G01 X62.96 Y51.23 F3000.0
G01 X62.33 Y50.77 F3000.0
G01 X61.75 Y50.27 F3000.0
G01 X62.08 Y50.94 F3000.0
G01 X62.36 Y51.75 F3000.0
G01 X62.54 Y52.09 F3000.0
G01 X63.08 Y52.65 F3000.0
G01 X63.33 Y52.85 F3000.0
G01 X64.39 Y53.66 F3000.0
G01 X65.26 Y53.98 F3000.0
G01 X66.13 Y54.04 F3000.0
G01 X67.0 Y53.86 F3000.0
G01 X67.84 Y53.42 F3000.0
G01 X68.62 Y53.14 F3000.0
G01 X68.81 F3000.0
G01 X68.8 Y52.95 F3000.0
G01 X69.08 Y52.12 F3000.0
G01 X69.5 Y51.6 F3000.0
G01 X69.74 Y51.66 F3000.0
G01 X70.19 Y52.11 F3000.0
G01 X70.6 Y52.46 F3000.0
G01 X70.16 Y51.81 F3000.0
G01 X69.71 Y51.15 F3000.0
G01 X70.07 Y50.44 F3000.0
G01 X70.54 Y49.74 F3000.0
G01 X70.71 Y50.42 F3000.0
G01 X70.73 Y50.61 F3000.0
G01 X70.82 Y51.61 F3000.0
G01 X70.92 Y52.8 F3000.0
G01 F3000.0
G01 X70.95 Y53.8 F3000.0
G01 X70.77 Y54.15 F3000.0
G01 X70.59 Y54.45 F3000.0
G01 X70.68 Y55.24 F3000.0
G01 X70.7 Y55.33 F3000.0
G01 X70.93 Y56.39 F3000.0
G01 X70.95 Y56.54 F3000.0
G01 X70.86 Y56.53 F3000.0
G01 X70.61 Y55.91 F3000.0
G01 X70.5 Y55.43 F3000.0
G01 X70.34 Y55.21 F3000.0
G01 X69.43 Y55.38 F3000.0
G01 X69.37 Y55.4 F3000.0
G01 X68.38 Y55.77 F3000.0
G01 X68.29 Y56.09 F3000.0
G01 X68.36 Y56.89 F3000.0
G01 X68.4 Y57.38 F3000.0
G01 X68.51 Y58.86 F3000.0
G01 X68.35 Y59.76 F3000.0
G01 X68.22 Y59.67 F3000.0
G01 X68.18 Y59.28 F3000.0
G01 X68.12 Y58.82 F3000.0
G01 X67.92 Y57.38 F3000.0
G01 X67.87 Y57.2 F3000.0
G01 X67.52 Y56.06 F3000.0
G01 X66.72 Y56.18 F3000.0
G01 X66.09 Y56.36 F3000.0
G01 X66.18 Y56.98 F3000.0
G01 Y57.04 F3000.0
G01 X66.23 Y58.04 F3000.0
G01 X66.27 Y59.11 F3000.0
G01 X66.26 Y59.32 F3000.0
G01 X66.16 Y60.53 F3000.0
G01 X65.89 Y59.75 F3000.0
G01 X65.8 Y59.3 F3000.0
G01 X65.59 Y58.33 F3000.0
G01 X65.3 Y56.9 F3000.0
G01 X65.14 Y56.52 F3000.0
G01 X64.63 Y56.51 F3000.0
G01 X64.38 Y56.53 F3000.0
G01 X63.38 Y56.62 F3000.0
G01 X62.13 Y56.74 F3000.0
G01 X61.67 Y56.78 F3000.0
G01 X60.21 Y56.9 F3000.0
G01 X60.2 Y57.48 F3000.0
G01 X60.18 Y57.87 F3000.0
G01 X60.12 Y58.86 F3000.0
G01 X60.06 Y59.86 F3000.0
G01 X59.98 Y61.25 F3000.0
G01 X59.95 Y61.57 F3000.0
G01 X59.84 Y62.57 F3000.0
G01 X59.74 Y63.56 F3000.0
G01 X59.64 Y64.56 F3000.0
G01 X59.51 Y65.87 F3000.0
G01 X59.49 Y66.02 F3000.0
G01 X59.39 Y67.02 F3000.0
G01 X59.28 Y68.01 F3000.0
G01 X59.16 Y69.15 F3000.0
G01 Y69.18 F3000.0
G01 X58.9 Y71.16 F3000.0
G01 X58.77 Y72.18 F3000.0
G01 X58.7 Y72.44 F3000.0
G01 X58.4 Y73.67 F3000.0
G01 Y73.18 F3000.0
G01 X58.43 Y72.75 F3000.0
G01 X58.59 Y70.76 F3000.0
G01 X58.7 Y69.33 F3000.0
G01 X58.71 Y68.94 F3000.0
G01 X58.73 Y67.94 F3000.0
G01 X58.76 Y66.94 F3000.0
G01 X58.78 Y65.94 F3000.0
G01 X58.8 Y64.94 F3000.0
G01 X58.83 Y63.54 F3000.0
G01 X58.82 Y63.21 F3000.0
G01 X58.8 Y62.21 F3000.0
G01 X58.77 Y61.21 F3000.0
G01 X58.75 Y60.21 F3000.0
G01 X58.71 Y58.87 F3000.0
G01 X58.7 Y58.75 F3000.0
G01 X58.57 Y57.63 F3000.0
G01 X58.37 Y57.11 F3000.0
G01 X58.36 F3000.0
G01 X57.36 Y57.08 F3000.0
G01 X56.36 Y57.06 F3000.0
G01 X56.23 Y57.07 F3000.0
G01 X55.23 Y57.14 F3000.0
G01 X54.1 Y57.22 F3000.0
G01 X53.86 Y57.38 F3000.0
G01 X53.79 Y57.68 F3000.0
G01 X53.74 Y58.14 F3000.0
G01 X53.58 Y59.58 F3000.0
G01 X53.53 Y59.92 F3000.0
G01 X53.4 Y60.91 F3000.0
G01 X53.22 Y62.24 F3000.0
G01 X53.15 Y62.64 F3000.0
G01 X52.94 Y64.03 F3000.0
G01 X52.92 Y64.26 F3000.0
G01 X52.8 Y65.49 F3000.0
G01 Y65.53 F3000.0
G01 X52.68 Y66.57 F3000.0
G01 X52.57 Y66.08 F3000.0
G01 X52.55 Y65.76 F3000.0
G01 X52.48 Y64.44 F3000.0
G01 X52.47 Y64.08 F3000.0
G01 X52.45 Y63.08 F3000.0
G01 X52.44 Y62.08 F3000.0
G01 X52.42 Y61.08 F3000.0
G01 X52.4 Y59.72 F3000.0
G01 Y59.54 F3000.0
G01 X52.41 Y58.54 F3000.0
G01 X52.42 Y57.35 F3000.0
G01 X51.74 Y57.3 F3000.0
G01 X51.26 Y57.31 F3000.0
G01 X49.79 Y57.35 F3000.0
G01 X49.65 Y57.36 F3000.0
G01 X48.51 Y57.44 F3000.0
G01 X48.43 Y58.09 F3000.0
G01 X48.41 Y58.24 F3000.0
G01 X48.22 Y59.38 F3000.0
G01 X48.16 Y59.72 F3000.0
G01 X47.92 Y61.05 F3000.0
G01 X47.9 Y61.13 F3000.0
G01 X47.66 Y62.19 F3000.0
G01 X46.98 Y62.38 F3000.0
G01 X46.38 Y62.47 F3000.0
G01 Y62.17 F3000.0
G01 Y61.17 F3000.0
G01 Y59.86 F3000.0
G01 Y59.56 F3000.0
G01 Y58.56 F3000.0
G01 Y57.25 F3000.0
G01 X46.13 Y57.26 F3000.0
G01 X45.13 Y57.28 F3000.0
G01 X43.88 Y57.3 F3000.0
G01 X43.59 Y57.31 F3000.0
G01 X42.59 Y57.36 F3000.0
G01 X41.3 Y57.42 F3000.0
G01 X41.23 Y57.7 F3000.0
G01 X40.96 Y58.66 F3000.0
G01 X40.69 Y59.62 F3000.0
G01 X40.34 Y60.86 F3000.0
G01 X40.15 Y61.6 F3000.0
G01 X39.75 Y61.65 F3000.0
G01 X39.27 Y61.53 F3000.0
G01 Y61.34 F3000.0
G01 X39.24 Y60.14 F3000.0
G01 X39.27 Y59.87 F3000.0
G01 X39.35 Y58.87 F3000.0
G01 X39.46 Y57.6 F3000.0
G01 X39.42 Y57.2 F3000.0
G01 X38.87 Y57.02 F3000.0
G01 X38.12 Y56.94 F3000.0
G01 Y56.96 F3000.0
G01 X37.86 Y57.94 F3000.0
G01 X37.83 Y58.13 F3000.0
G01 X37.6 Y59.31 F3000.0
G01 Y59.33 F3000.0
G01 X37.58 Y60.33 F3000.0
G01 X37.56 Y61.33 F3000.0
G01 X37.55 Y62.33 F3000.0
G01 X37.53 Y63.33 F3000.0
G01 X37.51 Y64.35 F3000.0
G01 Y64.48 F3000.0
G01 X37.55 Y65.48 F3000.0
G01 X37.59 Y66.48 F3000.0
G01 X37.63 Y67.48 F3000.0
G01 X37.66 Y68.48 F3000.0
G01 X37.71 Y69.61 F3000.0
G01 X37.72 Y69.69 F3000.0
G01 X37.84 Y70.76 F3000.0
G01 X37.78 Y70.65 F3000.0
G01 X37.19 Y69.7 F3000.0
G01 X37.05 Y69.44 F3000.0
G01 X36.6 Y68.55 F3000.0
G01 X36.14 Y67.66 F3000.0
G01 X35.69 Y66.77 F3000.0
G01 X35.1 Y65.61 F3000.0
G01 X34.97 Y65.35 F3000.0
G01 X34.52 Y64.46 F3000.0
G01 X34.07 Y63.57 F3000.0
G01 X33.49 Y62.42 F3000.0
G01 X33.5 Y62.24 F3000.0
G01 X33.59 Y61.07 F3000.0
G01 Y61.03 F3000.0
G01 X33.68 Y60.04 F3000.0
G01 X33.77 Y59.04 F3000.0
G01 X33.87 Y58.04 F3000.0
G01 X33.96 Y57.01 F3000.0
G01 X34.01 Y56.74 F3000.0
G01 X34.19 Y55.75 F3000.0
G01 X34.37 Y54.77 F3000.0
G01 X34.59 Y53.51 F3000.0
G01 X34.63 Y53.36 F3000.0
G01 X34.9 Y52.24 F3000.0
G01 X35.0 Y52.15 F3000.0
G01 X35.15 Y52.26 F3000.0
G01 X35.28 Y52.64 F3000.0
G01 X35.27 Y52.77 F3000.0
G01 X35.41 Y52.76 F3000.0
G01 X35.74 Y52.94 F3000.0
G01 X36.96 Y53.58 F3000.0
G01 X37.27 Y53.77 F3000.0
G01 X38.43 Y54.49 F3000.0
G01 X38.56 Y54.83 F3000.0
G01 X38.7 Y55.18 F3000.0
G01 X38.84 Y54.97 F3000.0
G01 X38.93 Y54.78 F3000.0
G01 X39.41 Y54.98 F3000.0
G01 X39.72 Y55.2 F3000.0
G01 X39.68 Y55.46 F3000.0
G01 X39.55 Y55.91 F3000.0
G01 X39.88 Y55.75 F3000.0
G01 X40.23 Y55.52 F3000.0
G01 X40.61 Y55.51 F3000.0
G01 X40.67 Y55.53 F3000.0
G01 X41.7 Y55.75 F3000.0
G01 X41.86 Y55.76 F3000.0
G01 X42.85 Y55.82 F3000.0
G01 X44.01 Y55.9 F3000.0
G01 X44.26 Y55.88 F3000.0
G01 X45.52 Y55.82 F3000.0
G01 X45.61 Y55.8 F3000.0
G01 X46.66 Y55.5 F3000.0
G01 X46.75 Y55.46 F3000.0
G01 X47.74 Y54.97 F3000.0
G01 X47.97 Y54.76 F3000.0
G01 X48.93 Y53.87 F3000.0
G01 X49.17 Y53.58 F3000.0
G01 X50.07 Y52.54 F3000.0
G01 X49.81 Y52.7 F3000.0
G01 X49.55 Y52.91 F3000.0
G01 X49.68 Y52.29 F3000.0
G01 X49.98 Y51.36 F3000.0
G01 X49.84 Y51.31 F3000.0
G01 X49.23 Y51.71 F3000.0
G01 X49.0 Y51.87 F3000.0
G01 X47.95 Y52.59 F3000.0
G01 X47.63 Y52.75 F3000.0
G01 X46.42 Y53.38 F3000.0
G01 X46.14 Y53.48 F3000.0
G01 X44.93 Y53.93 F3000.0
G01 X44.58 F3000.0
G01 X44.94 Y53.54 F3000.0
G01 X45.03 Y53.4 F3000.0
G01 X45.66 Y52.41 F3000.0
G01 X45.74 Y52.14 F3000.0
G01 X46.1 Y50.91 F3000.0
G01 X46.21 Y49.94 F3000.0
G01 X46.05 Y49.03 F3000.0
G01 X46.03 Y48.99 F3000.0
G01 X45.61 Y48.02 F3000.0
G01 X45.48 Y47.77 F3000.0
G01 X45.4 Y47.41 F3000.0
G01 X45.04 Y46.85 F3000.0
G01 X44.59 Y46.33 F3000.0
G01 X44.24 Y46.1 F3000.0
G01 X44.35 Y46.37 F3000.0
G01 X44.77 Y47.24 F3000.0
G01 X44.94 Y47.84 F3000.0
G01 X44.39 Y48.3 F3000.0
G01 X43.89 Y48.63 F3000.0
G01 X43.47 Y48.75 F3000.0
G01 X43.33 Y48.76 F3000.0
G01 X42.18 Y48.83 F3000.0
G01 X41.35 Y48.86 F3000.0
G01 X40.79 Y48.68 F3000.0
G01 X40.24 Y48.41 F3000.0
G01 X39.95 Y48.19 F3000.0
G01 X39.89 Y47.56 F3000.0
G01 X40.15 Y46.62 F3000.0
G01 X40.84 Y45.96 F3000.0
G01 X41.13 Y45.68 F3000.0
G01 X40.41 Y45.99 F3000.0
G01 X40.32 Y46.06 F3000.0
G01 X39.46 Y46.75 F3000.0
G01 X38.97 Y47.31 F3000.0
G01 X38.89 Y47.68 F3000.0
G01 X38.87 Y48.12 F3000.0
G01 X38.54 Y48.37 F3000.0
G01 X38.25 Y48.85 F3000.0
G01 Y48.99 F3000.0
G01 X38.2 Y50.14 F3000.0
G01 X38.32 Y51.05 F3000.0
G01 X38.66 Y51.94 F3000.0
G01 X39.09 Y52.81 F3000.0
G01 X38.38 Y52.43 F3000.0
G01 X37.73 Y51.97 F3000.0
G01 X37.21 Y51.41 F3000.0
G01 X36.87 Y50.81 F3000.0
G01 X36.75 Y50.21 F3000.0
G01 X36.9 Y49.27 F3000.0
G01 X36.91 Y49.24 F3000.0
G01 X37.31 Y48.29 F3000.0
G01 X37.44 Y48.0 F3000.0
G01 X37.34 Y48.01 F3000.0
G01 X37.31 Y48.03 F3000.0
G01 X36.6 Y48.78 F3000.0
G01 X36.49 Y48.91 F3000.0
G01 X35.73 Y49.8 F3000.0
G01 X35.65 Y49.79 F3000.0
G01 X35.7 Y49.53 F3000.0
G01 X35.71 Y49.52 F3000.0
G01 X36.15 Y48.62 F3000.0
G01 X36.6 Y47.72 F3000.0
G01 X36.61 Y47.71 F3000.0
G01 X37.18 Y46.89 F3000.0
G01 X37.77 Y46.06 F3000.0
G01 X38.02 Y45.8 F3000.0
G01 X38.0 Y45.74 F3000.0
G01 X37.58 Y45.9 F3000.0
G01 X37.1 Y46.39 F3000.0
G01 X37.02 Y46.5 F3000.0
G01 X36.37 Y47.43 F3000.0
G01 X36.17 Y47.79 F3000.0
G01 X35.68 Y48.66 F3000.0
G01 X34.99 Y49.89 F3000.0
G01 X34.91 Y50.11 F3000.0
G01 X34.24 Y51.99 F3000.0
G01 X33.9 Y52.93 F3000.0
G01 X33.49 Y54.1 F3000.0
G01 X33.47 Y54.17 F3000.0
G01 X33.24 Y55.15 F3000.0
G01 X33.02 Y56.12 F3000.0
G01 X32.79 Y57.09 F3000.0
G01 X32.55 Y58.14 F3000.0
G01 X32.52 Y58.3 F3000.0
G01 X32.35 Y59.45 F3000.0
G01 X32.28 Y59.79 F3000.0
G01 X32.23 Y59.71 F3000.0
G01 X31.69 Y58.75 F3000.0
G01 X31.64 Y58.64 F3000.0
G01 X31.12 Y57.64 F3000.0
G01 X31.13 Y57.41 F3000.0
G01 X31.21 Y56.17 F3000.0
G01 X31.22 Y55.99 F3000.0
G01 X31.31 Y55.0 F3000.0
G01 X31.39 Y54.0 F3000.0
G01 X31.48 Y53.0 F3000.0
G01 X31.58 Y51.83 F3000.0
G01 X31.61 Y51.53 F3000.0
G01 X31.72 Y50.54 F3000.0
G01 X31.86 Y49.25 F3000.0
G01 X31.88 Y49.09 F3000.0
G01 X32.0 Y48.09 F3000.0
G01 X32.13 Y46.94 F3000.0
G01 X32.16 Y46.77 F3000.0
G01 X32.36 Y45.61 F3000.0
G01 Y45.58 F3000.0
G01 X32.56 Y44.57 F3000.0
G01 X32.6 Y44.36 F3000.0
G01 X32.82 Y43.17 F3000.0
G01 X32.88 Y42.86 F3000.0
G01 X33.07 Y41.88 F3000.0
G01 X33.32 Y40.59 F3000.0
G01 X33.36 Y40.38 F3000.0
G01 X33.57 Y39.4 F3000.0
G01 X33.81 Y38.21 F3000.0
G01 X33.85 Y38.01 F3000.0
G01 X34.09 Y36.83 F3000.0
G01 X34.25 Y36.43 F3000.0
G01 X34.79 Y35.11 F3000.0
G01 X34.83 Y35.03 F3000.0
G01 X35.34 Y34.07 F3000.0
G01 X34.9 Y34.38 F3000.0
G01 X34.46 Y34.7 F3000.0
G01 X34.57 Y34.15 F3000.0
G01 X34.6 Y33.92 F3000.0
G01 X34.77 Y32.7 F3000.0
G01 X35.04 Y31.75 F3000.0
G01 X35.39 Y31.51 F3000.0
G01 X35.54 Y31.42 F3000.0
G01 X36.54 Y30.79 F3000.0
G01 X36.83 Y30.64 F3000.0
G01 X37.72 Y30.18 F3000.0
G01 X38.91 Y29.57 F3000.0
G01 X39.06 Y29.49 F3000.0
G01 X40.83 Y28.54 F3000.0
G01 X41.86 Y27.99 F3000.0
G01 X41.58 Y28.1 F3000.0
G01 X40.65 Y28.46 F3000.0
G01 X39.44 Y28.93 F3000.0
G01 X38.77 Y29.2 F3000.0
G01 X38.32 Y29.41 F3000.0
G01 X36.98 Y30.04 F3000.0
G01 X36.53 Y30.24 F3000.0
G01 X35.18 Y30.88 F3000.0
G01 X35.17 Y30.28 F3000.0
G01 X35.22 Y30.1 F3000.0
G01 X35.56 Y28.96 F3000.0
G01 X36.03 Y28.08 F3000.0
G01 X36.05 Y28.06 F3000.0
G01 X36.88 Y27.45 F3000.0
G01 X37.26 Y27.21 F3000.0
G01 X38.47 Y26.42 F3000.0
G01 X38.67 Y26.34 F3000.0
G01 X39.78 Y25.85 F3000.0
G01 X40.04 Y25.68 F3000.0
G01 X40.05 Y25.58 F3000.0
G01 X39.87 Y25.63 F3000.0
G01 X39.78 Y25.64 F3000.0
G01 X38.71 Y25.86 F3000.0
G01 X38.53 Y25.92 F3000.0
G01 X37.38 Y26.25 F3000.0
G01 X37.07 Y26.41 F3000.0
G01 X35.86 Y27.01 F3000.0
G01 X35.93 Y26.54 F3000.0
G01 X36.41 Y26.02 F3000.0
G01 X36.76 Y25.82 F3000.0
G01 X37.98 Y25.11 F3000.0
G01 X38.25 Y24.95 F3000.0
G01 X39.11 Y24.44 F3000.0
G01 X39.97 Y23.92 F3000.0
G01 X40.83 Y23.41 F3000.0
G01 X41.97 Y22.74 F3000.0
G01 X42.25 Y22.55 F3000.0
G01 X43.07 Y21.98 F3000.0
G01 X43.9 Y21.42 F3000.0
G01 X45.55 Y20.29 F3000.0
G01 X46.38 Y19.73 F3000.0
G01 X47.21 Y19.17 F3000.0
G01 X48.31 Y18.42 F3000.0
G01 X48.47 Y18.29 F3000.0
G01 X49.4 Y17.55 F3000.0
G01 X49.51 Y17.45 F3000.0
G01 X50.32 Y16.63 F3000.0
G01 X50.36 Y16.58 F3000.0
G01 X51.0 Y15.72 F3000.0
G01 X51.38 Y14.91 F3000.0
G01 X51.54 Y14.29 F3000.0
G01 X51.56 F3000.0
G01 X52.59 Y14.34 F3000.0
G01 X52.66 Y14.33 F3000.0
G01 X53.72 Y14.25 F3000.0
G01 X53.87 Y14.12 F3000.0
G01 X54.04 Y14.14 F3000.0
G01 X54.34 Y14.57 F3000.0
G01 X54.35 Y14.58 F3000.0
G01 X54.88 Y15.44 F3000.0
G01 X55.23 Y15.7 F3000.0
G01 X55.6 Y15.79 F3000.0
G01 X55.93 Y15.73 F3000.0
G01 X56.02 Y15.53 F3000.0
G01 X56.33 Y15.17 F3000.0
G01 X56.39 Y15.13 F3000.0
G01 X57.31 Y14.57 F3000.0
G01 X57.45 Y14.49 F3000.0
G01 X59.14 Y13.43 F3000.0
G01 X60.12 Y12.81 F3000.0
G01 X60.51 Y12.54 F3000.0
G01 X61.73 Y11.71 F3000.0
G01 X61.8 Y11.63 F3000.0
G01 X62.59 Y10.84 F3000.0
G01 X63.06 Y10.32 F3000.0
G01 X63.11 Y10.18 F3000.0
G01 X62.78 Y10.4 F3000.0
G01 X61.61 Y11.17 F3000.0
G01 X61.29 Y11.38 F3000.0
G01 X60.46 Y11.94 F3000.0
G01 X59.63 Y12.5 F3000.0
G01 X58.8 Y13.06 F3000.0
G01 X57.97 Y13.62 F3000.0
G01 X57.14 Y14.17 F3000.0
G01 X55.99 Y14.95 F3000.0
G01 X55.73 Y14.94 F3000.0
G01 X55.38 Y14.43 F3000.0
G01 X55.36 Y14.4 F3000.0
G01 X54.8 Y13.53 F3000.0
G01 X54.72 Y13.36 F3000.0
G01 X54.87 Y13.17 F3000.0
G01 X55.11 Y13.03 F3000.0
G01 X56.23 Y12.41 F3000.0
G01 X56.3 Y12.37 F3000.0
G01 X57.19 Y11.9 F3000.0
G01 X58.07 Y11.44 F3000.0
G01 X58.95 Y10.97 F3000.0
G01 X59.84 Y10.5 F3000.0
G01 X60.72 Y10.04 F3000.0
G01 X61.61 Y9.57 F3000.0
G01 X62.56 Y9.07 F3000.0
G01 X62.61 Y9.05 F3000.0
G01 X63.49 Y8.59 F3000.0
G01 X64.43 Y8.1 F3000.0
G01 X64.54 Y7.96 F3000.0
G01 X64.75 Y7.82 F3000.0
G01 X64.87 Y7.93 F3000.0
G01 X64.69 Y8.42 F3000.0
G01 F3000.0
M5
G00 X71.22 Y8.95 F3000.0
M3 F3000.0
G01 X71.21 Y9.23 F3000.0
G01 X71.16 Y10.23 F3000.0
G01 X71.09 Y11.5 F3000.0
G01 X70.55 Y12.28 F3000.0
G01 X70.37 Y12.47 F3000.0
G01 X69.5 Y13.39 F3000.0
G01 X69.29 Y13.58 F3000.0
G01 X68.33 Y14.45 F3000.0
G01 X68.28 Y14.49 F3000.0
G01 X67.41 Y15.11 F3000.0
G01 X67.06 Y15.26 F3000.0
G01 X67.13 Y15.16 F3000.0
G01 X67.35 Y14.97 F3000.0
G01 X68.09 Y14.3 F3000.0
G01 X68.84 Y13.63 F3000.0
G01 X69.81 Y12.77 F3000.0
G01 X69.88 Y12.67 F3000.0
G01 X70.54 Y11.76 F3000.0
G01 X70.55 Y11.52 F3000.0
G01 X70.57 Y10.52 F3000.0
G01 X70.6 Y9.29 F3000.0
G01 X70.59 Y8.97 F3000.0
G01 X70.58 Y7.66 F3000.0
G01 X70.7 Y7.05 F3000.0
G01 X70.94 Y6.87 F3000.0
G01 X71.09 Y7.07 F3000.0
G01 X71.12 Y7.51 F3000.0
G01 X71.22 Y8.95 F3000.0
G01 F3000.0
M5
G00 X66.57 Y15.59 F3000.0
M3 F3000.0
G01 X65.74 Y16.09 F3000.0
G01 X65.37 Y16.27 F3000.0
G01 X65.28 F3000.0
G01 X65.6 Y16.08 F3000.0
G01 X66.78 Y15.38 F3000.0
G01 X66.57 Y15.59 F3000.0
G01 F3000.0
M5
G00 X63.15 Y17.52 F3000.0
M3 F3000.0
G01 X62.66 Y17.86 F3000.0
G01 X62.17 Y18.05 F3000.0
G01 X62.55 Y17.72 F3000.0
G01 X63.0 Y17.49 F3000.0
G01 X63.15 Y17.52 F3000.0
G01 F3000.0
M5
G00 X63.56 Y18.15 F3000.0
M3 F3000.0
G01 X63.69 Y18.5 F3000.0
G01 X63.36 Y18.36 F3000.0
G01 X63.09 Y18.01 F3000.0
G01 X63.31 Y17.9 F3000.0
G01 X63.56 Y18.15 F3000.0
G01 F3000.0
M5
G00 X63.05 Y19.31 F3000.0
M3 F3000.0
G01 X63.3 Y19.66 F3000.0
G01 X64.12 Y20.83 F3000.0
G01 X64.26 Y21.16 F3000.0
G01 X64.77 Y22.42 F3000.0
G01 X64.81 Y22.74 F3000.0
G01 X64.94 Y23.73 F3000.0
G01 X65.1 Y25.04 F3000.0
G01 X65.11 Y25.25 F3000.0
G01 X65.16 Y26.25 F3000.0
G01 X65.22 Y27.46 F3000.0
G01 X65.06 F3000.0
G01 X64.66 Y26.88 F3000.0
G01 X64.08 Y26.09 F3000.0
G01 X63.43 Y25.46 F3000.0
G01 X62.75 Y25.0 F3000.0
G01 X62.05 Y24.75 F3000.0
G01 X62.01 Y24.74 F3000.0
G01 X60.97 Y24.61 F3000.0
G01 X61.03 Y24.74 F3000.0
G01 X61.48 Y25.0 F3000.0
G01 X61.69 Y25.17 F3000.0
G01 X62.68 Y25.95 F3000.0
G01 X62.88 Y26.28 F3000.0
G01 X63.63 Y27.45 F3000.0
G01 X63.79 Y27.85 F3000.0
G01 X64.34 Y29.17 F3000.0
G01 Y29.18 F3000.0
G01 X64.62 Y30.15 F3000.0
G01 X64.17 Y29.9 F3000.0
G01 X64.05 Y29.82 F3000.0
G01 X63.23 Y29.23 F3000.0
G01 X62.42 Y28.65 F3000.0
G01 X61.49 Y27.97 F3000.0
G01 X61.17 Y27.79 F3000.0
G01 X60.3 Y27.29 F3000.0
G01 X59.11 Y26.6 F3000.0
G01 X58.95 Y26.54 F3000.0
G01 X58.02 Y26.17 F3000.0
G01 X56.93 Y25.74 F3000.0
G01 X56.88 Y25.73 F3000.0
G01 X55.9 Y25.55 F3000.0
G01 X54.87 Y25.36 F3000.0
G01 X54.76 Y25.34 F3000.0
G01 X53.66 Y25.15 F3000.0
G01 X53.53 Y25.01 F3000.0
G01 X53.73 Y24.83 F3000.0
G01 X53.95 Y24.63 F3000.0
G01 X54.89 Y23.76 F3000.0
G01 X55.08 Y23.49 F3000.0
G01 X55.87 Y22.43 F3000.0
G01 X56.14 Y21.95 F3000.0
G01 X56.41 Y21.79 F3000.0
G01 X56.59 Y21.69 F3000.0
G01 X57.62 Y21.08 F3000.0
G01 X57.84 Y20.96 F3000.0
G01 X58.71 Y20.47 F3000.0
G01 X59.81 Y19.85 F3000.0
G01 X59.98 Y19.77 F3000.0
G01 X61.07 Y19.26 F3000.0
G01 X61.2 Y19.15 F3000.0
G01 X60.95 Y19.18 F3000.0
G01 X60.63 Y19.2 F3000.0
G01 X60.93 Y19.05 F3000.0
G01 X62.12 Y18.45 F3000.0
G01 X62.22 Y18.54 F3000.0
G01 X63.05 Y19.31 F3000.0
G01 F3000.0
M5
G00 X61.61 Y18.37 F3000.0
M3 F3000.0
G01 X61.05 Y18.72 F3000.0
G01 X60.49 Y18.94 F3000.0
G01 X61.02 Y18.59 F3000.0
G01 X61.61 Y18.37 F3000.0
G01 F3000.0
M5
G00 X60.21 Y17.41 F3000.0
M3 F3000.0
G01 X59.92 Y17.97 F3000.0
G01 X59.53 Y18.4 F3000.0
G01 X59.12 Y18.32 F3000.0
G01 X59.09 Y18.13 F3000.0
G01 X59.44 Y17.76 F3000.0
G01 X60.01 Y17.36 F3000.0
G01 X60.21 Y17.41 F3000.0
G01 F3000.0
M5
;END perimeter

G00 X0 Y0

M5 ;Deactivate laser and set power to 0 (CUSTOM)
G1 X0 Y0
M2 ;End of program
