
;Inkscape Lasertools G-code
;https://github.com/ChrisWag91/Inkscape-Lasertools-Plugin

G90	;Absolute programming
G21	;Programming in millimeters (mm)
M5
M03 S1 ;Activate laser and set power to 0 (CUSTOM)

; START perimeter strategy
G01 F12000.0
M5
G00 X75. Y143. F12000.0
M3 F12000.0
G01 Y4.0 F12000.0
G01 Y3.0 F12000.0
M5
G00 X5. Y3. F12000.0
M3 F12000.0
G01 X94.0 F12000.0
G01 X95.0 F12000.0
M5
G00 X95. Y143. F12000.0
M3 F12000.0
G01 Y4.0 F12000.0
G01 Y3.0 F12000.0
M5
G00 X90. Y143. F12000.0
M3 F12000.0
G01 Y142.5 F12000.0
G01 Y4.5 F12000.0
G01 Y3.0 F12000.0
M5
G00 X85. Y143. F12000.0
M3 F12000.0
G01 Y142.5 F12000.0
G01 Y4.5 F12000.0
G01 Y3.0 F12000.0
M5
G00 X80. Y143. F12000.0
M3 F12000.0
G01 Y4.0 F12000.0
G01 Y3.0 F12000.0
M5
G00 X70. Y143. F12000.0
M3 F12000.0
G01 Y4.0 F12000.0
G01 Y3.0 F12000.0
M5
G00 X65. Y143. F12000.0
M3 F12000.0
G01 Y142.5 F12000.0
G01 Y4.5 F12000.0
G01 Y3.0 F12000.0
M5
G00 X60. Y143. F12000.0
M3 F12000.0
G01 Y4.0 F12000.0
G01 Y3.0 F12000.0
M5
G00 X55. Y143. F12000.0
M3 F12000.0
G01 Y4.0 F12000.0
G01 Y3.0 F12000.0
M5
G00 X50. Y143. F12000.0
M3 F12000.0
G01 Y4.0 F12000.0
G01 Y3.0 F12000.0
M5
G00 X45. Y143. F12000.0
M3 F12000.0
G01 Y4.0 F12000.0
G01 Y3.0 F12000.0
M5
G00 X40. Y143. F12000.0
M3 F12000.0
G01 Y4.0 F12000.0
G01 Y3.0 F12000.0
M5
G00 X35. Y143. F12000.0
M3 F12000.0
G01 Y4.0 F12000.0
G01 Y3.0 F12000.0
M5
G00 X30. Y143. F12000.0
M3 F12000.0
G01 Y4.0 F12000.0
G01 Y3.0 F12000.0
M5
G00 X25. Y143. F12000.0
M3 F12000.0
G01 Y4.0 F12000.0
G01 Y3.0 F12000.0
M5
G00 X20. Y143. F12000.0
M3 F12000.0
G01 Y4.0 F12000.0
G01 Y3.0 F12000.0
M5
G00 X15. Y143. F12000.0
M3 F12000.0
G01 Y4.0 F12000.0
G01 Y3.0 F12000.0
M5
G00 X10. Y143. F12000.0
M3 F12000.0
G01 Y4.0 F12000.0
G01 Y3.0 F12000.0
M5
G00 X5. Y143. F12000.0
M3 F12000.0
G01 Y4.0 F12000.0
G01 Y3.0 F12000.0
M5
;END perimeter

G00 X0 Y0

M5 ;Deactivate laser and set power to 0 (CUSTOM)
G1 X0 Y0
M02	;End of program
