
;Inkscape Lasertools G-code
;https://github.com/ChrisWag91/Inkscape-Lasertools-Plugin

G90	;Absolute programming
G21	;Programming in millimeters (mm)
M5
M03 S1 ;Activate laser and set power to 0 (CUSTOM)

; START perimeter strategy
G01 F9000.0
M5
G00 X34.76 Y24.35 F9000.0
M3 F9000.0
G01 X34.65 Y24.41 F9000.0
G01 X33.76 Y24.88 F9000.0
G01 X32.88 Y25.35 F9000.0
G01 X32.0 Y25.82 F9000.0
G01 X31.11 Y26.29 F9000.0
G01 X30.23 Y26.76 F9000.0
G01 X29.23 Y27.29 F9000.0
G01 X28.93 Y27.44 F9000.0
G01 X27.15 Y28.36 F9000.0
G01 X26.26 Y28.82 F9000.0
G01 X25.06 Y29.43 F9000.0
G01 X24.83 Y29.54 F9000.0
G01 X23.67 Y30.05 F9000.0
G01 Y30.06 F9000.0
G01 Y32.06 F9000.0
G01 Y33.07 F9000.0
G01 X23.68 Y33.37 F9000.0
G01 X23.72 Y34.37 F9000.0
G01 X23.76 Y35.66 F9000.0
G01 X23.92 Y36.29 F9000.0
G01 X24.17 Y36.72 F9000.0
G01 X24.53 Y37.29 F9000.0
G01 X24.11 Y37.61 F9000.0
G01 X23.57 Y38.08 F9000.0
G01 X23.09 Y38.81 F9000.0
G01 X23.06 Y38.89 F9000.0
G01 X22.73 Y39.83 F9000.0
G01 X22.05 Y41.72 F9000.0
G01 X21.72 Y42.66 F9000.0
G01 X21.36 Y43.68 F9000.0
G01 X21.35 Y43.71 F9000.0
G01 X20.81 Y45.64 F9000.0
G01 X20.54 Y46.6 F9000.0
G01 X20.0 Y48.53 F9000.0
G01 X19.72 Y49.52 F9000.0
G01 X19.62 Y49.94 F9000.0
G01 X19.13 Y51.88 F9000.0
G01 X18.89 Y52.85 F9000.0
G01 X18.41 Y54.79 F9000.0
G01 X18.16 Y55.76 F9000.0
G01 X17.92 Y56.73 F9000.0
G01 X17.57 Y58.12 F9000.0
G01 X17.54 Y58.28 F9000.0
G01 X17.33 Y59.26 F9000.0
G01 X17.12 Y60.24 F9000.0
G01 X16.91 Y61.22 F9000.0
G01 X16.66 Y62.35 F9000.0
G01 X16.63 Y62.5 F9000.0
G01 X16.44 Y63.48 F9000.0
G01 X16.25 Y64.46 F9000.0
G01 X16.05 Y65.44 F9000.0
G01 X15.83 Y66.57 F9000.0
G01 X15.76 Y67.01 F9000.0
G01 X15.42 Y68.98 F9000.0
G01 X15.18 Y70.41 F9000.0
G01 X15.16 Y70.61 F9000.0
G01 X15.04 Y71.61 F9000.0
G01 X14.8 Y73.59 F9000.0
G01 X14.65 Y74.79 F9000.0
G01 Y74.89 F9000.0
G01 X14.57 Y75.88 F9000.0
G01 X14.48 Y76.88 F9000.0
G01 X14.4 Y77.97 F9000.0
G01 X14.57 Y78.66 F9000.0
G01 X14.97 Y79.19 F9000.0
G01 X15.25 Y79.45 F9000.0
G01 X16.28 Y80.37 F9000.0
G01 X16.4 Y80.46 F9000.0
G01 X17.21 Y81.04 F9000.0
G01 X18.15 Y81.72 F9000.0
G01 X18.5 Y81.92 F9000.0
G01 X21.08 Y83.45 F9000.0
G01 X21.94 Y83.96 F9000.0
G01 X23.15 Y84.67 F9000.0
G01 X23.49 Y84.84 F9000.0
G01 X24.39 Y85.28 F9000.0
G01 X25.28 Y85.72 F9000.0
G01 X26.18 Y86.17 F9000.0
G01 X27.08 Y86.61 F9000.0
G01 X27.98 Y87.05 F9000.0
G01 X29.21 Y87.66 F9000.0
G01 X29.62 Y87.83 F9000.0
G01 X30.55 Y88.2 F9000.0
G01 X31.47 Y88.58 F9000.0
G01 X32.4 Y88.96 F9000.0
G01 X33.32 Y89.34 F9000.0
G01 X34.25 Y89.72 F9000.0
G01 X35.58 Y90.26 F9000.0
G01 X36.02 Y90.42 F9000.0
G01 X36.95 Y90.77 F9000.0
G01 X39.76 Y91.82 F9000.0
G01 X41.14 Y92.33 F9000.0
G01 X42.08 Y92.64 F9000.0
G01 X42.15 Y92.66 F9000.0
G01 X43.22 Y92.82 F9000.0
G01 X43.62 Y92.83 F9000.0
G01 X44.62 Y92.84 F9000.0
G01 X45.62 Y92.86 F9000.0
G01 X46.62 Y92.88 F9000.0
G01 X48.02 Y92.91 F9000.0
G01 X48.27 Y92.9 F9000.0
G01 X49.27 Y92.88 F9000.0
G01 X50.27 Y92.85 F9000.0
G01 X51.27 Y92.83 F9000.0
G01 X52.27 Y92.81 F9000.0
G01 X53.27 Y92.78 F9000.0
G01 X54.27 Y92.76 F9000.0
G01 X55.27 Y92.74 F9000.0
G01 X56.27 Y92.71 F9000.0
G01 X57.27 Y92.69 F9000.0
G01 X58.27 Y92.67 F9000.0
G01 X59.27 Y92.64 F9000.0
G01 X60.27 Y92.62 F9000.0
G01 X61.52 Y92.59 F9000.0
G01 X61.61 F9000.0
G01 X62.61 Y92.53 F9000.0
G01 X64.61 Y92.44 F9000.0
G01 X65.61 Y92.38 F9000.0
G01 X66.61 Y92.33 F9000.0
G01 X68.6 Y92.23 F9000.0
G01 X69.6 Y92.18 F9000.0
G01 X71.6 Y92.08 F9000.0
G01 X72.69 Y92.03 F9000.0
G01 X73.08 Y91.96 F9000.0
G01 X74.46 Y91.72 F9000.0
G01 X74.5 Y91.7 F9000.0
G01 X75.41 Y91.18 F9000.0
G01 X75.66 Y90.86 F9000.0
G01 X76.53 Y89.76 F9000.0
G01 X76.63 Y89.55 F9000.0
G01 X77.06 Y88.64 F9000.0
G01 X77.6 Y87.53 F9000.0
G01 X77.66 Y87.35 F9000.0
G01 X77.99 Y86.4 F9000.0
G01 X78.31 Y85.46 F9000.0
G01 X78.7 Y84.33 F9000.0
G01 X78.77 Y84.06 F9000.0
G01 X79.04 Y83.1 F9000.0
G01 X79.3 Y82.14 F9000.0
G01 X79.57 Y81.17 F9000.0
G01 X79.91 Y79.95 F9000.0
G01 X80.02 Y79.54 F9000.0
G01 X80.53 Y77.61 F9000.0
G01 X80.78 Y76.64 F9000.0
G01 X81.3 Y74.71 F9000.0
G01 X81.66 Y73.33 F9000.0
G01 X81.69 Y73.21 F9000.0
G01 X81.95 Y72.25 F9000.0
G01 X82.21 Y71.28 F9000.0
G01 X82.47 Y70.31 F9000.0
G01 X82.99 Y68.38 F9000.0
G01 X83.29 Y67.3 F9000.0
G01 X83.38 Y66.89 F9000.0
G01 X83.61 Y65.92 F9000.0
G01 X83.84 Y64.94 F9000.0
G01 X84.07 Y63.97 F9000.0
G01 X84.3 Y63.0 F9000.0
G01 X84.53 Y62.02 F9000.0
G01 X84.76 Y61.05 F9000.0
G01 X84.99 Y60.08 F9000.0
G01 X85.22 Y59.1 F9000.0
G01 X85.54 Y57.72 F9000.0
G01 X85.55 Y57.66 F9000.0
G01 X85.75 Y56.68 F9000.0
G01 X85.94 Y55.7 F9000.0
G01 X86.14 Y54.72 F9000.0
G01 X86.35 Y53.67 F9000.0
G01 X86.38 Y53.25 F9000.0
G01 X86.46 Y52.26 F9000.0
G01 X86.57 Y50.84 F9000.0
G01 Y50.81 F9000.0
G01 X86.46 Y49.79 F9000.0
G01 X86.2 Y48.93 F9000.0
G01 X85.8 Y48.22 F9000.0
G01 X85.24 Y47.61 F9000.0
G01 X85.11 Y47.54 F9000.0
G01 X84.11 Y46.95 F9000.0
G01 X83.99 Y46.9 F9000.0
G01 X83.08 Y46.47 F9000.0
G01 X82.06 Y45.99 F9000.0
G01 X81.87 Y45.92 F9000.0
G01 X80.94 Y45.55 F9000.0
G01 X80.01 Y45.18 F9000.0
G01 X79.08 Y44.81 F9000.0
G01 X78.15 Y44.44 F9000.0
G01 X77.03 Y44.0 F9000.0
G01 X76.65 Y43.75 F9000.0
G01 X76.76 Y43.44 F9000.0
G01 X77.32 Y43.09 F9000.0
G01 X77.36 Y43.08 F9000.0
G01 X78.33 Y42.73 F9000.0
G01 X78.47 Y42.68 F9000.0
G01 X79.42 Y42.37 F9000.0
G01 X80.51 Y42.02 F9000.0
G01 X81.2 Y41.66 F9000.0
G01 X81.7 Y41.2 F9000.0
G01 X82.06 Y40.6 F9000.0
G01 X82.33 Y39.79 F9000.0
G01 X82.39 Y39.5 F9000.0
G01 X82.57 Y38.52 F9000.0
G01 X82.81 Y37.26 F9000.0
G01 X82.84 Y37.05 F9000.0
G01 X82.97 Y36.06 F9000.0
G01 X83.12 Y34.86 F9000.0
G01 X82.99 Y34.07 F9000.0
G01 X82.58 Y33.44 F9000.0
G01 X81.8 Y32.91 F9000.0
G01 X81.64 Y32.85 F9000.0
G01 X80.57 Y32.4 F9000.0
G01 X80.42 Y32.35 F9000.0
G01 X79.47 Y32.05 F9000.0
G01 X78.51 Y31.75 F9000.0
G01 X77.56 Y31.46 F9000.0
G01 X76.46 Y31.11 F9000.0
G01 X76.2 Y31.04 F9000.0
G01 X75.23 Y30.77 F9000.0
G01 X74.27 Y30.5 F9000.0
G01 X73.31 Y30.23 F9000.0
G01 X71.38 Y29.7 F9000.0
G01 X70.42 Y29.43 F9000.0
G01 X69.45 Y29.16 F9000.0
G01 X68.23 Y28.82 F9000.0
G01 X67.82 Y28.73 F9000.0
G01 X66.85 Y28.5 F9000.0
G01 X65.47 Y28.18 F9000.0
G01 X65.17 Y28.14 F9000.0
G01 X63.88 Y27.96 F9000.0
G01 X62.95 Y27.88 F9000.0
G01 X62.41 Y27.69 F9000.0
G01 X61.95 Y27.51 F9000.0
G01 X61.01 Y27.15 F9000.0
G01 X60.08 Y26.79 F9000.0
G01 X58.69 Y26.25 F9000.0
G01 X58.47 Y26.18 F9000.0
G01 X57.52 Y25.88 F9000.0
G01 X56.57 Y25.57 F9000.0
G01 X53.71 Y24.65 F9000.0
G01 X52.76 Y24.34 F9000.0
G01 X51.6 Y23.97 F9000.0
G01 X51.5 Y23.94 F9000.0
G01 X50.53 Y23.69 F9000.0
G01 X49.56 Y23.43 F9000.0
G01 X48.49 Y23.15 F9000.0
G01 X48.4 Y23.14 F9000.0
G01 X47.4 Y23.05 F9000.0
G01 X46.31 Y22.95 F9000.0
G01 X45.88 Y22.96 F9000.0
G01 X44.44 Y22.97 F9000.0
G01 X44.84 Y23.07 F9000.0
G01 X45.82 Y23.29 F9000.0
G01 X47.19 Y23.61 F9000.0
G01 X47.59 Y23.72 F9000.0
G01 X48.55 Y23.98 F9000.0
G01 X49.52 Y24.25 F9000.0
G01 X50.88 Y24.62 F9000.0
G01 X51.29 Y24.75 F9000.0
G01 X52.25 Y25.04 F9000.0
G01 X53.2 Y25.34 F9000.0
G01 X54.16 Y25.63 F9000.0
G01 X55.53 Y26.06 F9000.0
G01 X55.69 Y26.11 F9000.0
G01 X57.58 Y26.75 F9000.0
G01 X58.53 Y27.07 F9000.0
G01 X59.64 Y27.45 F9000.0
G01 X59.75 Y27.49 F9000.0
G01 X60.67 Y27.87 F9000.0
G01 X61.71 Y28.3 F9000.0
G01 X61.96 Y29.1 F9000.0
G01 X61.98 Y29.57 F9000.0
G01 X62.04 Y31.03 F9000.0
G01 Y31.11 F9000.0
G01 X62.0 Y32.11 F9000.0
G01 X61.96 Y33.18 F9000.0
G01 X61.78 Y33.47 F9000.0
G01 X61.44 Y33.52 F9000.0
G01 X61.22 Y33.49 F9000.0
G01 X60.02 Y33.35 F9000.0
G01 X59.89 Y33.33 F9000.0
G01 X58.91 Y33.13 F9000.0
G01 X57.8 Y32.91 F9000.0
G01 X57.34 Y32.8 F9000.0
G01 X55.4 Y32.32 F9000.0
G01 X54.43 Y32.08 F9000.0
G01 X53.45 Y31.84 F9000.0
G01 X52.03 Y31.49 F9000.0
G01 X51.58 Y31.36 F9000.0
G01 X50.62 Y31.08 F9000.0
G01 X49.66 Y30.81 F9000.0
G01 X48.7 Y30.53 F9000.0
G01 X47.74 Y30.25 F9000.0
G01 X46.33 Y29.84 F9000.0
G01 X46.21 Y29.8 F9000.0
G01 X45.27 Y29.48 F9000.0
G01 X44.2 Y29.11 F9000.0
G01 X44.01 Y29.03 F9000.0
G01 X42.9 Y28.55 F9000.0
G01 X42.3 Y28.09 F9000.0
G01 X41.94 Y27.44 F9000.0
G01 Y27.42 F9000.0
G01 X41.76 Y26.42 F9000.0
G01 X41.75 Y26.13 F9000.0
G01 X41.69 Y24.85 F9000.0
G01 X41.67 Y24.57 F9000.0
G01 X41.59 Y23.3 F9000.0
G01 X41.45 Y23.01 F9000.0
G01 X41.23 Y22.93 F9000.0
G01 X41.02 Y22.99 F9000.0
G01 X40.91 Y23.25 F9000.0
G01 X40.92 Y23.48 F9000.0
G01 X40.96 Y24.72 F9000.0
G01 X40.95 Y25.11 F9000.0
G01 X40.94 Y26.11 F9000.0
G01 X40.93 Y27.5 F9000.0
G01 X40.75 Y28.1 F9000.0
G01 X40.2 Y28.63 F9000.0
G01 X40.07 Y28.7 F9000.0
G01 X39.18 Y29.15 F9000.0
G01 X38.29 Y29.6 F9000.0
G01 X37.4 Y30.06 F9000.0
G01 X36.37 Y30.58 F9000.0
G01 X36.26 Y30.63 F9000.0
G01 X33.52 Y31.85 F9000.0
G01 X32.61 Y32.26 F9000.0
G01 X30.78 Y33.08 F9000.0
G01 X29.75 Y33.54 F9000.0
G01 X29.35 Y33.69 F9000.0
G01 X28.41 Y34.04 F9000.0
G01 X27.47 Y34.39 F9000.0
G01 X26.54 Y34.74 F9000.0
G01 X25.2 Y35.25 F9000.0
G01 X24.47 Y35.42 F9000.0
G01 Y34.95 F9000.0
G01 Y33.48 F9000.0
G01 X24.48 Y33.36 F9000.0
G01 X24.57 Y32.37 F9000.0
G01 X24.67 Y31.26 F9000.0
G01 X24.7 Y31.23 F9000.0
G01 X25.53 Y30.6 F9000.0
G01 X25.65 Y30.53 F9000.0
G01 X26.52 Y30.03 F9000.0
G01 X27.5 Y29.45 F9000.0
G01 X27.84 Y29.28 F9000.0
G01 X29.61 Y28.35 F9000.0
G01 X30.5 Y27.89 F9000.0
G01 X31.39 Y27.43 F9000.0
G01 X32.28 Y26.97 F9000.0
G01 X33.16 Y26.51 F9000.0
G01 X34.39 Y25.87 F9000.0
G01 X34.62 Y25.75 F9000.0
G01 X35.51 Y25.31 F9000.0
G01 X36.41 Y24.86 F9000.0
G01 X37.3 Y24.41 F9000.0
G01 X38.2 Y23.97 F9000.0
G01 X39.09 Y23.52 F9000.0
G01 X40.21 Y22.96 F9000.0
G01 X40.04 F9000.0
G01 X38.86 Y22.94 F9000.0
G01 X38.07 Y22.99 F9000.0
G01 X37.25 Y23.2 F9000.0
G01 X36.92 Y23.35 F9000.0
G01 X36.01 Y23.77 F9000.0
G01 X34.76 Y24.35 F9000.0
G01 F9000.0
M5
G00 X36.64 Y36.58 F9000.0
M3 F9000.0
G01 X36.57 Y36.8 F9000.0
G01 X36.28 Y37.76 F9000.0
G01 X35.99 Y38.72 F9000.0
G01 X35.7 Y39.67 F9000.0
G01 X35.35 Y40.85 F9000.0
G01 X35.28 Y41.06 F9000.0
G01 X34.99 Y42.02 F9000.0
G01 X34.4 Y43.92 F9000.0
G01 X34.1 Y44.88 F9000.0
G01 X33.51 Y46.79 F9000.0
G01 X33.22 Y47.75 F9000.0
G01 X32.62 Y49.66 F9000.0
G01 X32.33 Y50.61 F9000.0
G01 X32.03 Y51.57 F9000.0
G01 X31.67 Y52.73 F9000.0
G01 X31.59 Y53.03 F9000.0
G01 X31.34 Y54.0 F9000.0
G01 X31.09 Y54.97 F9000.0
G01 X30.83 Y55.94 F9000.0
G01 X30.5 Y57.21 F9000.0
G01 X30.44 Y57.52 F9000.0
G01 X30.23 Y58.5 F9000.0
G01 X30.03 Y59.48 F9000.0
G01 X29.76 Y60.77 F9000.0
G01 X29.67 Y61.21 F9000.0
G01 X29.48 Y62.19 F9000.0
G01 X29.28 Y63.17 F9000.0
G01 X29.0 Y64.6 F9000.0
G01 X28.92 Y64.96 F9000.0
G01 X28.71 Y65.94 F9000.0
G01 X28.51 Y66.92 F9000.0
G01 X28.3 Y67.9 F9000.0
G01 X28.09 Y68.88 F9000.0
G01 X27.89 Y69.85 F9000.0
G01 X27.68 Y70.83 F9000.0
G01 X27.4 Y72.17 F9000.0
G01 X27.38 Y72.29 F9000.0
G01 X27.21 Y73.27 F9000.0
G01 X27.04 Y74.26 F9000.0
G01 X26.86 Y75.36 F9000.0
G01 X26.78 Y76.27 F9000.0
G01 X26.6 Y76.55 F9000.0
G01 X26.23 Y76.73 F9000.0
G01 X25.95 Y76.75 F9000.0
G01 X24.68 Y76.89 F9000.0
G01 X24.64 F9000.0
G01 X23.64 F9000.0
G01 X22.64 Y76.9 F9000.0
G01 X21.59 F9000.0
G01 X21.43 F9000.0
G01 X19.43 Y76.89 F9000.0
G01 X18.26 Y76.88 F9000.0
G01 X17.84 Y76.85 F9000.0
G01 X16.42 Y76.76 F9000.0
G01 X15.63 Y76.48 F9000.0
G01 X15.47 Y75.98 F9000.0
G01 X15.49 Y75.86 F9000.0
G01 X15.64 Y74.87 F9000.0
G01 X15.79 Y73.88 F9000.0
G01 X15.94 Y72.89 F9000.0
G01 X16.09 Y71.9 F9000.0
G01 X16.23 Y70.91 F9000.0
G01 X16.4 Y69.8 F9000.0
G01 X16.43 Y69.62 F9000.0
G01 X16.78 Y67.65 F9000.0
G01 X16.95 Y66.67 F9000.0
G01 X17.3 Y64.7 F9000.0
G01 X17.47 Y63.71 F9000.0
G01 X17.64 Y62.73 F9000.0
G01 X17.85 Y61.56 F9000.0
G01 X17.89 Y61.39 F9000.0
G01 X18.57 Y58.47 F9000.0
G01 X18.79 Y57.5 F9000.0
G01 X19.02 Y56.52 F9000.0
G01 X19.25 Y55.55 F9000.0
G01 X19.51 Y54.41 F9000.0
G01 X19.53 Y54.33 F9000.0
G01 X19.78 Y53.37 F9000.0
G01 X20.29 Y51.43 F9000.0
G01 X20.54 Y50.46 F9000.0
G01 X21.04 Y48.53 F9000.0
G01 X21.3 Y47.56 F9000.0
G01 X21.55 Y46.59 F9000.0
G01 X21.82 Y45.55 F9000.0
G01 X21.86 Y45.43 F9000.0
G01 X22.43 Y43.51 F9000.0
G01 X22.75 Y42.42 F9000.0
G01 X22.77 Y42.36 F9000.0
G01 X23.15 Y41.43 F9000.0
G01 X23.55 Y40.44 F9000.0
G01 X23.71 Y40.22 F9000.0
G01 X24.45 Y39.19 F9000.0
G01 X24.66 Y39.04 F9000.0
G01 X25.66 Y38.28 F9000.0
G01 X25.76 Y38.24 F9000.0
G01 X26.7 Y37.89 F9000.0
G01 X27.74 Y37.5 F9000.0
G01 X27.89 Y37.47 F9000.0
G01 X29.83 Y37.0 F9000.0
G01 X30.95 Y36.73 F9000.0
G01 X31.07 Y36.71 F9000.0
G01 X32.06 Y36.54 F9000.0
G01 X33.04 Y36.37 F9000.0
G01 X34.15 Y36.19 F9000.0
G01 X34.16 Y36.18 F9000.0
G01 X35.16 Y36.15 F9000.0
G01 X36.17 Y36.11 F9000.0
G01 X36.5 Y36.3 F9000.0
G01 X36.64 Y36.58 F9000.0
G01 F9000.0
M5
G00 X44.05 Y34.94 F9000.0
M3 F9000.0
G01 X44.04 Y34.97 F9000.0
G01 X43.66 Y35.89 F9000.0
G01 X43.29 Y36.82 F9000.0
G01 X42.92 Y37.75 F9000.0
G01 X42.55 Y38.68 F9000.0
G01 X42.17 Y39.64 F9000.0
G01 X42.16 Y39.66 F9000.0
G01 X41.8 Y40.59 F9000.0
G01 X41.44 Y41.52 F9000.0
G01 X40.71 Y43.38 F9000.0
G01 X40.35 Y44.31 F9000.0
G01 X39.98 Y45.25 F9000.0
G01 X39.61 Y46.2 F9000.0
G01 X39.51 Y46.54 F9000.0
G01 X38.63 Y49.41 F9000.0
G01 X38.23 Y50.71 F9000.0
G01 X38.14 Y51.05 F9000.0
G01 X37.88 Y52.02 F9000.0
G01 X37.37 Y53.95 F9000.0
G01 X37.12 Y54.92 F9000.0
G01 X36.86 Y55.89 F9000.0
G01 X36.52 Y57.19 F9000.0
G01 X36.51 Y57.21 F9000.0
G01 X36.26 Y58.17 F9000.0
G01 X36.0 Y59.14 F9000.0
G01 X35.74 Y60.11 F9000.0
G01 X35.48 Y61.07 F9000.0
G01 X35.23 Y62.04 F9000.0
G01 X34.96 Y63.02 F9000.0
G01 X34.87 Y63.44 F9000.0
G01 X34.66 Y64.41 F9000.0
G01 X34.45 Y65.39 F9000.0
G01 X34.24 Y66.37 F9000.0
G01 X34.03 Y67.35 F9000.0
G01 X33.73 Y68.75 F9000.0
G01 X33.7 Y68.93 F9000.0
G01 X33.52 Y69.92 F9000.0
G01 X33.35 Y70.9 F9000.0
G01 X33.17 Y71.89 F9000.0
G01 X33.0 Y72.87 F9000.0
G01 X32.79 Y74.05 F9000.0
G01 X32.76 Y74.3 F9000.0
G01 X32.61 Y75.55 F9000.0
G01 X32.49 Y75.58 F9000.0
G01 X31.38 Y75.81 F9000.0
G01 X31.25 Y75.84 F9000.0
G01 X30.27 Y76.03 F9000.0
G01 X29.16 Y76.25 F9000.0
G01 F9000.0
G01 X28.17 Y76.44 F9000.0
G01 Y76.42 F9000.0
G01 Y75.4 F9000.0
G01 X28.2 Y75.22 F9000.0
G01 X28.34 Y74.23 F9000.0
G01 X28.49 Y73.24 F9000.0
G01 X28.63 Y72.25 F9000.0
G01 X28.8 Y71.07 F9000.0
G01 X28.87 Y70.67 F9000.0
G01 X29.04 Y69.68 F9000.0
G01 X29.21 Y68.7 F9000.0
G01 X29.38 Y67.71 F9000.0
G01 X29.62 Y66.32 F9000.0
G01 X29.68 Y66.0 F9000.0
G01 X29.85 Y65.02 F9000.0
G01 X30.08 Y63.71 F9000.0
G01 X30.17 Y63.34 F9000.0
G01 X30.39 Y62.37 F9000.0
G01 X30.61 Y61.39 F9000.0
G01 X30.92 Y60.05 F9000.0
G01 X30.95 Y59.91 F9000.0
G01 X31.2 Y58.94 F9000.0
G01 X31.46 Y57.98 F9000.0
G01 X31.71 Y57.01 F9000.0
G01 X31.96 Y56.04 F9000.0
G01 X32.22 Y55.07 F9000.0
G01 X32.47 Y54.11 F9000.0
G01 X32.72 Y53.14 F9000.0
G01 X32.98 Y52.17 F9000.0
G01 X33.27 Y51.07 F9000.0
G01 Y51.03 F9000.0
G01 X33.84 Y49.12 F9000.0
G01 X34.12 Y48.16 F9000.0
G01 X34.97 Y45.28 F9000.0
G01 X35.25 Y44.32 F9000.0
G01 X35.54 Y43.36 F9000.0
G01 X35.83 Y42.37 F9000.0
G01 X35.91 Y42.14 F9000.0
G01 X36.22 Y41.19 F9000.0
G01 X36.54 Y40.25 F9000.0
G01 X36.93 Y39.07 F9000.0
G01 X36.98 Y38.94 F9000.0
G01 X37.35 Y38.02 F9000.0
G01 X37.78 Y36.96 F9000.0
G01 X37.85 Y36.82 F9000.0
G01 X38.36 Y35.78 F9000.0
G01 X38.55 Y35.75 F9000.0
G01 X39.53 Y35.61 F9000.0
G01 X40.71 Y35.45 F9000.0
G01 X40.98 Y35.4 F9000.0
G01 X41.96 Y35.21 F9000.0
G01 X43.2 Y34.97 F9000.0
G01 X43.69 Y34.84 F9000.0
G01 X44.05 Y34.94 F9000.0
G01 F9000.0
M5
G00 X45.64 Y30.46 F9000.0
M3 F9000.0
G01 X45.91 Y30.54 F9000.0
G01 X46.86 Y30.83 F9000.0
G01 X47.82 Y31.12 F9000.0
G01 X48.78 Y31.42 F9000.0
G01 X50.0 Y31.79 F9000.0
G01 X50.34 Y31.88 F9000.0
G01 X51.3 Y32.13 F9000.0
G01 X52.27 Y32.39 F9000.0
G01 X53.57 Y32.73 F9000.0
G01 X53.7 Y32.76 F9000.0
G01 X54.67 Y33.0 F9000.0
G01 X55.65 Y33.23 F9000.0
G01 X56.75 Y33.49 F9000.0
G01 X56.79 Y33.5 F9000.0
G01 X57.77 Y33.7 F9000.0
G01 X58.8 Y33.91 F9000.0
G01 X58.95 Y33.96 F9000.0
G01 X60.06 Y34.32 F9000.0
G01 X59.64 Y34.72 F9000.0
G01 X59.48 Y34.8 F9000.0
G01 X58.44 Y35.36 F9000.0
G01 X58.23 Y35.45 F9000.0
G01 X57.1 Y35.92 F9000.0
G01 X56.93 Y35.93 F9000.0
G01 X55.77 Y36.0 F9000.0
G01 X55.6 Y35.96 F9000.0
G01 X54.63 Y35.75 F9000.0
G01 X53.49 Y35.49 F9000.0
G01 X53.34 Y35.45 F9000.0
G01 X51.42 Y34.89 F9000.0
G01 X50.46 Y34.61 F9000.0
G01 X49.35 Y34.29 F9000.0
G01 X49.23 Y34.26 F9000.0
G01 X48.26 Y34.06 F9000.0
G01 X47.16 Y33.83 F9000.0
G01 X47.11 F9000.0
G01 X46.11 Y33.84 F9000.0
G01 X45.11 Y33.85 F9000.0
G01 X44.06 Y33.86 F9000.0
G01 X43.94 Y33.87 F9000.0
G01 X42.94 Y33.95 F9000.0
G01 X41.94 Y34.03 F9000.0
G01 X40.82 Y34.12 F9000.0
G01 X40.53 Y34.15 F9000.0
G01 X39.53 Y34.28 F9000.0
G01 X38.54 Y34.4 F9000.0
G01 X37.26 Y34.56 F9000.0
G01 X36.99 Y34.6 F9000.0
G01 X36.01 Y34.76 F9000.0
G01 X35.02 Y34.92 F9000.0
G01 X33.76 Y35.12 F9000.0
G01 X33.69 Y35.14 F9000.0
G01 X32.71 Y35.35 F9000.0
G01 X31.73 Y35.55 F9000.0
G01 X30.68 Y35.78 F9000.0
G01 X30.66 F9000.0
G01 X29.68 Y35.98 F9000.0
G01 X28.7 Y36.17 F9000.0
G01 X27.69 Y36.38 F9000.0
G01 X26.89 F9000.0
G01 X26.38 Y36.2 F9000.0
G01 X26.29 Y36.08 F9000.0
G01 X26.39 Y35.92 F9000.0
G01 X27.17 Y35.5 F9000.0
G01 X27.42 Y35.39 F9000.0
G01 X28.34 Y34.99 F9000.0
G01 X29.25 Y34.59 F9000.0
G01 X30.42 Y34.08 F9000.0
G01 X30.62 Y34.0 F9000.0
G01 X32.47 Y33.22 F9000.0
G01 X33.39 Y32.83 F9000.0
G01 X35.23 Y32.05 F9000.0
G01 X36.15 Y31.65 F9000.0
G01 X37.07 Y31.26 F9000.0
G01 X38.2 Y30.79 F9000.0
G01 X38.47 Y30.69 F9000.0
G01 X39.4 Y30.33 F9000.0
G01 X40.61 Y29.88 F9000.0
G01 X40.72 Y29.85 F9000.0
G01 X41.8 Y29.56 F9000.0
G01 X42.04 Y29.6 F9000.0
G01 X43.26 Y29.82 F9000.0
G01 X43.48 Y29.88 F9000.0
G01 X44.45 Y30.14 F9000.0
G01 X45.64 Y30.46 F9000.0
G01 F9000.0
M5
G00 X50.4 Y35.61 F9000.0
M3 F9000.0
G01 X50.42 Y35.62 F9000.0
G01 X51.38 Y35.9 F9000.0
G01 X52.34 Y36.18 F9000.0
G01 X53.33 Y36.46 F9000.0
G01 X53.62 Y36.56 F9000.0
G01 X54.57 Y36.88 F9000.0
G01 X55.52 Y37.2 F9000.0
G01 X56.46 Y37.51 F9000.0
G01 X57.7 Y37.93 F9000.0
G01 X58.11 Y38.08 F9000.0
G01 X59.05 Y38.43 F9000.0
G01 X59.98 Y38.78 F9000.0
G01 X61.86 Y39.49 F9000.0
G01 X62.79 Y39.84 F9000.0
G01 X63.73 Y40.19 F9000.0
G01 X64.67 Y40.54 F9000.0
G01 X66.01 Y41.04 F9000.0
G01 X66.04 Y41.06 F9000.0
G01 X66.96 Y41.43 F9000.0
G01 X67.89 Y41.81 F9000.0
G01 X68.82 Y42.18 F9000.0
G01 X70.67 Y42.93 F9000.0
G01 X71.63 Y43.32 F9000.0
G01 X71.95 Y43.44 F9000.0
G01 X72.89 Y43.79 F9000.0
G01 X73.82 Y44.14 F9000.0
G01 X74.76 Y44.49 F9000.0
G01 X75.69 Y44.85 F9000.0
G01 X76.63 Y45.2 F9000.0
G01 X77.88 Y45.67 F9000.0
G01 X78.04 Y45.73 F9000.0
G01 X78.97 Y46.11 F9000.0
G01 X79.89 Y46.49 F9000.0
G01 X80.82 Y46.86 F9000.0
G01 X81.75 Y47.24 F9000.0
G01 X82.83 Y47.68 F9000.0
G01 X83.16 Y47.86 F9000.0
G01 X84.37 Y48.51 F9000.0
G01 F9000.0
G01 X85.15 Y49.15 F9000.0
G01 X85.4 Y49.65 F9000.0
G01 X85.53 Y50.32 F9000.0
G01 Y50.4 F9000.0
G01 X85.48 Y51.4 F9000.0
G01 X85.43 Y52.48 F9000.0
G01 X85.37 Y52.85 F9000.0
G01 X85.19 Y53.83 F9000.0
G01 X85.02 Y54.82 F9000.0
G01 X84.78 Y56.17 F9000.0
G01 X84.67 Y56.62 F9000.0
G01 X84.46 Y57.6 F9000.0
G01 X84.24 Y58.58 F9000.0
G01 X83.81 Y60.53 F9000.0
G01 X83.49 Y61.96 F9000.0
G01 X83.45 Y62.13 F9000.0
G01 X83.21 Y63.1 F9000.0
G01 X82.01 Y67.96 F9000.0
G01 X81.78 Y68.93 F9000.0
G01 X81.49 Y70.07 F9000.0
G01 X81.39 Y70.46 F9000.0
G01 X81.12 Y71.42 F9000.0
G01 X80.86 Y72.39 F9000.0
G01 X80.33 Y74.31 F9000.0
G01 X80.06 Y75.28 F9000.0
G01 X79.8 Y76.24 F9000.0
G01 X79.43 Y77.59 F9000.0
G01 X79.36 Y77.83 F9000.0
G01 X79.06 Y78.78 F9000.0
G01 X78.47 Y80.69 F9000.0
G01 X78.17 Y81.64 F9000.0
G01 X77.87 Y82.6 F9000.0
G01 X77.5 Y83.79 F9000.0
G01 X77.43 Y83.99 F9000.0
G01 X77.07 Y84.92 F9000.0
G01 X76.72 Y85.86 F9000.0
G01 X76.36 Y86.79 F9000.0
G01 X75.93 Y87.93 F9000.0
G01 X75.78 Y88.21 F9000.0
G01 X75.17 Y89.37 F9000.0
G01 X75.12 Y89.42 F9000.0
G01 X74.41 Y90.22 F9000.0
G01 X73.5 Y90.59 F9000.0
G01 X73.39 F9000.0
G01 X72.28 F9000.0
G01 X71.89 Y90.5 F9000.0
G01 X70.91 Y90.28 F9000.0
G01 X69.94 Y90.05 F9000.0
G01 X68.57 Y89.74 F9000.0
G01 X68.41 Y89.68 F9000.0
G01 X67.46 Y89.37 F9000.0
G01 X66.51 Y89.06 F9000.0
G01 X65.56 Y88.75 F9000.0
G01 X64.61 Y88.44 F9000.0
G01 X63.49 Y88.08 F9000.0
G01 X63.15 Y87.95 F9000.0
G01 X62.2 Y87.61 F9000.0
G01 X61.27 Y87.27 F9000.0
G01 X60.33 Y86.93 F9000.0
G01 X59.39 Y86.59 F9000.0
G01 X58.45 Y86.24 F9000.0
G01 X57.51 Y85.9 F9000.0
G01 X56.22 Y85.43 F9000.0
G01 X55.84 Y85.28 F9000.0
G01 X53.98 Y84.55 F9000.0
G01 X53.05 Y84.18 F9000.0
G01 X52.12 Y83.81 F9000.0
G01 X51.19 Y83.44 F9000.0
G01 X49.33 Y82.71 F9000.0
G01 X48.02 Y82.19 F9000.0
G01 X47.86 Y82.12 F9000.0
G01 X46.95 Y81.72 F9000.0
G01 X46.03 Y81.31 F9000.0
G01 X45.12 Y80.91 F9000.0
G01 X44.2 Y80.51 F9000.0
G01 X43.28 Y80.1 F9000.0
G01 X42.22 Y79.63 F9000.0
G01 X42.12 Y79.59 F9000.0
G01 X41.21 Y79.16 F9000.0
G01 X40.31 Y78.74 F9000.0
G01 X39.4 Y78.31 F9000.0
G01 X38.5 Y77.89 F9000.0
G01 X37.59 Y77.47 F9000.0
G01 X36.59 Y77.0 F9000.0
G01 X36.56 Y76.98 F9000.0
G01 X35.7 Y76.49 F9000.0
G01 X34.8 Y75.98 F9000.0
G01 X34.78 Y75.96 F9000.0
G01 X33.99 Y75.31 F9000.0
G01 X33.88 Y74.33 F9000.0
G01 X33.94 Y73.86 F9000.0
G01 X34.11 Y72.4 F9000.0
G01 Y72.38 F9000.0
G01 X34.33 Y71.41 F9000.0
G01 X34.97 Y68.48 F9000.0
G01 X35.18 Y67.5 F9000.0
G01 X35.39 Y66.52 F9000.0
G01 X35.61 Y65.53 F9000.0
G01 X35.69 Y65.22 F9000.0
G01 X35.94 Y64.25 F9000.0
G01 X36.2 Y63.28 F9000.0
G01 X36.7 Y61.35 F9000.0
G01 X36.95 Y60.38 F9000.0
G01 X37.2 Y59.41 F9000.0
G01 X37.46 Y58.45 F9000.0
G01 X37.71 Y57.48 F9000.0
G01 X38.21 Y55.54 F9000.0
G01 X38.47 Y54.58 F9000.0
G01 X38.8 Y53.3 F9000.0
G01 X38.86 Y53.09 F9000.0
G01 X39.15 Y52.14 F9000.0
G01 X39.44 Y51.18 F9000.0
G01 X39.73 Y50.22 F9000.0
G01 X40.02 Y49.27 F9000.0
G01 X40.61 Y47.35 F9000.0
G01 X40.9 Y46.4 F9000.0
G01 X41.19 Y45.44 F9000.0
G01 X41.54 Y44.28 F9000.0
G01 X41.64 Y44.01 F9000.0
G01 X41.98 Y43.08 F9000.0
G01 X42.33 Y42.14 F9000.0
G01 X42.76 Y40.93 F9000.0
G01 X42.92 Y40.56 F9000.0
G01 X43.32 Y39.64 F9000.0
G01 X43.88 Y38.36 F9000.0
G01 X43.91 Y38.31 F9000.0
G01 X44.4 Y37.44 F9000.0
G01 X44.91 Y36.53 F9000.0
G01 X45.06 Y36.36 F9000.0
G01 X45.86 Y35.43 F9000.0
G01 X46.43 Y35.19 F9000.0
G01 X47.35 Y35.13 F9000.0
G01 X47.39 Y35.14 F9000.0
G01 X48.38 Y35.29 F9000.0
G01 X49.37 Y35.45 F9000.0
G01 X50.4 Y35.61 F9000.0
G01 F9000.0
M5
G00 X47.22 Y39.83 F9000.0
M3 F9000.0
G01 X46.63 Y40.59 F9000.0
G01 X46.29 Y41.35 F9000.0
G01 X46.25 Y41.48 F9000.0
G01 X45.63 Y43.39 F9000.0
G01 X45.33 Y44.34 F9000.0
G01 X44.98 Y45.42 F9000.0
G01 X44.86 Y45.77 F9000.0
G01 X44.54 Y46.72 F9000.0
G01 X44.22 Y47.67 F9000.0
G01 X43.9 Y48.61 F9000.0
G01 X43.26 Y50.51 F9000.0
G01 X42.94 Y51.46 F9000.0
G01 X42.62 Y52.4 F9000.0
G01 X42.18 Y53.7 F9000.0
G01 X42.17 Y53.72 F9000.0
G01 X41.28 Y56.59 F9000.0
G01 X40.98 Y57.54 F9000.0
G01 X40.39 Y59.45 F9000.0
G01 X40.08 Y60.43 F9000.0
G01 X40.0 Y60.75 F9000.0
G01 X39.48 Y62.68 F9000.0
G01 X39.22 Y63.65 F9000.0
G01 X38.96 Y64.61 F9000.0
G01 X38.61 Y65.91 F9000.0
G01 X38.54 Y66.22 F9000.0
G01 X38.34 Y67.2 F9000.0
G01 X38.13 Y68.18 F9000.0
G01 X37.93 Y69.16 F9000.0
G01 X37.66 Y70.45 F9000.0
G01 X37.62 Y70.81 F9000.0
G01 X37.47 Y72.16 F9000.0
G01 X37.59 Y72.63 F9000.0
G01 X37.89 Y73.09 F9000.0
G01 X38.14 Y73.29 F9000.0
G01 X39.18 Y74.1 F9000.0
G01 X39.56 Y74.32 F9000.0
G01 X40.42 Y74.82 F9000.0
G01 X41.66 Y75.54 F9000.0
G01 X41.84 Y75.63 F9000.0
G01 X42.74 Y76.07 F9000.0
G01 X43.63 Y76.52 F9000.0
G01 X44.7 Y77.06 F9000.0
G01 X44.81 Y77.11 F9000.0
G01 X46.65 Y77.89 F9000.0
G01 X47.68 Y78.33 F9000.0
G01 X48.1 Y78.48 F9000.0
G01 X49.04 Y78.81 F9000.0
G01 X49.99 Y79.13 F9000.0
G01 X50.94 Y79.46 F9000.0
G01 X51.88 Y79.78 F9000.0
G01 X52.83 Y80.11 F9000.0
G01 X53.77 Y80.43 F9000.0
G01 X55.66 Y81.09 F9000.0
G01 X56.61 Y81.41 F9000.0
G01 X57.55 Y81.74 F9000.0
G01 X58.92 Y82.21 F9000.0
G01 X58.96 Y82.22 F9000.0
G01 X59.91 Y82.53 F9000.0
G01 X60.87 Y82.83 F9000.0
G01 X62.77 Y83.44 F9000.0
G01 X63.72 Y83.75 F9000.0
G01 X64.68 Y84.05 F9000.0
G01 X65.63 Y84.36 F9000.0
G01 X66.62 Y84.68 F9000.0
G01 X67.09 Y84.79 F9000.0
G01 X68.53 Y85.13 F9000.0
G01 X68.79 Y85.16 F9000.0
G01 X70.04 Y85.3 F9000.0
G01 X70.48 Y85.31 F9000.0
G01 X71.92 Y85.34 F9000.0
G01 X72.76 Y85.1 F9000.0
G01 F9000.0
G01 X73.38 Y84.31 F9000.0
G01 X73.51 Y84.08 F9000.0
G01 X74.14 Y82.98 F9000.0
G01 X74.29 Y82.67 F9000.0
G01 X74.86 Y81.46 F9000.0
G01 X74.94 Y81.24 F9000.0
G01 X75.36 Y80.08 F9000.0
G01 X75.4 Y79.97 F9000.0
G01 X75.68 Y79.01 F9000.0
G01 X75.96 Y78.05 F9000.0
G01 X76.52 Y76.13 F9000.0
G01 X76.83 Y75.05 F9000.0
G01 X76.92 Y74.74 F9000.0
G01 X77.18 Y73.77 F9000.0
G01 X77.44 Y72.81 F9000.0
G01 X77.96 Y70.87 F9000.0
G01 X78.22 Y69.91 F9000.0
G01 X78.48 Y68.94 F9000.0
G01 X78.82 Y67.66 F9000.0
G01 X78.89 Y67.38 F9000.0
G01 X79.12 Y66.4 F9000.0
G01 X79.36 Y65.43 F9000.0
G01 X79.59 Y64.46 F9000.0
G01 X79.82 Y63.49 F9000.0
G01 X80.05 Y62.51 F9000.0
G01 X80.29 Y61.54 F9000.0
G01 X80.52 Y60.57 F9000.0
G01 X80.82 Y59.31 F9000.0
G01 X80.92 Y58.91 F9000.0
G01 X81.37 Y56.96 F9000.0
G01 X81.59 Y55.98 F9000.0
G01 X81.91 Y54.61 F9000.0
G01 X81.98 Y54.24 F9000.0
G01 X82.25 Y52.89 F9000.0
G01 X82.14 Y52.03 F9000.0
G01 X81.61 Y51.51 F9000.0
G01 X81.48 Y51.43 F9000.0
G01 X80.49 Y50.83 F9000.0
G01 X80.34 Y50.76 F9000.0
G01 X79.43 Y50.34 F9000.0
G01 X78.52 Y49.93 F9000.0
G01 X77.61 Y49.51 F9000.0
G01 X76.55 Y49.02 F9000.0
G01 X76.22 Y48.88 F9000.0
G01 X75.31 Y48.48 F9000.0
G01 X74.39 Y48.08 F9000.0
G01 X73.47 Y47.68 F9000.0
G01 X72.22 Y47.13 F9000.0
G01 X72.08 Y47.07 F9000.0
G01 X71.15 Y46.7 F9000.0
G01 X69.3 Y45.95 F9000.0
G01 X68.37 Y45.58 F9000.0
G01 X67.3 Y45.15 F9000.0
G01 X66.98 Y45.02 F9000.0
G01 X66.05 Y44.66 F9000.0
G01 X65.12 Y44.3 F9000.0
G01 X64.18 Y43.93 F9000.0
G01 X63.25 Y43.57 F9000.0
G01 X62.0 Y43.08 F9000.0
G01 X61.62 Y42.94 F9000.0
G01 X60.68 Y42.58 F9000.0
G01 X59.36 Y42.09 F9000.0
G01 X59.35 F9000.0
G01 X58.4 Y41.79 F9000.0
G01 X57.44 Y41.49 F9000.0
G01 X56.48 Y41.18 F9000.0
G01 X56.45 Y41.17 F9000.0
G01 X55.49 Y40.88 F9000.0
G01 X54.54 Y40.59 F9000.0
G01 X53.58 Y40.3 F9000.0
G01 X52.63 Y40.01 F9000.0
G01 X51.64 Y39.7 F9000.0
G01 X51.32 Y39.61 F9000.0
G01 X50.05 Y39.23 F9000.0
G01 X49.96 Y39.22 F9000.0
G01 X48.87 Y39.09 F9000.0
G01 X47.97 Y39.29 F9000.0
G01 X47.22 Y39.83 F9000.0
G01 F9000.0
M5
G00 X64.05 Y29.11 F9000.0
M3 F9000.0
G01 X64.02 Y29.58 F9000.0
G01 X63.98 Y30.58 F9000.0
G01 X63.92 Y32.05 F9000.0
G01 X63.91 Y32.11 F9000.0
G01 X63.76 Y33.1 F9000.0
G01 X63.6 Y34.15 F9000.0
G01 X63.59 Y34.2 F9000.0
G01 X63.18 Y35.16 F9000.0
G01 X63.09 Y35.22 F9000.0
G01 X62.28 Y35.8 F9000.0
G01 X61.38 Y36.44 F9000.0
G01 X61.3 Y36.49 F9000.0
G01 X60.32 Y36.99 F9000.0
G01 X59.61 Y37.22 F9000.0
G01 X59.11 Y37.12 F9000.0
G01 X59.13 Y36.82 F9000.0
G01 X59.67 Y36.32 F9000.0
G01 X59.78 Y36.25 F9000.0
G01 X60.73 Y35.62 F9000.0
G01 X61.01 Y35.44 F9000.0
G01 X62.12 Y34.69 F9000.0
G01 X62.84 Y34.03 F9000.0
G01 X62.85 Y34.0 F9000.0
G01 X63.02 Y32.98 F9000.0
G01 X63.04 Y32.57 F9000.0
G01 X63.1 Y31.15 F9000.0
G01 X63.12 Y30.68 F9000.0
G01 X63.17 Y29.21 F9000.0
G01 X63.3 Y28.85 F9000.0
G01 X63.5 Y28.75 F9000.0
G01 X63.83 Y28.86 F9000.0
G01 X64.05 Y29.11 F9000.0
G01 F9000.0
M5
G00 X67.2 Y29.66 F9000.0
M3 F9000.0
G01 X67.36 Y29.69 F9000.0
G01 X68.34 Y29.91 F9000.0
G01 X69.31 Y30.12 F9000.0
G01 X70.29 Y30.34 F9000.0
G01 X71.43 Y30.59 F9000.0
G01 X71.8 Y30.69 F9000.0
G01 X73.73 Y31.22 F9000.0
G01 X74.69 Y31.48 F9000.0
G01 X75.66 Y31.74 F9000.0
G01 X76.99 Y32.11 F9000.0
G01 X77.28 Y32.21 F9000.0
G01 X78.23 Y32.53 F9000.0
G01 X79.17 Y32.86 F9000.0
G01 X80.12 Y33.18 F9000.0
G01 X81.35 Y33.61 F9000.0
G01 X81.72 Y33.84 F9000.0
G01 X81.91 Y34.17 F9000.0
G01 Y34.52 F9000.0
G01 X81.93 Y35.87 F9000.0
G01 X81.91 Y36.22 F9000.0
G01 X81.79 Y37.56 F9000.0
G01 X81.77 Y37.68 F9000.0
G01 X81.53 Y38.77 F9000.0
G01 X81.13 Y39.52 F9000.0
G01 X80.6 Y39.82 F9000.0
G01 X80.36 Y39.78 F9000.0
G01 X79.38 Y39.6 F9000.0
G01 X78.16 Y39.38 F9000.0
G01 X78.13 F9000.0
G01 X76.2 Y38.83 F9000.0
G01 X75.24 Y38.56 F9000.0
G01 X74.28 Y38.29 F9000.0
G01 X73.28 Y38.01 F9000.0
G01 X73.01 Y37.93 F9000.0
G01 X71.1 Y37.35 F9000.0
G01 X70.14 Y37.06 F9000.0
G01 X68.92 Y36.69 F9000.0
G01 X68.51 Y36.55 F9000.0
G01 X67.56 Y36.24 F9000.0
G01 X66.61 Y35.92 F9000.0
G01 X65.25 Y35.47 F9000.0
G01 X64.37 Y35.09 F9000.0
G01 X64.41 Y34.63 F9000.0
G01 X64.54 Y33.18 F9000.0
G01 Y33.12 F9000.0
G01 X64.66 Y32.13 F9000.0
G01 X64.78 Y31.14 F9000.0
G01 X64.9 Y30.09 F9000.0
G01 X65.08 Y29.47 F9000.0
G01 X65.3 Y29.29 F9000.0
G01 X65.76 Y29.38 F9000.0
G01 X67.2 Y29.66 F9000.0
G01 F9000.0
M5
G00 X67.99 Y37.24 F9000.0
M3 F9000.0
G01 X68.2 Y37.3 F9000.0
G01 X69.15 Y37.6 F9000.0
G01 X71.06 Y38.2 F9000.0
G01 X72.01 Y38.5 F9000.0
G01 X72.97 Y38.81 F9000.0
G01 X73.92 Y39.11 F9000.0
G01 X75.08 Y39.47 F9000.0
G01 X75.11 Y39.48 F9000.0
G01 X76.08 Y39.75 F9000.0
G01 X77.04 Y40.01 F9000.0
G01 X78.05 Y40.28 F9000.0
G01 X78.14 Y40.31 F9000.0
G01 X79.09 Y40.62 F9000.0
G01 X80.14 Y40.95 F9000.0
G01 X80.05 Y41.23 F9000.0
G01 X79.34 Y41.6 F9000.0
G01 X79.31 Y41.61 F9000.0
G01 X77.4 Y42.21 F9000.0
G01 X76.42 Y42.52 F9000.0
G01 X75.94 Y42.64 F9000.0
G01 X74.49 Y43.01 F9000.0
G01 X74.47 F9000.0
G01 X73.53 Y42.67 F9000.0
G01 X72.59 Y42.33 F9000.0
G01 X71.64 Y41.98 F9000.0
G01 X71.49 Y41.93 F9000.0
G01 X70.56 Y41.58 F9000.0
G01 X69.62 Y41.22 F9000.0
G01 X67.75 Y40.52 F9000.0
G01 X66.67 Y40.12 F9000.0
G01 X66.42 Y40.03 F9000.0
G01 X64.55 Y39.34 F9000.0
G01 X63.36 Y38.91 F9000.0
G01 X62.96 Y38.73 F9000.0
G01 X61.65 Y38.13 F9000.0
G01 X61.27 Y37.75 F9000.0
G01 X61.65 Y37.38 F9000.0
G01 X61.85 Y37.23 F9000.0
G01 X62.83 Y36.46 F9000.0
G01 X63.63 Y35.9 F9000.0
G01 X63.9 Y35.98 F9000.0
G01 X64.85 Y36.28 F9000.0
G01 X66.77 Y36.86 F9000.0
G01 X67.99 Y37.24 F9000.0
G01 F9000.0
M5
G00 X59.08 Y57.46 F9000.0
M3 F9000.0
G01 X59.17 Y57.5 F9000.0
G01 X60.1 Y57.88 F9000.0
G01 X61.02 Y58.26 F9000.0
G01 X62.87 Y59.02 F9000.0
G01 X63.8 Y59.4 F9000.0
G01 X64.72 Y59.78 F9000.0
G01 X65.74 Y60.21 F9000.0
G01 X65.84 Y60.25 F9000.0
G01 X66.77 Y60.62 F9000.0
G01 X67.79 Y61.03 F9000.0
G01 X67.86 Y61.56 F9000.0
G01 X67.81 Y61.83 F9000.0
G01 X67.63 Y61.99 F9000.0
G01 X66.89 Y62.0 F9000.0
G01 X66.69 Y61.93 F9000.0
G01 X65.54 Y61.55 F9000.0
G01 X65.43 Y61.5 F9000.0
G01 X64.52 Y61.09 F9000.0
G01 X63.49 Y60.64 F9000.0
G01 X63.09 Y60.47 F9000.0
G01 X62.17 Y60.09 F9000.0
G01 X61.25 Y59.71 F9000.0
G01 X59.92 Y59.16 F9000.0
G01 X59.86 Y59.13 F9000.0
G01 X58.03 Y58.31 F9000.0
G01 X57.06 Y57.88 F9000.0
G01 X56.58 Y57.45 F9000.0
G01 X56.6 Y57.09 F9000.0
G01 X56.84 Y56.86 F9000.0
G01 X57.25 Y56.84 F9000.0
G01 X57.69 Y56.99 F9000.0
G01 X59.08 Y57.46 F9000.0
G01 F9000.0
M5
G00 X52.66 Y61.73 F9000.0
M3 F9000.0
G01 X53.11 Y62.3 F9000.0
G01 X53.27 Y62.81 F9000.0
G01 X53.15 Y63.37 F9000.0
G01 X52.76 Y64.11 F9000.0
G01 X52.27 Y64.7 F9000.0
G01 X51.75 Y64.97 F9000.0
G01 X51.19 Y64.92 F9000.0
G01 X50.62 Y64.56 F9000.0
G01 X50.23 Y63.92 F9000.0
G01 X50.12 Y63.09 F9000.0
G01 X50.28 Y62.24 F9000.0
G01 X50.71 Y61.57 F9000.0
G01 X51.23 Y61.18 F9000.0
G01 X51.68 Y61.07 F9000.0
G01 X52.13 Y61.25 F9000.0
G01 X52.66 Y61.73 F9000.0
G01 F9000.0
M5
G00 X68.92 Y68.17 F9000.0
M3 F9000.0
G01 X69.33 Y68.84 F9000.0
G01 X69.45 Y69.63 F9000.0
G01 X69.3 Y70.38 F9000.0
G01 X68.86 Y70.94 F9000.0
G01 X68.23 Y71.26 F9000.0
G01 X67.64 Y71.32 F9000.0
G01 X67.12 Y71.14 F9000.0
G01 X66.7 Y70.7 F9000.0
G01 X66.36 Y69.99 F9000.0
G01 X66.3 Y69.32 F9000.0
G01 X66.5 Y68.72 F9000.0
G01 X66.97 Y68.19 F9000.0
G01 X67.55 Y67.81 F9000.0
G01 X68.02 Y67.68 F9000.0
G01 X68.45 Y67.8 F9000.0
G01 X68.92 Y68.17 F9000.0
G01 F9000.0
M5
G00 X33.7 Y77.08 F9000.0
M3 F9000.0
G01 X33.84 Y77.15 F9000.0
G01 X34.72 Y77.6 F9000.0
G01 X35.61 Y78.06 F9000.0
G01 X36.5 Y78.52 F9000.0
G01 X37.39 Y78.98 F9000.0
G01 X38.28 Y79.44 F9000.0
G01 X39.3 Y79.96 F9000.0
G01 X39.63 Y80.12 F9000.0
G01 X40.53 Y80.55 F9000.0
G01 X41.44 Y80.97 F9000.0
G01 X42.34 Y81.4 F9000.0
G01 X43.25 Y81.82 F9000.0
G01 X44.15 Y82.25 F9000.0
G01 X45.06 Y82.67 F9000.0
G01 X46.3 Y83.25 F9000.0
G01 X46.32 Y83.27 F9000.0
G01 X47.24 Y83.66 F9000.0
G01 X48.16 Y84.06 F9000.0
G01 X50.91 Y85.25 F9000.0
G01 X51.85 Y85.65 F9000.0
G01 X51.89 Y85.67 F9000.0
G01 X52.82 Y86.04 F9000.0
G01 X53.74 Y86.41 F9000.0
G01 X54.67 Y86.78 F9000.0
G01 X55.64 Y87.16 F9000.0
G01 X56.08 Y87.32 F9000.0
G01 X57.02 Y87.65 F9000.0
G01 X58.9 Y88.33 F9000.0
G01 X60.28 Y88.82 F9000.0
G01 X60.54 Y88.91 F9000.0
G01 X61.49 Y89.23 F9000.0
G01 X62.44 Y89.55 F9000.0
G01 X64.33 Y90.19 F9000.0
G01 X65.54 Y90.6 F9000.0
G01 X65.06 Y90.64 F9000.0
G01 X63.59 Y90.77 F9000.0
G01 X63.2 Y90.8 F9000.0
G01 X62.21 Y90.87 F9000.0
G01 X60.83 Y90.96 F9000.0
G01 X60.8 F9000.0
G01 X59.8 Y90.95 F9000.0
G01 X58.77 Y90.93 F9000.0
G01 X58.32 Y90.86 F9000.0
G01 X56.88 Y90.62 F9000.0
G01 X56.72 Y90.58 F9000.0
G01 X55.76 Y90.31 F9000.0
G01 X54.63 Y90.0 F9000.0
G01 X54.27 Y89.88 F9000.0
G01 X53.33 Y89.54 F9000.0
G01 X52.39 Y89.21 F9000.0
G01 X51.45 Y88.88 F9000.0
G01 X50.5 Y88.54 F9000.0
G01 X49.21 Y88.08 F9000.0
G01 X48.9 Y87.95 F9000.0
G01 X47.98 Y87.57 F9000.0
G01 X47.06 Y87.18 F9000.0
G01 X45.83 Y86.67 F9000.0
G01 X45.73 Y86.62 F9000.0
G01 X44.83 Y86.19 F9000.0
G01 X43.93 Y85.76 F9000.0
G01 X43.03 Y85.33 F9000.0
G01 X42.12 Y84.89 F9000.0
G01 X41.22 Y84.46 F9000.0
G01 X40.22 Y83.98 F9000.0
G01 X39.94 Y83.83 F9000.0
G01 X38.17 Y82.89 F9000.0
G01 X37.29 Y82.41 F9000.0
G01 X36.41 Y81.94 F9000.0
G01 X35.53 Y81.47 F9000.0
G01 X34.64 Y81.0 F9000.0
G01 X33.47 Y80.37 F9000.0
G01 X33.06 Y80.15 F9000.0
G01 X32.19 Y79.67 F9000.0
G01 X31.31 Y79.19 F9000.0
G01 X30.02 Y78.49 F9000.0
G01 X29.37 Y77.97 F9000.0
G01 X28.99 Y77.41 F9000.0
G01 X29.36 Y77.33 F9000.0
G01 X30.34 Y77.14 F9000.0
G01 X31.32 Y76.94 F9000.0
G01 X32.68 Y76.67 F9000.0
G01 X32.73 Y76.69 F9000.0
G01 X33.7 Y77.08 F9000.0
G01 F9000.0
M5
G00 X29.25 Y79.17 F9000.0
M3 F9000.0
G01 X29.67 Y79.42 F9000.0
G01 X31.39 Y80.44 F9000.0
G01 X32.25 Y80.96 F9000.0
G01 X33.52 Y81.72 F9000.0
G01 X33.56 Y81.74 F9000.0
G01 X34.45 Y82.2 F9000.0
G01 X35.33 Y82.66 F9000.0
G01 X36.22 Y83.13 F9000.0
G01 X37.11 Y83.59 F9000.0
G01 X37.99 Y84.05 F9000.0
G01 X38.91 Y84.53 F9000.0
G01 X39.19 Y84.66 F9000.0
G01 X40.09 Y85.09 F9000.0
G01 X41.0 Y85.51 F9000.0
G01 X42.81 Y86.37 F9000.0
G01 X43.71 Y86.79 F9000.0
G01 X44.89 Y87.35 F9000.0
G01 X45.15 Y87.45 F9000.0
G01 X46.06 Y87.84 F9000.0
G01 X47.91 Y88.62 F9000.0
G01 X48.83 Y89.01 F9000.0
G01 X49.75 Y89.4 F9000.0
G01 X50.93 Y89.9 F9000.0
G01 X51.37 Y90.08 F9000.0
G01 X52.3 Y90.46 F9000.0
G01 X53.67 Y91.02 F9000.0
G01 X54.04 Y91.22 F9000.0
G01 X54.06 Y91.32 F9000.0
G01 X53.9 Y91.34 F9000.0
G01 X52.91 Y91.44 F9000.0
G01 X51.91 Y91.53 F9000.0
G01 X50.91 Y91.63 F9000.0
G01 X49.76 Y91.74 F9000.0
G01 X49.59 Y91.75 F9000.0
G01 X48.59 Y91.79 F9000.0
G01 X47.6 Y91.83 F9000.0
G01 X46.43 Y91.88 F9000.0
G01 X46.1 Y91.87 F9000.0
G01 X45.1 Y91.82 F9000.0
G01 X43.77 Y91.75 F9000.0
G01 X43.58 Y91.71 F9000.0
G01 X42.6 Y91.52 F9000.0
G01 X41.42 Y91.29 F9000.0
G01 X41.17 Y91.2 F9000.0
G01 X40.22 Y90.88 F9000.0
G01 X39.02 Y90.47 F9000.0
G01 X38.7 Y90.34 F9000.0
G01 X37.77 Y89.98 F9000.0
G01 X36.84 Y89.61 F9000.0
G01 X35.91 Y89.25 F9000.0
G01 X34.98 Y88.88 F9000.0
G01 X33.73 Y88.39 F9000.0
G01 X33.62 Y88.34 F9000.0
G01 X32.7 Y87.94 F9000.0
G01 X31.79 Y87.53 F9000.0
G01 X30.88 Y87.12 F9000.0
G01 X29.96 Y86.72 F9000.0
G01 X29.05 Y86.31 F9000.0
G01 X28.14 Y85.9 F9000.0
G01 X27.11 Y85.45 F9000.0
G01 X26.97 Y85.37 F9000.0
G01 X25.21 Y84.42 F9000.0
G01 X24.2 Y83.87 F9000.0
G01 X23.93 Y83.71 F9000.0
G01 X22.22 Y82.68 F9000.0
G01 X21.1 Y82.01 F9000.0
G01 X21.04 Y81.97 F9000.0
G01 X20.2 Y81.42 F9000.0
G01 X19.37 Y80.87 F9000.0
G01 X18.48 Y80.28 F9000.0
G01 X18.12 Y80.0 F9000.0
G01 X16.99 Y79.09 F9000.0
G01 X16.78 Y78.79 F9000.0
G01 X17.04 Y78.62 F9000.0
G01 F9000.0
G01 X18.04 Y78.54 F9000.0
G01 X19.04 Y78.47 F9000.0
G01 X20.03 Y78.39 F9000.0
G01 X20.32 Y78.36 F9000.0
G01 X23.31 Y78.1 F9000.0
G01 X24.6 Y77.98 F9000.0
G01 X24.73 Y77.96 F9000.0
G01 X25.84 Y77.78 F9000.0
G01 X26.81 Y77.85 F9000.0
G01 X26.86 Y77.88 F9000.0
G01 X27.84 Y78.29 F9000.0
G01 X28.12 Y78.46 F9000.0
G01 X29.25 Y79.17 F9000.0
G01 F9000.0
M5
;END perimeter

G00 X0 Y0

M5 ;Deactivate laser and set power to 0 (CUSTOM)
G1 X0 Y0
