
;Inkscape Lasertools G-code
;https://github.com/ChrisWag91/Inkscape-Lasertools-Plugin

G90	;Absolute programming
G21	;Programming in millimeters (mm)
M5
M03 S1 ;Activate laser and set power to 0 (CUSTOM)

; START perimeter strategy
G01 F3000.0
M5
G00 X8.6 Y0.32 F3000.0
M3 F3000.0
G01 X8.61 Y0.54 F3000.0
G01 X8.47 Y0.69 F3000.0
G01 X8.37 Y1.12 F3000.0
G01 X8.52 Y1.96 F3000.0
G01 X8.81 Y2.78 F3000.0
G01 X9.12 Y3.15 F3000.0
G01 X9.34 Y3.29 F3000.0
G01 X9.47 Y3.63 F3000.0
G01 X9.77 Y4.22 F3000.0
G01 X10.38 Y4.97 F3000.0
G01 X11.06 Y5.6 F3000.0
G01 X11.57 Y5.86 F3000.0
G01 X12.48 Y6.1 F3000.0
G01 X12.59 Y6.17 F3000.0
G01 X13.57 Y6.74 F3000.0
G01 X13.73 Y6.87 F3000.0
G01 X14.67 Y7.62 F3000.0
G01 X14.79 Y7.75 F3000.0
G01 X15.57 Y8.63 F3000.0
G01 X16.02 Y9.34 F3000.0
G01 X15.98 Y9.46 F3000.0
G01 X15.8 Y9.48 F3000.0
G01 X15.64 Y9.52 F3000.0
G01 X14.67 Y9.74 F3000.0
G01 X13.54 Y10.0 F3000.0
G01 X13.23 Y10.07 F3000.0
G01 X12.26 Y10.3 F3000.0
G01 X10.98 Y10.6 F3000.0
G01 X10.96 Y10.61 F3000.0
G01 X9.99 Y10.94 F3000.0
G01 X9.8 Y11.26 F3000.0
G01 X9.09 Y12.44 F3000.0
G01 X8.97 Y12.81 F3000.0
G01 X8.53 Y14.13 F3000.0
G01 X8.4 Y14.62 F3000.0
G01 X8.07 Y15.07 F3000.0
G01 X7.61 Y15.39 F3000.0
G01 X7.11 Y15.52 F3000.0
G01 X6.35 Y15.75 F3000.0
G01 X5.69 Y16.32 F3000.0
G01 X5.25 Y17.06 F3000.0
G01 X5.19 Y17.8 F3000.0
G01 X5.08 Y18.48 F3000.0
G01 X4.97 Y18.74 F3000.0
G01 X5.05 Y18.99 F3000.0
G01 X5.25 Y19.43 F3000.0
G01 X5.19 Y19.92 F3000.0
G01 X4.84 Y20.51 F3000.0
G01 X4.19 Y21.24 F3000.0
G01 X3.95 Y21.54 F3000.0
G01 X3.07 Y22.61 F3000.0
G01 X3.02 Y23.07 F3000.0
G01 X2.87 Y23.47 F3000.0
G01 X2.84 Y23.87 F3000.0
G01 X3.05 Y24.37 F3000.0
G01 X3.42 Y24.82 F3000.0
G01 X3.84 Y25.07 F3000.0
G01 X4.07 Y25.15 F3000.0
G01 X5.23 Y25.59 F3000.0
G01 X5.9 Y26.02 F3000.0
G01 X6.32 Y26.65 F3000.0
G01 X6.54 Y27.6 F3000.0
G01 X6.55 Y27.79 F3000.0
G01 X6.62 Y28.99 F3000.0
G01 X6.64 Y29.26 F3000.0
G01 X6.72 Y30.54 F3000.0
G01 F3000.0
G01 X7.13 Y31.46 F3000.0
G01 X7.6 Y31.99 F3000.0
G01 X8.21 Y32.42 F3000.0
G01 X8.88 Y32.72 F3000.0
G01 X9.53 Y32.82 F3000.0
G01 X9.97 Y33.13 F3000.0
G01 X10.0 Y33.19 F3000.0
G01 X10.53 Y34.13 F3000.0
G01 X10.65 Y34.42 F3000.0
G01 X11.15 Y35.63 F3000.0
G01 X11.44 Y36.01 F3000.0
G01 X12.11 Y36.55 F3000.0
G01 X12.31 Y36.66 F3000.0
G01 X13.38 Y37.25 F3000.0
G01 X14.21 Y37.44 F3000.0
G01 X14.47 Y37.53 F3000.0
G01 X15.68 Y37.96 F3000.0
G01 X15.8 Y37.99 F3000.0
G01 X16.9 Y38.23 F3000.0
G01 X17.39 Y38.52 F3000.0
G01 X17.46 Y38.58 F3000.0
G01 X17.64 Y38.42 F3000.0
G01 X18.01 Y38.15 F3000.0
G01 X18.68 Y37.96 F3000.0
G01 X19.0 Y37.94 F3000.0
G01 X20.0 Y37.85 F3000.0
G01 X21.31 Y37.74 F3000.0
G01 X21.69 Y37.71 F3000.0
G01 X23.07 Y37.58 F3000.0
G01 X23.37 Y37.53 F3000.0
G01 X24.65 Y37.28 F3000.0
G01 X24.82 Y37.22 F3000.0
G01 X25.94 Y36.84 F3000.0
G01 X25.97 Y36.83 F3000.0
G01 X26.86 Y36.31 F3000.0
G01 X27.03 Y36.21 F3000.0
G01 X28.06 Y35.58 F3000.0
G01 X28.82 Y35.05 F3000.0
G01 X29.3 Y34.38 F3000.0
G01 X29.81 Y33.69 F3000.0
G01 X30.53 Y33.05 F3000.0
G01 X30.72 Y32.88 F3000.0
G01 X31.65 Y32.03 F3000.0
G01 X31.68 Y31.98 F3000.0
G01 X32.2 Y31.05 F3000.0
G01 X32.58 Y30.28 F3000.0
G01 X32.91 Y29.9 F3000.0
G01 X33.26 Y30.09 F3000.0
G01 X33.94 Y30.4 F3000.0
G01 X34.19 Y30.34 F3000.0
G01 X34.29 Y30.13 F3000.0
G01 X34.41 Y29.9 F3000.0
G01 X34.69 Y29.75 F3000.0
G01 X34.99 Y29.54 F3000.0
G01 X35.08 Y29.13 F3000.0
G01 X35.02 Y28.88 F3000.0
G01 X34.68 Y27.68 F3000.0
G01 X34.38 Y26.77 F3000.0
G01 X34.58 Y26.07 F3000.0
G01 X34.8 Y25.32 F3000.0
G01 X34.89 Y24.44 F3000.0
G01 X34.82 Y24.11 F3000.0
G01 X34.56 Y22.8 F3000.0
G01 X34.24 Y22.08 F3000.0
G01 X33.91 Y21.67 F3000.0
G01 X33.68 Y21.19 F3000.0
G01 X33.55 Y20.89 F3000.0
G01 X33.23 Y20.65 F3000.0
G01 X32.84 Y20.35 F3000.0
G01 X32.52 Y19.9 F3000.0
G01 X32.24 Y19.51 F3000.0
G01 X31.96 Y19.34 F3000.0
G01 X31.76 Y19.26 F3000.0
G01 X31.89 Y18.91 F3000.0
G01 Y18.88 F3000.0
G01 X32.04 Y17.86 F3000.0
G01 X32.01 Y17.63 F3000.0
G01 X31.85 Y16.41 F3000.0
G01 X31.79 Y16.19 F3000.0
G01 X31.43 Y15.03 F3000.0
G01 X30.87 Y14.21 F3000.0
G01 X30.86 Y14.17 F3000.0
G01 X30.66 Y13.14 F3000.0
G01 X30.6 Y12.34 F3000.0
G01 X30.38 Y11.7 F3000.0
G01 X29.97 Y11.15 F3000.0
G01 X29.33 Y10.63 F3000.0
G01 X29.28 Y10.6 F3000.0
G01 X28.31 Y10.15 F3000.0
G01 X28.07 Y10.08 F3000.0
G01 X26.86 Y9.72 F3000.0
G01 X26.63 Y9.67 F3000.0
G01 X25.41 Y9.44 F3000.0
G01 X25.4 F3000.0
G01 X24.39 Y9.41 F3000.0
G01 X24.09 Y9.44 F3000.0
G01 X24.48 Y9.19 F3000.0
G01 X24.9 Y8.82 F3000.0
G01 X25.15 Y8.37 F3000.0
G01 X25.46 Y7.88 F3000.0
G01 X25.51 Y7.84 F3000.0
G01 X26.39 Y7.22 F3000.0
G01 X26.75 Y6.95 F3000.0
G01 X27.89 Y6.06 F3000.0
G01 X28.24 Y5.87 F3000.0
G01 X29.47 Y5.21 F3000.0
G01 X29.77 Y5.02 F3000.0
G01 X30.91 Y4.29 F3000.0
G01 X31.38 Y3.72 F3000.0
G01 X31.74 Y3.0 F3000.0
G01 X31.94 Y2.35 F3000.0
G01 X31.62 Y2.12 F3000.0
G01 X31.31 Y1.97 F3000.0
G01 X31.53 Y1.74 F3000.0
G01 X31.87 Y1.36 F3000.0
G01 X31.85 Y1.27 F3000.0
G01 X31.68 Y1.33 F3000.0
G01 X31.57 F3000.0
G01 X31.6 Y1.15 F3000.0
G01 X31.56 Y0.9 F3000.0
G01 X31.08 Y0.83 F3000.0
G01 X30.49 Y0.98 F3000.0
G01 X30.08 Y1.69 F3000.0
G01 X29.84 Y2.42 F3000.0
G01 X29.94 Y2.82 F3000.0
G01 X30.03 Y3.02 F3000.0
G01 X29.71 Y2.96 F3000.0
G01 X29.26 Y2.98 F3000.0
G01 X28.55 Y3.62 F3000.0
G01 X27.69 Y3.98 F3000.0
G01 X27.43 Y4.04 F3000.0
G01 X27.06 Y4.34 F3000.0
G01 X26.79 Y4.7 F3000.0
G01 X26.78 Y4.9 F3000.0
G01 X26.81 Y4.94 F3000.0
G01 X26.65 Y4.91 F3000.0
G01 X26.25 Y5.07 F3000.0
G01 X25.72 Y5.56 F3000.0
G01 X25.09 Y6.29 F3000.0
G01 F3000.0
G01 X24.83 Y5.32 F3000.0
G01 X24.8 Y5.24 F3000.0
G01 X24.47 Y4.21 F3000.0
G01 X24.34 Y4.13 F3000.0
G01 X24.18 Y4.28 F3000.0
G01 X24.06 Y4.39 F3000.0
G01 X24.09 Y4.11 F3000.0
G01 X24.06 Y3.7 F3000.0
G01 X23.8 Y3.33 F3000.0
G01 X23.42 Y2.76 F3000.0
G01 X23.25 Y2.45 F3000.0
G01 X22.83 Y2.18 F3000.0
G01 X22.32 Y2.03 F3000.0
G01 X21.87 Y2.05 F3000.0
G01 X21.49 Y2.33 F3000.0
G01 X21.15 Y2.8 F3000.0
G01 X20.9 Y3.36 F3000.0
G01 X20.81 Y3.93 F3000.0
G01 X20.69 Y4.37 F3000.0
G01 X20.37 Y4.67 F3000.0
G01 X20.0 Y4.77 F3000.0
G01 X19.71 Y4.61 F3000.0
G01 X19.68 Y4.51 F3000.0
G01 X19.33 Y3.47 F3000.0
G01 X19.12 Y2.78 F3000.0
G01 X18.78 Y2.2 F3000.0
G01 X18.32 Y1.77 F3000.0
G01 X17.78 Y1.53 F3000.0
G01 X17.24 Y1.52 F3000.0
G01 X16.73 Y1.69 F3000.0
G01 X16.32 Y2.03 F3000.0
G01 X16.07 Y2.48 F3000.0
G01 X16.05 Y2.52 F3000.0
G01 X15.58 Y3.44 F3000.0
G01 X15.5 Y3.56 F3000.0
G01 X14.89 Y4.51 F3000.0
G01 X14.55 Y5.07 F3000.0
G01 X13.91 Y4.71 F3000.0
G01 X13.81 Y4.64 F3000.0
G01 X12.88 Y4.0 F3000.0
G01 X12.33 Y3.65 F3000.0
G01 X12.3 Y3.61 F3000.0
G01 X11.66 Y2.77 F3000.0
G01 X11.5 Y2.55 F3000.0
G01 X10.74 Y1.53 F3000.0
G01 X10.5 Y1.23 F3000.0
G01 X10.54 Y1.03 F3000.0
G01 X10.6 Y0.82 F3000.0
G01 X10.38 Y0.47 F3000.0
G01 X9.88 Y0.15 F3000.0
G01 X9.25 Y0.01 F3000.0
G01 X8.73 Y0.05 F3000.0
G01 X8.6 Y0.32 F3000.0
G01 F3000.0
M5
G00 X9.54 Y2.14 F3000.0
M3 F3000.0
G01 X9.46 Y2.44 F3000.0
G01 X9.27 Y2.14 F3000.0
G01 X9.24 Y1.93 F3000.0
G01 X9.35 Y1.84 F3000.0
G01 X9.54 Y2.14 F3000.0
G01 F3000.0
M5
G00 X10.04 Y2.84 F3000.0
M3 F3000.0
G01 Y2.95 F3000.0
G01 X9.85 Y2.92 F3000.0
G01 X9.55 Y2.73 F3000.0
G01 X9.73 Y2.64 F3000.0
G01 X10.04 Y2.84 F3000.0
G01 F3000.0
M5
G00 X10.54 Y2.92 F3000.0
M3 F3000.0
G01 X10.36 Y3.02 F3000.0
G01 X10.41 Y2.78 F3000.0
G01 X10.57 Y2.17 F3000.0
G01 X10.61 Y2.12 F3000.0
G01 X10.69 Y2.31 F3000.0
G01 X10.68 Y2.64 F3000.0
G01 X10.54 Y2.92 F3000.0
G01 F3000.0
M5
G00 X10.34 Y3.87 F3000.0
M3 F3000.0
G01 X10.29 Y3.98 F3000.0
G01 X10.14 Y3.95 F3000.0
G01 X9.94 Y3.63 F3000.0
G01 X10.0 Y3.52 F3000.0
G01 X10.14 Y3.55 F3000.0
G01 X10.34 Y3.87 F3000.0
G01 F3000.0
M5
G00 X11.44 Y3.43 F3000.0
M3 F3000.0
G01 X11.39 Y3.73 F3000.0
G01 X11.27 Y3.72 F3000.0
G01 X11.22 Y3.54 F3000.0
G01 X11.27 Y3.26 F3000.0
G01 X11.44 Y3.43 F3000.0
G01 F3000.0
M5
G00 X13.99 Y5.81 F3000.0
M3 F3000.0
G01 X14.16 Y6.07 F3000.0
G01 X13.87 Y5.87 F3000.0
G01 X13.38 Y5.52 F3000.0
G01 X13.51 Y5.46 F3000.0
G01 X13.99 Y5.81 F3000.0
G01 F3000.0
M5
G00 X18.05 Y4.19 F3000.0
M3 F3000.0
G01 X18.32 Y5.1 F3000.0
G01 X18.21 Y5.22 F3000.0
G01 X17.4 Y6.05 F3000.0
G01 X17.29 Y6.17 F3000.0
G01 X16.48 Y7.0 F3000.0
G01 X16.26 Y6.48 F3000.0
G01 X16.21 Y5.49 F3000.0
G01 X16.56 Y4.66 F3000.0
G01 X16.68 Y4.46 F3000.0
G01 X17.32 Y3.4 F3000.0
G01 X17.46 Y3.16 F3000.0
G01 X17.64 Y3.21 F3000.0
G01 X17.65 Y3.24 F3000.0
G01 X18.05 Y4.19 F3000.0
G01 F3000.0
M5
G00 X18.14 Y2.36 F3000.0
M3 F3000.0
G01 X17.75 Y2.38 F3000.0
G01 X17.66 Y2.3 F3000.0
G01 X17.87 Y2.26 F3000.0
G01 X18.14 Y2.36 F3000.0
G01 F3000.0
M5
G00 X22.38 Y3.32 F3000.0
M3 F3000.0
G01 X21.93 Y3.66 F3000.0
G01 X21.64 Y3.84 F3000.0
G01 X21.82 Y3.51 F3000.0
G01 X22.07 Y3.23 F3000.0
G01 X22.27 Y3.18 F3000.0
G01 X22.38 Y3.32 F3000.0
G01 F3000.0
M5
G00 X22.88 Y5.38 F3000.0
M3 F3000.0
G01 X22.91 Y5.74 F3000.0
G01 X23.14 Y6.22 F3000.0
G01 X23.51 Y7.11 F3000.0
G01 X23.48 Y7.44 F3000.0
G01 X23.29 Y7.7 F3000.0
G01 X23.08 Y7.79 F3000.0
G01 X23.02 Y7.51 F3000.0
G01 X22.91 Y7.18 F3000.0
G01 X22.64 Y6.97 F3000.0
G01 X22.27 Y6.71 F3000.0
G01 X22.04 Y6.24 F3000.0
G01 X21.96 Y5.66 F3000.0
G01 X22.07 Y5.07 F3000.0
G01 X22.32 Y4.61 F3000.0
G01 X22.65 Y4.78 F3000.0
G01 X22.86 Y5.09 F3000.0
G01 X22.88 Y5.38 F3000.0
G01 F3000.0
M5
G00 X24.83 Y7.27 F3000.0
M3 F3000.0
G01 X24.74 Y7.47 F3000.0
G01 X24.53 Y7.27 F3000.0
G01 X24.5 Y7.13 F3000.0
G01 X24.62 Y7.07 F3000.0
G01 X24.83 Y7.27 F3000.0
G01 F3000.0
M5
G00 X25.78 Y6.59 F3000.0
M3 F3000.0
G01 X25.4 Y6.6 F3000.0
G01 X25.31 Y6.52 F3000.0
G01 X25.52 Y6.48 F3000.0
G01 X25.78 Y6.59 F3000.0
G01 F3000.0
M5
G00 X24.25 Y8.41 F3000.0
M3 F3000.0
G01 X24.41 Y8.65 F3000.0
G01 X24.08 Y8.5 F3000.0
G01 X23.65 Y8.2 F3000.0
G01 X23.8 Y8.08 F3000.0
G01 X24.25 Y8.41 F3000.0
G01 F3000.0
M5
G00 X23.29 Y8.99 F3000.0
M3 F3000.0
G01 X23.08 Y9.21 F3000.0
G01 X23.11 Y8.89 F3000.0
G01 X23.33 Y8.69 F3000.0
G01 X23.29 Y8.99 F3000.0
G01 F3000.0
M5
G00 X25.54 Y10.29 F3000.0
M3 F3000.0
G01 X25.17 Y10.49 F3000.0
G01 X25.08 Y10.43 F3000.0
G01 X25.23 Y10.29 F3000.0
G01 X25.59 Y10.1 F3000.0
G01 X25.54 Y10.29 F3000.0
G01 F3000.0
M5
G00 X26.96 Y11.61 F3000.0
M3 F3000.0
G01 X26.97 Y11.62 F3000.0
G01 X27.84 Y12.13 F3000.0
G01 X28.17 Y12.67 F3000.0
G01 X28.18 Y12.73 F3000.0
G01 X28.46 Y13.75 F3000.0
G01 X28.52 Y14.34 F3000.0
G01 X28.43 Y15.0 F3000.0
G01 X28.4 Y15.34 F3000.0
G01 X28.26 Y16.67 F3000.0
G01 Y16.85 F3000.0
G01 X28.21 Y17.85 F3000.0
G01 X28.16 Y19.02 F3000.0
G01 X28.1 Y19.36 F3000.0
G01 X27.88 Y20.69 F3000.0
G01 X27.75 Y20.78 F3000.0
G01 X26.79 Y21.42 F3000.0
G01 X26.76 Y21.44 F3000.0
G01 X25.84 Y21.9 F3000.0
G01 Y21.05 F3000.0
G01 X25.76 Y20.25 F3000.0
G01 X25.52 Y19.48 F3000.0
G01 X25.12 Y18.75 F3000.0
G01 X24.56 Y18.06 F3000.0
G01 X24.5 Y18.01 F3000.0
G01 X23.65 Y17.37 F3000.0
G01 X23.34 Y17.34 F3000.0
G01 X23.22 Y17.54 F3000.0
G01 X23.1 Y17.61 F3000.0
G01 X22.8 Y17.46 F3000.0
G01 X22.3 Y17.28 F3000.0
G01 X21.54 Y17.58 F3000.0
G01 X21.33 Y17.72 F3000.0
G01 X20.28 Y18.39 F3000.0
G01 X19.93 Y18.78 F3000.0
G01 X19.8 Y19.11 F3000.0
G01 X19.65 Y19.04 F3000.0
G01 X19.3 Y18.46 F3000.0
G01 X18.93 Y17.64 F3000.0
G01 X18.81 Y17.02 F3000.0
G01 X18.93 Y16.58 F3000.0
G01 X19.3 Y16.29 F3000.0
G01 X19.8 Y16.18 F3000.0
G01 X20.29 Y16.51 F3000.0
G01 X20.76 Y16.82 F3000.0
G01 X21.23 Y16.9 F3000.0
G01 X21.59 Y16.75 F3000.0
G01 X21.78 Y16.37 F3000.0
G01 X21.66 Y15.8 F3000.0
G01 X21.21 Y15.27 F3000.0
G01 X20.57 Y14.87 F3000.0
G01 X19.85 Y14.72 F3000.0
G01 X18.95 Y14.78 F3000.0
G01 X18.29 Y15.0 F3000.0
G01 X17.84 Y15.37 F3000.0
G01 X17.56 Y15.93 F3000.0
G01 X17.27 Y16.57 F3000.0
G01 X16.7 Y16.6 F3000.0
G01 X15.83 Y16.42 F3000.0
G01 X15.58 Y16.53 F3000.0
G01 X15.36 Y16.73 F3000.0
G01 X15.25 Y16.66 F3000.0
G01 X15.29 Y16.51 F3000.0
G01 Y16.37 F3000.0
G01 X15.05 Y16.39 F3000.0
G01 X14.97 Y16.41 F3000.0
G01 X13.92 Y16.64 F3000.0
G01 X13.27 Y16.86 F3000.0
G01 X12.68 Y17.26 F3000.0
G01 X12.53 Y17.46 F3000.0
G01 X11.76 Y18.45 F3000.0
G01 X11.7 Y18.68 F3000.0
G01 X11.34 Y19.87 F3000.0
G01 X11.37 Y20.58 F3000.0
G01 X11.58 Y21.22 F3000.0
G01 X11.62 Y21.28 F3000.0
G01 X12.26 Y22.16 F3000.0
G01 X12.27 F3000.0
G01 X13.06 Y22.79 F3000.0
G01 X13.13 Y22.83 F3000.0
G01 X14.07 Y23.35 F3000.0
G01 F3000.0
G01 X14.86 Y23.96 F3000.0
G01 X15.26 Y24.25 F3000.0
G01 X15.55 Y24.29 F3000.0
G01 X15.87 Y24.36 F3000.0
G01 X16.15 Y24.5 F3000.0
G01 X16.63 Y24.43 F3000.0
G01 X16.79 Y24.35 F3000.0
G01 X17.86 Y23.85 F3000.0
G01 X18.01 Y23.72 F3000.0
G01 X18.95 Y22.99 F3000.0
G01 X19.26 Y22.57 F3000.0
G01 X19.31 Y22.23 F3000.0
G01 X19.35 Y21.88 F3000.0
G01 X19.43 Y22.02 F3000.0
G01 X20.02 Y23.02 F3000.0
G01 X20.08 Y23.12 F3000.0
G01 X20.61 Y24.1 F3000.0
G01 X21.34 Y24.53 F3000.0
G01 X22.17 Y24.88 F3000.0
G01 X21.65 Y24.85 F3000.0
G01 X21.08 F3000.0
G01 X20.56 Y25.03 F3000.0
G01 X20.15 Y25.37 F3000.0
G01 X19.9 Y25.83 F3000.0
G01 X19.86 Y25.93 F3000.0
G01 X19.43 Y26.95 F3000.0
G01 X19.01 Y27.51 F3000.0
G01 X18.13 Y27.48 F3000.0
G01 X17.91 Y27.5 F3000.0
G01 X16.69 Y27.56 F3000.0
G01 X16.1 Y27.78 F3000.0
G01 X15.73 Y28.08 F3000.0
G01 X15.66 Y28.05 F3000.0
G01 X15.7 Y27.66 F3000.0
G01 Y27.6 F3000.0
G01 X15.64 Y26.54 F3000.0
G01 X15.58 Y26.4 F3000.0
G01 X15.14 Y25.32 F3000.0
G01 X15.01 Y25.15 F3000.0
G01 X14.29 Y24.17 F3000.0
G01 X14.12 Y24.02 F3000.0
G01 X13.18 Y23.23 F3000.0
G01 X13.11 Y23.19 F3000.0
G01 X12.17 Y22.66 F3000.0
G01 X11.48 Y22.22 F3000.0
G01 X11.01 Y21.66 F3000.0
G01 Y21.57 F3000.0
G01 Y20.49 F3000.0
G01 X11.04 Y20.23 F3000.0
G01 X11.23 Y18.98 F3000.0
G01 X11.25 Y18.77 F3000.0
G01 X11.37 Y17.57 F3000.0
G01 Y17.35 F3000.0
G01 X11.34 Y16.12 F3000.0
G01 X11.25 Y15.52 F3000.0
G01 X11.22 Y15.31 F3000.0
G01 X11.05 Y14.11 F3000.0
G01 X11.04 Y13.35 F3000.0
G01 X11.32 Y12.78 F3000.0
G01 X11.98 Y12.32 F3000.0
G01 X12.08 Y12.29 F3000.0
G01 X13.1 Y11.88 F3000.0
G01 X13.41 Y11.79 F3000.0
G01 X14.68 Y11.43 F3000.0
G01 X15.02 Y11.37 F3000.0
G01 X16.35 Y11.16 F3000.0
G01 X16.4 F3000.0
G01 X17.4 Y11.14 F3000.0
G01 X18.4 Y11.12 F3000.0
G01 X19.4 Y11.09 F3000.0
G01 X20.4 Y11.07 F3000.0
G01 X21.45 Y11.05 F3000.0
G01 X21.93 Y11.06 F3000.0
G01 X22.93 Y11.09 F3000.0
G01 X23.93 Y11.12 F3000.0
G01 X25.41 Y11.16 F3000.0
G01 X26.26 Y11.32 F3000.0
G01 X26.96 Y11.61 F3000.0
G01 F3000.0
M5
G00 X28.65 Y11.3 F3000.0
M3 F3000.0
G01 X28.77 Y11.7 F3000.0
G01 X28.45 Y11.3 F3000.0
G01 X28.34 Y10.89 F3000.0
G01 X28.65 Y11.3 F3000.0
G01 F3000.0
M5
G00 X30.45 Y15.27 F3000.0
M3 F3000.0
G01 X30.41 Y15.66 F3000.0
G01 X30.27 Y15.42 F3000.0
G01 X30.2 Y14.87 F3000.0
G01 X30.39 Y14.75 F3000.0
G01 X30.45 Y15.27 F3000.0
G01 F3000.0
M5
G00 X30.87 Y15.92 F3000.0
M3 F3000.0
G01 X30.52 Y16.12 F3000.0
G01 X30.28 Y16.08 F3000.0
G01 X30.46 Y15.92 F3000.0
G01 X30.81 Y15.74 F3000.0
G01 X30.87 Y15.92 F3000.0
G01 F3000.0
M5
G00 X30. Y16.77 F3000.0
M3 F3000.0
G01 X29.92 Y16.85 F3000.0
G01 X29.88 Y16.64 F3000.0
G01 X29.98 Y16.38 F3000.0
G01 X30.0 Y16.77 F3000.0
G01 F3000.0
M5
G00 X31.13 Y17.73 F3000.0
M3 F3000.0
G01 X31.15 Y17.99 F3000.0
G01 X31.05 Y18.02 F3000.0
G01 X30.87 Y17.62 F3000.0
G01 X30.95 Y17.35 F3000.0
G01 X31.13 Y17.73 F3000.0
G01 F3000.0
M5
G00 X30.45 Y18.24 F3000.0
M3 F3000.0
G01 X30.38 Y18.38 F3000.0
G01 X30.16 Y17.96 F3000.0
G01 X29.88 Y17.2 F3000.0
G01 X30.16 Y17.44 F3000.0
G01 X30.45 Y18.24 F3000.0
G01 F3000.0
M5
G00 X30.06 Y19.34 F3000.0
M3 F3000.0
G01 X29.56 Y19.54 F3000.0
G01 X29.51 Y19.48 F3000.0
G01 X29.66 Y19.34 F3000.0
G01 X30.16 Y19.15 F3000.0
G01 X30.22 Y19.21 F3000.0
G01 X30.06 Y19.34 F3000.0
G01 F3000.0
M5
G00 X29.36 Y18.74 F3000.0
M3 F3000.0
G01 X29.38 Y18.88 F3000.0
G01 X29.27 Y18.94 F3000.0
G01 X29.06 Y18.74 F3000.0
G01 X29.14 Y18.54 F3000.0
G01 X29.36 Y18.74 F3000.0
G01 F3000.0
M5
G00 X31.9 Y21.1 F3000.0
M3 F3000.0
G01 X32.08 Y21.36 F3000.0
G01 X31.82 Y21.18 F3000.0
G01 X31.5 Y20.87 F3000.0
G01 X31.55 Y20.75 F3000.0
G01 X31.9 Y21.1 F3000.0
G01 F3000.0
M5
G00 X30.77 Y22.09 F3000.0
M3 F3000.0
G01 X31.39 Y22.17 F3000.0
G01 X31.86 Y22.27 F3000.0
G01 X32.02 Y22.31 F3000.0
G01 X32.08 Y22.62 F3000.0
G01 X32.19 Y23.07 F3000.0
G01 X32.48 Y23.47 F3000.0
G01 X32.88 Y24.19 F3000.0
G01 X33.18 Y24.85 F3000.0
G01 X33.38 Y25.14 F3000.0
G01 X33.13 Y25.36 F3000.0
G01 X32.96 Y25.51 F3000.0
G01 X33.03 Y25.58 F3000.0
G01 X33.28 Y25.79 F3000.0
G01 X33.22 Y25.91 F3000.0
G01 X33.08 Y25.88 F3000.0
G01 X32.94 Y25.89 F3000.0
G01 X32.88 Y26.08 F3000.0
G01 X32.82 Y26.28 F3000.0
G01 X32.67 F3000.0
G01 X32.61 Y25.92 F3000.0
G01 X32.62 Y25.83 F3000.0
G01 X32.41 Y25.96 F3000.0
G01 X32.09 Y26.54 F3000.0
G01 X32.31 Y27.14 F3000.0
G01 X32.44 Y27.39 F3000.0
G01 X32.28 Y27.68 F3000.0
G01 X31.87 Y27.89 F3000.0
G01 X31.1 Y28.14 F3000.0
G01 X30.62 Y28.51 F3000.0
G01 X30.29 Y28.95 F3000.0
G01 X30.15 Y29.36 F3000.0
G01 X30.25 Y29.68 F3000.0
G01 X30.46 Y30.07 F3000.0
G01 X30.37 Y30.16 F3000.0
G01 X30.16 Y30.14 F3000.0
G01 X29.87 Y30.2 F3000.0
G01 X30.06 Y30.51 F3000.0
G01 X30.26 Y30.84 F3000.0
G01 X30.1 Y30.86 F3000.0
G01 X29.7 Y30.64 F3000.0
G01 X29.15 Y30.25 F3000.0
G01 X28.67 Y30.78 F3000.0
G01 X28.59 Y30.88 F3000.0
G01 X27.89 Y31.77 F3000.0
G01 X27.6 Y32.07 F3000.0
G01 X27.32 Y32.14 F3000.0
G01 X27.07 Y32.18 F3000.0
G01 X26.85 Y32.42 F3000.0
G01 X26.65 Y33.04 F3000.0
G01 X26.74 Y33.16 F3000.0
G01 X26.94 F3000.0
G01 X27.6 Y32.8 F3000.0
G01 X27.69 Y32.72 F3000.0
G01 X28.53 Y31.99 F3000.0
G01 X28.69 Y31.86 F3000.0
G01 X29.62 Y31.1 F3000.0
G01 X29.53 Y31.21 F3000.0
G01 X28.81 Y32.08 F3000.0
G01 X28.53 Y32.42 F3000.0
G01 X27.62 Y33.54 F3000.0
G01 X27.25 Y34.02 F3000.0
G01 X26.69 Y34.31 F3000.0
G01 X26.11 Y34.64 F3000.0
G01 X26.01 Y35.27 F3000.0
G01 X25.67 Y35.36 F3000.0
G01 X25.22 Y35.18 F3000.0
G01 X25.15 Y35.2 F3000.0
G01 X24.11 Y35.45 F3000.0
G01 X23.77 Y35.55 F3000.0
G01 X22.47 Y35.96 F3000.0
G01 X21.67 Y36.07 F3000.0
G01 X21.17 Y35.96 F3000.0
G01 X20.63 Y35.94 F3000.0
G01 X19.81 Y36.1 F3000.0
G01 X19.13 Y36.26 F3000.0
G01 X18.91 Y36.22 F3000.0
G01 X18.96 Y36.08 F3000.0
G01 X18.87 Y36.06 F3000.0
G01 X18.3 Y36.36 F3000.0
G01 X17.66 Y36.55 F3000.0
G01 X17.47 Y36.5 F3000.0
G01 X16.3 Y36.22 F3000.0
G01 X16.0 Y36.11 F3000.0
G01 X14.77 Y35.62 F3000.0
G01 X14.48 Y35.56 F3000.0
G01 X14.12 Y35.46 F3000.0
G01 X13.64 Y35.05 F3000.0
G01 X13.12 Y34.6 F3000.0
G01 X12.67 Y34.48 F3000.0
G01 X12.35 Y34.43 F3000.0
G01 X12.23 Y34.13 F3000.0
G01 X12.22 Y34.1 F3000.0
G01 X11.88 Y33.13 F3000.0
G01 X11.86 Y33.07 F3000.0
G01 X11.55 Y32.05 F3000.0
G01 X11.38 Y31.56 F3000.0
G01 X10.98 Y31.02 F3000.0
G01 X10.97 Y31.0 F3000.0
G01 X10.39 Y30.18 F3000.0
G01 X10.2 Y29.22 F3000.0
G01 Y28.96 F3000.0
G01 Y27.96 F3000.0
G01 X10.21 Y26.69 F3000.0
G01 X10.23 Y26.52 F3000.0
G01 X10.38 Y25.53 F3000.0
G01 X10.56 Y24.37 F3000.0
G01 X10.65 Y24.34 F3000.0
G01 X10.62 Y24.79 F3000.0
G01 X10.64 Y25.49 F3000.0
G01 X11.13 Y26.13 F3000.0
G01 X11.3 Y26.27 F3000.0
G01 X12.28 Y27.01 F3000.0
G01 X12.31 Y27.02 F3000.0
G01 X13.29 Y27.39 F3000.0
G01 X13.72 Y27.67 F3000.0
G01 X13.93 Y28.33 F3000.0
G01 X13.89 Y29.14 F3000.0
G01 X13.57 Y29.85 F3000.0
G01 X13.21 Y30.5 F3000.0
G01 X13.03 Y31.23 F3000.0
G01 X13.04 Y31.92 F3000.0
G01 X13.25 Y32.41 F3000.0
G01 X13.56 Y32.65 F3000.0
G01 X13.86 Y32.68 F3000.0
G01 X14.1 Y32.51 F3000.0
G01 X14.28 Y32.15 F3000.0
G01 X14.32 Y32.02 F3000.0
G01 X14.71 Y30.94 F3000.0
G01 F3000.0
G01 X15.24 Y30.09 F3000.0
G01 X15.97 Y29.51 F3000.0
G01 X16.0 Y29.5 F3000.0
G01 X16.96 Y29.1 F3000.0
G01 X17.32 Y29.03 F3000.0
G01 X17.16 Y29.29 F3000.0
G01 X16.49 Y30.02 F3000.0
G01 X16.27 Y30.35 F3000.0
G01 X16.41 Y30.43 F3000.0
G01 X16.42 Y30.42 F3000.0
G01 X17.3 Y29.91 F3000.0
G01 X17.89 Y29.53 F3000.0
G01 X18.67 F3000.0
G01 X19.48 Y29.52 F3000.0
G01 X20.16 Y28.98 F3000.0
G01 X20.17 Y28.97 F3000.0
G01 X20.81 Y28.16 F3000.0
G01 X21.2 Y27.6 F3000.0
G01 X21.59 Y27.34 F3000.0
G01 X21.91 Y27.33 F3000.0
G01 X22.13 Y27.57 F3000.0
G01 X22.22 Y28.04 F3000.0
G01 X22.33 Y28.55 F3000.0
G01 X23.07 Y28.54 F3000.0
G01 X23.45 Y28.46 F3000.0
G01 X24.81 Y28.17 F3000.0
G01 X25.0 Y28.05 F3000.0
G01 X26.04 Y27.41 F3000.0
G01 X26.55 Y26.88 F3000.0
G01 X26.82 Y26.37 F3000.0
G01 X26.81 Y25.96 F3000.0
G01 X26.52 Y25.7 F3000.0
G01 X26.04 Y25.58 F3000.0
G01 X25.6 Y25.62 F3000.0
G01 X25.21 Y25.82 F3000.0
G01 X24.86 Y26.18 F3000.0
G01 X24.42 Y26.62 F3000.0
G01 X23.97 Y26.79 F3000.0
G01 X23.95 Y26.8 F3000.0
G01 X22.96 Y27.08 F3000.0
G01 X22.6 Y27.24 F3000.0
G01 X22.51 Y27.2 F3000.0
G01 X22.43 Y27.04 F3000.0
G01 X22.11 Y26.91 F3000.0
G01 X21.4 Y26.89 F3000.0
G01 X21.27 F3000.0
G01 X21.21 Y26.7 F3000.0
G01 X21.27 Y26.5 F3000.0
G01 X21.44 Y26.4 F3000.0
G01 X21.98 Y26.56 F3000.0
G01 X22.45 Y26.65 F3000.0
G01 X23.03 Y26.49 F3000.0
G01 X23.59 Y26.14 F3000.0
G01 X24.02 Y25.65 F3000.0
G01 X24.59 Y24.98 F3000.0
G01 X25.03 Y24.47 F3000.0
G01 X25.07 Y24.43 F3000.0
G01 X25.82 Y23.68 F3000.0
G01 X26.1 Y23.51 F3000.0
G01 X27.25 Y22.84 F3000.0
G01 X27.52 Y22.66 F3000.0
G01 X27.46 Y22.58 F3000.0
G01 X27.29 Y22.45 F3000.0
G01 X27.83 Y22.6 F3000.0
G01 X28.25 Y23.05 F3000.0
G01 X28.12 Y23.1 F3000.0
G01 X27.94 Y23.13 F3000.0
G01 X27.69 Y23.39 F3000.0
G01 X27.52 Y23.76 F3000.0
G01 X27.63 Y24.03 F3000.0
G01 X27.71 Y24.29 F3000.0
G01 X27.4 Y24.61 F3000.0
G01 X27.08 Y24.89 F3000.0
G01 X27.35 Y24.86 F3000.0
G01 X27.56 Y24.84 F3000.0
G01 X27.69 Y24.94 F3000.0
G01 X27.8 Y25.72 F3000.0
G01 Y25.73 F3000.0
G01 X27.88 Y26.73 F3000.0
G01 X27.96 Y27.74 F3000.0
G01 X28.08 Y28.06 F3000.0
G01 X28.29 Y28.16 F3000.0
G01 X28.62 Y28.05 F3000.0
G01 X28.93 Y27.66 F3000.0
G01 X29.2 Y27.24 F3000.0
G01 X29.25 Y27.54 F3000.0
G01 X29.42 Y28.0 F3000.0
G01 X29.43 Y27.96 F3000.0
G01 X29.63 Y26.98 F3000.0
G01 X29.84 Y25.97 F3000.0
G01 X29.85 Y25.82 F3000.0
G01 X29.94 Y24.82 F3000.0
G01 X30.04 Y23.67 F3000.0
G01 X30.25 Y22.98 F3000.0
G01 X30.41 Y22.58 F3000.0
G01 X30.29 Y22.41 F3000.0
G01 X30.07 Y21.99 F3000.0
G01 X30.1 Y21.78 F3000.0
G01 X30.25 Y21.94 F3000.0
G01 X30.47 Y22.1 F3000.0
G01 X30.77 Y22.09 F3000.0
G01 F3000.0
M5
G00 X29.26 Y22.36 F3000.0
M3 F3000.0
G01 X29.17 Y22.46 F3000.0
G01 X28.96 Y22.43 F3000.0
G01 X28.65 Y22.24 F3000.0
G01 X28.96 Y22.16 F3000.0
G01 X29.26 Y22.36 F3000.0
G01 F3000.0
M5
G00 X28.59 Y25.62 F3000.0
M3 F3000.0
G01 X28.51 Y25.71 F3000.0
G01 X28.47 Y25.5 F3000.0
G01 X28.57 Y25.23 F3000.0
G01 X28.59 Y25.62 F3000.0
G01 F3000.0
M5
G00 X25.13 Y24.77 F3000.0
M3 F3000.0
G01 X25.14 Y24.88 F3000.0
G01 X25.32 Y24.85 F3000.0
G01 X25.62 Y24.66 F3000.0
G01 X25.45 Y24.58 F3000.0
G01 X25.13 Y24.77 F3000.0
G01 F3000.0
M5
G00 X23.42 Y25.78 F3000.0
M3 F3000.0
G01 X23.22 Y25.98 F3000.0
G01 X23.02 Y25.78 F3000.0
G01 X23.22 Y25.58 F3000.0
G01 X23.42 Y25.78 F3000.0
G01 F3000.0
M5
G00 X23.96 Y20.28 F3000.0
M3 F3000.0
G01 X24.01 Y20.56 F3000.0
G01 X24.2 Y21.83 F3000.0
G01 X24.09 Y22.44 F3000.0
G01 X23.83 Y22.86 F3000.0
G01 X23.34 Y23.12 F3000.0
G01 X23.33 F3000.0
G01 X22.4 Y22.76 F3000.0
G01 X21.68 Y22.37 F3000.0
G01 X21.26 Y21.97 F3000.0
G01 X21.06 Y21.44 F3000.0
G01 X21.01 Y20.68 F3000.0
G01 X21.11 Y19.87 F3000.0
G01 X21.56 Y19.38 F3000.0
G01 X21.59 Y19.37 F3000.0
G01 X22.52 Y18.9 F3000.0
G01 X22.91 Y18.96 F3000.0
G01 X23.32 Y19.25 F3000.0
G01 X23.69 Y19.71 F3000.0
G01 X23.96 Y20.28 F3000.0
G01 F3000.0
M5
G00 X22.07 Y20. F3000.0
M3 F3000.0
G01 X21.73 Y20.77 F3000.0
G01 X21.91 Y21.48 F3000.0
G01 X22.31 Y21.83 F3000.0
G01 X22.8 Y21.97 F3000.0
G01 X23.25 Y21.89 F3000.0
G01 X23.52 Y21.57 F3000.0
G01 Y20.76 F3000.0
G01 X23.16 Y20.08 F3000.0
G01 X22.61 Y19.75 F3000.0
G01 X22.32 Y19.79 F3000.0
G01 X22.07 Y20.0 F3000.0
G01 F3000.0
M5
G00 X20.14 Y20.19 F3000.0
M3 F3000.0
G01 X20.06 Y20.27 F3000.0
G01 X20.02 Y20.06 F3000.0
G01 X20.12 Y19.8 F3000.0
G01 X20.14 Y20.19 F3000.0
G01 F3000.0
M5
G00 X19.54 Y20.99 F3000.0
M3 F3000.0
G01 X19.45 Y21.08 F3000.0
G01 X19.41 Y20.87 F3000.0
G01 X19.52 Y20.61 F3000.0
G01 X19.54 Y20.99 F3000.0
G01 F3000.0
M5
G00 X18.59 Y22.21 F3000.0
M3 F3000.0
G01 X18.51 Y22.28 F3000.0
G01 X18.29 Y22.16 F3000.0
G01 X17.99 Y21.84 F3000.0
G01 X18.29 Y21.89 F3000.0
G01 X18.59 Y22.21 F3000.0
G01 F3000.0
M5
G00 X19.02 Y18.79 F3000.0
M3 F3000.0
G01 X19.17 Y19.13 F3000.0
G01 X18.93 Y18.97 F3000.0
G01 X18.59 Y18.51 F3000.0
G01 X18.71 Y18.36 F3000.0
G01 X19.02 Y18.79 F3000.0
G01 F3000.0
M5
G00 X18.1 Y18.5 F3000.0
M3 F3000.0
G01 X17.73 Y18.36 F3000.0
G01 X17.61 Y18.19 F3000.0
G01 X17.85 Y18.25 F3000.0
G01 X18.1 Y18.5 F3000.0
G01 F3000.0
M5
G00 X17.42 Y17.98 F3000.0
M3 F3000.0
G01 X17.25 Y18.1 F3000.0
G01 X17.18 Y18.01 F3000.0
G01 X17.32 Y17.67 F3000.0
G01 X17.56 Y17.64 F3000.0
G01 X17.42 Y17.98 F3000.0
G01 F3000.0
M5
G00 X16.98 Y17.63 F3000.0
M3 F3000.0
G01 X16.91 Y17.94 F3000.0
G01 X16.71 Y17.63 F3000.0
G01 X16.69 Y17.42 F3000.0
G01 X16.79 Y17.33 F3000.0
G01 X16.98 Y17.63 F3000.0
G01 F3000.0
M5
G00 X16.56 Y18.5 F3000.0
M3 F3000.0
G01 X17.15 Y18.94 F3000.0
G01 X17.61 Y19.52 F3000.0
G01 X17.87 Y20.19 F3000.0
G01 X17.63 Y20.81 F3000.0
G01 X17.53 Y20.97 F3000.0
G01 X16.91 Y21.99 F3000.0
G01 X16.75 Y22.02 F3000.0
G01 X16.56 Y21.85 F3000.0
G01 X16.13 Y21.65 F3000.0
G01 X15.33 Y21.73 F3000.0
G01 X14.46 Y21.8 F3000.0
G01 X13.9 Y21.38 F3000.0
G01 X13.81 Y21.24 F3000.0
G01 X13.13 Y20.29 F3000.0
G01 X13.08 Y19.86 F3000.0
G01 X13.22 Y19.43 F3000.0
G01 X13.82 Y18.69 F3000.0
G01 X14.63 Y18.27 F3000.0
G01 X15.58 Y18.2 F3000.0
G01 X15.59 Y18.21 F3000.0
G01 X16.56 Y18.5 F3000.0
G01 F3000.0
M5
G00 X15.02 Y19.31 F3000.0
M3 F3000.0
G01 X14.79 Y19.6 F3000.0
G01 X14.66 Y20.05 F3000.0
G01 X14.65 Y20.51 F3000.0
G01 X14.77 Y20.86 F3000.0
G01 X15.07 Y21.06 F3000.0
G01 X15.44 Y21.14 F3000.0
G01 X15.83 Y21.1 F3000.0
G01 X16.14 Y20.91 F3000.0
G01 X16.37 Y20.13 F3000.0
G01 X16.33 Y19.71 F3000.0
G01 X16.18 Y19.44 F3000.0
G01 X15.56 Y19.25 F3000.0
G01 X15.02 Y19.31 F3000.0
G01 F3000.0
M5
G00 X13.56 Y18.01 F3000.0
M3 F3000.0
G01 X13.25 Y18.21 F3000.0
G01 X13.06 Y18.24 F3000.0
G01 Y18.13 F3000.0
G01 X13.36 Y17.94 F3000.0
G01 X13.56 Y18.01 F3000.0
G01 F3000.0
M5
G00 X12.7 Y18.98 F3000.0
M3 F3000.0
G01 X12.61 Y19.07 F3000.0
G01 X12.57 Y18.86 F3000.0
G01 X12.68 Y18.59 F3000.0
G01 X12.7 Y18.98 F3000.0
G01 F3000.0
M5
G00 X10.95 Y18.27 F3000.0
M3 F3000.0
G01 X10.62 Y18.3 F3000.0
G01 X10.35 Y18.34 F3000.0
G01 X10.19 Y18.52 F3000.0
G01 X10.18 Y18.68 F3000.0
G01 X10.32 Y18.66 F3000.0
G01 X10.45 Y18.64 F3000.0
G01 X10.41 Y18.85 F3000.0
G01 X10.28 Y19.06 F3000.0
G01 X10.12 Y18.91 F3000.0
G01 X9.98 Y18.75 F3000.0
G01 X9.95 Y18.89 F3000.0
G01 X9.86 Y19.07 F3000.0
G01 X9.66 Y19.14 F3000.0
G01 X9.57 Y19.0 F3000.0
G01 X9.89 Y18.56 F3000.0
G01 X10.33 Y18.17 F3000.0
G01 X10.68 Y18.08 F3000.0
G01 X10.95 Y18.27 F3000.0
G01 F3000.0
M5
G00 X9.29 Y16.56 F3000.0
M3 F3000.0
G01 F3000.0
G01 X9.08 Y17.53 F3000.0
G01 X9.02 Y16.65 F3000.0
G01 X9.04 Y15.91 F3000.0
G01 X8.74 Y15.67 F3000.0
G01 X8.12 Y15.8 F3000.0
G01 X7.98 Y15.88 F3000.0
G01 X8.11 Y15.57 F3000.0
G01 X8.36 Y15.25 F3000.0
G01 X8.64 Y15.12 F3000.0
G01 X8.85 Y15.04 F3000.0
G01 X8.95 Y14.87 F3000.0
G01 X9.01 Y14.83 F3000.0
G01 X9.15 Y15.1 F3000.0
G01 X9.18 Y15.33 F3000.0
G01 X9.29 Y16.56 F3000.0
G01 F3000.0
M5
G00 X8.27 Y18.17 F3000.0
M3 F3000.0
G01 X8.19 Y18.26 F3000.0
G01 X8.15 Y18.05 F3000.0
G01 X8.25 Y17.79 F3000.0
G01 X8.27 Y18.17 F3000.0
G01 F3000.0
M5
G00 X7.62 Y19.55 F3000.0
M3 F3000.0
G01 X7.71 Y19.75 F3000.0
G01 X7.46 Y19.57 F3000.0
G01 X7.21 Y19.16 F3000.0
G01 X7.15 Y18.46 F3000.0
G01 X7.17 Y17.63 F3000.0
G01 X7.31 Y18.44 F3000.0
G01 X7.33 Y18.51 F3000.0
G01 X7.62 Y19.55 F3000.0
G01 F3000.0
M5
G00 X8.61 Y20.26 F3000.0
M3 F3000.0
G01 X8.64 Y20.45 F3000.0
G01 X8.53 F3000.0
G01 X8.33 Y20.14 F3000.0
G01 X8.42 Y19.96 F3000.0
G01 X8.61 Y20.26 F3000.0
G01 F3000.0
M5
G00 X6.25 Y19.5 F3000.0
M3 F3000.0
G01 X6.26 Y19.88 F3000.0
G01 X6.13 Y19.65 F3000.0
G01 X5.94 Y18.97 F3000.0
G01 X5.96 Y18.79 F3000.0
G01 X6.06 Y18.81 F3000.0
G01 X6.25 Y19.5 F3000.0
G01 F3000.0
M5
G00 X6.26 Y18.14 F3000.0
M3 F3000.0
G01 X6.19 Y18.42 F3000.0
G01 X5.95 Y18.26 F3000.0
G01 X5.79 Y17.99 F3000.0
G01 X5.81 Y17.75 F3000.0
G01 X5.97 Y17.61 F3000.0
G01 X6.12 Y17.65 F3000.0
G01 X6.26 Y18.14 F3000.0
G01 F3000.0
M5
G00 X5.83 Y23.32 F3000.0
M3 F3000.0
G01 X5.69 Y23.39 F3000.0
G01 X5.61 Y23.31 F3000.0
G01 X5.66 Y22.84 F3000.0
G01 X5.79 Y22.57 F3000.0
G01 X5.88 Y22.83 F3000.0
G01 X5.83 Y23.32 F3000.0
G01 F3000.0
M5
G00 X5.21 Y23.37 F3000.0
M3 F3000.0
G01 Y23.51 F3000.0
G01 X5.02 Y23.57 F3000.0
G01 X4.71 Y23.37 F3000.0
G01 X4.9 Y23.17 F3000.0
G01 X5.21 Y23.37 F3000.0
G01 F3000.0
M5
G00 X4.04 Y23.81 F3000.0
M3 F3000.0
G01 X3.96 Y23.9 F3000.0
G01 X3.92 Y23.69 F3000.0
G01 X4.03 Y23.42 F3000.0
G01 X4.04 Y23.81 F3000.0
G01 F3000.0
M5
G00 X8.91 Y24.12 F3000.0
M3 F3000.0
G01 X8.83 Y25.01 F3000.0
G01 X8.68 Y25.38 F3000.0
G01 X8.58 Y25.53 F3000.0
G01 X8.62 Y25.88 F3000.0
G01 X8.65 Y26.26 F3000.0
G01 X8.5 Y26.39 F3000.0
G01 X8.38 Y26.35 F3000.0
G01 X8.4 Y26.25 F3000.0
G01 X8.2 Y25.61 F3000.0
G01 X8.19 Y25.57 F3000.0
G01 X7.91 Y24.56 F3000.0
G01 Y24.47 F3000.0
G01 Y23.47 F3000.0
G01 Y22.38 F3000.0
G01 X7.93 Y21.89 F3000.0
G01 X8.44 Y22.37 F3000.0
G01 X8.86 Y22.98 F3000.0
G01 X8.87 Y23.05 F3000.0
G01 X8.91 Y24.12 F3000.0
G01 F3000.0
M5
G00 X9.84 Y27.19 F3000.0
M3 F3000.0
G01 X9.53 Y27.39 F3000.0
G01 X9.34 Y27.19 F3000.0
G01 X9.65 Y26.99 F3000.0
G01 X9.84 Y27.05 F3000.0
G01 Y27.19 F3000.0
G01 F3000.0
M5
G00 X8.84 Y28.94 F3000.0
M3 F3000.0
G01 X9.02 Y29.28 F3000.0
G01 X9.32 Y29.5 F3000.0
G01 X9.34 Y29.52 F3000.0
G01 X10.01 Y30.29 F3000.0
G01 X10.27 Y30.81 F3000.0
G01 X10.3 Y31.12 F3000.0
G01 X9.76 Y31.07 F3000.0
G01 X9.34 Y30.72 F3000.0
G01 X8.94 Y30.11 F3000.0
G01 X8.62 Y29.58 F3000.0
G01 Y29.55 F3000.0
G01 X8.56 Y28.52 F3000.0
G01 X8.61 Y27.83 F3000.0
G01 X8.64 Y27.76 F3000.0
G01 X8.67 Y27.9 F3000.0
G01 Y27.92 F3000.0
G01 X8.84 Y28.94 F3000.0
G01 F3000.0
M5
G00 X9.14 Y30.61 F3000.0
M3 F3000.0
G01 X8.94 Y30.81 F3000.0
G01 X8.73 Y30.61 F3000.0
G01 X8.94 Y30.41 F3000.0
G01 X9.14 Y30.61 F3000.0
G01 F3000.0
M5
G00 X11.77 Y32.17 F3000.0
M3 F3000.0
G01 X11.95 Y32.72 F3000.0
G01 X12.1 Y32.97 F3000.0
G01 X12.14 Y32.57 F3000.0
G01 X12.09 Y32.18 F3000.0
G01 X11.95 Y32.02 F3000.0
G01 X11.77 Y32.17 F3000.0
G01 F3000.0
M5
G00 X13.26 Y35.04 F3000.0
M3 F3000.0
G01 X13.53 Y35.44 F3000.0
G01 X13.06 Y35.04 F3000.0
G01 X12.8 Y34.64 F3000.0
G01 X13.26 Y35.04 F3000.0
G01 F3000.0
M5
G00 X15.27 Y31.42 F3000.0
M3 F3000.0
G01 X15.25 Y31.56 F3000.0
G01 X15.36 Y31.62 F3000.0
G01 X15.58 Y31.42 F3000.0
G01 X15.49 Y31.22 F3000.0
G01 X15.27 Y31.42 F3000.0
G01 F3000.0
M5
G00 X15.58 Y30.21 F3000.0
M3 F3000.0
G01 X15.78 Y30.41 F3000.0
G01 X15.98 Y30.21 F3000.0
G01 X15.78 Y30.01 F3000.0
G01 X15.58 Y30.21 F3000.0
G01 F3000.0
M5
G00 X16.48 Y28.6 F3000.0
M3 F3000.0
G01 X16.02 Y28.79 F3000.0
G01 X15.82 Y28.74 F3000.0
G01 X16.08 Y28.6 F3000.0
G01 X16.54 Y28.43 F3000.0
G01 X16.48 Y28.6 F3000.0
G01 F3000.0
M5
G00 X17.59 Y28.2 F3000.0
M3 F3000.0
G01 X17.38 Y28.4 F3000.0
G01 X17.26 Y28.34 F3000.0
G01 X17.29 Y28.2 F3000.0
G01 X17.5 Y28.0 F3000.0
G01 X17.59 Y28.2 F3000.0
G01 F3000.0
M5
G00 X14.49 Y25.89 F3000.0
M3 F3000.0
G01 X14.46 Y26.08 F3000.0
G01 X14.56 Y26.09 F3000.0
G01 X14.77 Y26.14 F3000.0
G01 X14.98 Y26.41 F3000.0
G01 X15.09 Y26.75 F3000.0
G01 X15.04 Y27.0 F3000.0
G01 X14.57 Y26.98 F3000.0
G01 X14.37 Y26.83 F3000.0
G01 X14.57 Y26.79 F3000.0
G01 X14.76 Y26.73 F3000.0
G01 X14.55 Y26.53 F3000.0
G01 X14.24 Y25.96 F3000.0
G01 X14.27 Y25.69 F3000.0
G01 X14.42 Y25.58 F3000.0
G01 X14.52 Y25.67 F3000.0
G01 X14.49 Y25.89 F3000.0
G01 F3000.0
M5
G00 X13.93 Y26.75 F3000.0
M3 F3000.0
G01 X13.9 Y27.49 F3000.0
G01 X13.82 Y26.83 F3000.0
G01 X13.68 Y26.32 F3000.0
G01 X13.45 Y26.05 F3000.0
G01 X13.16 Y25.75 F3000.0
G01 X13.28 Y25.68 F3000.0
G01 X13.56 Y25.78 F3000.0
G01 X13.87 Y26.11 F3000.0
G01 X13.93 Y26.75 F3000.0
G01 F3000.0
M5
G00 X12.45 Y26.56 F3000.0
M3 F3000.0
G01 X12.16 Y26.48 F3000.0
G01 X11.95 Y26.17 F3000.0
G01 X12.04 Y26.1 F3000.0
G01 X12.24 Y26.23 F3000.0
G01 X12.45 Y26.56 F3000.0
G01 F3000.0
M5
G00 X12.56 Y25.08 F3000.0
M3 F3000.0
G01 X12.93 Y25.58 F3000.0
G01 X12.36 Y25.08 F3000.0
G01 X11.98 Y24.58 F3000.0
G01 X12.56 Y25.08 F3000.0
G01 F3000.0
M5
G00 X13.56 Y24.87 F3000.0
M3 F3000.0
G01 X13.36 Y25.08 F3000.0
G01 X13.22 Y25.1 F3000.0
G01 X13.16 Y24.99 F3000.0
G01 X13.36 Y24.78 F3000.0
G01 X13.56 Y24.87 F3000.0
G01 F3000.0
M5
G00 X13.51 Y24.5 F3000.0
M3 F3000.0
G01 X13.12 Y24.51 F3000.0
G01 X13.04 Y24.43 F3000.0
G01 X13.24 Y24.39 F3000.0
G01 X13.51 Y24.5 F3000.0
G01 F3000.0
M5
G00 X13.79 Y22.31 F3000.0
M3 F3000.0
G01 X13.97 Y22.56 F3000.0
G01 X13.71 Y22.39 F3000.0
G01 X13.39 Y22.08 F3000.0
G01 X13.44 Y21.96 F3000.0
G01 X13.79 Y22.31 F3000.0
G01 F3000.0
M5
G00 X17.7 Y12.28 F3000.0
M3 F3000.0
G01 X17.2 Y12.55 F3000.0
G01 X16.78 Y12.58 F3000.0
G01 X17.24 Y12.31 F3000.0
G01 X17.74 Y12.13 F3000.0
G01 X17.7 Y12.28 F3000.0
G01 F3000.0
M5
G00 X17.19 Y11.52 F3000.0
M3 F3000.0
G01 X16.68 Y11.8 F3000.0
G01 X16.3 Y12.17 F3000.0
G01 X16.06 Y12.61 F3000.0
G01 X15.98 Y13.1 F3000.0
G01 X16.07 Y13.6 F3000.0
G01 X16.45 Y13.71 F3000.0
G01 X16.95 Y13.59 F3000.0
G01 X17.47 Y13.28 F3000.0
G01 X18.04 Y13.0 F3000.0
G01 X18.74 Y12.87 F3000.0
G01 X19.41 Y12.91 F3000.0
G01 X19.91 Y13.11 F3000.0
G01 X20.4 Y13.21 F3000.0
G01 X20.54 Y13.18 F3000.0
G01 X20.61 Y13.28 F3000.0
G01 X20.96 Y13.61 F3000.0
G01 X21.77 Y14.01 F3000.0
G01 X22.66 Y14.33 F3000.0
G01 X23.25 Y14.4 F3000.0
G01 X23.53 Y14.16 F3000.0
G01 X23.62 Y13.73 F3000.0
G01 X23.54 Y13.25 F3000.0
G01 X23.27 Y12.85 F3000.0
G01 X23.23 Y12.83 F3000.0
G01 X22.34 Y12.38 F3000.0
G01 X21.41 Y11.91 F3000.0
G01 X21.29 Y11.87 F3000.0
G01 X20.22 Y11.52 F3000.0
G01 X20.15 Y11.51 F3000.0
G01 X19.09 Y11.32 F3000.0
G01 X19.07 F3000.0
G01 X18.05 F3000.0
G01 X17.19 Y11.52 F3000.0
G01 F3000.0
M5
G00 X17.53 Y9.03 F3000.0
M3 F3000.0
G01 X17.46 Y9.1 F3000.0
G01 X17.43 Y8.78 F3000.0
G01 X17.45 Y8.43 F3000.0
G01 X17.52 Y8.42 F3000.0
G01 X17.53 Y9.03 F3000.0
G01 F3000.0
M5
G00 X19.5 Y10.29 F3000.0
M3 F3000.0
G01 X18.93 Y10.47 F3000.0
G01 X18.9 Y10.29 F3000.0
G01 X19.46 Y10.1 F3000.0
G01 X19.79 Y10.14 F3000.0
G01 X19.5 Y10.29 F3000.0
G01 F3000.0
M5
G00 X20.5 Y10.29 F3000.0
M3 F3000.0
G01 X20.19 Y10.49 F3000.0
G01 X20.0 Y10.29 F3000.0
G01 X20.32 Y10.09 F3000.0
G01 X20.5 Y10.15 F3000.0
G01 Y10.29 F3000.0
G01 F3000.0
M5
G00 X20.96 Y7.72 F3000.0
M3 F3000.0
G01 X21.05 Y7.94 F3000.0
G01 X21.49 Y9.09 F3000.0
G01 X21.32 Y9.27 F3000.0
G01 X20.85 Y9.32 F3000.0
G01 X20.68 Y9.33 F3000.0
G01 X19.5 Y9.34 F3000.0
G01 X18.77 Y9.52 F3000.0
G01 X18.58 Y9.63 F3000.0
G01 X18.27 Y9.5 F3000.0
G01 X18.0 Y9.31 F3000.0
G01 X18.29 Y9.33 F3000.0
G01 X18.51 Y9.32 F3000.0
G01 X18.63 Y9.19 F3000.0
G01 X18.7 Y8.23 F3000.0
G01 X18.71 Y8.12 F3000.0
G01 X18.85 Y7.03 F3000.0
G01 X19.1 Y6.76 F3000.0
G01 X19.5 Y6.62 F3000.0
G01 X19.93 Y6.61 F3000.0
G01 X20.31 Y6.77 F3000.0
G01 X20.35 Y6.84 F3000.0
G01 X20.96 Y7.72 F3000.0
G01 F3000.0
M5
G00 X31.46 Y28.61 F3000.0
M3 F3000.0
G01 X30.97 Y28.78 F3000.0
G01 X31.16 Y28.49 F3000.0
G01 X31.65 Y28.31 F3000.0
G01 X31.46 Y28.61 F3000.0
G01 F3000.0
M5
G00 X32.99 Y28.57 F3000.0
M3 F3000.0
G01 X32.91 Y28.83 F3000.0
G01 X32.63 Y28.85 F3000.0
G01 X32.37 Y28.73 F3000.0
G01 X32.62 Y28.48 F3000.0
G01 X32.99 Y28.2 F3000.0
G01 Y28.57 F3000.0
G01 F3000.0
M5
G00 X31.07 Y30.81 F3000.0
M3 F3000.0
G01 X30.73 Y30.92 F3000.0
G01 X30.79 Y30.53 F3000.0
G01 X30.94 Y30.31 F3000.0
G01 X31.14 Y30.41 F3000.0
G01 X31.25 Y30.62 F3000.0
G01 X31.07 Y30.81 F3000.0
G01 F3000.0
M5
G00 X30.57 Y32.02 F3000.0
M3 F3000.0
G01 X30.2 Y32.22 F3000.0
G01 X30.11 Y32.16 F3000.0
G01 X30.26 Y32.02 F3000.0
G01 X30.62 Y31.83 F3000.0
G01 X30.57 Y32.02 F3000.0
G01 F3000.0
M5
G00 X27.25 Y34.93 F3000.0
M3 F3000.0
G01 X27.04 Y35.14 F3000.0
G01 X26.9 Y35.16 F3000.0
G01 X26.84 Y35.05 F3000.0
G01 X27.04 Y34.84 F3000.0
G01 X27.25 Y34.93 F3000.0
G01 F3000.0
M5
G00 X26.04 Y33.73 F3000.0
M3 F3000.0
G01 X26.12 Y34.03 F3000.0
G01 X26.31 Y33.73 F3000.0
G01 X26.34 Y33.52 F3000.0
G01 X26.23 Y33.43 F3000.0
G01 X26.04 Y33.73 F3000.0
G01 F3000.0
M5
G00 X23.93 Y35.04 F3000.0
M3 F3000.0
G01 X23.9 Y35.18 F3000.0
G01 X24.02 Y35.24 F3000.0
G01 X24.23 Y35.04 F3000.0
G01 X24.14 Y34.84 F3000.0
G01 X23.93 Y35.04 F3000.0
G01 F3000.0
M5
G00 X22.72 Y36.64 F3000.0
M3 F3000.0
G01 X22.31 Y36.72 F3000.0
G01 X22.03 Y36.52 F3000.0
G01 X22.43 Y36.45 F3000.0
G01 X22.69 Y36.5 F3000.0
G01 X22.72 Y36.64 F3000.0
G01 F3000.0
M5
G00 X21.5 Y36.63 F3000.0
M3 F3000.0
G01 X21.45 Y36.93 F3000.0
G01 X21.33 Y36.92 F3000.0
G01 X21.28 Y36.74 F3000.0
G01 X21.33 Y36.46 F3000.0
G01 X21.5 Y36.63 F3000.0
G01 F3000.0
M5
G00 X15.68 Y38.86 F3000.0
M3 F3000.0
G01 X15.65 Y39.0 F3000.0
G01 X15.77 Y39.06 F3000.0
G01 X15.98 Y38.86 F3000.0
G01 X15.89 Y38.66 F3000.0
G01 X15.68 Y38.86 F3000.0
G01 F3000.0
M5
G00 X13.46 Y39.87 F3000.0
M3 F3000.0
G01 X13.44 Y40.01 F3000.0
G01 X13.55 Y40.07 F3000.0
G01 X13.77 Y39.87 F3000.0
G01 X13.68 Y39.67 F3000.0
G01 X13.46 Y39.87 F3000.0
G01 F3000.0
M5
G00 X11.41 Y44.03 F3000.0
M3 F3000.0
G01 X10.58 Y44.28 F3000.0
G01 X10.0 Y44.07 F3000.0
G01 X9.75 Y43.96 F3000.0
G01 X9.46 Y44.03 F3000.0
G01 X9.4 F3000.0
G01 X8.34 Y44.13 F3000.0
G01 X7.64 Y44.01 F3000.0
G01 X7.58 Y43.96 F3000.0
G01 X7.71 Y43.9 F3000.0
G01 X7.76 F3000.0
G01 X8.76 Y43.84 F3000.0
G01 X9.8 Y43.78 F3000.0
G01 X10.14 Y43.79 F3000.0
G01 X11.47 Y43.81 F3000.0
G01 X11.61 Y43.89 F3000.0
G01 X11.41 Y44.03 F3000.0
G01 F3000.0
M5
G00 X10.75 Y45.3 F3000.0
M3 F3000.0
G01 X10.56 Y45.46 F3000.0
G01 X10.73 Y45.5 F3000.0
G01 X10.89 Y45.62 F3000.0
G01 X10.56 Y45.6 F3000.0
G01 X10.45 Y45.29 F3000.0
G01 X10.81 Y45.1 F3000.0
G01 X10.9 Y45.16 F3000.0
G01 X10.75 Y45.3 F3000.0
G01 F3000.0
M5
G00 X9.99 Y45.84 F3000.0
M3 F3000.0
G01 X9.49 F3000.0
G01 X9.46 Y45.76 F3000.0
G01 X9.74 Y45.73 F3000.0
G01 X10.02 Y45.76 F3000.0
G01 X9.99 Y45.84 F3000.0
G01 F3000.0
M5
G00 X10.6 Y48.56 F3000.0
M3 F3000.0
G01 X10.43 Y49.47 F3000.0
G01 Y49.77 F3000.0
G01 X10.44 Y51.07 F3000.0
G01 X10.47 Y51.37 F3000.0
G01 X10.61 Y52.65 F3000.0
G01 X10.88 Y53.49 F3000.0
G01 X11.39 Y53.72 F3000.0
G01 X12.09 Y53.86 F3000.0
G01 X12.25 Y53.85 F3000.0
G01 X13.4 Y53.77 F3000.0
G01 X13.99 Y53.39 F3000.0
G01 X14.36 Y52.76 F3000.0
G01 X14.52 Y51.8 F3000.0
G01 Y51.63 F3000.0
G01 X14.51 Y50.47 F3000.0
G01 X14.45 Y50.01 F3000.0
G01 X14.28 Y48.56 F3000.0
G01 X13.88 Y48.52 F3000.0
G01 X12.5 Y48.36 F3000.0
G01 X12.32 F3000.0
G01 X11.14 Y48.35 F3000.0
G01 X10.6 Y48.56 F3000.0
G01 F3000.0
M5
G00 X11.31 Y49.95 F3000.0
M3 F3000.0
G01 X11.21 Y50.01 F3000.0
G01 X11.1 Y49.74 F3000.0
G01 X11.05 Y49.43 F3000.0
G01 X11.18 Y49.48 F3000.0
G01 X11.31 Y49.95 F3000.0
G01 F3000.0
M5
G00 X13.06 Y51.02 F3000.0
M3 F3000.0
G01 X12.98 Y51.87 F3000.0
G01 X12.55 Y52.15 F3000.0
G01 X12.26 Y52.2 F3000.0
G01 X12.1 Y52.11 F3000.0
G01 X11.99 Y51.14 F3000.0
G01 X12.02 Y50.14 F3000.0
G01 X12.18 Y50.02 F3000.0
G01 X12.5 Y50.01 F3000.0
G01 X12.81 Y50.04 F3000.0
G01 X12.98 Y50.17 F3000.0
G01 X13.06 Y51.02 F3000.0
G01 F3000.0
M5
G00 X11.86 Y53.11 F3000.0
M3 F3000.0
G01 X11.5 Y52.97 F3000.0
G01 X11.37 Y52.8 F3000.0
G01 X11.61 Y52.86 F3000.0
G01 X11.86 Y53.11 F3000.0
G01 F3000.0
M5
G00 X10.64 Y54.64 F3000.0
M3 F3000.0
G01 X10.14 Y55.39 F3000.0
G01 X9.97 Y55.4 F3000.0
G01 X9.56 Y55.08 F3000.0
G01 X9.11 Y54.74 F3000.0
G01 X8.71 Y54.61 F3000.0
G01 X8.36 Y54.69 F3000.0
G01 X8.07 Y54.98 F3000.0
G01 X8.02 Y55.44 F3000.0
G01 X8.4 Y56.22 F3000.0
G01 X8.98 Y57.0 F3000.0
G01 X9.75 Y57.27 F3000.0
G01 X10.43 Y57.28 F3000.0
G01 X10.98 Y57.04 F3000.0
G01 X11.4 Y56.54 F3000.0
G01 X11.72 Y55.78 F3000.0
G01 X11.73 Y55.77 F3000.0
G01 X11.93 Y54.77 F3000.0
G01 X11.82 Y54.54 F3000.0
G01 X11.55 Y54.35 F3000.0
G01 X11.13 Y54.28 F3000.0
G01 X10.64 Y54.64 F3000.0
G01 F3000.0
M5
G00 X16.13 Y55.29 F3000.0
M3 F3000.0
G01 X15.8 Y55.52 F3000.0
G01 X15.54 Y55.4 F3000.0
G01 X15.18 Y55.14 F3000.0
G01 X14.94 Y55.18 F3000.0
G01 X14.81 Y55.49 F3000.0
G01 X14.82 Y56.06 F3000.0
G01 X14.95 Y56.76 F3000.0
G01 X15.17 Y57.23 F3000.0
G01 X15.5 Y57.49 F3000.0
G01 X15.96 Y57.57 F3000.0
G01 X16.48 Y57.45 F3000.0
G01 X16.89 Y57.09 F3000.0
G01 X17.16 Y56.55 F3000.0
G01 X17.27 Y55.87 F3000.0
G01 X17.21 Y55.2 F3000.0
G01 X16.88 Y55.0 F3000.0
G01 X16.5 Y55.06 F3000.0
G01 X16.13 Y55.29 F3000.0
G01 F3000.0
M5
G00 X19.52 Y57.39 F3000.0
M3 F3000.0
G01 X19.36 Y58.07 F3000.0
G01 X19.16 Y58.4 F3000.0
G01 X18.71 Y58.58 F3000.0
G01 X18.06 Y58.92 F3000.0
G01 X17.98 Y59.1 F3000.0
G01 X18.18 Y59.18 F3000.0
G01 X18.39 Y59.51 F3000.0
G01 X18.45 Y59.72 F3000.0
G01 X18.69 Y59.59 F3000.0
G01 X19.0 Y59.47 F3000.0
G01 X19.61 Y59.18 F3000.0
G01 X20.06 Y58.75 F3000.0
G01 X20.09 Y58.33 F3000.0
G01 X19.92 Y57.65 F3000.0
G01 X19.73 Y57.25 F3000.0
G01 X19.61 Y57.24 F3000.0
G01 X19.52 Y57.39 F3000.0
G01 F3000.0
M5
G00 X17.09 Y60.08 F3000.0
M3 F3000.0
G01 X16.71 Y60.46 F3000.0
G01 X16.8 Y60.58 F3000.0
G01 X17.48 Y60.31 F3000.0
G01 X17.72 Y60.06 F3000.0
G01 X17.77 Y59.82 F3000.0
G01 X17.55 Y59.78 F3000.0
G01 X17.09 Y60.08 F3000.0
G01 F3000.0
M5
G00 X9.79 Y61.53 F3000.0
M3 F3000.0
G01 X9.29 F3000.0
G01 X9.26 Y61.46 F3000.0
G01 X9.54 Y61.43 F3000.0
G01 X9.82 Y61.46 F3000.0
G01 X9.79 Y61.53 F3000.0
G01 F3000.0
M5
G00 X7.43 Y60.99 F3000.0
M3 F3000.0
G01 X7.46 Y61.14 F3000.0
G01 X7.35 Y61.2 F3000.0
G01 X7.02 Y60.99 F3000.0
G01 X7.0 Y60.85 F3000.0
G01 X7.1 Y60.79 F3000.0
G01 X7.43 Y60.99 F3000.0
G01 F3000.0
M5
G00 X4.71 Y61.09 F3000.0
M3 F3000.0
G01 X4.63 Y61.27 F3000.0
G01 X4.41 F3000.0
G01 X4.11 Y60.97 F3000.0
G01 X4.41 Y60.79 F3000.0
G01 X4.62 Y60.88 F3000.0
G01 X4.71 Y61.09 F3000.0
G01 F3000.0
M5
G00 X0.89 Y52.43 F3000.0
M3 F3000.0
G01 X0.69 Y52.64 F3000.0
G01 X0.54 Y52.67 F3000.0
G01 X0.48 Y52.55 F3000.0
G01 X0.69 Y52.34 F3000.0
G01 X0.89 Y52.43 F3000.0
G01 F3000.0
M5
G00 X4.44 Y48.22 F3000.0
M3 F3000.0
G01 X4.39 Y48.54 F3000.0
G01 X4.09 Y48.89 F3000.0
G01 X3.7 Y49.46 F3000.0
G01 X3.69 Y49.52 F3000.0
G01 X3.48 Y50.55 F3000.0
G01 X3.44 Y50.85 F3000.0
G01 X3.29 Y51.84 F3000.0
G01 X3.11 Y53.13 F3000.0
G01 X3.08 Y53.45 F3000.0
G01 X2.98 Y54.76 F3000.0
G01 Y54.85 F3000.0
G01 X2.99 Y55.85 F3000.0
G01 Y56.94 F3000.0
G01 X3.02 Y57.42 F3000.0
G01 X3.11 Y58.89 F3000.0
G01 X3.31 Y59.87 F3000.0
G01 X3.5 Y60.25 F3000.0
G01 X3.43 Y60.32 F3000.0
G01 X3.25 Y60.24 F3000.0
G01 X2.46 Y59.91 F3000.0
G01 X1.99 Y59.63 F3000.0
G01 X1.8 Y58.73 F3000.0
G01 X1.78 Y58.44 F3000.0
G01 X1.72 Y57.44 F3000.0
G01 X1.66 Y56.44 F3000.0
G01 X1.59 Y55.15 F3000.0
G01 X1.6 Y54.87 F3000.0
G01 X1.67 Y52.87 F3000.0
G01 X1.72 Y51.6 F3000.0
G01 Y51.58 F3000.0
G01 X1.86 Y50.59 F3000.0
G01 X2.0 Y49.57 F3000.0
G01 X2.21 Y49.08 F3000.0
G01 X2.57 Y48.64 F3000.0
G01 X3.12 Y48.18 F3000.0
G01 X3.68 Y47.94 F3000.0
G01 X4.15 F3000.0
G01 X4.44 Y48.22 F3000.0
G01 F3000.0
M5
G00 X4.91 Y46.9 F3000.0
M3 F3000.0
G01 X4.71 Y47.21 F3000.0
G01 X4.57 F3000.0
G01 X4.51 Y47.02 F3000.0
G01 X4.71 Y46.71 F3000.0
G01 X4.91 Y46.9 F3000.0
G01 F3000.0
M5
G00 X6.44 Y45.55 F3000.0
M3 F3000.0
G01 X6.52 Y45.73 F3000.0
G01 X6.34 Y45.85 F3000.0
G01 X6.18 Y45.87 F3000.0
G01 X5.03 Y46.03 F3000.0
G01 X5.0 F3000.0
G01 X3.97 Y46.06 F3000.0
G01 X3.81 Y45.98 F3000.0
G01 X3.82 Y45.83 F3000.0
G01 X4.28 Y45.45 F3000.0
G01 X4.39 Y45.44 F3000.0
G01 X5.5 Y45.39 F3000.0
G01 X6.44 Y45.55 F3000.0
G01 F3000.0
M5
G00 X6.81 Y47.69 F3000.0
M3 F3000.0
G01 X6.12 Y48.0 F3000.0
G01 X5.74 Y48.08 F3000.0
G01 X6.01 Y47.83 F3000.0
G01 X6.69 Y47.52 F3000.0
G01 X6.89 Y47.53 F3000.0
G01 X6.81 Y47.69 F3000.0
G01 F3000.0
M5
G00 X5.67 Y43.51 F3000.0
M3 F3000.0
G01 X5.4 Y43.69 F3000.0
G01 X4.83 Y43.81 F3000.0
G01 X4.25 F3000.0
G01 X4.32 Y43.58 F3000.0
G01 X4.66 Y43.38 F3000.0
G01 X5.14 Y43.29 F3000.0
G01 X5.55 Y43.33 F3000.0
G01 X5.67 Y43.51 F3000.0
G01 F3000.0
M5
G00 X4.99 Y42.44 F3000.0
M3 F3000.0
G01 X4.93 Y42.56 F3000.0
G01 X4.65 Y42.63 F3000.0
G01 X4.36 Y42.62 F3000.0
G01 X4.51 Y42.48 F3000.0
G01 X4.84 Y42.3 F3000.0
G01 X4.99 Y42.44 F3000.0
G01 F3000.0
M5
G00 X3.95 Y41.71 F3000.0
M3 F3000.0
G01 X3.41 Y42.03 F3000.0
G01 X2.98 Y42.6 F3000.0
G01 X2.64 Y43.45 F3000.0
G01 X2.62 Y43.56 F3000.0
G01 X2.36 Y44.65 F3000.0
G01 X2.29 Y44.93 F3000.0
G01 X1.99 Y46.18 F3000.0
G01 X1.55 Y47.06 F3000.0
G01 X0.94 Y47.81 F3000.0
G01 X0.88 Y47.96 F3000.0
G01 X0.43 Y49.03 F3000.0
G01 X0.4 Y49.28 F3000.0
G01 X0.26 Y50.27 F3000.0
G01 X0.09 Y51.52 F3000.0
G01 X0.08 Y51.93 F3000.0
G01 X0.06 Y52.93 F3000.0
G01 X0.04 Y53.93 F3000.0
G01 X0.0 Y55.35 F3000.0
G01 X0.01 Y55.67 F3000.0
G01 X0.05 Y56.67 F3000.0
G01 X0.09 Y57.67 F3000.0
G01 X0.14 Y58.99 F3000.0
G01 X0.16 Y59.13 F3000.0
G01 X0.3 Y60.26 F3000.0
G01 X0.51 Y60.92 F3000.0
G01 X1.3 Y61.35 F3000.0
G01 X1.44 Y61.39 F3000.0
G01 X2.55 Y61.65 F3000.0
G01 X3.35 Y62.04 F3000.0
G01 X3.87 Y62.37 F3000.0
G01 X4.76 Y62.68 F3000.0
G01 X5.22 Y62.75 F3000.0
G01 X6.67 Y62.98 F3000.0
G01 X6.93 Y63.0 F3000.0
G01 X7.93 Y63.05 F3000.0
G01 X9.19 Y63.11 F3000.0
G01 X9.42 Y63.12 F3000.0
G01 X10.65 Y63.18 F3000.0
G01 X10.89 Y63.11 F3000.0
G01 X10.95 Y62.94 F3000.0
G01 X10.8 Y62.61 F3000.0
G01 X10.44 Y62.28 F3000.0
G01 X10.0 Y61.87 F3000.0
G01 X10.73 Y62.13 F3000.0
G01 X11.35 Y62.66 F3000.0
G01 X11.41 Y62.77 F3000.0
G01 X11.59 Y62.64 F3000.0
G01 X12.0 Y62.41 F3000.0
G01 X12.1 Y62.45 F3000.0
G01 X12.05 Y62.6 F3000.0
G01 X12.03 Y62.75 F3000.0
G01 X12.13 Y62.8 F3000.0
G01 X12.45 Y62.62 F3000.0
G01 X12.64 Y62.52 F3000.0
G01 X13.0 Y62.55 F3000.0
G01 X13.07 Y62.57 F3000.0
G01 X14.08 Y62.95 F3000.0
G01 X14.47 Y63.11 F3000.0
G01 X14.88 Y63.12 F3000.0
G01 X15.26 Y63.0 F3000.0
G01 X16.6 Y62.6 F3000.0
G01 X16.99 Y62.45 F3000.0
G01 X17.93 Y62.09 F3000.0
G01 X18.86 Y61.74 F3000.0
G01 X20.19 Y61.23 F3000.0
G01 X20.98 Y60.79 F3000.0
G01 X21.34 Y60.39 F3000.0
G01 F3000.0
G01 X21.7 Y59.45 F3000.0
G01 X21.72 Y59.36 F3000.0
G01 X21.93 Y58.28 F3000.0
G01 Y58.21 F3000.0
G01 X21.96 Y57.21 F3000.0
G01 X22.04 Y55.21 F3000.0
G01 X22.08 Y54.13 F3000.0
G01 X22.07 Y53.85 F3000.0
G01 X22.06 Y52.85 F3000.0
G01 X22.05 Y51.85 F3000.0
G01 X22.03 Y50.57 F3000.0
G01 X21.96 Y50.21 F3000.0
G01 X21.73 Y48.85 F3000.0
G01 X21.6 Y48.57 F3000.0
G01 X21.04 Y47.38 F3000.0
G01 X20.64 Y47.02 F3000.0
G01 X20.24 Y46.95 F3000.0
G01 X19.98 Y47.2 F3000.0
G01 X19.84 Y47.68 F3000.0
G01 Y48.2 F3000.0
G01 X20.02 Y48.53 F3000.0
G01 X20.31 Y48.95 F3000.0
G01 X20.33 Y49.09 F3000.0
G01 X20.53 Y50.23 F3000.0
G01 X20.56 Y50.76 F3000.0
G01 X20.45 Y50.77 F3000.0
G01 X20.27 Y50.65 F3000.0
G01 X20.14 Y50.96 F3000.0
G01 X20.12 Y51.51 F3000.0
G01 X20.23 Y51.53 F3000.0
G01 X20.39 Y51.36 F3000.0
G01 X20.52 Y51.28 F3000.0
G01 X20.56 Y51.6 F3000.0
G01 X20.49 Y51.96 F3000.0
G01 X20.28 Y52.0 F3000.0
G01 X20.08 F3000.0
G01 X20.0 Y52.13 F3000.0
G01 X20.11 Y52.28 F3000.0
G01 X20.36 Y52.32 F3000.0
G01 X21.18 Y52.42 F3000.0
G01 X21.65 Y52.58 F3000.0
G01 X21.23 Y52.97 F3000.0
G01 X20.93 Y53.38 F3000.0
G01 X20.79 Y53.81 F3000.0
G01 X20.75 Y54.11 F3000.0
G01 X20.61 Y53.75 F3000.0
G01 X20.46 Y53.39 F3000.0
G01 X20.3 Y53.61 F3000.0
G01 X20.26 Y53.94 F3000.0
G01 X20.38 Y54.21 F3000.0
G01 X20.6 Y54.6 F3000.0
G01 X20.57 Y54.7 F3000.0
G01 X20.43 Y54.67 F3000.0
G01 X20.19 Y54.64 F3000.0
G01 X20.04 Y54.87 F3000.0
G01 X20.13 Y55.76 F3000.0
G01 X20.38 Y56.47 F3000.0
G01 X20.39 Y55.71 F3000.0
G01 X20.47 Y55.24 F3000.0
G01 X20.64 Y54.97 F3000.0
G01 X20.88 Y54.95 F3000.0
G01 X21.13 Y55.19 F3000.0
G01 X21.16 Y55.34 F3000.0
G01 X20.95 Y55.31 F3000.0
G01 X20.7 Y55.33 F3000.0
G01 X20.65 Y55.77 F3000.0
G01 X20.75 Y56.24 F3000.0
G01 X21.19 Y56.26 F3000.0
G01 X21.55 Y56.2 F3000.0
G01 X21.29 Y56.34 F3000.0
G01 X20.74 Y56.86 F3000.0
G01 X20.59 Y57.06 F3000.0
G01 X20.41 Y57.07 F3000.0
G01 X20.26 Y57.08 F3000.0
G01 X20.2 Y57.27 F3000.0
G01 X20.27 Y57.46 F3000.0
G01 X20.42 F3000.0
G01 X20.55 Y57.55 F3000.0
G01 X20.49 Y58.11 F3000.0
G01 X20.29 Y59.03 F3000.0
G01 X20.05 Y59.57 F3000.0
G01 X19.73 Y59.8 F3000.0
G01 X19.25 F3000.0
G01 X19.0 Y59.94 F3000.0
G01 X18.79 Y60.04 F3000.0
G01 X17.69 Y60.58 F3000.0
G01 X17.43 Y60.69 F3000.0
G01 X16.27 Y61.22 F3000.0
G01 X15.6 Y61.4 F3000.0
G01 X14.84 Y61.61 F3000.0
G01 X14.5 Y61.73 F3000.0
G01 X13.94 Y61.64 F3000.0
G01 X13.89 F3000.0
G01 X12.86 Y61.6 F3000.0
G01 X11.99 Y61.7 F3000.0
G01 X11.27 Y61.41 F3000.0
G01 X11.01 Y61.25 F3000.0
G01 X10.95 Y61.4 F3000.0
G01 X10.87 Y61.54 F3000.0
G01 X10.6 Y61.36 F3000.0
G01 X10.13 Y61.15 F3000.0
G01 X9.48 Y61.05 F3000.0
G01 X8.87 Y61.07 F3000.0
G01 X8.52 Y61.22 F3000.0
G01 X8.28 Y61.23 F3000.0
G01 X7.87 Y60.99 F3000.0
G01 X7.36 Y60.71 F3000.0
G01 X6.92 Y60.69 F3000.0
G01 X6.4 Y60.66 F3000.0
G01 X5.79 Y60.36 F3000.0
G01 X5.22 Y59.88 F3000.0
G01 X4.84 Y59.31 F3000.0
G01 Y59.26 F3000.0
G01 X4.66 Y58.22 F3000.0
G01 X4.64 Y57.77 F3000.0
G01 X4.6 Y56.32 F3000.0
G01 Y56.26 F3000.0
G01 X4.56 Y55.26 F3000.0
G01 X4.52 Y54.2 F3000.0
G01 X4.42 Y53.93 F3000.0
G01 X4.26 Y54.19 F3000.0
G01 X4.17 Y54.28 F3000.0
G01 X4.05 Y54.09 F3000.0
G01 X4.04 Y53.83 F3000.0
G01 X4.29 Y53.75 F3000.0
G01 X4.49 Y53.7 F3000.0
G01 X4.64 Y53.5 F3000.0
G01 X4.65 Y53.47 F3000.0
G01 X4.89 Y52.48 F3000.0
G01 X4.9 Y52.41 F3000.0
G01 X5.0 Y51.42 F3000.0
G01 X5.11 Y50.36 F3000.0
G01 X5.21 Y49.63 F3000.0
G01 X5.62 Y49.32 F3000.0
G01 X6.11 Y49.05 F3000.0
G01 X5.72 Y49.06 F3000.0
G01 X5.45 Y49.04 F3000.0
G01 X5.31 Y48.87 F3000.0
G01 X5.32 Y48.64 F3000.0
G01 X5.51 Y48.42 F3000.0
G01 X5.66 Y48.4 F3000.0
G01 X5.72 Y48.52 F3000.0
G01 X5.81 Y48.59 F3000.0
G01 X6.04 Y48.42 F3000.0
G01 X6.36 Y48.22 F3000.0
G01 X6.65 Y48.2 F3000.0
G01 X6.84 Y48.19 F3000.0
G01 X6.92 Y48.01 F3000.0
G01 X7.14 Y47.71 F3000.0
G01 X7.25 Y47.66 F3000.0
G01 X7.23 Y47.51 F3000.0
G01 X7.17 Y47.36 F3000.0
G01 X7.61 Y47.28 F3000.0
G01 X7.88 F3000.0
G01 X9.88 Y47.24 F3000.0
G01 X10.88 Y47.22 F3000.0
G01 X12.15 Y47.2 F3000.0
G01 X12.42 F3000.0
G01 X14.42 Y47.21 F3000.0
G01 X15.68 F3000.0
G01 X15.76 Y47.22 F3000.0
G01 X16.75 Y47.3 F3000.0
G01 X17.83 Y47.38 F3000.0
G01 X17.89 Y47.41 F3000.0
G01 X18.9 Y47.76 F3000.0
G01 X19.13 Y48.05 F3000.0
G01 X19.2 Y48.4 F3000.0
G01 X19.41 Y48.72 F3000.0
G01 X19.54 Y48.38 F3000.0
G01 X19.56 Y47.46 F3000.0
G01 X19.55 Y47.4 F3000.0
G01 X19.41 Y46.34 F3000.0
G01 X19.2 Y46.12 F3000.0
G01 X18.8 Y45.97 F3000.0
G01 X18.09 Y45.72 F3000.0
G01 X18.12 F3000.0
G01 X19.15 Y45.71 F3000.0
G01 X20.02 Y45.61 F3000.0
G01 X20.61 Y45.32 F3000.0
G01 X20.92 Y44.86 F3000.0
G01 Y44.22 F3000.0
G01 X20.68 Y43.47 F3000.0
G01 X20.11 Y43.06 F3000.0
G01 X20.0 Y43.04 F3000.0
G01 X18.9 Y42.87 F3000.0
G01 X18.81 F3000.0
G01 X17.81 Y42.83 F3000.0
G01 X16.72 Y42.8 F3000.0
G01 X16.32 Y42.78 F3000.0
G01 X15.32 Y42.74 F3000.0
G01 X13.91 Y42.69 F3000.0
G01 X13.86 Y42.67 F3000.0
G01 X12.85 Y42.39 F3000.0
G01 X12.22 Y42.15 F3000.0
G01 X11.28 Y42.2 F3000.0
G01 X10.95 Y42.23 F3000.0
G01 X9.62 Y42.34 F3000.0
G01 X9.19 Y42.25 F3000.0
G01 X8.89 Y42.03 F3000.0
G01 X8.45 Y41.77 F3000.0
G01 X7.88 Y41.65 F3000.0
G01 X7.61 Y41.64 F3000.0
G01 X6.61 Y41.63 F3000.0
G01 X5.33 Y41.6 F3000.0
G01 X5.14 Y41.62 F3000.0
G01 X3.95 Y41.71 F3000.0
G01 F3000.0
M5
G00 X8.24 Y42.8 F3000.0
M3 F3000.0
G01 X8.5 Y43.03 F3000.0
G01 X8.13 Y42.87 F3000.0
G01 X7.57 Y42.57 F3000.0
G01 X7.66 Y42.48 F3000.0
G01 X8.24 Y42.8 F3000.0
G01 F3000.0
M5
G00 X15.77 Y44.49 F3000.0
M3 F3000.0
G01 X16.07 Y44.56 F3000.0
G01 X16.37 Y44.43 F3000.0
G01 X16.58 Y44.29 F3000.0
G01 X16.41 Y44.55 F3000.0
G01 X15.81 Y44.9 F3000.0
G01 X15.61 Y44.95 F3000.0
G01 X15.74 Y45.14 F3000.0
G01 X15.94 Y45.39 F3000.0
G01 X15.91 Y45.53 F3000.0
G01 X15.07 Y45.5 F3000.0
G01 X14.42 Y45.45 F3000.0
G01 X14.17 Y45.56 F3000.0
G01 X13.97 Y45.66 F3000.0
G01 X13.51 Y45.65 F3000.0
G01 X13.48 F3000.0
G01 X12.46 Y45.75 F3000.0
G01 X12.23 Y45.84 F3000.0
G01 X12.26 Y45.78 F3000.0
G01 X12.32 Y45.72 F3000.0
G01 X13.12 Y45.0 F3000.0
G01 X13.72 Y44.55 F3000.0
G01 X13.99 Y44.75 F3000.0
G01 X14.49 Y45.1 F3000.0
G01 X15.07 Y44.82 F3000.0
G01 X15.24 Y44.6 F3000.0
G01 X15.23 Y44.42 F3000.0
G01 X15.19 Y44.32 F3000.0
G01 X15.3 Y44.3 F3000.0
G01 X15.77 Y44.49 F3000.0
G01 F3000.0
M5
G00 X16.58 Y43.49 F3000.0
M3 F3000.0
G01 X16.74 Y43.63 F3000.0
G01 X16.68 Y43.68 F3000.0
G01 X16.18 Y43.49 F3000.0
G01 X16.02 Y43.35 F3000.0
G01 X16.08 Y43.29 F3000.0
G01 X16.58 Y43.49 F3000.0
G01 F3000.0
M5
G00 X17.73 Y44.21 F3000.0
M3 F3000.0
G01 X17.35 Y44.23 F3000.0
G01 X17.26 Y44.15 F3000.0
G01 X17.47 Y44.11 F3000.0
G01 X17.73 Y44.21 F3000.0
G01 F3000.0
M5
G00 X18.84 Y44.23 F3000.0
M3 F3000.0
G01 X18.34 F3000.0
G01 X18.31 Y44.15 F3000.0
G01 X18.59 Y44.12 F3000.0
G01 X18.88 Y44.15 F3000.0
G01 X18.84 Y44.23 F3000.0
G01 F3000.0
M5
G00 X19.6 Y44.78 F3000.0
M3 F3000.0
G01 X19.4 Y45.0 F3000.0
G01 X19.26 Y45.02 F3000.0
G01 X19.2 Y44.91 F3000.0
G01 X19.4 Y44.7 F3000.0
G01 X19.6 Y44.78 F3000.0
G01 F3000.0
M5
G00 X19.34 Y47.11 F3000.0
M3 F3000.0
G01 X19.18 Y47.51 F3000.0
G01 X19.0 Y47.25 F3000.0
G01 X19.13 Y46.84 F3000.0
G01 X19.29 Y46.74 F3000.0
G01 X19.34 Y47.11 F3000.0
G01 F3000.0
M5
G00 X18.69 Y49.73 F3000.0
M3 F3000.0
G01 X18.91 Y49.93 F3000.0
G01 X19.0 Y49.73 F3000.0
G01 X18.78 Y49.52 F3000.0
G01 X18.67 Y49.58 F3000.0
G01 X18.7 Y49.73 F3000.0
G01 X18.69 F3000.0
M5
G00 X21.15 Y50.17 F3000.0
M3 F3000.0
G01 X21.07 Y50.25 F3000.0
G01 X21.02 Y50.04 F3000.0
G01 X21.13 Y49.78 F3000.0
G01 X21.15 Y50.17 F3000.0
G01 F3000.0
M5
G00 X16.83 Y45.84 F3000.0
M3 F3000.0
G01 X16.33 F3000.0
G01 X16.3 Y45.76 F3000.0
G01 X16.58 Y45.73 F3000.0
G01 X16.86 Y45.76 F3000.0
G01 X16.83 Y45.84 F3000.0
G01 F3000.0
M5
G00 X31.01 Y46.83 F3000.0
M3 F3000.0
G01 X30.63 Y46.85 F3000.0
G01 X30.54 Y46.76 F3000.0
G01 X30.75 Y46.72 F3000.0
G01 X31.01 Y46.83 F3000.0
G01 F3000.0
M5
G00 X31.73 Y46.25 F3000.0
M3 F3000.0
G01 X31.72 F3000.0
G01 X30.72 F3000.0
G01 X30.62 Y46.19 F3000.0
G01 X31.17 Y46.16 F3000.0
G01 X31.75 Y46.19 F3000.0
G01 X31.82 Y46.21 F3000.0
G01 X31.73 Y46.25 F3000.0
G01 F3000.0
M5
G00 X32.73 Y47.04 F3000.0
M3 F3000.0
G01 X32.23 F3000.0
G01 X32.2 Y46.97 F3000.0
G01 X32.48 Y46.94 F3000.0
G01 X32.76 Y46.97 F3000.0
G01 X32.73 Y47.04 F3000.0
G01 F3000.0
M5
G00 X33.48 Y46.91 F3000.0
M3 F3000.0
G01 X33.09 Y46.99 F3000.0
G01 X33.28 Y46.71 F3000.0
G01 X33.67 Y46.63 F3000.0
G01 X33.48 Y46.91 F3000.0
G01 F3000.0
M5
G00 X32.37 Y43.86 F3000.0
M3 F3000.0
G01 X32.6 Y44.55 F3000.0
G01 X32.66 Y44.69 F3000.0
G01 X32.44 Y44.54 F3000.0
G01 X32.22 Y44.21 F3000.0
G01 X32.12 Y43.78 F3000.0
G01 X32.2 Y43.37 F3000.0
G01 X32.37 Y43.87 F3000.0
G01 Y43.86 F3000.0
M5
G00 X34.21 Y40.76 F3000.0
M3 F3000.0
G01 X34.0 Y40.93 F3000.0
G01 X33.04 Y41.76 F3000.0
G01 X32.59 Y42.08 F3000.0
G01 X32.57 Y42.09 F3000.0
G01 X31.78 Y42.72 F3000.0
G01 X31.48 Y43.13 F3000.0
G01 X31.35 Y43.52 F3000.0
G01 X31.36 Y43.55 F3000.0
G01 X31.59 Y44.56 F3000.0
G01 Y44.78 F3000.0
G01 X31.31 Y44.76 F3000.0
G01 X31.04 Y44.6 F3000.0
G01 X31.01 Y44.31 F3000.0
G01 X30.99 Y43.95 F3000.0
G01 X30.74 Y43.68 F3000.0
G01 X30.32 Y43.55 F3000.0
G01 X29.76 Y43.58 F3000.0
G01 X29.19 Y43.78 F3000.0
G01 X29.06 Y44.2 F3000.0
G01 X29.2 Y44.62 F3000.0
G01 X29.91 Y44.72 F3000.0
G01 X30.77 Y44.74 F3000.0
G01 X30.06 Y44.88 F3000.0
G01 X29.1 Y45.17 F3000.0
G01 X28.92 Y45.21 F3000.0
G01 X28.85 Y45.06 F3000.0
G01 X28.81 Y44.93 F3000.0
G01 X28.65 Y45.1 F3000.0
G01 X28.48 Y45.58 F3000.0
G01 X28.47 Y46.12 F3000.0
G01 X28.62 Y46.65 F3000.0
G01 X28.92 Y47.08 F3000.0
G01 X29.47 Y47.47 F3000.0
G01 X30.17 Y47.72 F3000.0
G01 X30.23 Y47.73 F3000.0
G01 X31.23 Y47.82 F3000.0
G01 X32.28 Y47.92 F3000.0
G01 X32.38 F3000.0
G01 X33.47 Y47.98 F3000.0
G01 X34.06 Y48.17 F3000.0
G01 X34.55 Y48.42 F3000.0
G01 X34.69 Y48.48 F3000.0
G01 X34.73 Y48.69 F3000.0
G01 X34.72 Y48.78 F3000.0
G01 X34.56 Y49.85 F3000.0
G01 X34.57 Y50.5 F3000.0
G01 X34.79 Y51.2 F3000.0
G01 X35.03 Y51.97 F3000.0
G01 X34.92 Y52.89 F3000.0
G01 X34.89 Y53.09 F3000.0
G01 X34.75 Y54.08 F3000.0
G01 X34.58 Y55.26 F3000.0
G01 X34.53 Y55.53 F3000.0
G01 X34.32 Y56.79 F3000.0
G01 X33.42 Y57.17 F3000.0
G01 X32.71 Y57.49 F3000.0
G01 X32.0 Y57.99 F3000.0
G01 X31.39 Y58.59 F3000.0
G01 X30.96 Y59.2 F3000.0
G01 X30.74 Y60.08 F3000.0
G01 X30.73 Y60.33 F3000.0
G01 X30.67 Y61.57 F3000.0
G01 Y61.97 F3000.0
G01 Y63.37 F3000.0
G01 X30.63 Y63.36 F3000.0
G01 X29.66 Y62.99 F3000.0
G01 X29.21 Y62.9 F3000.0
G01 X27.78 Y62.62 F3000.0
G01 X26.9 Y62.64 F3000.0
G01 X26.29 Y62.8 F3000.0
G01 X25.43 Y63.22 F3000.0
G01 X25.32 Y63.27 F3000.0
G01 X24.32 Y63.78 F3000.0
G01 X24.22 Y63.85 F3000.0
G01 X23.29 Y64.48 F3000.0
G01 X23.25 Y64.51 F3000.0
G01 X22.48 Y65.22 F3000.0
G01 X21.99 Y65.92 F3000.0
G01 X21.73 Y66.43 F3000.0
G01 X21.62 Y66.51 F3000.0
G01 X21.46 Y66.24 F3000.0
G01 X21.06 Y66.05 F3000.0
G01 X21.02 F3000.0
G01 X19.98 Y66.01 F3000.0
G01 X19.92 Y66.03 F3000.0
G01 X18.96 Y66.33 F3000.0
G01 X17.95 Y66.65 F3000.0
G01 X17.78 Y66.75 F3000.0
G01 X16.75 Y67.37 F3000.0
G01 X16.36 Y68.06 F3000.0
G01 Y68.28 F3000.0
G01 X16.31 Y69.51 F3000.0
G01 X16.33 Y69.72 F3000.0
G01 X16.42 Y70.92 F3000.0
G01 X16.79 Y71.5 F3000.0
G01 X17.24 Y71.77 F3000.0
G01 X17.71 Y71.84 F3000.0
G01 X18.23 Y71.7 F3000.0
G01 X18.84 Y71.36 F3000.0
G01 X18.91 Y71.32 F3000.0
G01 X19.88 Y70.85 F3000.0
G01 X20.22 Y71.06 F3000.0
G01 X20.52 Y71.62 F3000.0
G01 X20.6 Y72.05 F3000.0
G01 X20.85 Y73.47 F3000.0
G01 X20.86 Y73.62 F3000.0
G01 X20.91 Y74.78 F3000.0
G01 X21.62 Y74.84 F3000.0
G01 X22.48 Y74.76 F3000.0
G01 X23.39 Y74.42 F3000.0
G01 X24.23 Y73.89 F3000.0
G01 X24.9 Y73.22 F3000.0
G01 X25.21 Y72.51 F3000.0
G01 X25.29 Y71.63 F3000.0
G01 X25.17 Y70.73 F3000.0
G01 X24.83 Y70.0 F3000.0
G01 X24.4 Y69.42 F3000.0
G01 X24.92 Y68.9 F3000.0
G01 X25.01 Y68.83 F3000.0
G01 X25.89 Y68.16 F3000.0
G01 X25.92 Y68.15 F3000.0
G01 X26.89 Y67.82 F3000.0
G01 X27.82 Y67.87 F3000.0
G01 X28.58 Y68.35 F3000.0
G01 X29.06 Y69.05 F3000.0
G01 X29.25 Y69.24 F3000.0
G01 X29.59 Y69.78 F3000.0
G01 X29.61 Y69.84 F3000.0
G01 X29.99 Y70.84 F3000.0
G01 X30.0 Y70.87 F3000.0
G01 X30.27 Y71.86 F3000.0
G01 X30.28 Y71.92 F3000.0
G01 X30.5 Y72.97 F3000.0
G01 X30.57 Y73.13 F3000.0
G01 X31.02 Y74.21 F3000.0
G01 X31.31 Y74.56 F3000.0
G01 X31.67 Y74.76 F3000.0
G01 X32.07 Y74.79 F3000.0
G01 X32.47 Y74.64 F3000.0
G01 X32.75 Y74.39 F3000.0
G01 X32.86 Y74.11 F3000.0
G01 X32.8 Y73.84 F3000.0
G01 X32.55 Y73.58 F3000.0
G01 X32.13 Y73.07 F3000.0
G01 X31.87 Y72.25 F3000.0
G01 X31.86 Y72.16 F3000.0
G01 X31.76 Y71.07 F3000.0
G01 Y70.78 F3000.0
G01 X31.79 Y69.49 F3000.0
G01 X31.82 Y69.12 F3000.0
G01 X31.95 Y67.76 F3000.0
G01 X32.17 Y67.23 F3000.0
G01 X32.52 Y67.13 F3000.0
G01 X32.72 Y66.86 F3000.0
G01 X32.77 Y66.45 F3000.0
G01 X32.65 Y65.92 F3000.0
G01 X32.64 Y65.91 F3000.0
G01 X32.17 Y65.01 F3000.0
G01 X32.04 Y64.69 F3000.0
G01 X32.03 Y64.15 F3000.0
G01 X32.24 Y63.54 F3000.0
G01 X32.86 Y63.14 F3000.0
G01 X33.29 Y62.99 F3000.0
G01 X34.65 Y62.5 F3000.0
G01 X34.87 Y62.45 F3000.0
G01 X36.06 Y62.2 F3000.0
G01 X36.12 Y62.19 F3000.0
G01 X37.14 Y61.88 F3000.0
G01 X37.76 Y61.56 F3000.0
G01 X37.14 Y62.33 F3000.0
G01 X37.1 Y62.42 F3000.0
G01 X36.58 Y63.38 F3000.0
G01 X36.57 Y63.52 F3000.0
G01 X36.48 Y64.67 F3000.0
G01 X36.62 Y64.96 F3000.0
G01 X36.98 Y65.25 F3000.0
G01 X37.08 Y65.29 F3000.0
G01 X38.1 Y65.74 F3000.0
G01 X38.24 Y65.77 F3000.0
G01 X39.36 Y65.99 F3000.0
G01 X40.28 Y65.85 F3000.0
G01 X40.34 Y65.78 F3000.0
G01 X40.96 Y64.88 F3000.0
G01 X41.01 Y64.74 F3000.0
G01 X41.33 Y63.64 F3000.0
G01 X41.31 Y63.51 F3000.0
G01 X41.1 Y62.41 F3000.0
G01 X40.64 Y61.55 F3000.0
G01 X40.71 Y61.45 F3000.0
G01 X41.09 Y61.38 F3000.0
G01 X42.03 Y61.4 F3000.0
G01 X42.25 Y61.45 F3000.0
G01 X43.22 Y61.7 F3000.0
G01 X44.19 Y61.95 F3000.0
G01 X45.15 Y62.2 F3000.0
G01 X46.12 Y62.44 F3000.0
G01 X47.3 Y62.75 F3000.0
G01 X47.76 Y62.9 F3000.0
G01 X48.7 Y63.23 F3000.0
G01 X50.11 Y63.71 F3000.0
G01 X50.18 Y63.76 F3000.0
G01 X51.11 Y64.33 F3000.0
G01 X51.21 Y64.54 F3000.0
G01 X50.98 Y64.62 F3000.0
G01 X50.87 Y64.7 F3000.0
G01 X50.95 Y64.94 F3000.0
G01 Y65.02 F3000.0
G01 X50.97 Y66.09 F3000.0
G01 X50.92 Y66.59 F3000.0
G01 X50.8 Y68.08 F3000.0
G01 X50.79 Y68.17 F3000.0
G01 X50.68 Y69.16 F3000.0
G01 X50.57 Y70.25 F3000.0
G01 X50.56 Y70.43 F3000.0
G01 X50.5 Y71.62 F3000.0
G01 X50.68 Y72.06 F3000.0
G01 X50.96 Y72.63 F3000.0
G01 X51.13 Y72.88 F3000.0
G01 X51.37 Y73.01 F3000.0
G01 X51.44 Y73.0 F3000.0
G01 X52.5 Y72.96 F3000.0
G01 X52.58 Y72.95 F3000.0
G01 X53.66 Y72.92 F3000.0
G01 X54.32 Y73.24 F3000.0
G01 X54.76 Y73.5 F3000.0
G01 X55.07 Y73.54 F3000.0
G01 X55.18 Y73.5 F3000.0
G01 X55.15 Y73.61 F3000.0
G01 X55.28 Y73.95 F3000.0
G01 X55.75 Y74.49 F3000.0
G01 X55.94 Y74.74 F3000.0
G01 X56.75 Y75.78 F3000.0
G01 X56.84 Y75.95 F3000.0
G01 X57.42 Y76.99 F3000.0
G01 X57.45 Y77.08 F3000.0
G01 X57.81 Y78.11 F3000.0
G01 X58.08 Y78.9 F3000.0
G01 X58.22 Y79.08 F3000.0
G01 X57.98 Y78.92 F3000.0
G01 X57.69 Y78.76 F3000.0
G01 X57.63 Y78.97 F3000.0
G01 X57.48 Y79.38 F3000.0
G01 X57.14 Y79.84 F3000.0
G01 X56.7 Y80.23 F3000.0
G01 X56.3 Y80.41 F3000.0
G01 X56.14 Y80.44 F3000.0
G01 X55.0 Y80.67 F3000.0
G01 X54.94 Y80.7 F3000.0
G01 X53.98 Y81.14 F3000.0
G01 X53.11 Y81.52 F3000.0
G01 X52.84 Y81.62 F3000.0
G01 X52.64 Y81.87 F3000.0
G01 X52.58 Y81.78 F3000.0
G01 X52.51 Y81.29 F3000.0
G01 X52.48 Y80.85 F3000.0
G01 X52.4 Y79.4 F3000.0
G01 X52.38 Y79.18 F3000.0
G01 X52.32 Y78.18 F3000.0
G01 X52.25 Y76.95 F3000.0
G01 X52.1 Y76.61 F3000.0
G01 X51.83 Y76.52 F3000.0
G01 X51.31 Y76.54 F3000.0
G01 X50.99 Y76.85 F3000.0
G01 X50.83 Y77.52 F3000.0
G01 Y77.59 F3000.0
G01 X50.79 Y78.66 F3000.0
G01 X50.78 Y78.82 F3000.0
G01 X50.74 Y79.98 F3000.0
G01 X50.66 Y80.18 F3000.0
G01 X50.55 Y80.15 F3000.0
G01 X49.99 Y79.88 F3000.0
G01 X49.33 Y79.98 F3000.0
G01 X48.7 Y80.37 F3000.0
G01 X48.26 Y81.02 F3000.0
G01 X48.24 Y81.08 F3000.0
G01 X48.01 Y82.11 F3000.0
G01 Y82.21 F3000.0
G01 X48.04 Y83.3 F3000.0
G01 X48.05 Y83.34 F3000.0
G01 X48.31 Y84.34 F3000.0
G01 X48.78 Y84.94 F3000.0
G01 F3000.0
G01 X49.77 Y85.03 F3000.0
G01 X49.8 Y85.02 F3000.0
G01 X50.76 Y84.68 F3000.0
G01 X50.96 Y84.56 F3000.0
G01 X50.82 Y84.87 F3000.0
G01 X50.64 Y85.77 F3000.0
G01 X50.63 Y85.96 F3000.0
G01 X50.58 Y87.15 F3000.0
G01 X50.59 Y87.28 F3000.0
G01 X50.65 Y88.41 F3000.0
G01 X50.84 Y88.96 F3000.0
G01 X50.99 Y89.0 F3000.0
G01 X50.84 Y89.13 F3000.0
G01 X50.66 Y89.61 F3000.0
G01 Y89.69 F3000.0
G01 X50.64 Y90.77 F3000.0
G01 X50.63 Y90.86 F3000.0
G01 X50.62 Y91.95 F3000.0
G01 X50.4 Y92.34 F3000.0
G01 X49.69 Y92.89 F3000.0
G01 X49.05 Y93.38 F3000.0
G01 X49.03 Y93.4 F3000.0
G01 X48.08 Y93.8 F3000.0
G01 X47.83 Y93.85 F3000.0
G01 X45.87 Y94.27 F3000.0
G01 X44.65 Y94.53 F3000.0
G01 X43.83 Y94.75 F3000.0
G01 X43.66 Y95.13 F3000.0
G01 X43.67 Y95.57 F3000.0
G01 X43.1 Y95.13 F3000.0
G01 X42.76 Y94.82 F3000.0
G01 X41.68 Y93.82 F3000.0
G01 X41.38 Y93.57 F3000.0
G01 X40.3 Y92.67 F3000.0
G01 X39.55 Y92.49 F3000.0
G01 X39.01 Y92.71 F3000.0
G01 X38.79 Y93.23 F3000.0
G01 X39.02 Y93.92 F3000.0
G01 X39.23 Y94.51 F3000.0
G01 X39.12 Y94.59 F3000.0
G01 X38.87 Y94.46 F3000.0
G01 X38.8 Y94.43 F3000.0
G01 X37.81 Y94.01 F3000.0
G01 X37.66 Y93.95 F3000.0
G01 X36.73 Y93.56 F3000.0
G01 X35.66 Y93.12 F3000.0
G01 X35.65 Y93.11 F3000.0
G01 X34.77 Y92.64 F3000.0
G01 X33.88 Y92.17 F3000.0
G01 X33.42 Y91.58 F3000.0
G01 X33.4 Y91.5 F3000.0
G01 X33.11 Y90.45 F3000.0
G01 X33.09 Y90.09 F3000.0
G01 X33.02 Y89.09 F3000.0
G01 X32.95 Y88.09 F3000.0
G01 X32.88 Y87.1 F3000.0
G01 X32.79 Y85.74 F3000.0
G01 Y85.6 F3000.0
G01 X32.78 Y84.6 F3000.0
G01 Y83.6 F3000.0
G01 X32.77 Y82.45 F3000.0
G01 X32.83 Y82.13 F3000.0
G01 X33.06 Y80.82 F3000.0
G01 X33.11 Y80.59 F3000.0
G01 X33.37 Y79.39 F3000.0
G01 X33.26 Y79.05 F3000.0
G01 X32.96 Y78.81 F3000.0
G01 X32.54 Y78.6 F3000.0
G01 X32.71 Y77.64 F3000.0
G01 X32.95 Y76.89 F3000.0
G01 X33.29 Y76.69 F3000.0
G01 X33.35 Y76.67 F3000.0
G01 X34.33 Y76.28 F3000.0
G01 X34.6 Y76.17 F3000.0
G01 X35.8 Y75.66 F3000.0
G01 X36.03 Y75.58 F3000.0
G01 X37.2 Y75.18 F3000.0
G01 X37.42 Y75.12 F3000.0
G01 X38.38 Y74.84 F3000.0
G01 X39.55 Y74.5 F3000.0
G01 X39.79 Y74.48 F3000.0
G01 X40.79 Y74.37 F3000.0
G01 X42.02 Y74.24 F3000.0
G01 X42.21 Y74.26 F3000.0
G01 X43.21 Y74.39 F3000.0
G01 X44.2 Y74.51 F3000.0
G01 X45.38 Y74.66 F3000.0
G01 X45.67 Y74.73 F3000.0
G01 X46.92 Y75.03 F3000.0
G01 X47.77 Y75.38 F3000.0
G01 X48.53 Y75.68 F3000.0
G01 X48.83 Y75.75 F3000.0
G01 X48.86 Y75.95 F3000.0
G01 Y76.21 F3000.0
G01 X49.05 Y76.44 F3000.0
G01 X49.88 Y76.72 F3000.0
G01 X50.4 Y76.68 F3000.0
G01 X50.55 Y76.16 F3000.0
G01 X50.4 Y75.47 F3000.0
G01 X50.3 Y75.37 F3000.0
G01 X49.52 Y74.55 F3000.0
G01 X49.49 Y74.52 F3000.0
G01 X48.67 Y73.89 F3000.0
G01 F3000.0
G01 X47.77 Y73.43 F3000.0
G01 F3000.0
G01 X46.8 Y73.16 F3000.0
G01 X46.78 Y73.15 F3000.0
G01 X45.75 Y73.07 F3000.0
G01 X45.67 Y73.05 F3000.0
G01 X44.61 Y72.85 F3000.0
G01 X44.35 Y72.81 F3000.0
G01 X43.11 Y72.63 F3000.0
G01 X43.05 F3000.0
G01 X42.05 Y72.65 F3000.0
G01 X41.0 Y72.66 F3000.0
G01 X40.56 Y72.72 F3000.0
G01 X39.12 Y72.89 F3000.0
G01 X38.53 Y73.06 F3000.0
G01 X38.31 Y73.26 F3000.0
G01 X37.86 Y73.42 F3000.0
G01 X37.7 Y73.47 F3000.0
G01 X36.73 Y73.73 F3000.0
G01 X35.61 Y74.03 F3000.0
G01 X35.27 Y74.18 F3000.0
G01 X34.35 Y74.58 F3000.0
G01 X33.1 Y75.14 F3000.0
G01 X32.99 Y75.21 F3000.0
G01 X32.05 Y75.85 F3000.0
G01 X31.46 Y76.6 F3000.0
G01 X31.44 Y76.66 F3000.0
G01 X31.17 Y77.68 F3000.0
G01 X31.14 Y78.05 F3000.0
G01 X31.05 Y79.4 F3000.0
G01 X30.88 Y80.37 F3000.0
G01 X30.86 Y80.39 F3000.0
G01 X30.21 Y81.18 F3000.0
G01 X29.67 Y81.85 F3000.0
G01 X29.29 Y82.63 F3000.0
G01 X29.08 Y83.45 F3000.0
G01 X29.04 Y84.27 F3000.0
G01 X29.15 Y85.03 F3000.0
G01 X29.43 Y85.68 F3000.0
G01 X29.86 Y86.17 F3000.0
G01 X30.44 Y86.44 F3000.0
G01 X30.77 Y86.54 F3000.0
G01 X30.95 Y86.77 F3000.0
G01 X30.98 Y87.0 F3000.0
G01 X31.12 Y88.22 F3000.0
G01 X31.14 Y88.4 F3000.0
G01 X31.25 Y89.4 F3000.0
G01 X31.38 Y90.57 F3000.0
G01 X31.48 Y90.88 F3000.0
G01 X31.89 Y92.14 F3000.0
G01 X32.03 Y92.31 F3000.0
G01 X32.8 Y93.24 F3000.0
G01 X33.12 Y93.43 F3000.0
G01 X34.3 Y94.16 F3000.0
G01 X34.65 Y94.32 F3000.0
G01 X35.93 Y94.88 F3000.0
G01 X36.15 Y94.92 F3000.0
G01 X37.35 Y95.14 F3000.0
G01 X37.4 F3000.0
G01 X38.45 Y95.17 F3000.0
G01 X39.01 Y95.0 F3000.0
G01 X39.25 Y94.86 F3000.0
G01 X39.32 Y94.99 F3000.0
G01 X39.4 Y95.2 F3000.0
G01 X39.83 Y96.35 F3000.0
G01 X39.84 Y96.38 F3000.0
G01 X40.22 Y97.31 F3000.0
G01 X40.61 Y98.26 F3000.0
G01 X40.75 Y99.11 F3000.0
G01 X40.71 F3000.0
G01 X39.69 Y99.32 F3000.0
G01 X38.82 Y99.58 F3000.0
G01 X38.1 Y100.14 F3000.0
G01 X37.57 Y100.85 F3000.0
G01 Y101.72 F3000.0
G01 X37.61 Y101.86 F3000.0
G01 X37.86 Y102.83 F3000.0
G01 X38.15 Y103.94 F3000.0
G01 X38.19 Y104.03 F3000.0
G01 X38.61 Y104.94 F3000.0
G01 X39.07 Y105.93 F3000.0
G01 X39.19 Y106.12 F3000.0
G01 X39.83 Y107.17 F3000.0
G01 X40.03 Y107.54 F3000.0
G01 X40.72 Y108.78 F3000.0
G01 X40.83 Y108.94 F3000.0
G01 X41.49 Y109.94 F3000.0
G01 X41.62 Y110.1 F3000.0
G01 X42.4 Y111.03 F3000.0
G01 X42.49 Y111.11 F3000.0
G01 X43.32 Y111.86 F3000.0
G01 X44.02 Y112.06 F3000.0
G01 X44.18 Y112.01 F3000.0
G01 X45.31 Y111.71 F3000.0
G01 X45.42 Y111.63 F3000.0
G01 X46.37 Y110.99 F3000.0
G01 X46.58 Y110.48 F3000.0
G01 X46.59 Y109.75 F3000.0
G01 X46.41 Y108.88 F3000.0
G01 Y108.87 F3000.0
G01 X46.06 Y107.92 F3000.0
G01 X46.04 Y107.87 F3000.0
G01 X45.74 Y106.92 F3000.0
G01 X45.42 Y105.91 F3000.0
G01 X45.41 Y105.9 F3000.0
G01 X45.12 Y104.94 F3000.0
G01 X44.99 Y104.68 F3000.0
G01 X44.96 Y104.24 F3000.0
G01 X45.2 Y103.5 F3000.0
G01 X45.57 Y103.36 F3000.0
G01 X46.87 Y102.86 F3000.0
G01 X47.0 Y102.8 F3000.0
G01 X48.07 Y102.38 F3000.0
G01 X48.63 Y101.81 F3000.0
G01 X48.98 Y101.01 F3000.0
G01 X48.89 Y100.31 F3000.0
G01 X48.88 Y100.3 F3000.0
G01 X48.26 Y99.5 F3000.0
G01 X48.0 Y99.28 F3000.0
G01 X46.99 Y98.38 F3000.0
G01 X46.97 Y98.36 F3000.0
G01 X46.21 Y97.7 F3000.0
G01 X45.46 Y97.05 F3000.0
G01 X44.68 Y96.37 F3000.0
G01 X44.1 Y95.8 F3000.0
G01 X45.08 F3000.0
G01 X45.3 Y95.78 F3000.0
G01 X46.52 Y95.66 F3000.0
G01 X46.68 Y95.62 F3000.0
G01 X47.65 Y95.36 F3000.0
G01 X48.77 Y95.06 F3000.0
G01 X49.01 Y94.97 F3000.0
G01 X50.18 Y94.5 F3000.0
G01 X50.42 Y94.26 F3000.0
G01 X51.37 Y93.32 F3000.0
G01 X51.46 Y93.21 F3000.0
G01 X52.21 Y92.34 F3000.0
G01 Y92.07 F3000.0
G01 X52.2 Y91.07 F3000.0
G01 X52.18 Y89.79 F3000.0
G01 Y89.44 F3000.0
G01 Y88.44 F3000.0
G01 X52.17 Y87.08 F3000.0
G01 X52.81 Y87.43 F3000.0
G01 X53.02 Y87.54 F3000.0
G01 X54.12 Y88.12 F3000.0
G01 X54.8 Y88.27 F3000.0
G01 X55.31 Y88.23 F3000.0
G01 X55.59 Y88.02 F3000.0
G01 X55.81 Y87.63 F3000.0
G01 X55.83 Y87.57 F3000.0
G01 X56.02 Y86.53 F3000.0
G01 X56.2 Y85.94 F3000.0
G01 X56.51 Y86.15 F3000.0
G01 X56.87 Y86.63 F3000.0
G01 X57.16 Y87.19 F3000.0
G01 X57.26 Y87.62 F3000.0
G01 X57.31 Y88.01 F3000.0
G01 X57.57 Y88.39 F3000.0
G01 X57.99 Y88.69 F3000.0
G01 X58.51 Y88.87 F3000.0
G01 X59.4 Y88.86 F3000.0
G01 X60.22 Y88.49 F3000.0
G01 X60.23 Y88.48 F3000.0
G01 X60.97 Y87.78 F3000.0
G01 X61.03 Y87.69 F3000.0
G01 X61.62 Y86.75 F3000.0
G01 X61.65 Y86.69 F3000.0
G01 X62.16 Y85.74 F3000.0
G01 X62.39 Y85.15 F3000.0
G01 X62.43 Y84.52 F3000.0
G01 X62.28 Y83.88 F3000.0
G01 X61.95 Y83.24 F3000.0
G01 X61.58 Y82.58 F3000.0
G01 X61.73 Y82.21 F3000.0
G01 X62.1 Y81.66 F3000.0
G01 X62.35 Y80.84 F3000.0
G01 X62.37 Y80.57 F3000.0
G01 X62.44 Y79.57 F3000.0
G01 X62.53 Y78.3 F3000.0
G01 X62.52 Y77.89 F3000.0
G01 X62.48 Y76.89 F3000.0
G01 X62.44 Y75.49 F3000.0
G01 X62.27 Y74.91 F3000.0
G01 X61.95 Y74.39 F3000.0
G01 X61.94 Y74.37 F3000.0
G01 X61.45 Y73.48 F3000.0
G01 X61.38 Y73.38 F3000.0
G01 X60.75 Y72.46 F3000.0
G01 X60.68 Y72.37 F3000.0
G01 X60.04 Y71.45 F3000.0
G01 X59.65 Y70.88 F3000.0
G01 X59.57 Y70.81 F3000.0
G01 X58.74 Y70.08 F3000.0
G01 X58.63 Y70.01 F3000.0
G01 X57.72 Y69.35 F3000.0
G01 X57.0 Y69.04 F3000.0
G01 X56.54 Y68.75 F3000.0
G01 X56.44 Y68.71 F3000.0
G01 X55.53 Y68.3 F3000.0
G01 X54.51 Y67.86 F3000.0
G01 X54.08 Y67.72 F3000.0
G01 X52.7 Y67.26 F3000.0
G01 X52.75 Y66.42 F3000.0
G01 X52.74 Y65.82 F3000.0
G01 X52.57 Y65.74 F3000.0
G01 X52.43 Y65.78 F3000.0
G01 X52.48 Y65.65 F3000.0
G01 X52.61 Y64.67 F3000.0
G01 Y64.27 F3000.0
G01 X52.63 Y62.87 F3000.0
G01 X52.62 Y62.46 F3000.0
G01 X52.57 Y61.05 F3000.0
G01 Y61.04 F3000.0
G01 X52.42 Y60.04 F3000.0
G01 X52.41 Y60.01 F3000.0
G01 X52.2 Y59.0 F3000.0
G01 X51.94 Y58.19 F3000.0
G01 X51.86 Y58.12 F3000.0
G01 X51.07 Y57.52 F3000.0
G01 X50.19 Y56.84 F3000.0
G01 X49.97 Y56.74 F3000.0
G01 X48.86 Y56.18 F3000.0
G01 X48.65 Y56.11 F3000.0
G01 X47.47 Y55.76 F3000.0
G01 X47.06 Y55.56 F3000.0
G01 X47.04 Y55.42 F3000.0
G01 X47.17 Y55.36 F3000.0
G01 X47.31 Y55.2 F3000.0
G01 X47.33 Y54.81 F3000.0
G01 X47.15 Y54.34 F3000.0
G01 X46.6 Y54.19 F3000.0
G01 X45.94 Y54.13 F3000.0
G01 Y54.05 F3000.0
G01 X46.0 Y52.98 F3000.0
G01 F3000.0
G01 X46.13 Y51.99 F3000.0
G01 X46.32 Y51.85 F3000.0
G01 X46.68 Y51.82 F3000.0
G01 X47.52 Y51.67 F3000.0
G01 X47.65 Y51.76 F3000.0
G01 X47.64 Y52.29 F3000.0
G01 X47.62 Y52.67 F3000.0
G01 X47.56 Y54.04 F3000.0
G01 X47.57 Y54.11 F3000.0
G01 X47.68 Y55.17 F3000.0
G01 X48.16 Y55.36 F3000.0
G01 X48.36 Y55.29 F3000.0
G01 X48.52 Y55.06 F3000.0
G01 X48.56 Y54.95 F3000.0
G01 X48.87 Y53.87 F3000.0
G01 X48.89 Y53.68 F3000.0
G01 X49.01 Y52.68 F3000.0
G01 X49.15 Y51.5 F3000.0
G01 X49.23 Y50.67 F3000.0
G01 X49.77 Y49.97 F3000.0
G01 X50.48 Y49.43 F3000.0
G01 X51.46 Y49.5 F3000.0
G01 X52.38 Y49.6 F3000.0
G01 X52.95 Y49.4 F3000.0
G01 X53.37 Y49.03 F3000.0
G01 X53.15 Y48.5 F3000.0
G01 X53.02 Y48.13 F3000.0
G01 X53.3 Y47.86 F3000.0
G01 X53.31 F3000.0
G01 X54.31 Y47.69 F3000.0
G01 X54.88 Y47.61 F3000.0
G01 X55.36 Y47.23 F3000.0
G01 X55.77 Y46.89 F3000.0
G01 X56.11 Y46.83 F3000.0
G01 X56.55 Y46.9 F3000.0
G01 X56.97 Y46.81 F3000.0
G01 X57.3 Y46.6 F3000.0
G01 X57.43 Y46.31 F3000.0
G01 X57.18 Y45.78 F3000.0
G01 X56.66 Y45.65 F3000.0
G01 X55.88 F3000.0
G01 X55.09 Y45.77 F3000.0
G01 X54.52 Y45.98 F3000.0
G01 X53.8 Y46.3 F3000.0
G01 X53.66 Y46.21 F3000.0
G01 X53.71 Y45.95 F3000.0
G01 X53.84 Y45.26 F3000.0
G01 X53.97 Y44.99 F3000.0
G01 X54.37 Y44.86 F3000.0
G01 X54.8 Y44.71 F3000.0
G01 X54.91 Y44.32 F3000.0
G01 X54.74 Y43.87 F3000.0
G01 X54.01 Y43.56 F3000.0
G01 X53.56 Y43.5 F3000.0
G01 X52.11 Y43.32 F3000.0
G01 X51.28 Y43.28 F3000.0
G01 X50.97 Y42.95 F3000.0
G01 Y42.94 F3000.0
G01 X50.34 Y42.14 F3000.0
G01 X50.2 Y42.06 F3000.0
G01 X49.18 Y41.49 F3000.0
G01 X48.88 Y41.4 F3000.0
G01 X47.62 Y41.04 F3000.0
G01 X47.2 Y40.99 F3000.0
G01 X45.78 Y40.84 F3000.0
G01 X45.54 Y40.85 F3000.0
G01 X44.31 Y40.87 F3000.0
G01 X43.98 Y41.0 F3000.0
G01 X43.73 Y41.24 F3000.0
G01 X43.67 Y41.4 F3000.0
G01 X43.24 Y42.5 F3000.0
G01 X43.07 Y43.14 F3000.0
G01 X42.75 Y43.0 F3000.0
G01 X42.2 Y42.76 F3000.0
G01 X41.25 Y42.68 F3000.0
G01 X40.57 Y42.66 F3000.0
G01 X40.09 Y42.54 F3000.0
G01 X39.91 Y42.39 F3000.0
G01 X38.95 Y41.6 F3000.0
G01 F3000.0
G01 X38.17 Y40.97 F3000.0
G01 X37.39 Y40.34 F3000.0
G01 X36.77 Y40.12 F3000.0
G01 X36.06 Y40.08 F3000.0
G01 X35.17 Y40.23 F3000.0
G01 X35.12 Y40.25 F3000.0
G01 X34.21 Y40.76 F3000.0
G01 F3000.0
M5
G00 X34.89 Y41.15 F3000.0
M3 F3000.0
G01 X34.54 Y41.5 F3000.0
G01 X34.29 Y41.68 F3000.0
G01 X34.46 Y41.43 F3000.0
G01 X34.78 Y41.1 F3000.0
G01 X34.89 Y41.15 F3000.0
G01 F3000.0
M5
G00 X36.25 Y41.71 F3000.0
M3 F3000.0
G01 X35.81 Y41.98 F3000.0
G01 X35.72 Y42.33 F3000.0
G01 X35.95 Y42.74 F3000.0
G01 X36.51 Y43.19 F3000.0
G01 X37.15 Y43.71 F3000.0
G01 X37.55 Y44.25 F3000.0
G01 X37.57 Y44.28 F3000.0
G01 X38.08 Y45.14 F3000.0
G01 X38.6 Y46.02 F3000.0
G01 X39.14 Y46.66 F3000.0
G01 X39.54 Y46.91 F3000.0
G01 X39.82 Y46.81 F3000.0
G01 X39.92 Y46.56 F3000.0
G01 X39.88 Y46.41 F3000.0
G01 X39.59 Y45.29 F3000.0
G01 X39.53 Y45.15 F3000.0
G01 X39.05 Y44.09 F3000.0
G01 X38.92 Y43.89 F3000.0
G01 X39.16 Y44.06 F3000.0
G01 X39.26 Y44.25 F3000.0
G01 X39.83 Y45.32 F3000.0
G01 X40.16 Y46.05 F3000.0
G01 X40.49 Y46.33 F3000.0
G01 X40.71 Y46.36 F3000.0
G01 X40.48 Y46.44 F3000.0
G01 X40.2 Y46.72 F3000.0
G01 X40.11 Y47.48 F3000.0
G01 X40.08 Y47.8 F3000.0
G01 X39.96 Y49.12 F3000.0
G01 X39.56 Y49.93 F3000.0
G01 X39.35 Y50.1 F3000.0
G01 X39.47 Y49.94 F3000.0
G01 X39.67 Y49.54 F3000.0
G01 X39.7 Y49.04 F3000.0
G01 X39.58 Y48.52 F3000.0
G01 X39.29 Y48.03 F3000.0
G01 X39.25 Y47.99 F3000.0
G01 X38.43 Y47.32 F3000.0
G01 X37.61 Y47.1 F3000.0
G01 X37.53 Y47.11 F3000.0
G01 X36.46 Y47.21 F3000.0
G01 X35.81 Y47.2 F3000.0
G01 X35.34 Y47.02 F3000.0
G01 X34.95 Y46.57 F3000.0
G01 X34.49 Y45.75 F3000.0
G01 X34.42 Y45.66 F3000.0
G01 X33.79 Y44.74 F3000.0
G01 X33.31 Y44.15 F3000.0
G01 X33.24 Y43.69 F3000.0
G01 X33.87 Y43.2 F3000.0
G01 X33.96 Y43.12 F3000.0
G01 X34.83 Y42.4 F3000.0
G01 X35.58 Y41.81 F3000.0
G01 X36.5 Y41.49 F3000.0
G01 X36.55 Y41.56 F3000.0
G01 X36.25 Y41.71 F3000.0
G01 F3000.0
M5
G00 X36.9 Y40.87 F3000.0
M3 F3000.0
G01 X36.81 Y40.97 F3000.0
G01 X36.6 Y40.95 F3000.0
G01 X36.3 Y40.75 F3000.0
G01 X36.6 Y40.67 F3000.0
G01 X36.9 Y40.87 F3000.0
G01 F3000.0
M5
G00 X38.5 Y43.58 F3000.0
M3 F3000.0
G01 X38.29 Y43.61 F3000.0
G01 X38.02 Y43.38 F3000.0
G01 X37.88 Y43.08 F3000.0
G01 X37.92 Y42.92 F3000.0
G01 X37.99 Y42.62 F3000.0
G01 X38.03 Y42.6 F3000.0
G01 X38.28 Y42.89 F3000.0
G01 X38.53 Y43.31 F3000.0
G01 X38.5 Y43.58 F3000.0
G01 F3000.0
M5
G00 X38.68 Y45. F3000.0
M3 F3000.0
G01 X38.43 Y44.75 F3000.0
G01 X38.37 Y44.52 F3000.0
G01 X38.54 Y44.64 F3000.0
G01 X38.68 Y45.0 F3000.0
G01 F3000.0
M5
G00 X41.22 Y43.68 F3000.0
M3 F3000.0
G01 X41.17 Y43.97 F3000.0
G01 X41.05 Y43.96 F3000.0
G01 X40.99 Y43.78 F3000.0
G01 X41.05 Y43.5 F3000.0
G01 X41.22 Y43.68 F3000.0
G01 F3000.0
M5
G00 X42.94 Y44.77 F3000.0
M3 F3000.0
G01 X42.54 Y44.96 F3000.0
G01 X42.13 Y44.88 F3000.0
G01 X42.54 Y44.7 F3000.0
G01 X42.94 Y44.77 F3000.0
G01 F3000.0
M5
G00 X43.24 Y45.7 F3000.0
M3 F3000.0
G01 X42.92 Y45.9 F3000.0
G01 X42.81 Y45.84 F3000.0
G01 X42.84 Y45.7 F3000.0
G01 X43.16 Y45.5 F3000.0
G01 X43.27 Y45.56 F3000.0
G01 X43.24 Y45.7 F3000.0
G01 F3000.0
M5
G00 X42.68 Y46.43 F3000.0
M3 F3000.0
G01 X42.3 Y46.44 F3000.0
G01 X42.21 Y46.36 F3000.0
G01 X42.42 Y46.32 F3000.0
G01 X42.68 Y46.43 F3000.0
G01 F3000.0
M5
G00 X42.82 Y48.04 F3000.0
M3 F3000.0
G01 X43.14 Y48.45 F3000.0
G01 X43.25 Y48.88 F3000.0
G01 X43.52 Y49.29 F3000.0
G01 X43.89 Y49.6 F3000.0
G01 X44.27 Y49.73 F3000.0
G01 X44.65 Y49.82 F3000.0
G01 X44.63 Y50.24 F3000.0
G01 X44.61 Y50.67 F3000.0
G01 X44.55 Y51.67 F3000.0
G01 X44.48 Y53.1 F3000.0
G01 X44.47 Y53.28 F3000.0
G01 X44.46 Y54.28 F3000.0
G01 X44.45 Y55.46 F3000.0
G01 X43.99 Y55.47 F3000.0
G01 X42.54 Y55.49 F3000.0
G01 X42.28 Y55.5 F3000.0
G01 X41.28 Y55.54 F3000.0
G01 X40.02 Y55.59 F3000.0
G01 X39.42 Y55.66 F3000.0
G01 X39.41 Y55.56 F3000.0
G01 X39.35 Y54.45 F3000.0
G01 X39.36 Y54.31 F3000.0
G01 X39.37 Y53.16 F3000.0
G01 X39.38 Y53.08 F3000.0
G01 X39.55 Y52.02 F3000.0
G01 X39.85 Y51.14 F3000.0
G01 X40.25 Y50.67 F3000.0
G01 X40.74 Y50.29 F3000.0
G01 X41.22 Y49.72 F3000.0
G01 X41.59 Y49.12 F3000.0
G01 X41.73 Y48.61 F3000.0
G01 X41.8 Y48.2 F3000.0
G01 X42.0 Y47.97 F3000.0
G01 X42.34 Y47.91 F3000.0
G01 X42.82 Y48.04 F3000.0
G01 F3000.0
M5
G00 X47.38 Y48.47 F3000.0
M3 F3000.0
G01 Y48.61 F3000.0
G01 X47.43 Y49.76 F3000.0
G01 X47.4 Y50.69 F3000.0
G01 X47.3 Y50.77 F3000.0
G01 X47.1 Y50.7 F3000.0
G01 X46.47 Y50.6 F3000.0
G01 X46.29 Y50.48 F3000.0
G01 X46.31 Y49.76 F3000.0
G01 X46.34 Y49.65 F3000.0
G01 X46.61 Y48.57 F3000.0
G01 X47.07 Y48.33 F3000.0
G01 X47.28 Y48.34 F3000.0
G01 X47.38 Y48.47 F3000.0
G01 F3000.0
M5
G00 X49.38 Y48.99 F3000.0
M3 F3000.0
G01 X48.98 Y49.42 F3000.0
G01 X48.63 Y49.68 F3000.0
G01 X48.57 Y49.44 F3000.0
G01 X48.63 Y49.23 F3000.0
G01 X48.76 Y49.21 F3000.0
G01 X49.08 Y49.13 F3000.0
G01 X49.27 Y48.93 F3000.0
G01 X49.38 Y48.99 F3000.0
G01 F3000.0
M5
G00 X49.9 Y47.71 F3000.0
M3 F3000.0
G01 X49.85 Y47.95 F3000.0
G01 X49.72 Y47.93 F3000.0
G01 X49.67 Y47.53 F3000.0
G01 X49.85 Y47.33 F3000.0
G01 X49.9 Y47.71 F3000.0
G01 F3000.0
M5
G00 X48.77 Y46.54 F3000.0
M3 F3000.0
G01 X48.61 Y46.89 F3000.0
G01 X48.89 Y46.66 F3000.0
G01 X49.13 Y46.19 F3000.0
G01 X48.77 Y46.54 F3000.0
G01 F3000.0
M5
G00 X48.7 Y45.01 F3000.0
M3 F3000.0
G01 X48.64 Y45.4 F3000.0
G01 X48.98 Y45.3 F3000.0
G01 X49.16 Y45.11 F3000.0
G01 X49.05 Y44.89 F3000.0
G01 X48.85 Y44.8 F3000.0
G01 X48.7 Y45.01 F3000.0
G01 F3000.0
M5
G00 X47.42 Y44.38 F3000.0
M3 F3000.0
G01 X47.67 Y44.39 F3000.0
G01 X48.92 Y44.45 F3000.0
G01 X49.61 Y44.6 F3000.0
G01 X49.59 Y44.82 F3000.0
G01 X49.46 Y46.04 F3000.0
G01 X49.39 Y46.29 F3000.0
G01 X49.06 Y47.49 F3000.0
G01 X48.62 Y47.25 F3000.0
G01 X48.5 Y47.21 F3000.0
G01 X47.46 Y46.81 F3000.0
G01 X47.29 Y46.78 F3000.0
G01 X46.14 Y46.59 F3000.0
G01 X45.73 Y46.58 F3000.0
G01 X45.41 Y46.77 F3000.0
G01 X45.39 Y46.84 F3000.0
G01 X44.99 Y47.83 F3000.0
G01 X44.82 Y48.62 F3000.0
G01 X44.8 Y48.53 F3000.0
G01 X44.57 Y47.45 F3000.0
G01 X44.53 Y46.99 F3000.0
G01 X44.41 Y45.52 F3000.0
G01 X44.48 Y44.65 F3000.0
G01 X44.65 Y44.09 F3000.0
G01 X44.82 Y43.98 F3000.0
G01 X45.08 Y44.11 F3000.0
G01 X45.84 Y44.3 F3000.0
G01 X46.13 Y44.31 F3000.0
G01 X47.42 Y44.38 F3000.0
G01 F3000.0
M5
G00 X47.51 Y43.61 F3000.0
M3 F3000.0
G01 X47.13 Y43.63 F3000.0
G01 X47.04 Y43.55 F3000.0
G01 X47.25 Y43.5 F3000.0
G01 X47.51 Y43.61 F3000.0
G01 F3000.0
M5
G00 X47.68 Y42.73 F3000.0
M3 F3000.0
G01 X47.64 Y42.74 F3000.0
G01 X46.62 Y42.97 F3000.0
G01 X46.36 Y43.02 F3000.0
G01 X45.1 Y43.21 F3000.0
G01 X44.86 Y43.22 F3000.0
G01 X44.87 Y43.01 F3000.0
G01 X45.32 Y42.76 F3000.0
G01 X46.2 Y42.6 F3000.0
G01 X47.12 Y42.58 F3000.0
G01 X47.68 Y42.73 F3000.0
G01 F3000.0
M5
G00 X48.72 Y43.01 F3000.0
M3 F3000.0
G01 X48.34 Y43.02 F3000.0
G01 X48.25 Y42.94 F3000.0
G01 X48.46 Y42.9 F3000.0
G01 X48.72 Y43.01 F3000.0
G01 F3000.0
M5
G00 X48.98 Y42.28 F3000.0
M3 F3000.0
G01 X48.89 Y42.48 F3000.0
G01 X48.67 Y42.28 F3000.0
G01 X48.65 Y42.14 F3000.0
G01 X48.76 Y42.08 F3000.0
G01 X48.98 Y42.28 F3000.0
G01 F3000.0
M5
G00 X49.77 Y43.97 F3000.0
M3 F3000.0
G01 X49.3 Y43.52 F3000.0
G01 X48.92 Y42.99 F3000.0
G01 X49.39 Y43.43 F3000.0
G01 X49.77 Y43.97 F3000.0
G01 F3000.0
M5
G00 X50.92 Y46.14 F3000.0
M3 F3000.0
G01 X50.84 Y46.23 F3000.0
G01 X50.8 Y46.02 F3000.0
G01 X50.91 Y45.76 F3000.0
G01 X50.92 Y46.14 F3000.0
G01 F3000.0
M5
G00 X51.64 Y46.84 F3000.0
M3 F3000.0
G01 X51.14 F3000.0
G01 X51.11 Y46.77 F3000.0
G01 X51.39 Y46.74 F3000.0
G01 X51.67 Y46.77 F3000.0
G01 X51.64 Y46.84 F3000.0
G01 F3000.0
M5
G00 X52.02 Y48.08 F3000.0
M3 F3000.0
G01 X51.17 Y47.98 F3000.0
G01 X51.3 Y47.88 F3000.0
G01 X51.85 Y47.91 F3000.0
G01 X52.49 Y48.0 F3000.0
G01 X52.02 Y48.08 F3000.0
G01 F3000.0
M5
G00 X52.69 Y49.09 F3000.0
M3 F3000.0
G01 X52.55 Y49.13 F3000.0
G01 X52.41 Y49.02 F3000.0
G01 X52.34 Y48.58 F3000.0
G01 X52.47 Y48.37 F3000.0
G01 X52.61 Y48.63 F3000.0
G01 X52.69 Y49.09 F3000.0
G01 F3000.0
M5
G00 X46.71 Y51.26 F3000.0
M3 F3000.0
G01 X46.32 Y51.27 F3000.0
G01 X46.23 Y51.19 F3000.0
G01 X46.44 Y51.15 F3000.0
G01 X46.71 Y51.26 F3000.0
G01 F3000.0
M5
G00 X46.76 Y55.69 F3000.0
M3 F3000.0
G01 X46.36 Y55.76 F3000.0
G01 X45.96 Y55.58 F3000.0
G01 X46.36 Y55.5 F3000.0
G01 X46.76 Y55.69 F3000.0
G01 F3000.0
M5
G00 X45.4 Y55.84 F3000.0
M3 F3000.0
G01 X45.41 Y56.19 F3000.0
G01 X45.24 Y56.23 F3000.0
G01 X45.1 Y56.05 F3000.0
G01 Y55.75 F3000.0
G01 X45.26 Y55.39 F3000.0
G01 X45.4 Y55.84 F3000.0
G01 F3000.0
M5
G00 X45.01 Y57. F3000.0
M3 F3000.0
G01 X45.02 F3000.0
G01 X46.02 Y57.14 F3000.0
G01 X47.02 Y57.27 F3000.0
G01 X47.18 Y57.31 F3000.0
G01 X48.3 Y57.61 F3000.0
G01 X49.11 Y58.07 F3000.0
G01 X49.84 Y58.67 F3000.0
G01 X50.38 Y59.29 F3000.0
G01 X50.59 Y59.8 F3000.0
G01 X50.8 Y60.66 F3000.0
G01 X50.93 Y60.98 F3000.0
G01 X50.62 Y60.64 F3000.0
G01 X50.08 Y60.19 F3000.0
G01 X49.41 Y59.81 F3000.0
G01 X48.67 Y59.49 F3000.0
G01 X48.66 F3000.0
G01 X47.67 Y59.28 F3000.0
G01 X47.3 Y59.21 F3000.0
G01 X45.96 Y58.94 F3000.0
G01 X45.67 Y58.89 F3000.0
G01 X44.4 Y58.66 F3000.0
G01 X44.23 Y58.65 F3000.0
G01 X43.23 Y58.59 F3000.0
G01 X42.06 Y58.53 F3000.0
G01 X41.86 F3000.0
G01 X40.86 Y58.54 F3000.0
G01 X39.66 Y58.56 F3000.0
G01 X39.28 Y58.6 F3000.0
G01 X37.91 Y58.77 F3000.0
G01 X37.59 Y58.87 F3000.0
G01 X35.68 Y59.45 F3000.0
G01 X34.4 Y59.84 F3000.0
G01 X34.25 Y59.9 F3000.0
G01 X33.31 Y60.26 F3000.0
G01 X32.23 Y60.68 F3000.0
G01 X32.12 Y60.72 F3000.0
G01 X32.08 Y60.49 F3000.0
G01 X32.2 Y60.07 F3000.0
G01 X32.53 Y59.58 F3000.0
G01 X32.67 Y59.47 F3000.0
G01 X33.58 Y58.73 F3000.0
G01 X33.99 Y58.58 F3000.0
G01 X35.33 Y58.08 F3000.0
G01 X35.71 Y57.97 F3000.0
G01 X36.67 Y57.68 F3000.0
G01 X38.01 Y57.29 F3000.0
G01 X38.37 Y57.26 F3000.0
G01 X39.72 Y57.15 F3000.0
G01 X40.08 Y57.11 F3000.0
G01 X41.43 Y56.95 F3000.0
G01 X42.39 Y56.8 F3000.0
G01 X42.7 Y56.82 F3000.0
G01 X43.7 Y56.9 F3000.0
G01 X45.01 Y57.0 F3000.0
G01 F3000.0
M5
G00 X44. Y60.1 F3000.0
M3 F3000.0
G01 X44.09 Y60.12 F3000.0
G01 X45.15 Y60.37 F3000.0
G01 X44.85 Y60.36 F3000.0
G01 X43.55 Y60.29 F3000.0
G01 X43.16 Y60.21 F3000.0
G01 X41.8 Y59.92 F3000.0
G01 X41.88 Y59.85 F3000.0
G01 X42.25 Y59.88 F3000.0
G01 X42.63 Y59.92 F3000.0
G01 X44.0 Y60.1 F3000.0
G01 F3000.0
M5
G00 X40.58 Y59.93 F3000.0
M3 F3000.0
G01 X39.67 F3000.0
G01 X39.62 Y59.87 F3000.0
G01 X40.12 Y59.84 F3000.0
G01 X40.63 Y59.87 F3000.0
G01 X40.58 Y59.93 F3000.0
G01 F3000.0
M5
G00 X40.06 Y59.22 F3000.0
M3 F3000.0
G01 X39.98 Y59.31 F3000.0
G01 X39.94 Y59.1 F3000.0
G01 X40.04 Y58.84 F3000.0
G01 X40.06 Y59.22 F3000.0
G01 F3000.0
M5
G00 X39.72 Y60.59 F3000.0
M3 F3000.0
G01 X39.52 Y60.79 F3000.0
G01 X39.32 Y60.59 F3000.0
G01 X39.52 Y60.39 F3000.0
G01 X39.72 Y60.59 F3000.0
G01 F3000.0
M5
G00 X39.44 Y61.34 F3000.0
M3 F3000.0
G01 X39.12 Y61.29 F3000.0
G01 X38.92 Y60.96 F3000.0
G01 X39.0 Y60.87 F3000.0
G01 X39.22 Y61.0 F3000.0
G01 X39.44 Y61.34 F3000.0
G01 F3000.0
M5
G00 X38.51 Y60.2 F3000.0
M3 F3000.0
G01 X38.35 Y60.24 F3000.0
G01 X37.21 Y60.48 F3000.0
G01 X36.79 Y60.54 F3000.0
G01 X37.31 Y60.31 F3000.0
G01 X37.47 Y60.27 F3000.0
G01 X38.61 Y60.03 F3000.0
G01 X39.05 Y60.06 F3000.0
G01 X38.51 Y60.2 F3000.0
G01 F3000.0
M5
G00 X37.91 Y62.6 F3000.0
M3 F3000.0
G01 X37.47 Y63.01 F3000.0
G01 X37.42 Y62.89 F3000.0
G01 X37.61 Y62.6 F3000.0
G01 X38.05 Y62.2 F3000.0
G01 X37.91 Y62.6 F3000.0
G01 F3000.0
M5
G00 X39.68 Y63.46 F3000.0
M3 F3000.0
G01 X39.53 Y64.21 F3000.0
G01 X38.82 Y64.31 F3000.0
G01 X38.19 Y64.24 F3000.0
G01 X37.95 Y64.0 F3000.0
G01 X38.04 Y63.57 F3000.0
G01 X38.35 Y63.11 F3000.0
G01 X38.79 Y62.75 F3000.0
G01 X39.24 Y62.6 F3000.0
G01 X39.66 Y62.73 F3000.0
G01 X39.68 Y63.46 F3000.0
G01 F3000.0
M5
G00 X38.08 Y67.74 F3000.0
M3 F3000.0
G01 X37.6 Y68.13 F3000.0
G01 X37.22 Y68.67 F3000.0
G01 X37.21 Y68.72 F3000.0
G01 X36.91 Y69.73 F3000.0
G01 X36.94 Y70.1 F3000.0
G01 X37.1 Y70.25 F3000.0
G01 X37.31 Y70.64 F3000.0
G01 X37.47 Y71.1 F3000.0
G01 X37.91 Y71.49 F3000.0
G01 X38.56 Y71.76 F3000.0
G01 X39.34 Y71.86 F3000.0
G01 X40.18 Y71.8 F3000.0
G01 X40.82 Y71.6 F3000.0
G01 X41.3 Y71.24 F3000.0
G01 X41.65 Y70.7 F3000.0
G01 X41.87 Y69.98 F3000.0
G01 X41.75 Y69.23 F3000.0
G01 X41.43 Y68.62 F3000.0
G01 X40.92 Y68.1 F3000.0
G01 X40.35 Y67.77 F3000.0
G01 X39.86 Y67.75 F3000.0
G01 X39.43 Y67.65 F3000.0
G01 X39.23 Y67.49 F3000.0
G01 X38.93 Y67.45 F3000.0
G01 X38.08 Y67.74 F3000.0
G01 F3000.0
M5
G00 X40.07 Y69.31 F3000.0
M3 F3000.0
G01 X40.41 Y69.59 F3000.0
G01 X40.21 Y70.0 F3000.0
G01 X39.87 Y70.31 F3000.0
G01 X39.45 Y70.43 F3000.0
G01 X39.02 Y70.38 F3000.0
G01 X38.63 Y70.13 F3000.0
G01 X38.33 Y69.69 F3000.0
G01 X38.55 Y69.28 F3000.0
G01 X39.21 Y69.06 F3000.0
G01 X40.07 Y69.31 F3000.0
G01 F3000.0
M5
G00 X40.12 Y73.47 F3000.0
M3 F3000.0
G01 X39.91 Y73.67 F3000.0
G01 X39.8 Y73.61 F3000.0
G01 X39.82 Y73.47 F3000.0
G01 X40.03 Y73.27 F3000.0
G01 X40.12 Y73.47 F3000.0
G01 F3000.0
M5
G00 X39.92 Y75.1 F3000.0
M3 F3000.0
G01 X39.67 Y75.17 F3000.0
G01 X38.45 Y75.5 F3000.0
G01 X37.71 Y75.83 F3000.0
G01 X36.95 Y76.38 F3000.0
G01 X36.34 Y77.01 F3000.0
G01 X36.01 Y77.6 F3000.0
G01 X35.98 Y78.08 F3000.0
G01 X36.11 Y78.49 F3000.0
G01 X36.36 Y78.79 F3000.0
G01 X36.7 Y78.9 F3000.0
G01 X37.22 Y78.65 F3000.0
G01 X37.91 Y78.05 F3000.0
G01 X37.96 Y78.01 F3000.0
G01 X38.78 Y77.33 F3000.0
G01 X38.82 Y77.31 F3000.0
G01 X39.76 Y76.86 F3000.0
G01 X39.79 Y76.85 F3000.0
G01 X40.78 Y76.53 F3000.0
G01 X40.98 Y76.63 F3000.0
G01 X42.05 Y77.22 F3000.0
G01 X42.18 Y77.28 F3000.0
G01 X43.21 Y77.75 F3000.0
G01 X44.09 Y77.86 F3000.0
G01 X44.73 Y77.71 F3000.0
G01 X44.92 Y77.21 F3000.0
G01 X44.9 Y76.64 F3000.0
G01 X44.7 Y76.13 F3000.0
G01 X44.35 Y75.68 F3000.0
G01 X43.86 Y75.33 F3000.0
G01 X43.07 Y75.1 F3000.0
G01 X43.02 Y75.09 F3000.0
G01 X41.98 Y74.97 F3000.0
G01 X41.91 F3000.0
G01 X40.85 F3000.0
G01 X39.92 Y75.1 F3000.0
G01 F3000.0
M5
G00 X43.18 Y79.13 F3000.0
M3 F3000.0
G01 X42.84 Y79.36 F3000.0
G01 X42.63 Y79.88 F3000.0
G01 X42.61 Y80.24 F3000.0
G01 X42.56 Y81.23 F3000.0
G01 X42.48 Y82.59 F3000.0
G01 Y82.61 F3000.0
G01 X42.49 Y83.61 F3000.0
G01 X42.51 Y84.64 F3000.0
G01 X42.62 Y85.04 F3000.0
G01 X42.84 Y85.26 F3000.0
G01 X43.15 Y85.42 F3000.0
G01 X43.31 Y85.35 F3000.0
G01 X43.5 Y85.27 F3000.0
G01 X43.91 Y85.42 F3000.0
G01 X44.42 Y85.58 F3000.0
G01 X44.87 Y85.53 F3000.0
G01 X45.3 Y85.21 F3000.0
G01 X45.71 Y84.65 F3000.0
G01 X45.99 Y84.06 F3000.0
G01 X46.02 Y83.61 F3000.0
G01 X46.0 Y83.34 F3000.0
G01 X46.12 Y83.15 F3000.0
G01 X46.32 Y82.58 F3000.0
G01 X46.33 Y82.49 F3000.0
G01 X46.47 Y81.41 F3000.0
G01 X46.48 Y81.27 F3000.0
G01 X46.51 Y80.14 F3000.0
G01 X46.32 Y79.41 F3000.0
G01 X45.78 Y79.08 F3000.0
G01 X44.8 Y78.99 F3000.0
G01 X44.49 Y79.01 F3000.0
G01 X43.18 Y79.13 F3000.0
G01 F3000.0
M5
G00 X44.65 Y80.16 F3000.0
M3 F3000.0
G01 X45.05 Y80.24 F3000.0
G01 X44.52 Y80.28 F3000.0
G01 X43.93 Y80.22 F3000.0
G01 X43.66 Y79.98 F3000.0
G01 X43.62 Y79.77 F3000.0
G01 X43.79 Y79.86 F3000.0
G01 X44.65 Y80.16 F3000.0
G01 F3000.0
M5
G00 X45.1 Y79.83 F3000.0
M3 F3000.0
G01 X44.71 Y79.84 F3000.0
G01 X44.63 Y79.76 F3000.0
G01 X44.84 Y79.72 F3000.0
G01 X45.1 Y79.83 F3000.0
G01 F3000.0
M5
G00 X44.8 Y81.05 F3000.0
M3 F3000.0
G01 X44.2 F3000.0
G01 X44.13 Y80.99 F3000.0
G01 X44.45 Y80.95 F3000.0
G01 X44.8 Y80.98 F3000.0
G01 Y81.05 F3000.0
G01 F3000.0
M5
G00 X45.5 Y81.44 F3000.0
M3 F3000.0
G01 X45.12 Y81.45 F3000.0
G01 X45.03 Y81.37 F3000.0
G01 X45.24 Y81.33 F3000.0
G01 X45.5 Y81.44 F3000.0
G01 F3000.0
M5
G00 X43.5 Y83.34 F3000.0
M3 F3000.0
G01 X43.73 Y84.22 F3000.0
G01 X43.81 Y84.58 F3000.0
G01 X43.39 Y84.74 F3000.0
G01 X43.19 Y84.62 F3000.0
G01 X43.23 Y84.22 F3000.0
G01 X43.27 Y83.86 F3000.0
G01 X43.15 Y83.83 F3000.0
G01 X43.0 Y83.85 F3000.0
G01 X42.94 Y83.74 F3000.0
G01 X43.15 Y83.53 F3000.0
G01 X43.27 Y83.47 F3000.0
G01 X43.24 Y83.33 F3000.0
G01 X43.23 Y82.96 F3000.0
G01 X43.42 Y82.72 F3000.0
G01 X43.5 Y83.34 F3000.0
G01 F3000.0
M5
G00 X37.71 Y82.12 F3000.0
M3 F3000.0
G01 X37.63 Y82.52 F3000.0
G01 X37.45 Y82.12 F3000.0
G01 X37.53 Y81.72 F3000.0
G01 X37.71 Y82.12 F3000.0
G01 F3000.0
M5
G00 X36.9 Y80.71 F3000.0
M3 F3000.0
G01 X37.1 Y80.87 F3000.0
G01 X36.9 Y80.91 F3000.0
G01 X36.3 Y80.71 F3000.0
G01 X36.1 Y80.55 F3000.0
G01 X36.3 Y80.52 F3000.0
G01 X36.9 Y80.71 F3000.0
G01 F3000.0
M5
G00 X34.85 Y79.92 F3000.0
M3 F3000.0
G01 X34.53 Y80.28 F3000.0
G01 X34.28 Y80.97 F3000.0
G01 X34.25 Y81.17 F3000.0
G01 X34.12 Y82.16 F3000.0
G01 X33.96 Y83.35 F3000.0
G01 Y83.55 F3000.0
G01 X33.95 Y84.75 F3000.0
G01 X34.12 Y85.72 F3000.0
G01 X34.52 Y86.34 F3000.0
G01 X35.17 Y86.72 F3000.0
G01 X35.91 Y86.88 F3000.0
G01 X36.59 Y86.67 F3000.0
G01 F3000.0
G01 X37.38 Y86.05 F3000.0
G01 X37.79 Y85.74 F3000.0
G01 X38.03 Y85.63 F3000.0
G01 X38.2 Y85.37 F3000.0
G01 Y85.14 F3000.0
G01 X38.21 Y84.14 F3000.0
G01 X38.22 Y82.92 F3000.0
G01 X38.2 Y82.73 F3000.0
G01 X38.08 Y81.73 F3000.0
G01 X37.93 Y80.55 F3000.0
G01 X37.53 Y80.21 F3000.0
G01 X36.82 Y79.93 F3000.0
G01 X36.7 Y79.91 F3000.0
G01 X35.6 Y79.72 F3000.0
G01 X34.85 Y79.92 F3000.0
G01 F3000.0
M5
G00 X32.08 Y79.53 F3000.0
M3 F3000.0
G01 X32.02 Y79.63 F3000.0
G01 X31.87 Y79.61 F3000.0
G01 X31.67 Y79.28 F3000.0
G01 X31.73 Y79.17 F3000.0
G01 X31.87 Y79.2 F3000.0
G01 X32.08 Y79.53 F3000.0
G01 F3000.0
M5
G00 X32.01 Y78.54 F3000.0
M3 F3000.0
G01 X31.93 Y78.62 F3000.0
G01 X31.89 Y78.42 F3000.0
G01 X32.0 Y78.15 F3000.0
G01 X32.01 Y78.54 F3000.0
G01 F3000.0
M5
G00 X31.07 Y83.84 F3000.0
M3 F3000.0
G01 X31.02 Y84.63 F3000.0
G01 X30.87 Y84.84 F3000.0
G01 X30.7 Y84.42 F3000.0
G01 X30.68 Y83.71 F3000.0
G01 X30.79 Y83.03 F3000.0
G01 X30.99 Y82.72 F3000.0
G01 Y82.78 F3000.0
G01 X31.07 Y83.84 F3000.0
G01 F3000.0
M5
G00 X30.34 Y85.34 F3000.0
M3 F3000.0
G01 X30.46 Y85.54 F3000.0
G01 X30.21 Y85.37 F3000.0
G01 X29.88 Y84.76 F3000.0
G01 X29.91 Y84.55 F3000.0
G01 X30.0 Y84.74 F3000.0
G01 X30.34 Y85.34 F3000.0
G01 F3000.0
M5
G00 X34.82 Y84.38 F3000.0
M3 F3000.0
G01 X34.75 Y84.41 F3000.0
G01 X34.72 Y84.13 F3000.0
G01 X34.75 Y83.85 F3000.0
G01 X34.82 Y83.88 F3000.0
G01 Y84.38 F3000.0
G01 F3000.0
M5
G00 X35.89 Y84.23 F3000.0
M3 F3000.0
G01 X35.83 Y84.29 F3000.0
G01 X35.7 Y84.13 F3000.0
G01 X35.5 Y83.63 F3000.0
G01 X35.56 Y83.58 F3000.0
G01 X35.7 Y83.73 F3000.0
G01 X35.89 Y84.23 F3000.0
G01 F3000.0
M5
G00 X36.3 Y83.53 F3000.0
M3 F3000.0
G01 X36.21 Y83.73 F3000.0
G01 X36.0 Y83.53 F3000.0
G01 X35.97 Y83.39 F3000.0
G01 X36.09 Y83.33 F3000.0
G01 X36.3 Y83.53 F3000.0
G01 F3000.0
M5
G00 X35.97 Y85.84 F3000.0
M3 F3000.0
G01 X35.83 Y86.02 F3000.0
G01 X35.65 F3000.0
G01 X35.58 Y85.88 F3000.0
G01 X35.73 Y85.72 F3000.0
G01 X36.03 Y85.56 F3000.0
G01 X35.97 Y85.84 F3000.0
G01 F3000.0
M5
G00 X35.29 Y85.74 F3000.0
M3 F3000.0
G01 X35.2 Y85.94 F3000.0
G01 X34.99 Y85.74 F3000.0
G01 X34.97 Y85.6 F3000.0
G01 X35.08 Y85.54 F3000.0
G01 X35.29 Y85.74 F3000.0
G01 F3000.0
M5
G00 X37.01 Y89.48 F3000.0
M3 F3000.0
G01 X36.2 Y89.83 F3000.0
G01 X36.11 Y90.0 F3000.0
G01 X36.16 Y90.23 F3000.0
G01 X36.62 Y90.45 F3000.0
G01 X37.57 Y90.63 F3000.0
G01 X37.6 F3000.0
G01 X38.64 Y90.71 F3000.0
G01 X39.45 Y90.65 F3000.0
G01 X39.71 Y90.67 F3000.0
G01 X40.96 Y90.76 F3000.0
G01 X41.05 Y90.77 F3000.0
G01 X42.04 Y90.87 F3000.0
G01 X43.03 Y90.97 F3000.0
G01 X44.11 Y91.08 F3000.0
G01 X44.45 Y91.11 F3000.0
G01 X45.78 Y91.23 F3000.0
G01 X45.79 Y91.24 F3000.0
G01 X46.77 Y91.48 F3000.0
G01 X46.88 Y91.51 F3000.0
G01 X47.96 Y91.78 F3000.0
G01 X48.47 Y91.68 F3000.0
G01 X48.57 Y91.2 F3000.0
G01 X48.31 Y90.59 F3000.0
G01 X47.51 Y90.13 F3000.0
G01 X47.32 Y90.09 F3000.0
G01 X46.15 Y89.82 F3000.0
G01 X45.67 Y89.78 F3000.0
G01 X44.2 Y89.65 F3000.0
G01 X44.16 F3000.0
G01 X43.16 Y89.56 F3000.0
G01 X42.17 Y89.46 F3000.0
G01 X41.13 Y89.36 F3000.0
G01 X41.08 F3000.0
G01 X40.09 Y89.28 F3000.0
G01 X39.04 Y89.21 F3000.0
G01 X39.02 F3000.0
G01 X38.02 Y89.34 F3000.0
G01 X37.01 Y89.48 F3000.0
G01 F3000.0
M5
G00 X39.72 Y89.86 F3000.0
M3 F3000.0
G01 X39.52 Y90.07 F3000.0
G01 X39.38 Y90.09 F3000.0
G01 X39.32 Y89.98 F3000.0
G01 X39.52 Y89.77 F3000.0
G01 X39.72 Y89.86 F3000.0
G01 F3000.0
M5
G00 X40.12 Y93.79 F3000.0
M3 F3000.0
G01 X39.91 Y93.99 F3000.0
G01 X39.8 Y93.93 F3000.0
G01 X39.82 Y93.79 F3000.0
G01 X40.03 Y93.59 F3000.0
G01 X40.12 Y93.79 F3000.0
G01 F3000.0
M5
G00 X40.08 Y94.7 F3000.0
M3 F3000.0
G01 X39.83 Y94.45 F3000.0
G01 X39.77 Y94.22 F3000.0
G01 X39.95 Y94.34 F3000.0
G01 X40.08 Y94.7 F3000.0
G01 F3000.0
M5
G00 X42.07 Y96.05 F3000.0
M3 F3000.0
G01 X42.15 Y96.13 F3000.0
G01 X42.96 Y96.9 F3000.0
G01 X43.17 Y97.07 F3000.0
G01 X43.92 Y97.73 F3000.0
G01 X44.67 Y98.39 F3000.0
G01 X45.63 Y99.22 F3000.0
G01 X45.71 Y99.3 F3000.0
G01 X46.43 Y100.0 F3000.0
G01 X47.23 Y100.77 F3000.0
G01 X47.03 Y100.85 F3000.0
G01 X45.91 Y101.32 F3000.0
G01 X45.6 Y101.45 F3000.0
G01 X44.37 Y101.96 F3000.0
G01 X44.31 Y102.01 F3000.0
G01 X43.51 Y102.72 F3000.0
G01 X43.3 Y103.19 F3000.0
G01 X43.23 Y103.74 F3000.0
G01 X43.27 Y103.95 F3000.0
G01 X43.45 Y105.16 F3000.0
G01 X43.46 Y105.19 F3000.0
G01 X43.69 Y106.16 F3000.0
G01 X43.92 Y107.17 F3000.0
G01 X44.01 Y107.42 F3000.0
G01 X44.41 Y108.62 F3000.0
G01 X44.75 Y109.47 F3000.0
G01 X44.66 Y109.9 F3000.0
G01 X44.18 Y109.91 F3000.0
G01 X43.33 Y109.48 F3000.0
G01 X43.28 Y109.44 F3000.0
G01 X42.46 Y108.77 F3000.0
G01 X42.45 Y108.75 F3000.0
G01 X41.9 Y107.9 F3000.0
G01 X41.78 Y107.7 F3000.0
G01 X41.28 Y106.83 F3000.0
G01 X40.67 Y105.76 F3000.0
G01 X40.65 Y105.73 F3000.0
G01 X40.19 Y104.84 F3000.0
G01 X39.71 Y103.91 F3000.0
G01 X39.7 Y103.86 F3000.0
G01 X39.44 Y102.9 F3000.0
G01 X39.17 Y101.88 F3000.0
G01 X39.19 Y101.32 F3000.0
G01 X39.46 Y100.94 F3000.0
G01 X40.04 Y100.68 F3000.0
G01 X40.99 Y100.51 F3000.0
G01 X41.96 Y100.31 F3000.0
G01 X42.41 Y99.9 F3000.0
G01 X42.39 Y99.12 F3000.0
G01 X42.33 Y98.94 F3000.0
G01 X41.96 Y97.82 F3000.0
G01 X41.93 Y97.73 F3000.0
G01 X41.66 Y96.77 F3000.0
G01 X41.35 Y95.72 F3000.0
G01 X41.41 Y95.58 F3000.0
G01 X41.55 Y95.59 F3000.0
G01 X42.07 Y96.05 F3000.0
G01 F3000.0
M5
G00 X41.21 Y97.72 F3000.0
M3 F3000.0
G01 X41.23 Y97.91 F3000.0
G01 X41.13 F3000.0
G01 X40.93 Y97.6 F3000.0
G01 X41.02 Y97.42 F3000.0
G01 X41.21 Y97.72 F3000.0
G01 F3000.0
M5
G00 X44.98 Y97.56 F3000.0
M3 F3000.0
G01 X45.15 Y97.81 F3000.0
G01 X44.9 Y97.64 F3000.0
G01 X44.55 Y97.29 F3000.0
G01 X44.66 Y97.24 F3000.0
G01 X44.98 Y97.56 F3000.0
G01 F3000.0
M5
G00 X45.61 Y95.13 F3000.0
M3 F3000.0
G01 X45.01 Y95.14 F3000.0
G01 X44.93 Y95.07 F3000.0
G01 X45.25 Y95.04 F3000.0
G01 X45.61 Y95.06 F3000.0
G01 Y95.13 F3000.0
G01 F3000.0
M5
G00 X47.72 Y94.72 F3000.0
M3 F3000.0
G01 X47.33 Y94.73 F3000.0
G01 X47.24 Y94.65 F3000.0
G01 X47.45 Y94.61 F3000.0
G01 X47.72 Y94.72 F3000.0
G01 F3000.0
M5
G00 X48.92 Y94.31 F3000.0
M3 F3000.0
G01 X48.54 Y94.33 F3000.0
G01 X48.45 Y94.25 F3000.0
G01 X48.66 Y94.21 F3000.0
G01 X48.92 Y94.31 F3000.0
G01 F3000.0
M5
G00 X51.46 Y92.28 F3000.0
M3 F3000.0
G01 X51.27 Y92.58 F3000.0
G01 X51.19 Y92.28 F3000.0
G01 X51.38 Y91.98 F3000.0
G01 X51.49 Y92.07 F3000.0
G01 X51.46 Y92.28 F3000.0
G01 F3000.0
M5
G00 X51.49 Y87.55 F3000.0
M3 F3000.0
G01 X51.13 Y87.75 F3000.0
G01 X51.04 Y87.7 F3000.0
G01 X51.19 Y87.55 F3000.0
G01 X51.54 Y87.37 F3000.0
G01 X51.49 Y87.55 F3000.0
G01 F3000.0
M5
G00 X52.8 Y84.99 F3000.0
M3 F3000.0
G01 X52.73 Y85.31 F3000.0
G01 X52.42 Y84.79 F3000.0
G01 X52.29 Y84.45 F3000.0
G01 X52.49 Y84.46 F3000.0
G01 X52.71 Y84.67 F3000.0
G01 X52.8 Y84.99 F3000.0
G01 F3000.0
M5
G00 X52. Y84.64 F3000.0
M3 F3000.0
G01 X52.14 Y84.87 F3000.0
G01 X51.92 Y84.82 F3000.0
G01 X51.59 Y84.51 F3000.0
G01 X51.69 Y84.35 F3000.0
G01 X52.0 Y84.64 F3000.0
G01 F3000.0
M5
G00 X53.2 Y83.25 F3000.0
M3 F3000.0
G01 X52.99 Y83.42 F3000.0
G01 X52.72 Y83.36 F3000.0
G01 X52.73 Y83.24 F3000.0
G01 X52.91 Y83.19 F3000.0
G01 X53.2 Y83.25 F3000.0
G01 F3000.0
M5
G00 X54.11 Y82.32 F3000.0
M3 F3000.0
G01 X54.35 Y82.65 F3000.0
G01 X54.16 Y82.72 F3000.0
G01 X53.91 Y82.61 F3000.0
G01 X53.75 Y82.32 F3000.0
G01 X53.69 Y81.92 F3000.0
G01 X54.11 Y82.32 F3000.0
G01 F3000.0
M5
G00 X56.02 Y81.2 F3000.0
M3 F3000.0
G01 X55.83 Y81.61 F3000.0
G01 X55.66 Y81.63 F3000.0
G01 X55.52 Y81.52 F3000.0
G01 Y81.11 F3000.0
G01 X55.84 Y80.92 F3000.0
G01 X56.02 Y81.2 F3000.0
G01 F3000.0
M5
G00 X56.42 Y82.42 F3000.0
M3 F3000.0
G01 X56.66 Y82.88 F3000.0
G01 X57.29 Y83.25 F3000.0
G01 X58.2 Y83.5 F3000.0
G01 X58.24 Y83.51 F3000.0
G01 X59.28 Y83.58 F3000.0
G01 X60.22 Y83.56 F3000.0
G01 X60.36 Y84.45 F3000.0
G01 Y85.35 F3000.0
G01 X60.35 Y85.38 F3000.0
G01 X59.87 Y86.3 F3000.0
G01 X59.42 Y86.88 F3000.0
G01 X59.24 Y86.94 F3000.0
G01 X59.04 Y86.6 F3000.0
G01 X58.33 Y85.4 F3000.0
G01 X58.31 Y85.38 F3000.0
G01 X57.65 Y84.6 F3000.0
G01 X56.99 Y84.13 F3000.0
G01 X56.31 Y83.96 F3000.0
G01 X55.54 Y84.04 F3000.0
G01 X55.12 Y84.26 F3000.0
G01 X54.75 Y84.63 F3000.0
G01 X54.49 Y85.07 F3000.0
G01 X54.42 Y85.5 F3000.0
G01 X54.43 Y86.24 F3000.0
G01 X54.32 Y86.48 F3000.0
G01 X53.85 Y86.04 F3000.0
G01 X53.41 Y85.39 F3000.0
G01 X53.42 Y84.57 F3000.0
G01 X53.55 Y83.95 F3000.0
G01 X53.81 Y83.5 F3000.0
G01 X54.04 Y83.35 F3000.0
G01 X55.11 Y82.65 F3000.0
G01 X55.2 Y82.61 F3000.0
G01 X56.2 Y82.15 F3000.0
G01 X56.38 Y82.2 F3000.0
G01 X56.42 Y82.42 F3000.0
G01 F3000.0
M5
G00 X56.42 Y84.74 F3000.0
M3 F3000.0
G01 X56.22 Y84.94 F3000.0
G01 X56.02 Y84.74 F3000.0
G01 X56.22 Y84.54 F3000.0
G01 X56.42 Y84.74 F3000.0
G01 F3000.0
M5
G00 X57.02 Y84.94 F3000.0
M3 F3000.0
G01 X56.81 Y85.14 F3000.0
G01 X56.7 Y85.08 F3000.0
G01 X56.72 Y84.94 F3000.0
G01 X56.94 Y84.74 F3000.0
G01 X57.02 Y84.94 F3000.0
G01 F3000.0
M5
G00 X55.11 Y87.12 F3000.0
M3 F3000.0
G01 X54.55 Y87.29 F3000.0
G01 X54.28 Y87.3 F3000.0
G01 X54.37 Y87.18 F3000.0
G01 X54.91 Y87.02 F3000.0
G01 X55.1 Y87.03 F3000.0
G01 X55.11 Y87.12 F3000.0
G01 F3000.0
M5
G00 X61.16 Y86.33 F3000.0
M3 F3000.0
G01 X60.66 Y86.49 F3000.0
G01 X60.4 Y86.42 F3000.0
G01 X60.38 Y86.3 F3000.0
G01 X60.87 Y86.14 F3000.0
G01 X61.12 Y86.2 F3000.0
G01 X61.16 Y86.33 F3000.0
G01 F3000.0
M5
G00 X61.65 Y85.4 F3000.0
M3 F3000.0
G01 X61.59 Y85.49 F3000.0
G01 X61.45 Y85.34 F3000.0
G01 X61.29 Y85.15 F3000.0
G01 X61.25 Y85.32 F3000.0
G01 X61.13 Y85.49 F3000.0
G01 X61.15 Y85.15 F3000.0
G01 X61.47 Y85.05 F3000.0
G01 X61.65 Y85.4 F3000.0
G01 F3000.0
M5
G00 X61.05 Y81.59 F3000.0
M3 F3000.0
G01 X60.7 Y81.95 F3000.0
G01 X60.45 Y82.12 F3000.0
G01 X60.62 Y81.87 F3000.0
G01 X60.93 Y81.54 F3000.0
G01 X61.05 Y81.59 F3000.0
G01 F3000.0
M5
G00 X61.78 Y76.94 F3000.0
M3 F3000.0
G01 X61.71 Y76.97 F3000.0
G01 X61.68 Y76.69 F3000.0
G01 X61.71 Y76.41 F3000.0
G01 X61.78 Y76.44 F3000.0
G01 Y76.94 F3000.0
G01 F3000.0
M5
G00 X61.27 Y75.03 F3000.0
M3 F3000.0
G01 X61.45 Y75.28 F3000.0
G01 X61.2 Y75.1 F3000.0
G01 X60.87 Y74.79 F3000.0
G01 X60.92 Y74.68 F3000.0
G01 X61.27 Y75.03 F3000.0
G01 F3000.0
M5
G00 X59.17 Y73.53 F3000.0
M3 F3000.0
G01 X59.89 Y74.13 F3000.0
G01 X60.14 Y74.31 F3000.0
G01 X60.24 Y74.58 F3000.0
G01 X60.32 Y74.85 F3000.0
G01 X60.65 Y76.1 F3000.0
G01 X60.68 Y76.21 F3000.0
G01 X60.95 Y77.29 F3000.0
G01 X60.96 Y77.38 F3000.0
G01 X61.06 Y78.46 F3000.0
G01 Y78.51 F3000.0
G01 X60.97 Y79.55 F3000.0
G01 X60.69 Y80.51 F3000.0
G01 X60.68 Y80.52 F3000.0
G01 X60.2 Y81.42 F3000.0
G01 X59.64 Y81.95 F3000.0
G01 X58.95 Y82.14 F3000.0
G01 X58.06 Y82.04 F3000.0
G01 X57.39 Y81.88 F3000.0
G01 X57.43 Y81.84 F3000.0
G01 X58.21 Y81.11 F3000.0
G01 X58.3 Y81.0 F3000.0
G01 X59.04 Y80.14 F3000.0
G01 X59.29 Y79.97 F3000.0
G01 X59.89 Y79.87 F3000.0
G01 X60.6 Y79.73 F3000.0
G01 X60.75 Y79.3 F3000.0
G01 X60.64 Y78.89 F3000.0
G01 X60.14 Y78.8 F3000.0
G01 X59.63 Y78.68 F3000.0
G01 X59.58 Y77.9 F3000.0
G01 X59.59 Y77.64 F3000.0
G01 X59.68 Y76.39 F3000.0
G01 X59.63 Y75.87 F3000.0
G01 X59.11 Y75.72 F3000.0
G01 X58.56 Y75.55 F3000.0
G01 X58.23 Y75.08 F3000.0
G01 X58.2 Y75.03 F3000.0
G01 X57.61 Y74.16 F3000.0
G01 X57.25 Y73.63 F3000.0
G01 X57.68 Y73.27 F3000.0
G01 X58.56 Y73.11 F3000.0
G01 X59.17 Y73.53 F3000.0
G01 F3000.0
M5
G00 X57.45 Y70.2 F3000.0
M3 F3000.0
G01 X57.63 Y70.45 F3000.0
G01 X57.38 Y70.28 F3000.0
G01 X57.05 Y69.96 F3000.0
G01 X57.1 Y69.85 F3000.0
G01 X57.45 Y70.2 F3000.0
G01 F3000.0
M5
G00 X56.42 Y70.74 F3000.0
M3 F3000.0
G01 X57.02 Y71.13 F3000.0
G01 X57.88 Y71.61 F3000.0
G01 X58.11 Y71.91 F3000.0
G01 X57.72 Y71.93 F3000.0
G01 X57.36 Y71.98 F3000.0
G01 X56.87 Y72.26 F3000.0
G01 X56.29 Y72.69 F3000.0
G01 X56.2 Y72.62 F3000.0
G01 X55.27 Y72.0 F3000.0
G01 X55.18 Y71.93 F3000.0
G01 X54.25 Y71.31 F3000.0
G01 X54.65 Y70.69 F3000.0
G01 X55.06 Y70.2 F3000.0
G01 X55.58 Y70.27 F3000.0
G01 X56.42 Y70.74 F3000.0
G01 F3000.0
M5
G00 X53.86 Y69.32 F3000.0
M3 F3000.0
G01 X53.94 Y69.33 F3000.0
G01 X53.77 Y69.56 F3000.0
G01 X53.76 Y69.58 F3000.0
G01 X53.3 Y70.49 F3000.0
G01 X52.99 Y71.14 F3000.0
G01 X52.34 Y71.52 F3000.0
G01 X52.09 Y71.55 F3000.0
G01 X52.16 Y71.3 F3000.0
G01 X52.19 Y71.21 F3000.0
G01 X52.49 Y70.15 F3000.0
G01 X52.75 Y69.21 F3000.0
G01 X52.93 Y69.14 F3000.0
G01 X53.22 Y69.25 F3000.0
G01 X53.86 Y69.32 F3000.0
G01 F3000.0
M5
G00 X51.17 Y63.09 F3000.0
M3 F3000.0
G01 X51.01 Y63.18 F3000.0
G01 X51.05 Y62.97 F3000.0
G01 X51.07 Y62.71 F3000.0
G01 X50.94 Y62.55 F3000.0
G01 X50.82 Y62.42 F3000.0
G01 X50.88 Y62.21 F3000.0
G01 X51.06 Y62.09 F3000.0
G01 X51.23 Y62.4 F3000.0
G01 X51.3 Y62.81 F3000.0
G01 X51.17 Y63.09 F3000.0
G01 F3000.0
M5
G00 X51.99 Y61.4 F3000.0
M3 F3000.0
G01 X51.91 Y61.6 F3000.0
G01 X51.69 Y61.4 F3000.0
G01 X51.67 Y61.25 F3000.0
G01 X51.78 Y61.2 F3000.0
G01 X51.99 Y61.4 F3000.0
G01 F3000.0
M5
G00 X48.77 Y60.39 F3000.0
M3 F3000.0
