
;Inkscape Lasertools G-code
;https://github.com/ChrisWag91/Inkscape-Lasertools-Plugin

G90	;Absolute programming
G21	;Programming in millimeters (mm)
M5
M03 S1 ;Activate laser and set power to 0 (CUSTOM)

; START perimeter strategy
G01 F3000.0
M5
G00 X8.33 Y0.13 F3000.0
M3 F3000.0
G01 X8.17 Y0.65 F3000.0
G01 X8.16 Y0.69 F3000.0
G01 X7.85 Y1.69 F3000.0
G01 X7.79 Y1.9 F3000.0
G01 X7.44 Y3.07 F3000.0
G01 X7.43 Y3.19 F3000.0
G01 X7.31 Y4.3 F3000.0
G01 X7.28 Y4.92 F3000.0
G01 X7.1 Y4.99 F3000.0
G01 X6.54 Y5.13 F3000.0
G01 X5.92 Y5.67 F3000.0
G01 X5.41 Y6.42 F3000.0
G01 X5.19 Y7.16 F3000.0
G01 X5.18 Y7.62 F3000.0
G01 X4.69 Y7.69 F3000.0
G01 X4.33 Y7.82 F3000.0
G01 X3.03 Y8.29 F3000.0
G01 X2.9 Y8.35 F3000.0
G01 X1.86 Y8.82 F3000.0
G01 X1.65 Y8.25 F3000.0
G01 X1.57 Y8.0 F3000.0
G01 X1.2 Y6.8 F3000.0
G01 X1.14 Y5.83 F3000.0
G01 X1.17 Y5.34 F3000.0
G01 X1.04 Y5.17 F3000.0
G01 X0.76 Y5.24 F3000.0
G01 X0.69 Y5.73 F3000.0
G01 X0.72 Y5.85 F3000.0
G01 X0.95 Y6.82 F3000.0
G01 X1.21 Y7.92 F3000.0
G01 X1.23 Y7.97 F3000.0
G01 X1.51 Y9.0 F3000.0
G01 X0.85 Y9.42 F3000.0
G01 X0.12 Y10.02 F3000.0
G01 X0.09 Y10.51 F3000.0
G01 X0.0 Y12.0 F3000.0
G01 X0.02 Y12.35 F3000.0
G01 X0.11 Y13.69 F3000.0
G01 X0.22 Y13.8 F3000.0
G01 X0.11 Y13.91 F3000.0
G01 X0.0 Y14.3 F3000.0
G01 X0.03 Y14.67 F3000.0
G01 X0.21 Y14.58 F3000.0
G01 X0.39 Y14.45 F3000.0
G01 X0.47 Y14.61 F3000.0
G01 X0.42 Y14.9 F3000.0
G01 X0.36 Y15.34 F3000.0
G01 Y15.69 F3000.0
G01 X0.15 Y15.52 F3000.0
G01 X0.03 Y15.44 F3000.0
G01 X0.01 Y15.83 F3000.0
G01 X0.05 Y16.26 F3000.0
G01 X0.28 Y16.46 F3000.0
G01 X0.65 Y16.52 F3000.0
G01 X0.77 Y16.22 F3000.0
G01 X0.9 Y15.85 F3000.0
G01 X1.25 Y16.45 F3000.0
G01 X1.38 Y16.69 F3000.0
G01 X1.96 Y17.82 F3000.0
G01 X2.05 Y17.95 F3000.0
G01 X2.72 Y18.9 F3000.0
G01 X2.89 Y19.21 F3000.0
G01 X3.54 Y20.4 F3000.0
G01 X3.59 Y20.51 F3000.0
G01 X4.03 Y21.54 F3000.0
G01 X4.25 Y22.03 F3000.0
G01 X4.61 Y22.91 F3000.0
G01 X4.67 Y22.99 F3000.0
G01 X5.2 Y23.84 F3000.0
G01 X5.79 Y24.77 F3000.0
G01 X6.07 Y25.13 F3000.0
G01 X6.98 Y26.27 F3000.0
G01 X7.33 Y26.58 F3000.0
G01 X7.81 Y27.37 F3000.0
G01 X7.84 Y27.41 F3000.0
G01 X8.36 Y28.27 F3000.0
G01 X8.9 Y29.16 F3000.0
G01 X9.5 Y29.8 F3000.0
G01 X9.62 Y30.15 F3000.0
G01 Y30.24 F3000.0
G01 X9.65 Y31.34 F3000.0
G01 X9.68 Y31.63 F3000.0
G01 X9.77 Y32.92 F3000.0
G01 X9.85 Y32.94 F3000.0
G01 X10.92 Y33.1 F3000.0
G01 X11.29 Y33.08 F3000.0
G01 X12.65 Y33.0 F3000.0
G01 X13.11 Y32.93 F3000.0
G01 X14.56 Y32.72 F3000.0
G01 X15.04 Y32.66 F3000.0
G01 X16.52 Y32.45 F3000.0
G01 X17.36 Y32.22 F3000.0
G01 X17.64 Y31.99 F3000.0
G01 X17.63 Y31.48 F3000.0
G01 X17.59 Y31.05 F3000.0
G01 X17.49 Y29.61 F3000.0
G01 X17.46 Y29.41 F3000.0
G01 X17.3 Y28.22 F3000.0
G01 X17.25 F3000.0
G01 X16.21 Y28.15 F3000.0
G01 X16.05 Y28.16 F3000.0
G01 X14.89 Y28.26 F3000.0
G01 X14.54 Y28.3 F3000.0
G01 X13.55 Y28.4 F3000.0
G01 X12.55 Y28.5 F3000.0
G01 X11.22 Y28.64 F3000.0
G01 X10.38 Y28.7 F3000.0
G01 X10.44 Y28.23 F3000.0
G01 X10.7 Y27.46 F3000.0
G01 X10.91 Y27.08 F3000.0
G01 X11.45 Y26.78 F3000.0
G01 X11.51 Y26.76 F3000.0
G01 X12.54 Y26.46 F3000.0
G01 X13.19 Y26.32 F3000.0
G01 X13.55 Y26.7 F3000.0
G01 X13.68 Y26.81 F3000.0
G01 X14.58 Y27.57 F3000.0
G01 X15.42 Y27.92 F3000.0
G01 X15.75 Y27.86 F3000.0
G01 X15.91 Y27.59 F3000.0
G01 Y26.73 F3000.0
G01 Y26.49 F3000.0
G01 X15.86 Y25.24 F3000.0
G01 X15.91 Y24.87 F3000.0
G01 X16.08 Y23.51 F3000.0
G01 X16.31 Y22.7 F3000.0
G01 X16.36 Y23.49 F3000.0
G01 X16.37 Y23.58 F3000.0
G01 X16.45 Y24.66 F3000.0
G01 X16.46 Y24.69 F3000.0
G01 X16.72 Y25.69 F3000.0
G01 F3000.0
G01 X17.16 Y26.59 F3000.0
G01 X17.79 Y27.36 F3000.0
G01 X18.47 Y27.88 F3000.0
G01 X19.24 Y28.1 F3000.0
G01 X19.99 Y28.08 F3000.0
G01 X20.63 Y27.68 F3000.0
G01 X21.34 Y27.15 F3000.0
G01 X21.65 Y26.83 F3000.0
G01 X21.95 Y26.06 F3000.0
G01 X21.96 Y26.05 F3000.0
G01 X22.21 Y25.06 F3000.0
G01 X22.2 Y24.84 F3000.0
G01 X22.15 Y23.62 F3000.0
G01 X22.13 Y23.4 F3000.0
G01 X22.0 Y22.19 F3000.0
G01 X21.99 Y22.17 F3000.0
G01 X21.6 Y21.22 F3000.0
G01 X21.45 Y21.01 F3000.0
G01 X20.72 Y19.98 F3000.0
G01 X20.69 Y19.96 F3000.0
G01 X19.77 Y19.5 F3000.0
G01 X19.64 Y19.48 F3000.0
G01 X18.52 Y19.31 F3000.0
G01 X17.94 Y19.2 F3000.0
G01 X17.7 Y19.1 F3000.0
G01 X17.56 Y19.34 F3000.0
G01 X17.29 Y19.74 F3000.0
G01 X17.27 Y19.76 F3000.0
G01 X16.65 Y20.59 F3000.0
G01 X16.28 Y21.29 F3000.0
G01 X16.21 Y20.46 F3000.0
G01 X16.08 Y19.48 F3000.0
G01 X16.24 Y19.28 F3000.0
G01 X16.47 Y19.04 F3000.0
G01 X16.2 Y18.87 F3000.0
G01 X15.88 Y18.77 F3000.0
G01 X16.09 Y18.61 F3000.0
G01 X16.32 Y18.49 F3000.0
G01 X16.35 Y18.34 F3000.0
G01 X15.93 Y18.16 F3000.0
G01 X15.53 Y18.04 F3000.0
G01 X15.89 Y17.83 F3000.0
G01 X16.24 Y17.69 F3000.0
G01 X16.32 Y17.55 F3000.0
G01 X15.76 Y17.41 F3000.0
G01 X15.3 Y17.37 F3000.0
G01 X15.07 Y17.22 F3000.0
G01 X14.78 Y17.02 F3000.0
G01 X14.56 Y17.15 F3000.0
G01 X14.67 Y17.45 F3000.0
G01 X14.73 Y17.72 F3000.0
G01 X14.62 Y18.02 F3000.0
G01 X14.67 Y18.18 F3000.0
G01 X14.89 Y18.17 F3000.0
G01 X15.15 Y18.2 F3000.0
G01 X14.88 Y18.42 F3000.0
G01 X14.65 Y18.68 F3000.0
G01 X15.09 Y18.79 F3000.0
G01 X15.48 Y18.87 F3000.0
G01 X15.08 Y19.0 F3000.0
G01 X14.67 Y19.2 F3000.0
G01 X14.79 Y19.33 F3000.0
G01 X15.18 Y19.39 F3000.0
G01 X15.54 Y19.45 F3000.0
G01 X15.73 Y19.67 F3000.0
G01 X15.75 Y19.97 F3000.0
G01 X15.83 Y21.27 F3000.0
G01 X15.8 Y21.69 F3000.0
G01 X15.73 Y23.12 F3000.0
G01 X15.71 Y23.18 F3000.0
G01 X15.45 Y24.2 F3000.0
G01 X15.34 Y25.05 F3000.0
G01 X15.36 Y25.26 F3000.0
G01 X15.49 Y26.46 F3000.0
G01 X15.57 Y27.08 F3000.0
G01 X15.45 Y27.35 F3000.0
G01 X15.23 Y27.45 F3000.0
G01 X14.81 Y27.22 F3000.0
G01 X14.67 Y27.09 F3000.0
G01 X13.77 Y26.31 F3000.0
G01 X13.29 Y25.86 F3000.0
G01 X13.05 Y25.83 F3000.0
G01 X12.85 Y25.9 F3000.0
G01 X12.52 Y25.98 F3000.0
G01 X11.23 Y26.31 F3000.0
G01 X10.55 Y26.76 F3000.0
G01 X10.14 Y27.19 F3000.0
G01 X10.11 Y27.34 F3000.0
G01 X9.84 Y28.46 F3000.0
G01 X9.59 Y28.94 F3000.0
G01 X9.36 Y29.1 F3000.0
G01 X9.34 Y29.06 F3000.0
G01 X8.73 Y28.21 F3000.0
G01 X8.57 Y27.93 F3000.0
G01 X7.95 Y26.77 F3000.0
G01 X7.63 Y26.16 F3000.0
G01 X7.4 Y25.96 F3000.0
G01 X6.85 Y25.56 F3000.0
G01 X6.77 Y25.45 F3000.0
G01 X6.08 Y24.53 F3000.0
G01 X5.92 Y24.25 F3000.0
G01 X5.24 Y23.11 F3000.0
G01 X5.08 Y22.77 F3000.0
G01 X4.49 Y21.54 F3000.0
G01 X4.44 Y21.42 F3000.0
G01 X4.04 Y20.5 F3000.0
G01 X3.59 Y19.47 F3000.0
G01 X3.57 Y19.44 F3000.0
G01 X3.0 Y18.58 F3000.0
G01 X2.86 Y18.37 F3000.0
G01 X2.15 Y17.33 F3000.0
G01 X1.97 Y16.97 F3000.0
G01 X1.34 Y15.71 F3000.0
G01 X1.28 Y15.56 F3000.0
G01 X0.93 Y14.63 F3000.0
G01 X0.53 Y13.54 F3000.0
G01 X0.47 Y13.24 F3000.0
G01 X0.25 Y11.94 F3000.0
G01 X0.24 Y11.1 F3000.0
G01 X0.38 Y10.53 F3000.0
G01 X0.72 Y10.09 F3000.0
G01 X1.33 Y9.64 F3000.0
G01 X1.4 Y9.6 F3000.0
G01 X2.28 Y9.13 F3000.0
G01 X3.24 Y8.62 F3000.0
G01 X3.5 Y8.54 F3000.0
G01 X4.72 Y8.18 F3000.0
G01 X5.16 Y8.14 F3000.0
G01 X5.3 Y7.91 F3000.0
G01 X5.48 Y7.64 F3000.0
G01 X5.52 Y7.37 F3000.0
G01 X5.59 Y6.82 F3000.0
G01 X5.92 Y6.19 F3000.0
G01 X6.39 Y5.67 F3000.0
G01 X6.85 Y5.46 F3000.0
G01 X7.06 Y5.49 F3000.0
G01 X6.93 Y5.67 F3000.0
G01 X6.8 Y6.06 F3000.0
G01 X6.91 Y6.17 F3000.0
G01 X7.16 Y6.01 F3000.0
G01 X7.58 Y5.78 F3000.0
G01 X7.59 Y5.67 F3000.0
G01 X7.71 Y4.56 F3000.0
G01 Y4.53 F3000.0
G01 X7.82 Y3.53 F3000.0
G01 X7.93 Y2.5 F3000.0
G01 X8.17 Y1.73 F3000.0
G01 X8.48 Y1.24 F3000.0
G01 X8.67 Y1.0 F3000.0
G01 X8.62 Y0.78 F3000.0
G01 X8.57 Y0.28 F3000.0
G01 X8.53 Y0.01 F3000.0
G01 X8.33 Y0.13 F3000.0
G01 F3000.0
M5
G00 X12.71 Y1.86 F3000.0
M3 F3000.0
G01 X11.79 Y1.95 F3000.0
G01 X11.45 Y1.86 F3000.0
G01 X12.35 Y1.76 F3000.0
G01 X13.04 Y1.79 F3000.0
G01 X12.71 Y1.86 F3000.0
G01 F3000.0
M5
G00 X13.31 Y2.62 F3000.0
M3 F3000.0
G01 X13.14 Y2.66 F3000.0
G01 X12.98 Y2.56 F3000.0
G01 X13.14 Y2.51 F3000.0
G01 X13.31 Y2.62 F3000.0
G01 F3000.0
M5
G00 X14.55 Y2.92 F3000.0
M3 F3000.0
G01 X14.33 Y3.87 F3000.0
G01 X14.19 Y4.53 F3000.0
G01 X14.32 Y4.69 F3000.0
G01 X14.81 Y5.24 F3000.0
G01 X15.24 Y5.74 F3000.0
G01 X15.53 Y5.69 F3000.0
G01 X15.27 Y5.18 F3000.0
G01 X14.94 Y4.7 F3000.0
G01 X15.4 Y4.41 F3000.0
G01 X15.76 Y4.19 F3000.0
G01 X15.9 Y3.96 F3000.0
G01 X15.88 Y3.76 F3000.0
G01 X15.68 Y3.71 F3000.0
G01 X15.22 Y3.92 F3000.0
G01 X14.84 Y4.17 F3000.0
G01 X14.61 Y4.14 F3000.0
G01 X14.84 Y3.38 F3000.0
G01 X14.99 Y2.69 F3000.0
G01 X14.78 Y2.51 F3000.0
G01 X14.55 Y2.92 F3000.0
G01 F3000.0
M5
G00 X12.22 Y3.44 F3000.0
M3 F3000.0
G01 X12.12 Y3.6 F3000.0
G01 X11.89 Y3.44 F3000.0
G01 X11.82 Y3.31 F3000.0
G01 X11.98 Y3.28 F3000.0
G01 X12.22 Y3.44 F3000.0
G01 F3000.0
M5
G00 X10.85 Y5.17 F3000.0
M3 F3000.0
G01 X11.18 Y5.31 F3000.0
G01 X10.76 Y5.39 F3000.0
G01 X10.24 Y5.33 F3000.0
G01 X10.16 Y5.13 F3000.0
G01 X10.25 Y5.03 F3000.0
G01 X10.85 Y5.17 F3000.0
G01 F3000.0
M5
G00 X10.16 Y6.23 F3000.0
M3 F3000.0
G01 X9.84 Y6.59 F3000.0
G01 X9.98 Y7.22 F3000.0
G01 X9.97 Y7.36 F3000.0
G01 X9.82 Y7.45 F3000.0
G01 X9.6 Y7.77 F3000.0
G01 X9.77 Y8.23 F3000.0
G01 X10.19 Y8.38 F3000.0
G01 X10.58 Y8.16 F3000.0
G01 X10.78 Y7.75 F3000.0
G01 X10.63 Y7.31 F3000.0
G01 X10.52 Y7.01 F3000.0
G01 X10.8 Y6.95 F3000.0
G01 X10.96 Y7.05 F3000.0
G01 Y7.22 F3000.0
G01 X10.95 Y7.7 F3000.0
G01 X11.08 Y7.91 F3000.0
G01 X11.39 Y7.97 F3000.0
G01 X11.93 Y7.79 F3000.0
G01 X12.09 Y7.32 F3000.0
G01 X12.0 Y7.1 F3000.0
G01 X11.82 Y7.01 F3000.0
G01 X11.62 Y6.89 F3000.0
G01 X11.51 Y6.59 F3000.0
G01 X11.34 Y6.23 F3000.0
G01 X11.04 Y6.04 F3000.0
G01 X10.63 Y6.03 F3000.0
G01 X10.16 Y6.23 F3000.0
G01 F3000.0
M5
G00 X11.16 Y6.52 F3000.0
M3 F3000.0
G01 X10.74 Y6.61 F3000.0
G01 X10.32 Y6.52 F3000.0
G01 X10.74 Y6.44 F3000.0
G01 X11.16 Y6.52 F3000.0
G01 F3000.0
M5
G00 X11.78 Y7.41 F3000.0
M3 F3000.0
G01 X11.51 Y7.56 F3000.0
G01 X11.23 Y7.46 F3000.0
G01 X11.51 Y7.31 F3000.0
G01 X11.78 Y7.41 F3000.0
G01 F3000.0
M5
G00 X10.33 Y7.81 F3000.0
M3 F3000.0
G01 X10.12 Y7.82 F3000.0
G01 X10.19 Y7.76 F3000.0
G01 X10.33 Y7.81 F3000.0
G01 F3000.0
M5
G00 X13.52 Y6.15 F3000.0
M3 F3000.0
G01 X13.74 Y6.62 F3000.0
G01 X14.15 Y6.87 F3000.0
G01 X14.23 Y6.85 F3000.0
G01 X15.25 Y6.51 F3000.0
G01 X15.33 Y6.41 F3000.0
G01 X15.26 Y6.27 F3000.0
G01 X15.0 Y6.12 F3000.0
G01 X14.57 Y6.28 F3000.0
G01 X14.12 Y6.42 F3000.0
G01 X13.87 Y6.17 F3000.0
G01 X13.64 Y5.9 F3000.0
G01 X13.52 Y6.15 F3000.0
G01 F3000.0
M5
G00 X15. Y8.04 F3000.0
M3 F3000.0
G01 X14.53 Y8.14 F3000.0
G01 X14.29 Y8.35 F3000.0
G01 X14.2 Y8.5 F3000.0
G01 X13.98 Y8.38 F3000.0
G01 X13.88 Y8.34 F3000.0
G01 X13.85 Y8.54 F3000.0
G01 X13.93 Y8.78 F3000.0
G01 X14.11 Y8.91 F3000.0
G01 X14.6 Y8.8 F3000.0
G01 X14.96 Y8.62 F3000.0
G01 X15.31 Y8.41 F3000.0
G01 X15.44 Y8.08 F3000.0
G01 X15.29 Y7.98 F3000.0
G01 X15.0 Y8.04 F3000.0
G01 F3000.0
M5
G00 X15.89 Y5.22 F3000.0
M3 F3000.0
G01 X15.71 Y5.63 F3000.0
G01 X15.6 Y5.96 F3000.0
G01 X15.48 Y6.44 F3000.0
G01 X15.53 Y6.75 F3000.0
G01 X15.74 Y8.05 F3000.0
G01 X16.63 Y8.16 F3000.0
G01 X17.51 Y8.07 F3000.0
G01 X17.79 Y8.28 F3000.0
G01 X17.99 Y8.52 F3000.0
G01 X18.25 Y8.61 F3000.0
G01 X19.14 Y8.35 F3000.0
G01 X19.68 Y8.05 F3000.0
G01 X19.64 Y7.75 F3000.0
G01 X19.48 Y7.65 F3000.0
G01 X19.16 Y7.73 F3000.0
G01 X18.6 Y7.79 F3000.0
G01 X18.45 F3000.0
G01 X18.36 Y7.95 F3000.0
G01 X18.21 Y8.17 F3000.0
G01 X18.05 Y7.96 F3000.0
G01 X17.89 Y7.8 F3000.0
G01 X17.63 Y7.42 F3000.0
G01 X17.45 Y6.77 F3000.0
G01 X17.57 Y6.58 F3000.0
G01 X18.08 Y6.44 F3000.0
G01 X18.84 Y6.27 F3000.0
G01 X19.14 Y6.55 F3000.0
G01 X19.51 Y6.87 F3000.0
G01 X19.67 Y6.86 F3000.0
G01 X19.74 Y6.71 F3000.0
G01 X19.56 Y6.21 F3000.0
G01 X19.23 Y5.85 F3000.0
G01 X18.36 Y5.86 F3000.0
G01 X18.35 F3000.0
G01 X17.36 Y6.08 F3000.0
G01 X17.05 Y6.28 F3000.0
G01 Y6.69 F3000.0
G01 X17.19 Y7.41 F3000.0
G01 X17.21 Y7.61 F3000.0
G01 X17.0 Y7.58 F3000.0
G01 X16.36 Y7.47 F3000.0
G01 X16.03 Y7.38 F3000.0
G01 X15.88 Y7.05 F3000.0
G01 X15.92 Y6.35 F3000.0
G01 X16.27 Y5.94 F3000.0
G01 X16.43 Y5.81 F3000.0
G01 X16.45 Y5.48 F3000.0
G01 X16.26 Y5.06 F3000.0
G01 X15.89 Y5.22 F3000.0
G01 F3000.0
M5
G00 X19.2 Y2.77 F3000.0
M3 F3000.0
G01 X19.11 Y3.24 F3000.0
G01 X19.3 Y3.55 F3000.0
G01 X19.5 Y3.18 F3000.0
G01 X19.44 Y2.73 F3000.0
G01 X19.2 Y2.77 F3000.0
G01 F3000.0
M5
G00 X19.66 Y1.82 F3000.0
M3 F3000.0
G01 X19.33 Y1.83 F3000.0
G01 X19.29 Y1.79 F3000.0
G01 X19.47 Y1.77 F3000.0
G01 X19.66 Y1.82 F3000.0
G01 F3000.0
M5
G00 X21.1 Y3.33 F3000.0
M3 F3000.0
G01 X20.66 Y3.69 F3000.0
G01 X20.46 Y3.54 F3000.0
G01 X20.04 Y3.4 F3000.0
G01 X19.65 Y3.63 F3000.0
G01 X19.81 Y3.88 F3000.0
G01 X20.29 Y4.09 F3000.0
G01 X20.89 Y4.1 F3000.0
G01 X21.47 Y3.63 F3000.0
G01 X21.68 Y3.23 F3000.0
G01 X21.66 Y3.03 F3000.0
G01 X21.46 Y3.05 F3000.0
G01 X21.1 Y3.33 F3000.0
G01 F3000.0
M5
G00 X22.3 Y3.76 F3000.0
M3 F3000.0
G01 X22.18 Y4.0 F3000.0
G01 X22.2 Y3.67 F3000.0
G01 X22.32 Y3.42 F3000.0
G01 X22.3 Y3.76 F3000.0
G01 F3000.0
M5
G00 X24.15 Y5.92 F3000.0
M3 F3000.0
G01 X24.26 Y6.51 F3000.0
G01 X24.27 Y6.88 F3000.0
G01 X24.12 Y6.91 F3000.0
G01 X23.97 Y6.81 F3000.0
G01 Y6.59 F3000.0
G01 X23.82 Y6.16 F3000.0
G01 X23.68 Y6.01 F3000.0
G01 X23.77 Y5.9 F3000.0
G01 X24.03 Y5.79 F3000.0
G01 X24.15 Y5.92 F3000.0
G01 F3000.0
M5
G00 X21.87 Y6.66 F3000.0
M3 F3000.0
G01 X21.74 Y6.84 F3000.0
G01 X21.76 Y6.55 F3000.0
G01 X21.89 Y6.37 F3000.0
G01 X21.87 Y6.66 F3000.0
G01 F3000.0
M5
G00 X20.39 Y10.35 F3000.0
M3 F3000.0
G01 X20.25 Y11.1 F3000.0
G01 X20.08 Y11.48 F3000.0
G01 X19.5 Y12.76 F3000.0
G01 X19.35 Y13.07 F3000.0
G01 X18.9 Y13.97 F3000.0
G01 X18.3 Y15.17 F3000.0
G01 X18.06 Y15.48 F3000.0
G01 X18.0 Y15.32 F3000.0
G01 X17.86 Y15.2 F3000.0
G01 X17.69 Y15.47 F3000.0
G01 X17.56 Y15.67 F3000.0
G01 X17.17 Y15.83 F3000.0
G01 X17.16 F3000.0
G01 X16.17 Y15.96 F3000.0
G01 X15.16 Y16.09 F3000.0
G01 X15.12 Y16.1 F3000.0
G01 X14.13 Y16.2 F3000.0
G01 X13.14 Y16.3 F3000.0
G01 X12.11 Y16.4 F3000.0
G01 X11.85 Y16.43 F3000.0
G01 X10.85 Y16.54 F3000.0
G01 X9.6 Y16.68 F3000.0
G01 X9.54 Y16.69 F3000.0
G01 X8.55 Y16.83 F3000.0
G01 X7.5 Y16.98 F3000.0
G01 X7.04 Y17.12 F3000.0
G01 X6.89 Y17.28 F3000.0
G01 X6.93 Y17.44 F3000.0
G01 X7.32 Y17.41 F3000.0
G01 X7.66 Y17.38 F3000.0
G01 X9.0 Y17.24 F3000.0
G01 X9.26 Y17.2 F3000.0
G01 X10.52 Y17.02 F3000.0
G01 X10.84 Y16.98 F3000.0
G01 X12.16 Y16.8 F3000.0
G01 X12.48 Y16.77 F3000.0
G01 X13.8 Y16.64 F3000.0
G01 X14.2 Y16.6 F3000.0
G01 X15.6 Y16.48 F3000.0
G01 X15.66 Y16.47 F3000.0
G01 X16.65 Y16.33 F3000.0
G01 X17.71 Y16.18 F3000.0
G01 X18.35 Y15.98 F3000.0
G01 X18.44 Y15.8 F3000.0
G01 X18.98 Y14.73 F3000.0
G01 X19.07 Y14.53 F3000.0
G01 X19.52 Y13.64 F3000.0
G01 X19.96 Y12.74 F3000.0
G01 X20.49 Y11.65 F3000.0
G01 X20.51 Y11.6 F3000.0
G01 X20.83 Y10.59 F3000.0
G01 X20.73 Y10.12 F3000.0
G01 X20.48 Y9.93 F3000.0
G01 X20.39 Y10.35 F3000.0
G01 F3000.0
M5
G00 X19.52 Y10.78 F3000.0
M3 F3000.0
G01 X19.22 Y11.47 F3000.0
G01 X19.02 Y11.85 F3000.0
G01 X18.36 Y13.12 F3000.0
G01 X18.32 Y13.27 F3000.0
G01 X17.96 Y14.36 F3000.0
G01 X17.98 Y14.67 F3000.0
G01 X18.08 Y14.69 F3000.0
G01 X18.43 Y13.96 F3000.0
G01 X18.45 Y13.91 F3000.0
G01 X18.88 Y13.01 F3000.0
G01 X19.33 Y12.05 F3000.0
G01 X19.4 Y11.91 F3000.0
G01 X19.92 Y10.87 F3000.0
G01 Y10.65 F3000.0
G01 X19.74 Y10.58 F3000.0
G01 X19.52 Y10.78 F3000.0
G01 F3000.0
M5
G00 X23.1 Y10.8 F3000.0
M3 F3000.0
G01 X22.61 Y11.49 F3000.0
G01 X22.58 Y11.7 F3000.0
G01 X22.73 Y11.78 F3000.0
G01 X23.5 Y12.02 F3000.0
G01 X24.11 Y12.25 F3000.0
G01 X24.04 Y13.11 F3000.0
G01 X24.09 Y13.96 F3000.0
G01 X24.77 Y13.68 F3000.0
G01 X25.25 Y13.48 F3000.0
G01 X25.64 Y13.54 F3000.0
G01 X26.05 Y13.92 F3000.0
G01 X26.58 Y14.69 F3000.0
G01 X26.72 Y14.83 F3000.0
G01 X26.92 Y14.65 F3000.0
G01 X26.95 Y14.58 F3000.0
G01 X27.41 Y13.6 F3000.0
G01 X27.65 Y12.68 F3000.0
G01 X27.37 Y12.77 F3000.0
G01 X27.05 Y13.39 F3000.0
G01 X26.79 Y14.04 F3000.0
G01 X26.22 Y13.54 F3000.0
G01 X25.5 Y13.0 F3000.0
G01 X25.16 Y12.99 F3000.0
G01 X24.76 Y13.15 F3000.0
G01 X24.44 Y13.31 F3000.0
G01 X24.5 Y12.78 F3000.0
G01 X24.42 Y12.01 F3000.0
G01 X23.8 Y11.64 F3000.0
G01 X23.31 Y11.35 F3000.0
G01 X23.63 Y10.97 F3000.0
G01 X23.97 Y10.59 F3000.0
G01 X23.81 Y10.32 F3000.0
G01 X23.55 Y10.4 F3000.0
G01 X23.1 Y10.8 F3000.0
G01 F3000.0
M5
G00 X25.75 Y15.72 F3000.0
M3 F3000.0
G01 X25.57 Y15.84 F3000.0
G01 X25.55 Y16.03 F3000.0
G01 X25.5 Y16.23 F3000.0
G01 X25.18 Y16.42 F3000.0
G01 X24.77 Y16.78 F3000.0
G01 Y16.96 F3000.0
G01 X24.92 Y17.09 F3000.0
G01 X25.08 Y17.25 F3000.0
G01 X24.87 Y17.34 F3000.0
G01 X24.46 Y17.59 F3000.0
G01 X24.0 Y17.8 F3000.0
G01 X23.74 Y17.76 F3000.0
G01 X23.81 Y18.75 F3000.0
G01 X23.84 Y19.56 F3000.0
G01 X23.72 Y19.74 F3000.0
G01 X23.56 Y19.54 F3000.0
G01 X23.32 Y19.04 F3000.0
G01 X23.06 Y18.81 F3000.0
G01 X22.64 Y18.82 F3000.0
G01 X22.06 Y18.99 F3000.0
G01 X21.76 Y19.28 F3000.0
G01 X21.72 Y19.66 F3000.0
G01 X21.98 Y20.13 F3000.0
G01 X22.23 Y20.61 F3000.0
G01 X22.14 Y20.89 F3000.0
G01 X22.03 Y21.34 F3000.0
G01 X22.21 Y21.91 F3000.0
G01 X22.66 Y22.27 F3000.0
G01 X23.21 Y22.34 F3000.0
G01 X23.74 Y22.08 F3000.0
G01 X23.96 Y21.77 F3000.0
G01 X23.94 Y21.32 F3000.0
G01 X23.92 Y20.93 F3000.0
G01 X24.04 Y20.83 F3000.0
G01 X24.22 Y21.03 F3000.0
G01 X24.45 Y21.66 F3000.0
G01 X24.69 Y22.33 F3000.0
G01 X24.93 Y22.58 F3000.0
G01 X25.36 Y23.04 F3000.0
G01 X25.81 Y23.68 F3000.0
G01 X26.23 Y24.0 F3000.0
G01 X26.62 Y23.67 F3000.0
G01 X27.15 Y22.97 F3000.0
G01 X27.45 Y22.65 F3000.0
G01 X27.83 Y22.48 F3000.0
G01 X28.2 F3000.0
G01 X28.48 Y22.67 F3000.0
G01 X28.97 Y23.12 F3000.0
G01 X29.32 Y23.37 F3000.0
G01 X29.7 Y23.06 F3000.0
G01 X30.12 Y22.52 F3000.0
G01 X30.19 Y22.08 F3000.0
G01 X29.78 Y22.01 F3000.0
G01 X29.45 Y22.04 F3000.0
G01 X29.29 Y22.34 F3000.0
G01 X29.09 Y22.6 F3000.0
G01 X28.87 Y22.22 F3000.0
G01 X28.32 Y22.03 F3000.0
G01 X28.21 Y22.04 F3000.0
G01 X27.11 Y22.16 F3000.0
G01 X26.58 Y22.32 F3000.0
G01 X26.33 Y22.59 F3000.0
G01 X26.17 Y23.12 F3000.0
G01 X26.14 Y23.28 F3000.0
G01 X26.06 Y23.27 F3000.0
G01 X25.74 Y22.75 F3000.0
G01 X25.31 Y22.2 F3000.0
G01 X24.87 Y21.55 F3000.0
G01 X24.78 Y21.24 F3000.0
G01 X24.43 Y19.96 F3000.0
G01 X24.41 Y19.72 F3000.0
G01 X24.27 Y18.49 F3000.0
G01 X24.45 Y18.16 F3000.0
G01 X24.85 Y17.92 F3000.0
G01 X24.87 Y17.91 F3000.0
G01 X25.86 Y17.67 F3000.0
G01 X25.93 Y17.66 F3000.0
G01 X26.99 Y17.51 F3000.0
G01 X27.15 Y17.49 F3000.0
G01 X28.3 Y17.35 F3000.0
G01 X28.89 Y17.4 F3000.0
G01 X29.14 Y17.72 F3000.0
G01 X29.25 Y18.14 F3000.0
G01 X29.62 Y19.54 F3000.0
G01 X29.66 Y19.91 F3000.0
G01 X29.82 Y21.29 F3000.0
G01 X29.8 Y21.63 F3000.0
G01 X29.97 Y21.71 F3000.0
G01 X30.75 Y21.14 F3000.0
G01 X31.33 Y20.58 F3000.0
G01 X31.26 Y19.91 F3000.0
G01 X31.24 Y19.79 F3000.0
G01 X31.0 Y18.68 F3000.0
G01 X30.9 Y18.41 F3000.0
G01 X30.43 Y17.2 F3000.0
G01 X30.11 Y16.59 F3000.0
G01 X29.79 Y16.47 F3000.0
G01 X29.54 Y16.42 F3000.0
G01 X29.42 Y16.27 F3000.0
G01 X28.9 Y15.96 F3000.0
G01 X28.85 Y15.95 F3000.0
G01 X27.82 Y15.72 F3000.0
G01 X27.72 Y15.71 F3000.0
G01 X26.62 Y15.62 F3000.0
G01 X25.75 Y15.72 F3000.0
G01 F3000.0
M5
G00 X26.01 Y16.8 F3000.0
M3 F3000.0
G01 X25.79 Y16.91 F3000.0
G01 X25.57 Y16.8 F3000.0
G01 X25.79 Y16.69 F3000.0
G01 X26.01 Y16.8 F3000.0
G01 F3000.0
M5
G00 X26.87 Y16.76 F3000.0
M3 F3000.0
G01 X27.04 Y16.9 F3000.0
G01 X26.77 Y16.96 F3000.0
G01 X26.5 Y16.83 F3000.0
G01 X26.59 Y16.7 F3000.0
G01 X26.87 Y16.76 F3000.0
G01 F3000.0
M5
G00 X27.4 Y16.28 F3000.0
M3 F3000.0
G01 X27.57 Y16.45 F3000.0
G01 X27.71 Y16.39 F3000.0
G01 X28.08 Y16.26 F3000.0
G01 X28.49 Y16.41 F3000.0
G01 X28.56 Y16.66 F3000.0
G01 X28.03 Y16.85 F3000.0
G01 X27.66 F3000.0
G01 X27.33 Y16.59 F3000.0
G01 X26.78 Y16.25 F3000.0
G01 X26.39 Y16.14 F3000.0
G01 X26.38 Y16.06 F3000.0
G01 X26.73 Y16.04 F3000.0
G01 X27.17 Y16.08 F3000.0
G01 X27.4 Y16.28 F3000.0
G01 F3000.0
M5
G00 X25.99 Y18.16 F3000.0
M3 F3000.0
G01 X25.48 Y18.77 F3000.0
G01 X25.32 Y19.48 F3000.0
G01 X25.3 Y19.84 F3000.0
G01 X25.06 Y20.08 F3000.0
G01 X24.74 Y20.56 F3000.0
G01 X24.85 Y21.05 F3000.0
G01 X25.28 Y21.38 F3000.0
G01 X25.9 F3000.0
G01 X26.23 Y21.16 F3000.0
G01 X26.46 Y20.81 F3000.0
G01 X26.57 Y20.41 F3000.0
G01 X26.5 Y20.07 F3000.0
G01 X26.48 Y19.92 F3000.0
G01 X26.63 Y19.76 F3000.0
G01 X26.94 Y19.73 F3000.0
G01 X27.05 Y20.21 F3000.0
G01 X27.29 Y20.75 F3000.0
G01 X27.73 Y21.05 F3000.0
G01 X28.28 Y20.7 F3000.0
G01 X28.58 Y20.36 F3000.0
G01 X28.61 Y20.07 F3000.0
G01 X28.36 Y19.6 F3000.0
G01 X27.96 Y19.42 F3000.0
G01 X27.75 Y19.35 F3000.0
G01 X27.7 Y19.05 F3000.0
G01 X27.61 Y18.68 F3000.0
G01 X27.17 Y18.34 F3000.0
G01 X26.49 Y18.02 F3000.0
G01 X25.99 Y18.16 F3000.0
G01 F3000.0
M5
G00 X28.25 Y20.08 F3000.0
M3 F3000.0
G01 X28.14 Y20.12 F3000.0
G01 X28.03 Y19.95 F3000.0
G01 X28.14 Y19.91 F3000.0
G01 X28.25 Y20.08 F3000.0
G01 F3000.0
M5
G00 X29.96 Y19.11 F3000.0
M3 F3000.0
G01 X29.89 Y19.04 F3000.0
G01 X29.95 Y18.9 F3000.0
G01 X29.96 Y19.11 F3000.0
G01 F3000.0
M5
G00 X30.36 Y17.95 F3000.0
M3 F3000.0
G01 X30.44 Y18.22 F3000.0
G01 X30.79 Y19.45 F3000.0
G01 F3000.0
G01 X30.75 Y20.45 F3000.0
G01 X30.62 Y20.63 F3000.0
G01 X30.53 Y20.57 F3000.0
G01 X30.39 Y19.63 F3000.0
G01 X30.38 Y19.53 F3000.0
G01 X30.19 Y18.44 F3000.0
G01 X30.14 Y18.27 F3000.0
G01 X29.8 Y17.14 F3000.0
G01 X29.78 Y17.02 F3000.0
G01 X29.91 Y17.1 F3000.0
G01 X30.36 Y17.95 F3000.0
G01 F3000.0
M5
G00 X30.1 Y15.52 F3000.0
M3 F3000.0
G01 X30.41 Y15.9 F3000.0
G01 X30.85 Y16.63 F3000.0
G01 X31.04 Y17.09 F3000.0
G01 X31.24 Y17.02 F3000.0
G01 X31.17 Y16.43 F3000.0
G01 X30.8 Y15.71 F3000.0
G01 X30.34 Y15.39 F3000.0
G01 X30.17 Y15.4 F3000.0
G01 X30.1 Y15.52 F3000.0
G01 F3000.0
M5
G00 X31.19 Y15.52 F3000.0
M3 F3000.0
G01 X31.41 Y16.01 F3000.0
G01 X31.73 Y16.36 F3000.0
G01 X31.84 Y16.17 F3000.0
G01 X31.68 Y15.7 F3000.0
G01 X31.37 Y15.39 F3000.0
G01 X31.24 F3000.0
G01 X31.19 Y15.52 F3000.0
G01 F3000.0
M5
G00 X37.21 Y12.45 F3000.0
M3 F3000.0
G01 X37.32 Y12.66 F3000.0
G01 X37.75 Y12.67 F3000.0
G01 X38.2 Y12.69 F3000.0
G01 X38.46 Y12.86 F3000.0
G01 X38.77 Y13.09 F3000.0
G01 X39.02 Y12.76 F3000.0
G01 X39.12 Y12.36 F3000.0
G01 X39.11 F3000.0
G01 X38.11 Y12.25 F3000.0
G01 X37.17 Y12.19 F3000.0
G01 X37.21 Y12.45 F3000.0
M5
G00 X39.45 Y12.37 F3000.0
M3 F3000.0
G01 X39.26 Y12.86 F3000.0
G01 X39.3 Y13.13 F3000.0
G01 X39.48 Y13.2 F3000.0
G01 X39.66 Y13.11 F3000.0
G01 X39.7 Y12.71 F3000.0
G01 X39.67 Y12.22 F3000.0
G01 X39.45 Y12.37 F3000.0
G01 F3000.0
M5
G00 X40.35 Y13.75 F3000.0
M3 F3000.0
G01 X40.21 Y13.85 F3000.0
G01 X39.76 Y14.17 F3000.0
G01 X39.54 Y14.47 F3000.0
G01 X39.53 Y14.71 F3000.0
G01 X39.43 Y15.1 F3000.0
G01 X38.92 Y15.48 F3000.0
G01 X38.5 Y15.91 F3000.0
G01 X38.53 Y16.55 F3000.0
G01 X38.71 Y16.9 F3000.0
G01 X39.03 Y17.08 F3000.0
G01 X39.55 Y17.49 F3000.0
G01 X39.76 Y17.73 F3000.0
G01 X40.02 Y17.78 F3000.0
G01 X40.74 Y17.28 F3000.0
G01 X41.21 Y16.88 F3000.0
G01 X41.6 Y16.86 F3000.0
G01 X41.99 Y16.81 F3000.0
G01 X42.26 Y16.56 F3000.0
G01 X42.49 Y16.3 F3000.0
G01 F3000.0
G01 X42.52 Y15.3 F3000.0
G01 X42.47 Y14.31 F3000.0
G01 X42.24 Y14.06 F3000.0
G01 X41.38 Y13.96 F3000.0
G01 X40.9 Y13.93 F3000.0
G01 X40.72 Y13.8 F3000.0
G01 X40.51 Y13.64 F3000.0
G01 X40.35 Y13.75 F3000.0
G01 F3000.0
M5
G00 X40.24 Y16.91 F3000.0
M3 F3000.0
G01 X40.25 Y17.13 F3000.0
G01 X40.13 Y16.97 F3000.0
G01 X40.0 Y16.76 F3000.0
G01 X39.99 Y16.7 F3000.0
G01 X40.24 Y16.91 F3000.0
G01 F3000.0
M5
G00 X44.51 Y15.4 F3000.0
M3 F3000.0
G01 F3000.0
G01 X44.65 Y16.39 F3000.0
G01 X44.9 Y16.96 F3000.0
G01 X45.19 Y17.63 F3000.0
G01 Y17.65 F3000.0
G01 X45.4 Y18.65 F3000.0
G01 X45.43 Y19.07 F3000.0
G01 X45.49 Y20.07 F3000.0
G01 X45.58 Y21.5 F3000.0
G01 X45.59 Y21.76 F3000.0
G01 X45.62 Y23.02 F3000.0
G01 X45.76 Y23.82 F3000.0
G01 X46.28 Y24.59 F3000.0
G01 X47.03 Y24.91 F3000.0
G01 X47.53 Y25.11 F3000.0
G01 X47.82 Y25.3 F3000.0
G01 X48.14 Y25.56 F3000.0
G01 X48.31 Y26.03 F3000.0
G01 X48.19 Y26.33 F3000.0
G01 X47.88 Y26.48 F3000.0
G01 X47.48 Y26.47 F3000.0
G01 X47.08 Y26.29 F3000.0
G01 X46.48 Y26.0 F3000.0
G01 X46.2 Y26.01 F3000.0
G01 X46.1 Y26.34 F3000.0
G01 X46.14 Y27.0 F3000.0
G01 X46.46 Y27.46 F3000.0
G01 X46.67 Y27.93 F3000.0
G01 X46.4 Y28.47 F3000.0
G01 X46.12 Y28.66 F3000.0
G01 X45.84 Y28.62 F3000.0
G01 X45.41 Y28.08 F3000.0
G01 X45.33 Y27.82 F3000.0
G01 X44.99 Y26.59 F3000.0
G01 X44.97 Y26.55 F3000.0
G01 X44.63 Y25.56 F3000.0
G01 X44.41 Y25.29 F3000.0
G01 X44.17 Y25.2 F3000.0
G01 X43.72 Y25.0 F3000.0
G01 X43.58 Y24.94 F3000.0
G01 X42.51 Y24.5 F3000.0
G01 X42.3 Y24.41 F3000.0
G01 X41.17 Y23.9 F3000.0
G01 X40.78 Y23.57 F3000.0
G01 X40.59 Y23.21 F3000.0
G01 X40.61 Y22.72 F3000.0
G01 X41.12 Y22.58 F3000.0
G01 X41.52 Y22.53 F3000.0
G01 X41.76 Y22.35 F3000.0
G01 X41.84 Y21.44 F3000.0
G01 X41.83 Y21.35 F3000.0
G01 X41.76 Y20.36 F3000.0
G01 X41.69 Y19.28 F3000.0
G01 X41.7 Y18.77 F3000.0
G01 X41.78 Y18.7 F3000.0
G01 X41.84 Y19.15 F3000.0
G01 X42.04 Y20.59 F3000.0
G01 X42.07 Y20.93 F3000.0
G01 X42.17 Y22.26 F3000.0
G01 X42.54 Y22.57 F3000.0
G01 X43.03 Y22.78 F3000.0
G01 X43.29 Y22.85 F3000.0
G01 X43.55 Y23.01 F3000.0
G01 X43.92 Y23.26 F3000.0
G01 X44.16 Y23.42 F3000.0
G01 X44.36 Y23.38 F3000.0
G01 X44.52 Y23.14 F3000.0
G01 X44.58 Y22.7 F3000.0
G01 X44.55 Y22.44 F3000.0
G01 X44.4 Y21.2 F3000.0
G01 X44.36 Y20.91 F3000.0
G01 X44.22 Y19.92 F3000.0
G01 X44.05 Y18.63 F3000.0
G01 X44.03 Y18.38 F3000.0
G01 X43.91 Y17.14 F3000.0
G01 X44.21 Y16.71 F3000.0
G01 X44.45 Y16.22 F3000.0
G01 X44.39 Y15.32 F3000.0
G01 Y15.31 F3000.0
G01 X44.28 Y14.31 F3000.0
G01 X44.34 Y14.21 F3000.0
G01 X44.35 Y14.31 F3000.0
G01 X44.51 Y15.4 F3000.0
G01 F3000.0
M5
G00 X44.01 Y13.74 F3000.0
M3 F3000.0
G01 X43.86 Y14.1 F3000.0
G01 X43.89 Y15.04 F3000.0
G01 F3000.0
G01 X43.92 Y16.04 F3000.0
G01 X43.68 Y16.62 F3000.0
G01 X43.44 Y17.2 F3000.0
G01 Y17.22 F3000.0
G01 X43.51 Y18.24 F3000.0
G01 X43.54 Y18.52 F3000.0
G01 X43.67 Y19.51 F3000.0
G01 X43.84 Y20.78 F3000.0
G01 X43.88 Y21.07 F3000.0
G01 X44.05 Y22.36 F3000.0
G01 X44.0 Y22.52 F3000.0
G01 X43.84 Y22.47 F3000.0
G01 X43.55 Y21.91 F3000.0
G01 X43.26 Y21.34 F3000.0
G01 X42.81 Y21.2 F3000.0
G01 X42.67 Y21.22 F3000.0
G01 X42.57 Y21.06 F3000.0
G01 X42.56 Y20.95 F3000.0
G01 X42.43 Y19.85 F3000.0
G01 X42.38 Y19.61 F3000.0
G01 X42.16 Y18.38 F3000.0
G01 X41.94 Y18.05 F3000.0
G01 X41.66 Y17.94 F3000.0
G01 X41.38 Y18.03 F3000.0
G01 X41.23 Y18.32 F3000.0
G01 Y18.56 F3000.0
G01 Y19.8 F3000.0
G01 X41.25 Y20.18 F3000.0
G01 X41.33 Y21.56 F3000.0
G01 X41.27 Y21.97 F3000.0
G01 X40.87 Y22.09 F3000.0
G01 X40.28 Y22.27 F3000.0
G01 X40.07 Y22.77 F3000.0
G01 X40.22 Y23.49 F3000.0
G01 X40.26 Y23.52 F3000.0
G01 X40.95 Y24.31 F3000.0
G01 X41.16 Y24.41 F3000.0
G01 X42.28 Y24.94 F3000.0
G01 X42.38 Y24.98 F3000.0
G01 X43.42 Y25.38 F3000.0
G01 X44.19 Y25.87 F3000.0
G01 X44.48 Y26.3 F3000.0
G01 F3000.0
G01 X44.76 Y27.27 F3000.0
G01 X44.82 Y27.44 F3000.0
G01 X45.19 Y28.57 F3000.0
G01 X45.44 Y28.89 F3000.0
G01 X45.77 Y29.08 F3000.0
G01 X46.35 F3000.0
G01 X46.94 Y28.5 F3000.0
G01 X47.19 Y28.04 F3000.0
G01 X47.12 Y27.6 F3000.0
G01 X46.78 Y27.02 F3000.0
G01 X46.57 Y26.75 F3000.0
G01 X46.62 Y26.63 F3000.0
G01 X47.06 Y26.83 F3000.0
G01 X47.83 Y27.04 F3000.0
G01 X48.44 Y26.72 F3000.0
G01 X48.71 Y26.37 F3000.0
G01 X48.72 Y25.94 F3000.0
G01 X48.46 Y25.24 F3000.0
G01 X47.95 Y24.78 F3000.0
G01 X47.71 Y24.58 F3000.0
G01 X47.66 Y24.18 F3000.0
G01 X47.55 Y23.58 F3000.0
G01 X47.16 Y23.47 F3000.0
G01 X46.89 Y23.56 F3000.0
G01 X46.85 Y23.9 F3000.0
G01 X46.82 Y24.21 F3000.0
G01 X46.67 Y24.24 F3000.0
G01 X46.27 Y23.97 F3000.0
G01 X46.1 Y23.4 F3000.0
G01 X46.08 Y22.95 F3000.0
G01 X46.01 Y21.5 F3000.0
G01 X45.99 Y21.35 F3000.0
G01 X45.83 Y19.36 F3000.0
G01 X45.74 Y18.21 F3000.0
G01 X45.73 Y18.18 F3000.0
G01 X45.51 Y17.18 F3000.0
G01 X45.21 Y16.57 F3000.0
G01 X44.92 Y16.0 F3000.0
G01 X44.9 Y15.71 F3000.0
G01 X44.79 Y14.42 F3000.0
G01 X44.55 Y13.67 F3000.0
G01 X44.26 Y13.54 F3000.0
G01 X44.01 Y13.74 F3000.0
G01 F3000.0
M5
G00 X42.7 Y10.05 F3000.0
M3 F3000.0
G01 X42.5 Y10.23 F3000.0
G01 X42.32 Y10.13 F3000.0
G01 X42.39 Y9.89 F3000.0
G01 X42.59 Y9.86 F3000.0
G01 X42.7 Y10.05 F3000.0
G01 F3000.0
M5
G00 X42.09 Y9.72 F3000.0
M3 F3000.0
G01 X41.99 Y10.24 F3000.0
G01 X41.96 Y10.71 F3000.0
G01 X41.55 Y10.62 F3000.0
G01 X40.98 Y10.52 F3000.0
G01 X40.83 Y10.58 F3000.0
G01 X40.81 Y10.71 F3000.0
G01 X41.23 Y10.97 F3000.0
G01 X41.56 Y11.25 F3000.0
G01 X41.51 Y11.75 F3000.0
G01 X41.46 Y12.03 F3000.0
G01 X41.2 F3000.0
G01 X40.95 F3000.0
G01 X40.9 Y12.21 F3000.0
G01 X40.97 Y12.41 F3000.0
G01 X41.24 Y12.51 F3000.0
G01 X41.5 Y12.58 F3000.0
G01 X41.35 Y12.67 F3000.0
G01 X41.12 Y12.88 F3000.0
G01 X41.39 Y13.09 F3000.0
G01 X41.86 Y13.19 F3000.0
G01 X42.2 Y12.99 F3000.0
G01 X42.77 Y12.74 F3000.0
G01 X43.17 Y12.52 F3000.0
G01 Y12.37 F3000.0
G01 X42.99 Y12.26 F3000.0
G01 X42.61 Y11.84 F3000.0
G01 X42.44 Y11.48 F3000.0
G01 X42.98 Y11.65 F3000.0
G01 X43.45 Y11.77 F3000.0
G01 X43.62 Y11.67 F3000.0
G01 X43.6 Y11.38 F3000.0
G01 X43.3 Y11.24 F3000.0
G01 X42.76 Y11.11 F3000.0
G01 X42.41 Y10.99 F3000.0
G01 X42.74 Y10.79 F3000.0
G01 X43.13 Y10.32 F3000.0
G01 X43.03 Y9.76 F3000.0
G01 X42.54 Y9.49 F3000.0
G01 X42.28 Y9.54 F3000.0
G01 X42.09 Y9.72 F3000.0
G01 F3000.0
M5
G00 X43.14 Y8.48 F3000.0
M3 F3000.0
G01 X42.56 Y8.9 F3000.0
G01 X42.87 Y9.39 F3000.0
G01 X43.45 Y9.71 F3000.0
G01 X43.72 Y9.59 F3000.0
G01 X43.41 Y9.3 F3000.0
G01 X43.08 Y9.06 F3000.0
G01 X43.54 Y8.78 F3000.0
G01 X43.98 Y8.44 F3000.0
G01 X43.99 Y8.29 F3000.0
G01 X43.84 Y8.21 F3000.0
G01 X43.14 Y8.48 F3000.0
G01 F3000.0
M5
G00 X43.27 Y5.69 F3000.0
M3 F3000.0
G01 X43.08 Y6.01 F3000.0
G01 X43.3 Y6.28 F3000.0
G01 X43.46 Y6.38 F3000.0
G01 X43.45 Y6.53 F3000.0
G01 Y6.57 F3000.0
G01 X43.23 Y7.58 F3000.0
G01 X43.91 Y7.71 F3000.0
G01 X44.56 Y7.56 F3000.0
G01 X44.52 Y7.42 F3000.0
G01 X44.2 Y7.24 F3000.0
G01 X43.77 Y7.03 F3000.0
G01 X43.83 Y6.73 F3000.0
G01 X44.0 Y6.5 F3000.0
G01 X44.35 Y6.47 F3000.0
G01 X44.69 Y6.45 F3000.0
G01 X44.77 Y6.28 F3000.0
G01 X44.68 Y6.1 F3000.0
G01 X44.36 Y5.98 F3000.0
G01 X43.7 Y5.74 F3000.0
G01 X43.27 Y5.69 F3000.0
G01 F3000.0
M5
G00 X43.98 Y4.98 F3000.0
M3 F3000.0
G01 X43.84 Y5.25 F3000.0
G01 X43.98 Y5.52 F3000.0
G01 X44.45 Y5.45 F3000.0
G01 X44.69 Y5.16 F3000.0
G01 X44.42 Y4.96 F3000.0
G01 X43.98 Y4.98 F3000.0
G01 F3000.0
M5
G00 X41.48 Y2.51 F3000.0
M3 F3000.0
G01 X41.22 Y2.82 F3000.0
G01 X41.06 Y2.62 F3000.0
G01 X40.87 Y2.44 F3000.0
G01 X40.7 Y2.64 F3000.0
G01 X40.99 Y3.37 F3000.0
G01 X41.53 Y3.91 F3000.0
G01 X41.77 Y3.79 F3000.0
G01 X41.66 Y3.55 F3000.0
G01 X41.57 Y3.29 F3000.0
G01 X41.83 Y2.85 F3000.0
G01 X42.05 Y2.39 F3000.0
G01 X41.83 Y2.19 F3000.0
G01 X41.48 Y2.51 F3000.0
G01 F3000.0
M5
G00 X39.82 Y4.21 F3000.0
M3 F3000.0
G01 X39.54 Y4.81 F3000.0
G01 X39.57 Y5.27 F3000.0
G01 X39.69 Y5.28 F3000.0
G01 X39.8 Y5.07 F3000.0
G01 X39.99 Y4.6 F3000.0
G01 X40.19 Y4.43 F3000.0
G01 X40.44 Y4.52 F3000.0
G01 X40.83 Y4.87 F3000.0
G01 X41.29 Y5.29 F3000.0
G01 X41.52 Y5.21 F3000.0
G01 X41.62 Y4.99 F3000.0
G01 X41.33 Y4.63 F3000.0
G01 X40.72 Y4.13 F3000.0
G01 X40.2 Y3.93 F3000.0
G01 X39.82 Y4.21 F3000.0
G01 F3000.0
M5
G00 X39.77 Y5.5 F3000.0
M3 F3000.0
G01 X39.86 Y6.03 F3000.0
G01 X39.91 Y6.54 F3000.0
G01 X39.41 Y6.64 F3000.0
G01 X39.07 Y6.65 F3000.0
G01 X38.96 Y6.79 F3000.0
G01 X39.01 Y6.95 F3000.0
G01 X39.29 Y7.04 F3000.0
G01 X39.85 Y7.07 F3000.0
G01 X40.2 Y6.91 F3000.0
G01 X40.34 Y6.53 F3000.0
G01 X40.29 Y5.93 F3000.0
G01 X40.04 Y5.39 F3000.0
G01 X39.89 Y5.35 F3000.0
G01 X39.77 Y5.5 F3000.0
G01 F3000.0
M5
G00 X40.48 Y6.9 F3000.0
M3 F3000.0
G01 X40.33 Y7.42 F3000.0
G01 X40.23 Y7.75 F3000.0
G01 X39.88 Y7.89 F3000.0
G01 X39.49 Y7.93 F3000.0
G01 X39.22 Y7.76 F3000.0
G01 X38.88 Y7.54 F3000.0
G01 X38.72 Y7.62 F3000.0
G01 X38.77 Y7.91 F3000.0
G01 X39.04 Y8.33 F3000.0
G01 X39.37 Y8.76 F3000.0
G01 X38.95 F3000.0
G01 X38.44 Y8.83 F3000.0
G01 X38.49 Y9.07 F3000.0
G01 X39.05 Y9.22 F3000.0
G01 X39.72 Y9.13 F3000.0
G01 X39.87 Y8.94 F3000.0
G01 Y8.66 F3000.0
G01 X39.88 Y8.44 F3000.0
G01 X40.19 Y8.34 F3000.0
G01 X40.48 Y8.24 F3000.0
G01 X40.57 Y8.06 F3000.0
G01 X40.74 Y7.86 F3000.0
G01 X41.06 Y7.5 F3000.0
G01 X41.1 Y6.96 F3000.0
G01 X40.81 Y6.77 F3000.0
G01 X40.48 Y6.9 F3000.0
G01 F3000.0
M5
G00 X38.47 Y9.78 F3000.0
M3 F3000.0
G01 X38.39 Y10.05 F3000.0
G01 X38.28 Y10.27 F3000.0
G01 X38.1 Y10.86 F3000.0
G01 X37.99 Y11.33 F3000.0
G01 X37.64 Y11.4 F3000.0
G01 X37.34 Y11.44 F3000.0
G01 X37.24 Y11.56 F3000.0
G01 X37.83 Y11.83 F3000.0
G01 X37.88 F3000.0
G01 X38.91 Y11.99 F3000.0
G01 X39.15 Y11.84 F3000.0
G01 X38.85 Y11.54 F3000.0
G01 X38.6 Y11.34 F3000.0
G01 X38.52 Y10.92 F3000.0
G01 X38.48 Y10.44 F3000.0
G01 X38.88 Y10.78 F3000.0
G01 X39.59 Y11.13 F3000.0
G01 X39.91 Y10.98 F3000.0
G01 X39.64 Y10.71 F3000.0
G01 X39.39 Y10.52 F3000.0
G01 X39.54 Y10.21 F3000.0
G01 X39.7 Y9.85 F3000.0
G01 X39.47 Y9.72 F3000.0
G01 X39.11 Y9.95 F3000.0
G01 X38.94 Y10.18 F3000.0
G01 X38.74 Y9.94 F3000.0
G01 X38.47 Y9.78 F3000.0
G01 F3000.0
M5
G00 X36. Y0.8 F3000.0
M3 F3000.0
G01 X35.99 Y0.86 F3000.0
G01 X35.83 Y1.85 F3000.0
G01 X35.66 Y2.89 F3000.0
G01 Y2.91 F3000.0
G01 X35.49 Y3.89 F3000.0
G01 X35.31 Y4.87 F3000.0
G01 X35.13 Y5.87 F3000.0
G01 X35.01 Y6.18 F3000.0
G01 X34.53 Y7.42 F3000.0
G01 X34.51 Y7.45 F3000.0
G01 X34.02 Y8.32 F3000.0
G01 X33.51 Y9.22 F3000.0
G01 X33.32 Y9.44 F3000.0
G01 X32.48 Y10.41 F3000.0
G01 X32.28 Y10.59 F3000.0
G01 X31.33 Y11.43 F3000.0
G01 X31.03 Y11.61 F3000.0
G01 X30.95 Y11.45 F3000.0
G01 X30.8 Y11.22 F3000.0
G01 X30.6 Y11.6 F3000.0
G01 X30.41 Y11.93 F3000.0
G01 X30.32 Y11.55 F3000.0
G01 X30.29 Y11.34 F3000.0
G01 X30.16 Y11.25 F3000.0
G01 X29.35 Y11.34 F3000.0
G01 X29.12 F3000.0
G01 X27.89 Y11.3 F3000.0
G01 X27.78 Y11.29 F3000.0
G01 X26.67 Y11.19 F3000.0
G01 X25.96 Y11.29 F3000.0
G01 X25.85 Y11.19 F3000.0
G01 X25.59 Y10.34 F3000.0
G01 X25.5 Y10.0 F3000.0
G01 X25.23 Y9.04 F3000.0
G01 X24.87 Y7.74 F3000.0
G01 X24.85 Y7.5 F3000.0
G01 X24.69 Y5.5 F3000.0
G01 X24.59 Y4.27 F3000.0
G01 Y4.01 F3000.0
G01 X24.58 Y2.76 F3000.0
G01 X24.71 Y2.22 F3000.0
G01 X24.81 Y1.75 F3000.0
G01 X24.93 Y0.93 F3000.0
G01 X25.06 Y0.43 F3000.0
G01 X25.0 Y0.2 F3000.0
G01 X24.87 Y0.13 F3000.0
G01 X24.74 Y0.22 F3000.0
G01 X24.43 Y1.04 F3000.0
G01 X24.23 Y1.97 F3000.0
G01 X24.21 Y2.15 F3000.0
G01 X24.13 Y3.33 F3000.0
G01 X24.1 Y3.63 F3000.0
G01 X23.96 Y4.92 F3000.0
G01 X23.74 Y5.24 F3000.0
G01 X23.34 Y5.46 F3000.0
G01 X23.07 Y5.67 F3000.0
G01 X22.86 Y6.04 F3000.0
G01 X22.69 Y6.71 F3000.0
G01 X22.99 Y6.87 F3000.0
G01 X23.48 Y7.1 F3000.0
G01 X24.0 Y7.44 F3000.0
G01 X24.27 Y7.62 F3000.0
G01 X24.43 Y8.0 F3000.0
G01 X24.54 Y8.36 F3000.0
G01 X24.93 Y9.67 F3000.0
G01 X24.98 Y9.88 F3000.0
G01 X25.3 Y11.05 F3000.0
G01 X25.52 Y11.72 F3000.0
G01 X25.7 Y12.06 F3000.0
G01 X25.9 Y12.2 F3000.0
G01 X26.6 Y11.91 F3000.0
G01 X27.1 Y11.67 F3000.0
G01 X27.69 Y11.73 F3000.0
G01 X27.88 Y11.75 F3000.0
G01 X29.07 Y11.83 F3000.0
G01 X29.77 Y11.86 F3000.0
G01 X30.09 Y12.18 F3000.0
G01 X30.34 Y12.45 F3000.0
G01 X30.59 Y12.53 F3000.0
G01 X31.27 Y12.11 F3000.0
G01 X31.85 Y11.67 F3000.0
G01 X31.94 Y11.59 F3000.0
G01 X32.76 Y10.82 F3000.0
G01 X33.04 Y10.47 F3000.0
G01 X33.96 Y9.34 F3000.0
G01 X34.02 Y9.22 F3000.0
G01 X34.5 Y8.35 F3000.0
G01 X35.04 Y7.35 F3000.0
G01 X35.05 Y7.32 F3000.0
G01 X35.35 Y6.37 F3000.0
G01 X35.65 Y5.38 F3000.0
G01 X35.68 Y5.24 F3000.0
G01 X36.18 Y2.28 F3000.0
G01 X36.38 Y1.15 F3000.0
G01 F3000.0
G01 X36.52 Y0.16 F3000.0
G01 X36.47 Y0.03 F3000.0
G01 X36.34 Y0.0 F3000.0
G01 X36.15 Y0.16 F3000.0
G01 X36.0 Y0.8 F3000.0
G01 F3000.0
M5
G00 X45.04 Y1.61 F3000.0
M3 F3000.0
G01 X44.85 Y2.05 F3000.0
G01 X45.11 Y2.34 F3000.0
G01 X45.29 Y2.5 F3000.0
G01 X45.33 Y2.8 F3000.0
G01 X45.28 Y3.09 F3000.0
G01 X44.99 Y3.02 F3000.0
G01 X44.71 Y2.81 F3000.0
G01 X44.55 Y2.4 F3000.0
G01 X44.35 Y1.93 F3000.0
G01 X44.12 Y2.1 F3000.0
G01 X44.03 Y2.66 F3000.0
G01 Y3.2 F3000.0
G01 X44.19 Y3.36 F3000.0
G01 X44.39 Y3.61 F3000.0
G01 X44.49 Y3.88 F3000.0
G01 X44.59 Y4.11 F3000.0
G01 X44.3 Y4.28 F3000.0
G01 X44.06 Y4.37 F3000.0
G01 X43.98 Y4.53 F3000.0
G01 X44.08 Y4.69 F3000.0
G01 X44.34 Y4.78 F3000.0
G01 X44.87 Y4.59 F3000.0
G01 X45.06 Y4.0 F3000.0
G01 X45.12 Y3.67 F3000.0
G01 X45.52 Y3.56 F3000.0
G01 X46.2 Y3.33 F3000.0
G01 X46.33 Y3.16 F3000.0
G01 X46.08 Y2.91 F3000.0
G01 X45.8 Y2.6 F3000.0
G01 X46.07 Y2.45 F3000.0
G01 X46.31 Y2.19 F3000.0
G01 X46.09 Y1.97 F3000.0
G01 X45.8 Y1.76 F3000.0
G01 X45.37 Y1.31 F3000.0
G01 X45.04 Y1.61 F3000.0
G01 F3000.0
M5
G00 X53.73 Y0.08 F3000.0
M3 F3000.0
G01 X53.78 Y0.29 F3000.0
G01 X54.03 Y0.44 F3000.0
G01 X54.07 Y0.45 F3000.0
G01 X55.03 Y0.83 F3000.0
G01 X55.11 Y0.87 F3000.0
G01 X56.11 Y1.31 F3000.0
G01 X56.3 Y1.4 F3000.0
G01 X57.41 Y1.91 F3000.0
G01 X57.45 Y1.93 F3000.0
G01 X58.43 Y2.32 F3000.0
G01 X58.56 Y2.31 F3000.0
G01 X58.47 Y2.15 F3000.0
G01 X58.23 Y2.03 F3000.0
G01 X57.34 Y1.57 F3000.0
G01 X56.21 Y0.99 F3000.0
G01 X56.14 Y0.95 F3000.0
G01 X55.17 Y0.5 F3000.0
G01 X55.12 Y0.47 F3000.0
G01 X54.16 Y0.05 F3000.0
G01 X53.73 Y0.08 F3000.0
G01 F3000.0
M5
G00 X56.39 Y0.22 F3000.0
M3 F3000.0
G01 X56.32 Y0.5 F3000.0
G01 X56.68 Y0.78 F3000.0
G01 X56.92 Y0.9 F3000.0
G01 X57.82 Y1.33 F3000.0
G01 X58.96 Y1.88 F3000.0
G01 X58.97 F3000.0
G01 X59.8 Y2.43 F3000.0
G01 X60.64 Y2.98 F3000.0
G01 X61.48 Y3.53 F3000.0
G01 X61.49 Y3.54 F3000.0
G01 X62.3 Y4.11 F3000.0
G01 X63.12 Y4.69 F3000.0
G01 X63.94 Y5.27 F3000.0
G01 X64.22 Y5.51 F3000.0
G01 X65.28 Y6.39 F3000.0
G01 X65.4 Y6.56 F3000.0
G01 X66.14 Y7.51 F3000.0
G01 X66.59 Y8.03 F3000.0
G01 X66.63 Y8.12 F3000.0
G01 X66.53 Y8.06 F3000.0
G01 X65.61 Y7.45 F3000.0
G01 X65.55 Y7.43 F3000.0
G01 X64.59 Y6.99 F3000.0
G01 X64.05 Y6.72 F3000.0
G01 X63.7 Y6.46 F3000.0
G01 X62.89 Y5.87 F3000.0
G01 X61.74 Y5.03 F3000.0
G01 X61.35 Y4.8 F3000.0
G01 X60.49 Y4.28 F3000.0
G01 X59.63 Y3.77 F3000.0
G01 X58.38 Y3.02 F3000.0
G01 X57.75 Y2.83 F3000.0
G01 X58.13 Y3.23 F3000.0
G01 X58.33 Y3.35 F3000.0
G01 X59.38 Y3.99 F3000.0
G01 X59.75 Y4.23 F3000.0
G01 X60.58 Y4.78 F3000.0
G01 X62.25 Y5.88 F3000.0
G01 X63.45 Y6.67 F3000.0
G01 X63.91 Y7.08 F3000.0
G01 X63.97 Y7.38 F3000.0
G01 X64.06 Y7.94 F3000.0
G01 X64.22 Y8.12 F3000.0
G01 X65.04 Y9.04 F3000.0
G01 X65.14 Y9.12 F3000.0
G01 X66.01 Y9.82 F3000.0
G01 X66.2 Y9.92 F3000.0
G01 X66.5 Y10.14 F3000.0
G01 X66.79 Y10.39 F3000.0
G01 X67.54 Y11.04 F3000.0
G01 X68.59 Y11.94 F3000.0
G01 X68.78 Y12.14 F3000.0
G01 X69.47 Y12.86 F3000.0
G01 X70.34 Y13.78 F3000.0
G01 X70.45 Y13.89 F3000.0
G01 X71.14 Y14.61 F3000.0
G01 X71.84 Y15.32 F3000.0
G01 X72.54 Y16.04 F3000.0
G01 X73.34 Y16.87 F3000.0
G01 X73.45 Y16.97 F3000.0
G01 X74.17 Y17.66 F3000.0
G01 X74.9 Y18.34 F3000.0
G01 X75.63 Y19.03 F3000.0
G01 X76.35 Y19.72 F3000.0
G01 X77.19 Y20.51 F3000.0
G01 X77.54 Y20.74 F3000.0
G01 X78.37 Y21.29 F3000.0
G01 X79.56 Y22.07 F3000.0
G01 X79.66 Y22.12 F3000.0
G01 X80.67 Y22.6 F3000.0
G01 X81.45 Y22.8 F3000.0
G01 X81.66 Y22.88 F3000.0
G01 X81.83 Y23.15 F3000.0
G01 X82.32 Y23.82 F3000.0
G01 X83.09 Y24.26 F3000.0
G01 X83.79 Y24.42 F3000.0
G01 X84.54 Y24.24 F3000.0
G01 X85.31 Y23.82 F3000.0
G01 X85.84 Y23.22 F3000.0
G01 X86.1 Y22.47 F3000.0
G01 X86.06 Y21.62 F3000.0
G01 X85.76 Y20.82 F3000.0
G01 X85.64 Y20.58 F3000.0
G01 X85.68 Y20.35 F3000.0
G01 X85.85 Y20.17 F3000.0
G01 X86.14 Y20.11 F3000.0
G01 X86.64 Y19.97 F3000.0
G01 X86.8 Y19.64 F3000.0
G01 X86.67 Y19.38 F3000.0
G01 X86.75 Y19.16 F3000.0
G01 X87.17 Y18.98 F3000.0
G01 X87.64 Y18.79 F3000.0
G01 X87.9 Y18.45 F3000.0
G01 X87.34 Y18.01 F3000.0
G01 X86.79 Y17.82 F3000.0
G01 X86.3 Y17.94 F3000.0
G01 X85.89 Y18.06 F3000.0
G01 X85.67 Y18.01 F3000.0
G01 X84.94 Y17.86 F3000.0
G01 X84.43 Y17.88 F3000.0
G01 X84.32 Y18.11 F3000.0
G01 X84.57 Y18.65 F3000.0
G01 X84.84 Y19.11 F3000.0
G01 X85.01 Y19.3 F3000.0
G01 X85.46 Y19.06 F3000.0
G01 X85.61 Y18.97 F3000.0
G01 X86.62 Y18.39 F3000.0
G01 X86.91 Y18.42 F3000.0
G01 X86.67 Y18.62 F3000.0
G01 F3000.0
G01 X85.93 Y19.3 F3000.0
G01 X85.68 Y19.57 F3000.0
G01 X84.76 Y20.59 F3000.0
G01 X84.71 Y20.67 F3000.0
G01 X84.08 Y21.56 F3000.0
G01 X84.18 Y21.79 F3000.0
G01 X84.6 Y21.38 F3000.0
G01 X85.08 Y20.94 F3000.0
G01 X85.36 Y21.13 F3000.0
G01 X85.54 Y21.6 F3000.0
G01 X85.58 Y22.22 F3000.0
G01 X85.47 Y22.85 F3000.0
G01 X85.23 Y23.26 F3000.0
G01 X84.73 Y23.59 F3000.0
G01 X83.81 Y23.87 F3000.0
G01 X82.94 Y23.65 F3000.0
G01 X82.51 Y23.36 F3000.0
G01 X82.23 Y22.94 F3000.0
G01 X81.85 Y22.42 F3000.0
G01 X81.15 Y22.21 F3000.0
G01 X80.86 Y22.09 F3000.0
G01 X79.63 Y21.6 F3000.0
G01 X79.22 Y21.34 F3000.0
G01 X77.96 Y20.54 F3000.0
G01 X77.74 Y20.36 F3000.0
G01 X76.74 Y19.55 F3000.0
G01 X76.62 Y19.44 F3000.0
G01 X75.9 Y18.74 F3000.0
G01 X75.18 Y18.05 F3000.0
G01 X74.46 Y17.35 F3000.0
G01 X73.63 Y16.55 F3000.0
G01 X73.51 Y16.42 F3000.0
G01 X72.81 Y15.7 F3000.0
G01 X72.12 Y14.98 F3000.0
G01 X71.43 Y14.26 F3000.0
G01 X70.61 Y13.42 F3000.0
G01 X70.51 Y13.31 F3000.0
G01 X69.81 Y12.59 F3000.0
G01 X69.11 Y11.88 F3000.0
G01 X68.31 Y11.05 F3000.0
G01 X68.1 Y10.87 F3000.0
G01 X67.14 Y10.03 F3000.0
G01 X66.48 Y9.6 F3000.0
G01 X66.04 Y9.39 F3000.0
G01 X65.93 Y9.28 F3000.0
G01 X65.08 Y8.5 F3000.0
G01 X65.06 Y8.48 F3000.0
G01 X64.37 Y7.7 F3000.0
G01 X64.41 Y7.57 F3000.0
G01 X64.7 Y7.59 F3000.0
G01 X65.38 Y7.84 F3000.0
G01 X65.39 Y7.85 F3000.0
G01 X66.2 Y8.43 F3000.0
G01 X66.29 Y8.48 F3000.0
G01 X67.24 Y9.01 F3000.0
G01 X68.04 Y9.12 F3000.0
G01 X68.21 Y9.27 F3000.0
G01 X68.74 Y9.95 F3000.0
G01 X68.75 Y9.97 F3000.0
G01 X69.52 Y10.64 F3000.0
G01 X70.22 Y10.98 F3000.0
G01 X70.69 Y11.01 F3000.0
G01 X70.77 Y10.87 F3000.0
G01 X70.71 Y10.72 F3000.0
G01 X70.31 Y10.51 F3000.0
G01 X69.77 Y10.36 F3000.0
G01 X69.55 Y10.15 F3000.0
G01 X68.59 Y9.25 F3000.0
G01 X69.19 Y9.46 F3000.0
G01 X69.64 Y9.73 F3000.0
G01 X69.82 Y9.98 F3000.0
G01 X69.89 Y10.14 F3000.0
G01 X70.06 Y10.18 F3000.0
G01 X70.11 Y10.21 F3000.0
G01 X71.01 Y10.76 F3000.0
G01 X71.24 Y10.99 F3000.0
G01 X72.2 Y11.9 F3000.0
G01 X72.72 Y12.39 F3000.0
G01 X73.0 Y12.34 F3000.0
G01 X72.84 Y12.15 F3000.0
G01 X72.02 Y11.2 F3000.0
G01 X71.9 Y11.09 F3000.0
G01 X71.16 Y10.43 F3000.0
G01 X70.29 Y9.66 F3000.0
G01 X70.14 Y9.57 F3000.0
G01 X69.28 Y9.06 F3000.0
G01 X68.26 Y8.47 F3000.0
G01 X68.08 Y8.37 F3000.0
G01 X67.02 Y7.77 F3000.0
G01 X66.95 Y7.71 F3000.0
G01 X66.2 Y6.92 F3000.0
G01 X66.13 Y6.81 F3000.0
G01 X66.35 Y6.96 F3000.0
G01 X66.81 Y7.2 F3000.0
G01 X66.95 Y7.16 F3000.0
G01 X66.94 Y7.04 F3000.0
G01 X66.58 Y6.72 F3000.0
G01 X66.01 Y6.31 F3000.0
G01 X65.89 Y6.15 F3000.0
G01 X66.04 Y6.19 F3000.0
G01 X66.45 Y6.42 F3000.0
G01 X67.33 Y6.89 F3000.0
G01 X68.63 Y7.58 F3000.0
G01 X68.98 Y7.75 F3000.0
G01 X69.07 Y7.78 F3000.0
G01 X70.1 Y8.13 F3000.0
G01 X70.12 Y8.15 F3000.0
G01 X71.0 Y8.62 F3000.0
G01 X71.91 Y9.1 F3000.0
G01 X72.08 Y9.21 F3000.0
G01 X72.92 Y9.74 F3000.0
G01 X73.94 Y10.37 F3000.0
G01 X74.01 Y10.43 F3000.0
G01 X74.81 Y11.02 F3000.0
G01 X75.69 Y11.66 F3000.0
G01 X75.79 Y11.74 F3000.0
G01 X76.67 Y12.44 F3000.0
G01 X76.71 Y12.47 F3000.0
G01 X77.46 Y13.12 F3000.0
G01 X78.26 Y13.81 F3000.0
G01 X78.33 Y13.88 F3000.0
G01 X79.04 Y14.58 F3000.0
G01 X79.75 Y15.28 F3000.0
G01 X80.54 Y16.05 F3000.0
G01 X80.6 Y16.11 F3000.0
G01 X82.06 Y17.47 F3000.0
G01 X82.86 Y18.2 F3000.0
G01 X82.89 Y18.23 F3000.0
G01 X83.72 Y18.85 F3000.0
G01 X84.24 Y19.09 F3000.0
G01 X84.41 Y18.87 F3000.0
G01 X84.27 Y18.65 F3000.0
G01 X84.05 Y18.51 F3000.0
G01 X83.0 Y17.81 F3000.0
G01 X82.77 Y17.59 F3000.0
G01 X82.04 Y16.91 F3000.0
G01 X81.07 Y16.02 F3000.0
G01 X80.99 Y15.93 F3000.0
G01 X80.29 Y15.22 F3000.0
G01 X79.58 Y14.51 F3000.0
G01 X78.8 Y13.72 F3000.0
G01 X78.49 Y13.45 F3000.0
G01 X77.43 Y12.52 F3000.0
G01 X77.19 Y12.33 F3000.0
G01 X76.17 Y11.51 F3000.0
G01 X76.04 Y11.4 F3000.0
G01 X75.23 Y10.81 F3000.0
G01 X74.3 Y10.11 F3000.0
G01 X74.03 Y9.94 F3000.0
G01 X73.19 Y9.41 F3000.0
G01 X72.08 Y8.7 F3000.0
G01 X71.93 Y8.63 F3000.0
G01 X71.04 Y8.18 F3000.0
G01 X70.14 Y7.74 F3000.0
G01 X69.25 Y7.29 F3000.0
G01 X68.21 Y6.77 F3000.0
G01 X68.0 Y6.67 F3000.0
G01 X66.89 Y6.15 F3000.0
G01 X66.83 Y6.12 F3000.0
G01 X65.85 Y5.68 F3000.0
G01 X65.45 Y5.64 F3000.0
G01 X64.71 Y5.36 F3000.0
G01 X64.58 Y5.27 F3000.0
G01 X63.76 Y4.7 F3000.0
G01 X62.81 Y4.05 F3000.0
G01 X62.74 Y4.0 F3000.0
G01 X61.91 Y3.44 F3000.0
G01 X61.09 Y2.87 F3000.0
G01 X60.19 Y2.26 F3000.0
G01 X59.85 Y2.06 F3000.0
G01 X58.99 Y1.56 F3000.0
G01 X57.8 Y0.85 F3000.0
G01 X57.74 Y0.82 F3000.0
G01 X56.82 Y0.3 F3000.0
G01 X56.39 Y0.22 F3000.0
G01 F3000.0
M5
G00 X60.49 Y1.93 F3000.0
M3 F3000.0
G01 X60.51 Y2.16 F3000.0
G01 X61.23 Y2.57 F3000.0
G01 X61.4 Y2.68 F3000.0
G01 X62.24 Y3.23 F3000.0
G01 X63.25 Y3.89 F3000.0
G01 X63.43 Y4.02 F3000.0
G01 X64.44 Y4.71 F3000.0
G01 X64.7 Y4.8 F3000.0
G01 X64.78 Y4.7 F3000.0
G01 X64.5 Y4.4 F3000.0
G01 X64.48 Y4.39 F3000.0
G01 X63.66 Y3.78 F3000.0
G01 X63.32 Y3.53 F3000.0
G01 X62.15 Y2.72 F3000.0
G01 X62.04 Y2.64 F3000.0
G01 X61.13 Y1.97 F3000.0
G01 X60.82 Y1.86 F3000.0
G01 X60.49 Y1.93 F3000.0
G01 F3000.0
M5
G00 X60.25 Y3.6 F3000.0
M3 F3000.0
G01 X60.28 Y3.85 F3000.0
G01 X60.67 Y4.1 F3000.0
G01 X60.98 Y4.31 F3000.0
G01 X61.8 Y4.88 F3000.0
G01 X62.93 Y5.65 F3000.0
G01 X62.98 Y5.68 F3000.0
G01 X63.85 Y6.27 F3000.0
G01 X64.06 Y6.32 F3000.0
G01 X64.12 Y6.23 F3000.0
G01 X63.79 Y6.06 F3000.0
G01 X63.3 Y5.74 F3000.0
G01 X63.07 Y5.54 F3000.0
G01 X62.1 Y4.67 F3000.0
G01 X61.78 Y4.44 F3000.0
G01 X60.66 Y3.61 F3000.0
G01 X60.38 Y3.5 F3000.0
G01 X60.25 Y3.6 F3000.0
G01 F3000.0
M5
G00 X57.41 Y7.9 F3000.0
M3 F3000.0
G01 X57.64 Y8.5 F3000.0
G01 X57.88 Y9.01 F3000.0
G01 X58.0 Y9.72 F3000.0
G01 X58.22 Y10.56 F3000.0
G01 X58.34 Y10.36 F3000.0
G01 X58.33 Y9.78 F3000.0
G01 X58.29 Y9.6 F3000.0
G01 X58.03 Y8.44 F3000.0
G01 X57.66 Y7.85 F3000.0
G01 X57.51 Y7.79 F3000.0
G01 X57.41 Y7.9 F3000.0
G01 F3000.0
M5
G00 X58.62 Y8.51 F3000.0
M3 F3000.0
G01 Y9.07 F3000.0
G01 X58.84 Y9.61 F3000.0
G01 X58.98 Y9.67 F3000.0
G01 X59.06 Y9.56 F3000.0
G01 X59.09 Y9.17 F3000.0
G01 X58.98 Y8.75 F3000.0
G01 X58.8 Y8.48 F3000.0
G01 X58.62 Y8.51 F3000.0
G01 F3000.0
M5
G00 X57.61 Y13.49 F3000.0
M3 F3000.0
G01 X57.48 Y13.69 F3000.0
G01 X57.58 Y13.91 F3000.0
G01 X58.14 Y13.85 F3000.0
G01 X58.53 Y13.6 F3000.0
G01 X58.14 Y13.46 F3000.0
G01 X57.61 Y13.49 F3000.0
G01 F3000.0
M5
G00 X57.27 Y14.39 F3000.0
M3 F3000.0
G01 X57.18 Y14.66 F3000.0
G01 X57.31 Y14.78 F3000.0
G01 X57.6 Y14.76 F3000.0
G01 X57.99 Y14.66 F3000.0
G01 X57.98 Y14.46 F3000.0
G01 X57.69 Y14.3 F3000.0
G01 X57.27 Y14.39 F3000.0
G01 F3000.0
M5
G00 X56.59 Y13.71 F3000.0
M3 F3000.0
G01 X56.51 Y14.47 F3000.0
G01 X56.74 Y14.93 F3000.0
G01 X56.88 Y14.9 F3000.0
G01 X56.87 Y14.71 F3000.0
G01 X56.97 Y13.94 F3000.0
G01 X57.07 Y13.49 F3000.0
G01 X56.91 Y13.42 F3000.0
G01 X56.59 Y13.71 F3000.0
G01 F3000.0
M5
G00 X54.86 Y15.3 F3000.0
M3 F3000.0
G01 X55.19 Y15.92 F3000.0
G01 X55.51 Y16.38 F3000.0
G01 X55.15 Y16.49 F3000.0
G01 X54.86 Y16.57 F3000.0
G01 X54.77 Y16.81 F3000.0
G01 X54.89 Y17.25 F3000.0
G01 X55.12 Y17.64 F3000.0
G01 X55.11 Y17.84 F3000.0
G01 X54.78 Y17.91 F3000.0
G01 X54.36 Y18.1 F3000.0
G01 X54.78 Y18.35 F3000.0
G01 X55.41 Y18.32 F3000.0
G01 X55.61 Y17.89 F3000.0
G01 X55.45 Y17.23 F3000.0
G01 X55.34 Y16.95 F3000.0
G01 X55.51 Y16.91 F3000.0
G01 X55.88 Y16.83 F3000.0
G01 X56.1 Y16.64 F3000.0
G01 X56.16 Y16.39 F3000.0
G01 X56.0 Y16.14 F3000.0
G01 X55.86 Y15.9 F3000.0
G01 X56.26 Y15.67 F3000.0
G01 X56.73 Y15.41 F3000.0
G01 X56.67 Y15.17 F3000.0
G01 X56.44 Y15.13 F3000.0
G01 X55.99 Y15.28 F3000.0
G01 X55.45 Y15.51 F3000.0
G01 X55.3 Y15.28 F3000.0
G01 X55.01 Y15.06 F3000.0
G01 X54.86 Y15.3 F3000.0
G01 F3000.0
M5
G00 X58.07 Y15.82 F3000.0
M3 F3000.0
G01 X57.94 Y16.58 F3000.0
G01 X57.85 Y17.12 F3000.0
G01 X57.6 Y17.2 F3000.0
G01 X57.32 Y17.28 F3000.0
G01 X57.11 Y17.5 F3000.0
G01 X57.01 Y17.79 F3000.0
G01 X57.08 Y18.06 F3000.0
G01 X57.23 Y18.2 F3000.0
G01 X57.35 Y17.97 F3000.0
G01 X57.49 Y17.73 F3000.0
G01 X57.75 Y17.85 F3000.0
G01 X58.03 Y17.96 F3000.0
G01 X58.21 Y17.84 F3000.0
G01 X58.22 Y17.77 F3000.0
G01 X58.38 Y16.72 F3000.0
G01 X58.4 Y15.91 F3000.0
G01 X58.29 Y15.71 F3000.0
G01 X58.07 Y15.82 F3000.0
G01 F3000.0
M5
G00 X57.17 Y18.49 F3000.0
M3 F3000.0
G01 X56.93 Y18.81 F3000.0
G01 X56.7 Y19.24 F3000.0
G01 X56.54 Y19.71 F3000.0
G01 X56.48 Y20.02 F3000.0
G01 X56.4 Y20.19 F3000.0
G01 X56.49 Y20.31 F3000.0
G01 X57.19 Y20.4 F3000.0
G01 X58.01 Y20.24 F3000.0
G01 Y20.01 F3000.0
G01 X58.12 Y19.78 F3000.0
G01 X58.29 Y19.53 F3000.0
G01 X58.4 Y19.31 F3000.0
G01 X58.5 Y19.14 F3000.0
G01 X58.4 Y18.86 F3000.0
G01 X58.15 Y18.54 F3000.0
G01 X57.85 Y18.36 F3000.0
G01 X57.51 Y18.34 F3000.0
G01 X57.17 Y18.49 F3000.0
G01 F3000.0
M5
G00 X57.96 Y19.09 F3000.0
M3 F3000.0
G01 X58.08 Y19.28 F3000.0
G01 X57.71 Y19.31 F3000.0
G01 X57.29 Y19.27 F3000.0
G01 X57.32 Y19.04 F3000.0
G01 X57.59 Y18.88 F3000.0
G01 X57.96 Y19.09 F3000.0
G01 F3000.0
M5
G00 X57.28 Y20.94 F3000.0
M3 F3000.0
G01 X56.45 Y21.35 F3000.0
G01 X56.08 Y21.86 F3000.0
G01 X56.31 Y22.16 F3000.0
G01 X56.81 Y22.5 F3000.0
G01 X57.34 Y22.75 F3000.0
G01 X57.71 Y22.79 F3000.0
G01 X57.88 Y22.55 F3000.0
G01 X57.39 Y22.22 F3000.0
G01 X56.87 Y21.82 F3000.0
G01 X57.34 Y21.5 F3000.0
G01 X57.86 Y21.2 F3000.0
G01 X57.95 Y20.92 F3000.0
G01 X57.78 Y20.85 F3000.0
G01 X57.28 Y20.94 F3000.0
G01 F3000.0
M5
G00 X55.24 Y21.33 F3000.0
M3 F3000.0
G01 X55.28 Y21.73 F3000.0
G01 X55.51 Y21.75 F3000.0
G01 X55.64 Y21.38 F3000.0
G01 X55.61 Y21.16 F3000.0
G01 X55.49 Y21.07 F3000.0
G01 X55.24 Y21.33 F3000.0
G01 F3000.0
M5
G00 X54.57 Y21.1 F3000.0
M3 F3000.0
G01 X54.55 Y21.45 F3000.0
G01 X54.69 Y21.67 F3000.0
G01 X54.92 Y21.44 F3000.0
G01 X55.07 Y21.03 F3000.0
G01 X54.84 Y20.95 F3000.0
G01 X54.57 Y21.1 F3000.0
G01 F3000.0
M5
G00 X54.46 Y18.71 F3000.0
M3 F3000.0
G01 X54.49 Y19.0 F3000.0
G01 X54.59 Y19.36 F3000.0
G01 X54.68 Y19.93 F3000.0
G01 X54.71 Y20.23 F3000.0
G01 X54.54 Y20.29 F3000.0
G01 X54.35 Y20.19 F3000.0
G01 X54.31 Y19.73 F3000.0
G01 X54.27 Y19.29 F3000.0
G01 X54.12 Y19.22 F3000.0
G01 X53.94 Y19.37 F3000.0
G01 X53.88 Y19.96 F3000.0
G01 X53.63 Y20.34 F3000.0
G01 X53.39 Y20.61 F3000.0
G01 X53.62 Y20.81 F3000.0
G01 X53.89 Y21.08 F3000.0
G01 X54.12 Y21.37 F3000.0
G01 X54.25 Y21.31 F3000.0
G01 X54.31 Y21.11 F3000.0
G01 X54.36 Y20.9 F3000.0
G01 X54.53 Y20.83 F3000.0
G01 X54.99 Y20.58 F3000.0
G01 X55.18 Y19.93 F3000.0
G01 X55.05 Y19.33 F3000.0
G01 X55.0 Y19.22 F3000.0
G01 X55.16 Y19.2 F3000.0
G01 X55.4 Y19.04 F3000.0
G01 X55.29 Y18.82 F3000.0
G01 X54.84 Y18.65 F3000.0
G01 X54.58 Y18.61 F3000.0
G01 X54.46 Y18.71 F3000.0
G01 F3000.0
M5
G00 X50.38 Y20.84 F3000.0
M3 F3000.0
G01 X50.66 Y21.57 F3000.0
G01 X51.26 Y22.21 F3000.0
G01 X51.61 Y22.51 F3000.0
G01 X51.69 Y22.84 F3000.0
G01 X51.55 Y23.39 F3000.0
G01 X51.33 Y23.53 F3000.0
G01 X50.76 Y23.44 F3000.0
G01 X50.49 Y23.34 F3000.0
G01 X49.29 Y22.87 F3000.0
G01 X49.07 Y22.75 F3000.0
G01 X47.96 Y22.18 F3000.0
G01 X47.4 Y21.79 F3000.0
G01 X47.22 Y21.33 F3000.0
G01 X47.3 Y21.17 F3000.0
G01 X47.52 Y21.1 F3000.0
G01 X48.15 Y21.21 F3000.0
G01 X48.16 F3000.0
G01 X49.12 Y21.51 F3000.0
G01 X49.86 F3000.0
G01 X50.01 Y21.32 F3000.0
G01 X50.06 Y20.98 F3000.0
G01 X50.1 Y20.7 F3000.0
G01 X50.22 Y20.62 F3000.0
G01 X50.38 Y20.84 F3000.0
G01 F3000.0
M5
G00 X49.73 Y20.28 F3000.0
M3 F3000.0
G01 X49.62 Y20.78 F3000.0
G01 X49.56 Y21.02 F3000.0
G01 X49.21 Y21.0 F3000.0
G01 X48.46 Y20.72 F3000.0
G01 X47.7 Y20.51 F3000.0
G01 X47.01 Y20.82 F3000.0
G01 X46.7 Y21.27 F3000.0
G01 X46.93 Y21.9 F3000.0
G01 X47.49 Y22.52 F3000.0
G01 X47.9 Y22.73 F3000.0
G01 X49.18 Y23.41 F3000.0
G01 X49.22 Y23.43 F3000.0
G01 X50.19 Y23.83 F3000.0
G01 X50.21 F3000.0
G01 X51.21 Y24.07 F3000.0
G01 X51.55 Y24.04 F3000.0
G01 X51.89 Y23.73 F3000.0
G01 X52.17 Y23.32 F3000.0
G01 X52.24 Y22.85 F3000.0
G01 X52.16 Y22.38 F3000.0
G01 X51.72 Y21.96 F3000.0
G01 X51.08 Y21.38 F3000.0
G01 X50.87 Y20.89 F3000.0
G01 X50.61 Y20.27 F3000.0
G01 X50.17 Y20.07 F3000.0
G01 X49.73 Y20.28 F3000.0
G01 F3000.0
M5
G00 X47.8 Y16.47 F3000.0
M3 F3000.0
G01 X47.95 Y16.64 F3000.0
G01 X48.47 Y16.66 F3000.0
G01 X49.17 Y16.49 F3000.0
G01 X49.27 Y16.41 F3000.0
G01 X49.4 Y16.52 F3000.0
G01 X49.72 Y16.69 F3000.0
G01 X50.17 Y17.26 F3000.0
G01 X50.46 Y17.75 F3000.0
G01 X50.82 Y17.89 F3000.0
G01 X51.07 Y17.95 F3000.0
G01 X51.01 Y18.02 F3000.0
G01 X51.0 F3000.0
G01 X50.03 Y17.72 F3000.0
G01 X49.94 Y17.69 F3000.0
G01 X48.9 Y17.36 F3000.0
G01 X47.93 Y17.51 F3000.0
G01 X47.07 Y17.65 F3000.0
G01 X46.7 Y17.58 F3000.0
G01 X46.59 Y17.38 F3000.0
G01 X46.64 Y17.16 F3000.0
G01 X47.0 Y17.02 F3000.0
G01 X47.36 Y16.86 F3000.0
G01 X47.44 Y16.58 F3000.0
G01 X47.58 Y16.26 F3000.0
G01 X47.8 Y16.47 F3000.0
G01 F3000.0
M5
G00 X42.72 Y21.94 F3000.0
M3 F3000.0
G01 X42.65 Y21.88 F3000.0
G01 X42.71 Y21.74 F3000.0
G01 X42.72 Y21.94 F3000.0
G01 F3000.0
M5
G00 X47.3 Y24.13 F3000.0
M3 F3000.0
G01 X47.23 Y24.06 F3000.0
G01 X47.29 Y23.92 F3000.0
G01 X47.3 Y24.13 F3000.0
G01 F3000.0
M5
G00 X52.81 Y25.89 F3000.0
M3 F3000.0
G01 X52.92 Y26.28 F3000.0
G01 X52.77 Y26.39 F3000.0
G01 X52.49 Y26.1 F3000.0
G01 X52.39 Y25.69 F3000.0
G01 X52.56 Y25.54 F3000.0
G01 X52.81 Y25.89 F3000.0
G01 F3000.0
M5
G00 X54.92 Y26.3 F3000.0
M3 F3000.0
G01 X54.75 Y27.08 F3000.0
G01 X54.88 Y27.79 F3000.0
G01 X55.12 Y27.9 F3000.0
G01 X55.14 Y27.57 F3000.0
G01 X55.18 Y26.72 F3000.0
G01 X55.19 Y26.16 F3000.0
G01 X54.92 Y26.3 F3000.0
G01 F3000.0
M5
G00 X56.13 Y25.79 F3000.0
M3 F3000.0
G01 X55.76 Y25.89 F3000.0
G01 X55.59 Y25.9 F3000.0
G01 X55.48 Y26.06 F3000.0
G01 X55.4 Y26.91 F3000.0
G01 X55.44 Y27.36 F3000.0
G01 X55.56 Y27.49 F3000.0
G01 X55.69 Y27.37 F3000.0
G01 X55.73 Y26.97 F3000.0
G01 X55.83 Y26.24 F3000.0
G01 X55.91 Y26.15 F3000.0
G01 X55.98 Y26.46 F3000.0
G01 X56.22 Y27.11 F3000.0
G01 X56.36 Y27.21 F3000.0
G01 X56.37 Y26.78 F3000.0
G01 X56.44 Y26.0 F3000.0
G01 X56.4 Y25.7 F3000.0
G01 X56.13 Y25.79 F3000.0
G01 F3000.0
M5
G00 X56.71 Y25.58 F3000.0
M3 F3000.0
G01 X56.67 Y26.09 F3000.0
G01 X56.9 Y26.46 F3000.0
G01 X57.05 Y26.07 F3000.0
G01 X56.98 Y25.53 F3000.0
G01 X56.86 Y25.47 F3000.0
G01 X56.71 Y25.58 F3000.0
G01 F3000.0
M5
G00 X56.27 Y24.1 F3000.0
M3 F3000.0
G01 X56.38 Y24.53 F3000.0
G01 X56.26 Y24.82 F3000.0
G01 X56.04 Y24.73 F3000.0
G01 X55.95 Y24.24 F3000.0
G01 X56.04 Y23.9 F3000.0
G01 X56.27 Y24.1 F3000.0
G01 F3000.0
M5
G00 X59.13 Y26.78 F3000.0
M3 F3000.0
G01 X59.24 Y26.85 F3000.0
G01 X60.1 Y27.36 F3000.0
G01 X61.07 Y27.94 F3000.0
G01 X61.2 Y28.01 F3000.0
G01 X62.21 Y28.55 F3000.0
G01 X62.36 Y28.64 F3000.0
G01 X63.4 Y29.19 F3000.0
G01 X64.01 Y29.49 F3000.0
G01 X64.75 Y29.84 F3000.0
G01 X65.21 Y30.05 F3000.0
G01 X65.32 Y30.29 F3000.0
G01 X65.23 Y30.54 F3000.0
G01 X65.06 Y30.47 F3000.0
G01 X63.96 Y30.04 F3000.0
G01 X63.73 Y29.93 F3000.0
G01 X62.61 Y29.35 F3000.0
G01 X62.33 Y29.18 F3000.0
G01 X61.46 Y28.69 F3000.0
G01 X60.31 Y28.03 F3000.0
G01 X60.18 Y27.95 F3000.0
G01 X59.2 Y27.35 F3000.0
G01 X58.61 Y26.72 F3000.0
G01 X58.46 Y26.26 F3000.0
G01 X58.72 Y26.4 F3000.0
G01 X59.13 Y26.78 F3000.0
G01 F3000.0
M5
G00 X60.67 Y28.79 F3000.0
M3 F3000.0
G01 X60.68 Y28.8 F3000.0
G01 X61.55 Y29.29 F3000.0
G01 X62.43 Y29.78 F3000.0
G01 X62.67 Y29.9 F3000.0
G01 X63.8 Y30.49 F3000.0
G01 X63.82 Y30.5 F3000.0
G01 X64.76 Y30.92 F3000.0
G01 X64.69 Y31.16 F3000.0
G01 X64.67 Y31.17 F3000.0
G01 X63.81 Y31.74 F3000.0
G01 X63.78 Y31.75 F3000.0
G01 X62.84 Y32.17 F3000.0
G01 X61.96 Y32.5 F3000.0
G01 X61.01 Y32.81 F3000.0
G01 X60.5 Y32.68 F3000.0
G01 X60.33 Y32.47 F3000.0
G01 X60.63 Y32.28 F3000.0
G01 X60.96 Y32.06 F3000.0
G01 X61.19 Y31.75 F3000.0
G01 X61.36 Y31.48 F3000.0
G01 X61.29 Y30.93 F3000.0
G01 X61.08 Y30.35 F3000.0
G01 X60.7 Y29.83 F3000.0
G01 X60.45 Y29.65 F3000.0
G01 X59.37 Y28.91 F3000.0
G01 X58.6 Y28.58 F3000.0
G01 X57.94 Y28.47 F3000.0
G01 X57.24 Y28.57 F3000.0
G01 X56.36 Y28.88 F3000.0
G01 X55.91 Y29.13 F3000.0
G01 X55.65 Y29.45 F3000.0
G01 X55.57 Y29.9 F3000.0
G01 X55.64 Y30.52 F3000.0
G01 X55.83 Y31.08 F3000.0
G01 X56.2 Y31.54 F3000.0
G01 X56.52 Y31.96 F3000.0
G01 X56.32 Y31.87 F3000.0
G01 X56.11 Y31.79 F3000.0
G01 X55.18 Y31.42 F3000.0
G01 X54.04 Y30.98 F3000.0
G01 X53.91 Y30.93 F3000.0
G01 X52.87 Y30.47 F3000.0
G01 X52.05 Y29.93 F3000.0
G01 X52.52 Y29.54 F3000.0
G01 X53.18 Y29.23 F3000.0
G01 X53.27 Y29.8 F3000.0
G01 X53.33 Y30.33 F3000.0
G01 X53.71 Y30.61 F3000.0
G01 X54.39 Y30.86 F3000.0
G01 X54.89 Y30.52 F3000.0
G01 X55.18 Y29.92 F3000.0
G01 X54.77 Y29.48 F3000.0
G01 X53.95 Y29.13 F3000.0
G01 X53.82 Y29.08 F3000.0
G01 X53.88 Y29.01 F3000.0
G01 X54.71 Y28.69 F3000.0
G01 X55.12 Y28.56 F3000.0
G01 X56.49 Y28.13 F3000.0
G01 X56.52 Y28.12 F3000.0
G01 X57.46 Y27.79 F3000.0
G01 X58.43 Y27.44 F3000.0
G01 X58.91 Y27.75 F3000.0
G01 X58.93 Y27.77 F3000.0
G01 X59.79 Y28.27 F3000.0
G01 X60.67 Y28.79 F3000.0
G01 F3000.0
M5
G00 X58.87 Y29.34 F3000.0
M3 F3000.0
G01 X58.91 Y29.36 F3000.0
G01 X59.78 Y29.91 F3000.0
G01 X60.37 Y30.56 F3000.0
G01 X60.5 Y31.36 F3000.0
G01 X60.17 Y32.0 F3000.0
G01 X59.71 Y32.2 F3000.0
G01 X59.12 Y32.24 F3000.0
G01 X58.86 Y32.17 F3000.0
G01 X57.63 Y31.86 F3000.0
G01 X57.58 Y31.84 F3000.0
G01 X56.63 Y31.36 F3000.0
G01 X56.2 Y30.7 F3000.0
G01 X55.96 Y29.95 F3000.0
G01 X56.15 Y29.51 F3000.0
G01 X56.67 Y29.25 F3000.0
G01 X57.4 Y29.13 F3000.0
G01 X58.19 Y29.16 F3000.0
G01 X58.87 Y29.34 F3000.0
G01 F3000.0
M5
G00 X54.39 Y29.77 F3000.0
M3 F3000.0
G01 X54.69 Y30.16 F3000.0
G01 X54.61 Y30.28 F3000.0
G01 X54.38 Y30.27 F3000.0
G01 X53.85 Y30.14 F3000.0
G01 X53.61 Y30.03 F3000.0
G01 X53.55 Y29.82 F3000.0
G01 X53.61 Y29.63 F3000.0
G01 X53.78 Y29.56 F3000.0
G01 X54.39 Y29.77 F3000.0
G01 F3000.0
M5
G00 X50.5 Y30.7 F3000.0
M3 F3000.0
G01 X50.45 Y30.92 F3000.0
G01 X50.68 Y31.33 F3000.0
G01 X51.16 Y31.78 F3000.0
G01 X51.35 Y31.77 F3000.0
G01 X51.45 Y31.6 F3000.0
G01 X51.22 Y31.31 F3000.0
G01 X50.84 Y30.87 F3000.0
G01 X50.69 Y30.56 F3000.0
G01 X50.5 Y30.7 F3000.0
G01 F3000.0
M5
G00 X50.06 Y31.57 F3000.0
M3 F3000.0
G01 X50.32 Y32.2 F3000.0
G01 X50.55 Y32.34 F3000.0
G01 X50.76 Y32.28 F3000.0
G01 X50.79 Y32.14 F3000.0
G01 X50.63 Y31.99 F3000.0
G01 X50.38 Y31.62 F3000.0
G01 X50.22 Y31.41 F3000.0
G01 X50.06 Y31.57 F3000.0
G01 F3000.0
M5
G00 X42.91 Y30.58 F3000.0
M3 F3000.0
G01 X42.89 Y31.06 F3000.0
G01 X43.08 Y31.25 F3000.0
G01 X43.21 Y31.14 F3000.0
G01 X43.27 Y30.78 F3000.0
G01 Y30.42 F3000.0
G01 X43.14 Y30.32 F3000.0
G01 X42.91 Y30.58 F3000.0
G01 F3000.0
M5
G00 X42.79 Y29.62 F3000.0
M3 F3000.0
G01 X42.84 Y29.92 F3000.0
G01 X43.09 Y29.91 F3000.0
G01 X43.15 Y29.63 F3000.0
G01 X42.97 Y29.45 F3000.0
G01 X42.79 Y29.62 F3000.0
G01 F3000.0
M5
G00 X42.25 Y31.76 F3000.0
M3 F3000.0
G01 X42.41 Y32.07 F3000.0
G01 X42.63 Y32.38 F3000.0
G01 X42.42 Y32.64 F3000.0
G01 X42.21 Y32.91 F3000.0
G01 X42.42 Y33.05 F3000.0
G01 X42.79 Y32.8 F3000.0
G01 X42.97 Y32.27 F3000.0
G01 X42.88 Y31.94 F3000.0
G01 X42.69 Y31.71 F3000.0
G01 X42.45 Y31.63 F3000.0
G01 X42.25 Y31.76 F3000.0
G01 F3000.0
M5
G00 X41.38 Y32.21 F3000.0
M3 F3000.0
G01 X41.36 Y32.64 F3000.0
G01 X41.52 Y32.91 F3000.0
G01 X41.66 Y32.57 F3000.0
G01 X41.56 Y32.14 F3000.0
G01 X41.47 Y32.1 F3000.0
G01 X41.38 Y32.21 F3000.0
G01 F3000.0
M5
G00 X40.87 Y31.63 F3000.0
M3 F3000.0
G01 X40.62 Y32.29 F3000.0
G01 X40.5 Y32.68 F3000.0
G01 X40.69 Y32.76 F3000.0
G01 X40.94 Y32.5 F3000.0
G01 X41.15 Y32.04 F3000.0
G01 X41.2 Y31.57 F3000.0
G01 X41.04 Y31.23 F3000.0
G01 X40.87 Y31.63 F3000.0
G01 F3000.0
M5
G00 X41.07 Y33.47 F3000.0
M3 F3000.0
G01 X40.9 Y33.97 F3000.0
G01 X40.79 Y34.14 F3000.0
G01 X40.68 Y34.31 F3000.0
G01 X40.84 Y34.53 F3000.0
G01 X40.99 Y34.7 F3000.0
G01 X40.65 Y34.81 F3000.0
G01 X40.26 Y35.04 F3000.0
G01 X40.31 Y35.19 F3000.0
G01 X40.6 Y35.23 F3000.0
G01 X41.13 Y35.07 F3000.0
G01 X41.47 Y34.66 F3000.0
G01 X41.64 Y34.47 F3000.0
G01 X41.82 Y34.57 F3000.0
G01 X42.0 Y34.67 F3000.0
G01 X42.1 Y34.46 F3000.0
G01 X42.2 Y34.25 F3000.0
G01 X42.31 Y33.87 F3000.0
G01 X42.17 Y33.48 F3000.0
G01 X41.95 Y33.72 F3000.0
G01 X41.73 Y33.89 F3000.0
G01 X41.44 Y33.96 F3000.0
G01 X41.35 Y34.0 F3000.0
G01 X41.38 Y33.81 F3000.0
G01 X41.47 Y33.35 F3000.0
G01 X41.37 Y33.19 F3000.0
G01 X41.07 Y33.47 F3000.0
G01 F3000.0
M5
G00 X39.55 Y34.97 F3000.0
M3 F3000.0
G01 X39.48 Y35.5 F3000.0
G01 X39.34 Y36.22 F3000.0
G01 X39.03 Y36.7 F3000.0
G01 X38.93 Y37.06 F3000.0
G01 Y37.35 F3000.0
G01 X38.72 Y37.08 F3000.0
G01 X38.5 Y36.68 F3000.0
G01 X38.37 Y36.48 F3000.0
G01 X38.17 Y36.54 F3000.0
G01 X38.18 Y36.94 F3000.0
G01 Y37.19 F3000.0
G01 X37.97 Y37.62 F3000.0
G01 X37.84 Y38.33 F3000.0
G01 X37.95 Y38.82 F3000.0
G01 X37.91 Y39.31 F3000.0
G01 X37.77 Y39.53 F3000.0
G01 X37.7 Y39.36 F3000.0
G01 X37.62 Y39.19 F3000.0
G01 X37.47 Y39.26 F3000.0
G01 X37.3 Y39.72 F3000.0
G01 X37.35 Y40.0 F3000.0
G01 X37.71 Y39.97 F3000.0
G01 X38.15 Y39.84 F3000.0
G01 X38.21 Y39.48 F3000.0
G01 X38.25 Y39.22 F3000.0
G01 X38.45 Y39.15 F3000.0
G01 X39.08 Y38.98 F3000.0
G01 X39.4 Y38.26 F3000.0
G01 X39.51 Y37.66 F3000.0
G01 X39.41 Y37.4 F3000.0
G01 X39.27 Y37.09 F3000.0
G01 X39.53 Y36.97 F3000.0
G01 X39.81 Y36.81 F3000.0
G01 X39.9 Y36.68 F3000.0
G01 X40.19 Y36.65 F3000.0
G01 X40.49 Y36.6 F3000.0
G01 X40.57 Y36.44 F3000.0
G01 X40.42 Y36.19 F3000.0
G01 X40.0 Y36.1 F3000.0
G01 X39.82 Y36.01 F3000.0
G01 X39.85 Y35.5 F3000.0
G01 X39.87 Y35.03 F3000.0
G01 X39.77 Y34.9 F3000.0
G01 X39.55 Y34.97 F3000.0
G01 F3000.0
M5
G00 X40.38 Y35.57 F3000.0
M3 F3000.0
G01 X40.32 Y35.84 F3000.0
G01 X40.47 Y35.98 F3000.0
G01 X40.7 Y35.96 F3000.0
G01 X40.91 Y35.82 F3000.0
G01 X41.01 Y35.59 F3000.0
G01 X40.76 Y35.45 F3000.0
G01 X40.38 Y35.57 F3000.0
G01 F3000.0
M5
G00 X42.12 Y37.87 F3000.0
M3 F3000.0
G01 X43.04 Y38.25 F3000.0
G01 X43.07 Y38.26 F3000.0
G01 X44.04 Y38.48 F3000.0
G01 X45.04 Y38.72 F3000.0
G01 X45.07 F3000.0
G01 X46.03 Y38.99 F3000.0
G01 X47.0 Y39.26 F3000.0
G01 X47.98 Y39.54 F3000.0
G01 X48.13 Y39.59 F3000.0
G01 X49.24 Y39.94 F3000.0
G01 X50.13 Y40.26 F3000.0
G01 X50.26 Y40.31 F3000.0
G01 X50.34 Y40.2 F3000.0
G01 X50.3 Y39.84 F3000.0
G01 X49.8 Y39.65 F3000.0
G01 X49.39 Y39.53 F3000.0
G01 X48.02 Y39.14 F3000.0
G01 X47.74 Y39.06 F3000.0
G01 X46.77 Y38.79 F3000.0
G01 X45.53 Y38.45 F3000.0
G01 X45.47 Y38.43 F3000.0
G01 X44.49 Y38.21 F3000.0
G01 X43.46 Y37.97 F3000.0
G01 X43.41 Y37.96 F3000.0
G01 X42.39 Y37.75 F3000.0
G01 X42.16 Y37.77 F3000.0
G01 X42.12 Y37.87 F3000.0
G01 F3000.0
M5
G00 X42.66 Y37.37 F3000.0
M3 F3000.0
G01 X42.97 Y37.61 F3000.0
G01 X43.0 F3000.0
G01 X44.0 Y37.85 F3000.0
G01 X44.15 Y37.88 F3000.0
G01 X45.12 Y38.12 F3000.0
G01 X46.24 Y38.39 F3000.0
G01 X46.46 Y38.45 F3000.0
G01 X47.43 Y38.71 F3000.0
G01 X48.61 Y39.04 F3000.0
G01 X48.62 F3000.0
G01 X49.57 Y39.37 F3000.0
G01 X49.62 Y39.18 F3000.0
G01 X49.27 Y38.86 F3000.0
G01 X49.03 Y38.79 F3000.0
G01 X48.07 Y38.52 F3000.0
G01 X47.11 Y38.25 F3000.0
G01 X45.91 Y37.92 F3000.0
G01 X45.68 Y37.86 F3000.0
G01 X44.47 Y37.58 F3000.0
G01 X44.26 Y37.53 F3000.0
G01 X43.07 Y37.23 F3000.0
G01 X42.7 Y37.21 F3000.0
G01 X42.66 Y37.37 F3000.0
G01 F3000.0
M5
G00 X38.93 Y38.17 F3000.0
M3 F3000.0
G01 X38.58 Y38.27 F3000.0
G01 X38.22 Y38.26 F3000.0
G01 X38.55 Y38.17 F3000.0
G01 X38.91 Y38.08 F3000.0
G01 X38.93 Y38.17 F3000.0
G01 F3000.0
M5
G00 X37.05 Y34.16 F3000.0
M3 F3000.0
G01 X36.98 Y34.09 F3000.0
G01 X37.04 Y33.95 F3000.0
G01 X37.05 Y34.16 F3000.0
G01 F3000.0
M5
G00 X36.9 Y33.48 F3000.0
M3 F3000.0
G01 X36.97 Y33.87 F3000.0
G01 X36.81 Y33.48 F3000.0
G01 X36.66 Y32.88 F3000.0
G01 Y32.67 F3000.0
G01 X36.74 Y32.88 F3000.0
G01 X36.9 Y33.48 F3000.0
G01 F3000.0
M5
G00 X36.18 Y32.42 F3000.0
M3 F3000.0
G01 X36.2 Y32.49 F3000.0
G01 X36.44 Y33.46 F3000.0
G01 X36.7 Y34.49 F3000.0
G01 X36.73 Y34.83 F3000.0
G01 X36.65 Y34.9 F3000.0
G01 X36.41 Y34.6 F3000.0
G01 X36.4 Y34.51 F3000.0
G01 X36.21 Y33.53 F3000.0
G01 X36.01 Y32.45 F3000.0
G01 X35.88 Y32.23 F3000.0
G01 X35.76 Y32.36 F3000.0
G01 X35.75 Y32.87 F3000.0
G01 Y33.39 F3000.0
G01 X35.59 Y33.47 F3000.0
G01 X35.38 Y33.28 F3000.0
G01 X35.27 Y32.83 F3000.0
G01 X35.29 Y32.52 F3000.0
G01 X35.35 Y31.2 F3000.0
G01 X35.25 Y30.9 F3000.0
G01 X35.09 Y30.96 F3000.0
G01 X34.98 Y31.26 F3000.0
G01 X34.97 Y31.37 F3000.0
G01 X34.94 Y32.47 F3000.0
G01 Y32.48 F3000.0
G01 X35.0 Y33.48 F3000.0
G01 X34.74 F3000.0
G01 X34.29 Y33.29 F3000.0
G01 X34.17 Y32.83 F3000.0
G01 X34.07 Y32.01 F3000.0
G01 X33.93 Y31.35 F3000.0
G01 X34.01 Y30.99 F3000.0
G01 X34.46 Y30.77 F3000.0
G01 X35.28 Y30.66 F3000.0
G01 X35.72 Y30.65 F3000.0
G01 X35.82 Y31.05 F3000.0
G01 X36.18 Y32.42 F3000.0
M5
G00 X36.46 Y31.9 F3000.0
M3 F3000.0
G01 X36.52 Y32.34 F3000.0
G01 X36.37 Y31.9 F3000.0
G01 X36.22 Y31.19 F3000.0
G01 X36.23 Y30.92 F3000.0
G01 X36.31 Y31.19 F3000.0
G01 X36.46 Y31.9 F3000.0
G01 F3000.0
M5
G00 X36.97 Y31.03 F3000.0
M3 F3000.0
G01 X37.25 Y31.64 F3000.0
G01 X37.34 Y32.06 F3000.0
G01 X37.37 Y32.3 F3000.0
G01 X37.51 Y33.53 F3000.0
G01 X37.52 Y33.58 F3000.0
G01 X37.69 Y34.61 F3000.0
G01 X37.66 Y34.8 F3000.0
G01 X37.56 Y34.76 F3000.0
G01 X37.35 Y33.95 F3000.0
G01 X37.29 Y33.66 F3000.0
G01 X36.99 Y32.39 F3000.0
G01 X36.95 Y32.21 F3000.0
G01 X36.7 Y31.05 F3000.0
G01 X36.73 Y30.54 F3000.0
G01 X36.97 Y31.03 F3000.0
G01 F3000.0
M5
G00 X39.3 Y29.89 F3000.0
M3 F3000.0
G01 Y29.92 F3000.0
G01 X39.59 Y30.9 F3000.0
G01 X39.14 Y31.15 F3000.0
G01 X38.2 Y31.34 F3000.0
G01 X37.45 Y31.26 F3000.0
G01 X37.33 Y31.01 F3000.0
G01 X37.3 Y30.56 F3000.0
G01 X37.44 Y30.03 F3000.0
G01 X37.98 Y29.78 F3000.0
G01 X38.14 Y29.8 F3000.0
G01 X39.3 Y29.89 F3000.0
G01 F3000.0
M5
G00 X38.3 Y27.83 F3000.0
M3 F3000.0
G01 X38.17 Y28.33 F3000.0
G01 X38.33 Y28.69 F3000.0
G01 X38.5 Y28.53 F3000.0
G01 X38.72 Y28.3 F3000.0
G01 X38.88 Y28.19 F3000.0
G01 X38.91 Y27.99 F3000.0
G01 X38.67 Y27.73 F3000.0
G01 X38.3 Y27.83 F3000.0
G01 F3000.0
M5
G00 X39.42 Y26.62 F3000.0
M3 F3000.0
G01 X40.12 Y26.82 F3000.0
G01 X40.46 Y27.04 F3000.0
G01 X40.52 Y27.42 F3000.0
G01 X40.41 Y28.11 F3000.0
G01 X40.36 Y28.29 F3000.0
G01 X40.06 Y29.45 F3000.0
G01 X39.91 Y29.74 F3000.0
G01 X39.8 Y29.6 F3000.0
G01 X39.58 Y29.4 F3000.0
G01 X38.86 Y29.3 F3000.0
G01 X38.7 Y29.31 F3000.0
G01 X37.54 Y29.37 F3000.0
G01 X37.18 Y29.6 F3000.0
G01 X36.96 Y29.97 F3000.0
G01 X36.78 Y30.17 F3000.0
G01 X36.68 Y30.18 F3000.0
G01 X35.68 Y30.25 F3000.0
G01 X34.58 Y30.33 F3000.0
G01 X34.26 Y30.39 F3000.0
G01 X33.27 Y30.57 F3000.0
G01 X31.97 Y30.81 F3000.0
G01 X31.23 Y30.98 F3000.0
G01 X30.97 Y31.08 F3000.0
G01 X30.37 Y31.52 F3000.0
G01 X29.71 Y32.02 F3000.0
G01 X29.59 Y32.45 F3000.0
G01 Y32.61 F3000.0
G01 X29.43 Y32.64 F3000.0
G01 X28.8 Y32.34 F3000.0
G01 X28.2 Y31.96 F3000.0
G01 X27.48 Y32.48 F3000.0
G01 X26.64 Y32.87 F3000.0
G01 X25.88 Y32.79 F3000.0
G01 X25.81 Y32.74 F3000.0
G01 X24.91 Y32.13 F3000.0
G01 X24.86 Y32.09 F3000.0
G01 X24.02 Y31.43 F3000.0
G01 X23.68 Y31.17 F3000.0
G01 X23.88 Y30.85 F3000.0
G01 X23.91 Y30.81 F3000.0
G01 X24.66 Y30.09 F3000.0
G01 X25.36 Y29.51 F3000.0
G01 X25.69 Y29.33 F3000.0
G01 X26.91 Y28.69 F3000.0
G01 X27.82 Y28.31 F3000.0
G01 X28.27 Y28.17 F3000.0
G01 X29.66 Y27.71 F3000.0
G01 X29.73 Y27.69 F3000.0
G01 X30.7 Y27.43 F3000.0
G01 X31.74 Y27.16 F3000.0
G01 F3000.0
G01 X32.72 Y26.95 F3000.0
G01 X33.7 Y26.74 F3000.0
G01 X33.74 Y26.73 F3000.0
G01 X35.72 Y26.48 F3000.0
G01 X36.75 Y26.35 F3000.0
G01 X36.86 Y26.36 F3000.0
G01 X37.96 Y26.39 F3000.0
G01 X38.2 Y26.43 F3000.0
G01 X39.42 Y26.62 F3000.0
G01 F3000.0
M5
G00 X36.03 Y27.66 F3000.0
M3 F3000.0
G01 X35.9 Y27.97 F3000.0
G01 X36.0 Y28.4 F3000.0
G01 X36.17 Y28.75 F3000.0
G01 X36.37 Y28.85 F3000.0
G01 X36.57 Y28.66 F3000.0
G01 X36.71 Y28.47 F3000.0
G01 X36.85 Y28.33 F3000.0
G01 X36.64 Y27.81 F3000.0
G01 X36.33 Y27.4 F3000.0
G01 X36.03 Y27.66 F3000.0
G01 F3000.0
M5
G00 X33.88 Y27.85 F3000.0
M3 F3000.0
G01 X33.99 Y28.58 F3000.0
G01 X34.31 Y29.12 F3000.0
G01 X34.46 Y28.9 F3000.0
G01 X34.63 Y28.69 F3000.0
G01 X34.76 Y28.62 F3000.0
G01 X34.78 Y28.45 F3000.0
G01 X34.49 Y27.98 F3000.0
G01 X34.09 Y27.72 F3000.0
G01 X33.88 Y27.85 F3000.0
G01 F3000.0
M5
G00 X32.09 Y28.53 F3000.0
M3 F3000.0
G01 X32.2 Y28.99 F3000.0
G01 X32.45 Y29.33 F3000.0
G01 X32.74 Y29.61 F3000.0
G01 X32.69 Y29.32 F3000.0
G01 Y29.11 F3000.0
G01 X32.79 Y29.09 F3000.0
G01 X32.9 Y29.06 F3000.0
G01 X32.94 Y28.88 F3000.0
G01 X32.68 Y28.34 F3000.0
G01 X32.22 Y28.03 F3000.0
G01 X32.08 Y28.12 F3000.0
G01 X32.09 Y28.53 F3000.0
G01 F3000.0
M5
G00 X29.95 Y28.87 F3000.0
M3 F3000.0
G01 X29.89 Y29.28 F3000.0
G01 X30.1 Y29.86 F3000.0
G01 X30.49 Y30.21 F3000.0
G01 X30.54 Y30.08 F3000.0
G01 X30.42 Y29.76 F3000.0
G01 X30.36 Y29.6 F3000.0
G01 X30.52 Y29.66 F3000.0
G01 X30.74 Y29.71 F3000.0
G01 X30.81 Y29.6 F3000.0
G01 X30.51 Y29.11 F3000.0
G01 X30.14 Y28.82 F3000.0
G01 X29.95 Y28.87 F3000.0
G01 F3000.0
M5
G00 X28.04 Y29.77 F3000.0
M3 F3000.0
G01 X27.94 Y29.92 F3000.0
G01 X27.97 Y30.15 F3000.0
G01 X28.41 Y30.75 F3000.0
G01 X28.74 Y31.02 F3000.0
G01 X28.92 Y31.0 F3000.0
G01 X28.95 Y30.82 F3000.0
G01 X28.68 Y30.54 F3000.0
G01 X28.39 Y30.26 F3000.0
G01 X28.6 Y30.28 F3000.0
G01 X28.83 F3000.0
G01 X28.91 Y30.17 F3000.0
G01 X28.58 Y29.83 F3000.0
G01 X28.24 Y29.68 F3000.0
G01 X28.04 Y29.77 F3000.0
G01 F3000.0
M5
G00 X25.74 Y31.11 F3000.0
M3 F3000.0
G01 X25.87 Y31.38 F3000.0
G01 X26.27 Y31.71 F3000.0
G01 X26.91 Y32.04 F3000.0
G01 X27.02 Y31.95 F3000.0
G01 X27.05 Y31.68 F3000.0
G01 X26.98 Y31.33 F3000.0
G01 X26.69 Y31.08 F3000.0
G01 X26.04 Y30.87 F3000.0
G01 X25.8 Y30.92 F3000.0
G01 X25.74 Y31.11 F3000.0
G01 F3000.0
M5
G00 X29.02 Y32.94 F3000.0
M3 F3000.0
G01 X29.27 Y33.32 F3000.0
G01 X29.05 Y33.47 F3000.0
G01 X28.76 Y33.17 F3000.0
G01 X28.59 Y32.73 F3000.0
G01 X29.02 Y32.94 F3000.0
G01 F3000.0
M5
G00 X29.98 Y33.05 F3000.0
M3 F3000.0
G01 X29.95 Y33.11 F3000.0
G01 X29.88 Y32.99 F3000.0
G01 X29.79 Y32.67 F3000.0
G01 X29.88 Y32.72 F3000.0
G01 X29.98 Y33.05 F3000.0
G01 F3000.0
M5
G00 X31.15 Y32.53 F3000.0
M3 F3000.0
G01 X31.18 Y32.64 F3000.0
G01 X31.4 Y33.73 F3000.0
G01 X31.52 Y34.69 F3000.0
G01 X31.55 Y35.56 F3000.0
G01 X31.58 Y35.97 F3000.0
G01 X31.85 Y36.6 F3000.0
G01 X32.35 Y37.3 F3000.0
G01 X32.5 Y37.42 F3000.0
G01 X32.39 Y37.46 F3000.0
G01 X31.79 Y37.58 F3000.0
G01 X31.17 Y37.71 F3000.0
G01 X30.79 Y36.92 F3000.0
G01 X30.69 Y36.56 F3000.0
G01 X30.32 Y35.23 F3000.0
G01 X30.29 Y35.1 F3000.0
G01 X30.0 Y34.0 F3000.0
G01 X29.99 Y33.65 F3000.0
G01 X30.16 Y33.89 F3000.0
G01 X30.26 Y34.26 F3000.0
G01 X30.52 Y35.23 F3000.0
G01 X30.87 Y36.57 F3000.0
G01 X31.15 Y37.28 F3000.0
G01 X31.36 Y37.52 F3000.0
G01 X31.5 Y37.45 F3000.0
G01 X31.31 Y36.93 F3000.0
G01 X31.29 Y36.88 F3000.0
G01 X31.01 Y35.92 F3000.0
G01 X30.71 Y34.91 F3000.0
G01 X30.62 Y34.46 F3000.0
G01 X30.32 Y33.03 F3000.0
G01 X30.2 Y32.49 F3000.0
G01 X30.17 Y32.27 F3000.0
G01 X30.38 Y32.01 F3000.0
G01 X30.8 Y31.74 F3000.0
G01 X31.15 Y32.53 F3000.0
G01 F3000.0
M5
G00 X31.72 Y32.72 F3000.0
M3 F3000.0
G01 X31.94 Y33.32 F3000.0
G01 X31.82 Y33.27 F3000.0
G01 X31.49 Y32.52 F3000.0
G01 X31.31 Y31.67 F3000.0
G01 X31.35 Y31.64 F3000.0
G01 X31.43 Y31.85 F3000.0
G01 X31.72 Y32.72 F3000.0
G01 F3000.0
M5
G00 X33.52 Y31.17 F3000.0
M3 F3000.0
G01 X33.55 Y31.34 F3000.0
G01 X33.76 Y32.5 F3000.0
G01 X33.83 Y33.16 F3000.0
G01 X33.8 Y33.38 F3000.0
G01 X33.62 Y33.46 F3000.0
G01 X33.41 Y33.42 F3000.0
G01 X33.37 Y33.05 F3000.0
G01 X33.34 Y32.72 F3000.0
G01 X33.22 Y32.61 F3000.0
G01 X33.08 Y32.66 F3000.0
G01 X33.02 Y32.84 F3000.0
G01 X33.03 Y32.85 F3000.0
G01 X33.17 Y33.86 F3000.0
G01 Y33.9 F3000.0
G01 X33.27 Y34.93 F3000.0
G01 X32.87 Y35.04 F3000.0
G01 X32.62 Y35.02 F3000.0
G01 X32.58 Y34.82 F3000.0
G01 X32.55 Y34.71 F3000.0
G01 X32.29 Y33.63 F3000.0
G01 X32.28 Y33.58 F3000.0
G01 X32.04 Y32.56 F3000.0
G01 X32.08 Y32.15 F3000.0
G01 X32.19 Y31.47 F3000.0
G01 X32.49 Y31.05 F3000.0
G01 X33.06 Y30.99 F3000.0
G01 X33.39 Y31.02 F3000.0
G01 X33.52 Y31.17 F3000.0
G01 F3000.0
M5
G00 X35.13 Y34.2 F3000.0
M3 F3000.0
G01 X35.3 Y34.57 F3000.0
G01 X34.97 Y34.63 F3000.0
G01 X34.1 Y34.58 F3000.0
G01 X33.88 Y34.38 F3000.0
G01 X33.81 Y34.06 F3000.0
G01 X33.89 Y33.86 F3000.0
G01 X34.27 Y33.79 F3000.0
G01 X34.85 Y33.81 F3000.0
G01 X35.13 Y34.2 F3000.0
G01 F3000.0
M5
G00 X35.59 Y33.94 F3000.0
M3 F3000.0
G01 X35.61 Y34.21 F3000.0
G01 X35.45 Y34.2 F3000.0
G01 X35.34 Y33.92 F3000.0
G01 X35.43 Y33.7 F3000.0
G01 X35.59 Y33.94 F3000.0
G01 F3000.0
M5
G00 X33.18 Y36.02 F3000.0
M3 F3000.0
G01 X33.4 Y36.43 F3000.0
G01 X33.29 Y36.62 F3000.0
G01 X32.75 Y36.75 F3000.0
G01 X32.26 Y36.56 F3000.0
G01 X32.05 Y36.21 F3000.0
G01 X32.07 Y35.91 F3000.0
G01 X32.32 Y35.69 F3000.0
G01 X32.77 Y35.57 F3000.0
G01 X33.18 Y36.02 F3000.0
G01 F3000.0
M5
G00 X32.2 Y35.27 F3000.0
M3 F3000.0
G01 X32.04 Y35.23 F3000.0
G01 X31.9 Y34.74 F3000.0
G01 X31.83 Y34.3 F3000.0
G01 X32.04 Y34.74 F3000.0
G01 X32.2 Y35.27 F3000.0
G01 F3000.0
M5
G00 X32.87 Y38.37 F3000.0
M3 F3000.0
G01 X32.86 Y38.7 F3000.0
G01 X32.7 Y38.94 F3000.0
G01 X32.39 Y38.58 F3000.0
G01 X32.17 Y38.09 F3000.0
G01 X32.24 Y38.01 F3000.0
G01 X32.49 Y38.11 F3000.0
G01 X32.87 Y38.37 F3000.0
G01 F3000.0
M5
G00 X32. Y38.6 F3000.0
M3 F3000.0
G01 X32.39 Y39.21 F3000.0
G01 X32.49 Y39.31 F3000.0
G01 X32.43 Y39.41 F3000.0
G01 X31.8 Y39.63 F3000.0
G01 X30.89 Y39.79 F3000.0
G01 X30.42 Y39.49 F3000.0
G01 X30.11 Y39.03 F3000.0
G01 X30.32 Y38.77 F3000.0
G01 X30.54 Y38.56 F3000.0
G01 X30.98 Y38.28 F3000.0
G01 X31.65 Y38.07 F3000.0
G01 X32.0 Y38.6 F3000.0
G01 F3000.0
M5
G00 X34.05 Y39.21 F3000.0
M3 F3000.0
G01 X33.84 Y39.52 F3000.0
G01 X33.81 Y39.94 F3000.0
G01 X33.93 Y40.32 F3000.0
G01 X34.2 Y40.53 F3000.0
G01 X34.46 Y40.69 F3000.0
G01 X34.27 Y40.78 F3000.0
G01 X33.97 Y40.61 F3000.0
G01 X33.8 Y40.47 F3000.0
G01 X33.65 Y40.49 F3000.0
G01 X33.54 Y40.92 F3000.0
G01 X33.59 Y41.28 F3000.0
G01 X33.42 Y40.92 F3000.0
G01 X33.12 Y40.6 F3000.0
G01 X32.25 Y40.41 F3000.0
G01 X31.51 Y40.16 F3000.0
G01 X32.03 Y40.03 F3000.0
G01 X32.9 Y39.68 F3000.0
G01 X33.25 Y39.47 F3000.0
G01 X33.28 Y39.83 F3000.0
G01 X33.5 Y40.22 F3000.0
G01 X33.63 Y40.17 F3000.0
G01 X33.62 Y39.82 F3000.0
G01 X33.68 Y39.24 F3000.0
G01 X34.06 Y39.05 F3000.0
G01 X34.23 Y39.07 F3000.0
G01 X34.05 Y39.21 F3000.0
G01 F3000.0
M5
G00 X34.35 Y39.88 F3000.0
M3 F3000.0
G01 X34.33 Y40.09 F3000.0
G01 X34.23 Y40.06 F3000.0
G01 X34.17 Y39.76 F3000.0
G01 X34.3 Y39.6 F3000.0
G01 X34.35 Y39.88 F3000.0
G01 F3000.0
M5
G00 X35.83 Y41.52 F3000.0
M3 F3000.0
G01 X35.5 Y41.65 F3000.0
G01 X35.36 Y41.87 F3000.0
G01 X35.57 Y42.8 F3000.0
G01 X35.82 Y43.32 F3000.0
G01 X36.14 Y43.34 F3000.0
G01 X36.65 Y43.08 F3000.0
G01 X36.75 Y42.25 F3000.0
G01 Y41.44 F3000.0
G01 X36.4 Y41.46 F3000.0
G01 X35.83 Y41.52 F3000.0
G01 F3000.0
M5
G00 X36.32 Y42.09 F3000.0
M3 F3000.0
G01 X36.04 Y42.23 F3000.0
G01 X35.77 Y42.14 F3000.0
G01 X36.04 Y41.99 F3000.0
G01 X36.32 Y42.09 F3000.0
G01 F3000.0
M5
G00 X36.29 Y42.82 F3000.0
M3 F3000.0
G01 X36.08 Y42.83 F3000.0
G01 X36.14 Y42.76 F3000.0
G01 X36.29 Y42.82 F3000.0
G01 F3000.0
M5
G00 X34.2 Y45.67 F3000.0
M3 F3000.0
G01 X34.49 Y45.98 F3000.0
G01 X35.32 Y46.35 F3000.0
G01 X35.44 Y46.38 F3000.0
G01 X36.42 Y46.59 F3000.0
G01 X37.52 Y46.83 F3000.0
G01 X37.81 Y46.88 F3000.0
G01 X38.8 Y47.06 F3000.0
G01 X40.08 Y47.29 F3000.0
G01 X40.24 Y47.3 F3000.0
G01 X41.39 Y47.42 F3000.0
G01 X41.54 Y47.35 F3000.0
G01 X41.01 Y47.15 F3000.0
G01 X40.81 Y47.1 F3000.0
G01 X39.64 Y46.8 F3000.0
G01 X39.3 Y46.73 F3000.0
G01 X38.32 Y46.53 F3000.0
G01 X37.34 Y46.33 F3000.0
G01 X36.36 Y46.13 F3000.0
G01 X35.04 Y45.87 F3000.0
G01 X34.2 Y45.67 F3000.0
G01 F3000.0
M5
G00 X34.68 Y46.88 F3000.0
M3 F3000.0
G01 X34.82 Y47.09 F3000.0
G01 X35.14 Y47.16 F3000.0
G01 X36.12 Y47.36 F3000.0
G01 X37.42 Y47.64 F3000.0
G01 X37.69 Y47.67 F3000.0
G01 X38.68 Y47.81 F3000.0
G01 X40.66 Y48.08 F3000.0
G01 X41.93 Y48.26 F3000.0
G01 X42.31 Y48.33 F3000.0
G01 X43.3 Y48.52 F3000.0
G01 X44.66 Y48.79 F3000.0
G01 X44.77 Y48.82 F3000.0
G01 X45.86 Y49.09 F3000.0
G01 X46.08 Y49.04 F3000.0
G01 X46.13 Y48.86 F3000.0
G01 X46.01 Y48.7 F3000.0
G01 X45.53 Y48.6 F3000.0
G01 X45.43 Y48.58 F3000.0
G01 X44.36 Y48.32 F3000.0
G01 X44.28 Y48.3 F3000.0
G01 X43.24 Y48.01 F3000.0
G01 X43.09 Y47.99 F3000.0
G01 X41.95 Y47.83 F3000.0
G01 X41.47 Y47.76 F3000.0
G01 X39.99 Y47.55 F3000.0
G01 X39.82 Y47.53 F3000.0
G01 X38.83 Y47.39 F3000.0
G01 X37.68 Y47.22 F3000.0
G01 X37.36 Y47.17 F3000.0
G01 X36.05 Y46.94 F3000.0
G01 X35.14 Y46.79 F3000.0
G01 X34.68 Y46.88 F3000.0
G01 F3000.0
M5
G00 X38.13 Y50.03 F3000.0
M3 F3000.0
G01 X38.0 Y50.63 F3000.0
G01 X37.85 Y51.07 F3000.0
G01 X37.68 Y51.04 F3000.0
G01 X37.34 Y50.93 F3000.0
G01 X37.15 Y50.98 F3000.0
G01 X37.09 Y51.11 F3000.0
G01 X37.38 Y51.43 F3000.0
G01 X37.69 Y51.64 F3000.0
G01 X37.67 Y51.96 F3000.0
G01 X37.57 Y52.16 F3000.0
G01 X37.42 Y52.19 F3000.0
G01 X37.09 Y52.24 F3000.0
G01 X37.01 Y52.5 F3000.0
G01 X37.29 Y52.68 F3000.0
G01 X37.58 Y52.79 F3000.0
G01 X37.93 Y52.84 F3000.0
G01 X38.28 Y52.89 F3000.0
G01 X39.19 Y53.1 F3000.0
G01 X40.16 Y53.15 F3000.0
G01 X40.24 Y52.7 F3000.0
G01 X40.33 Y52.17 F3000.0
G01 X40.44 Y52.64 F3000.0
G01 X40.52 Y53.34 F3000.0
G01 X40.93 Y53.44 F3000.0
G01 X41.43 Y53.34 F3000.0
G01 X41.49 Y53.12 F3000.0
G01 X41.16 Y53.0 F3000.0
G01 X40.91 Y52.91 F3000.0
G01 X41.17 Y52.7 F3000.0
G01 X41.44 Y52.46 F3000.0
G01 X41.6 Y52.35 F3000.0
G01 X41.73 Y52.44 F3000.0
G01 X41.77 Y52.73 F3000.0
G01 X41.94 Y53.19 F3000.0
G01 X42.51 Y53.33 F3000.0
G01 X42.95 Y53.16 F3000.0
G01 X43.09 Y52.46 F3000.0
G01 Y51.98 F3000.0
G01 X42.97 Y51.86 F3000.0
G01 X42.83 Y51.98 F3000.0
G01 X42.77 Y52.38 F3000.0
G01 X42.7 Y52.81 F3000.0
G01 X42.47 Y52.89 F3000.0
G01 X42.29 Y52.86 F3000.0
G01 X42.21 Y52.72 F3000.0
G01 X42.38 Y52.01 F3000.0
G01 X42.56 Y51.51 F3000.0
G01 X43.16 Y51.65 F3000.0
G01 X43.86 Y51.89 F3000.0
G01 X43.56 Y52.84 F3000.0
G01 X43.25 Y53.74 F3000.0
G01 X43.28 Y53.94 F3000.0
G01 X43.43 Y53.96 F3000.0
G01 X43.76 Y54.22 F3000.0
G01 X44.12 Y54.52 F3000.0
G01 X44.45 Y54.4 F3000.0
G01 X44.33 Y54.14 F3000.0
G01 X44.24 Y54.03 F3000.0
G01 X44.52 Y54.06 F3000.0
G01 X44.84 Y54.05 F3000.0
G01 X45.06 Y53.87 F3000.0
G01 X45.07 Y53.82 F3000.0
G01 X45.36 Y52.81 F3000.0
G01 X45.57 Y52.02 F3000.0
G01 X45.8 Y52.12 F3000.0
G01 X45.93 Y52.35 F3000.0
G01 X45.95 Y52.62 F3000.0
G01 X45.82 Y52.85 F3000.0
G01 X45.61 Y53.47 F3000.0
G01 X45.41 Y53.99 F3000.0
G01 X45.26 Y54.2 F3000.0
G01 X45.47 Y54.42 F3000.0
G01 X45.75 Y54.64 F3000.0
G01 X46.03 Y54.97 F3000.0
G01 X46.43 Y55.03 F3000.0
G01 X46.53 Y54.94 F3000.0
G01 X46.4 Y54.75 F3000.0
G01 X46.27 Y54.56 F3000.0
G01 X46.49 Y54.53 F3000.0
G01 X46.83 Y54.42 F3000.0
G01 X46.8 Y54.18 F3000.0
G01 X46.83 Y53.94 F3000.0
G01 X47.06 Y53.46 F3000.0
G01 X46.95 Y52.97 F3000.0
G01 X46.79 Y52.75 F3000.0
G01 X46.94 Y52.74 F3000.0
G01 X47.23 Y52.73 F3000.0
G01 X47.21 Y52.5 F3000.0
G01 X47.16 Y52.38 F3000.0
G01 X47.32 Y52.35 F3000.0
G01 X47.55 Y52.44 F3000.0
G01 X47.52 Y52.51 F3000.0
G01 X47.19 Y53.53 F3000.0
G01 X47.2 Y53.99 F3000.0
G01 X47.33 Y54.37 F3000.0
G01 X47.47 Y54.5 F3000.0
G01 X47.6 Y54.26 F3000.0
G01 X47.84 Y53.98 F3000.0
G01 X48.22 Y53.65 F3000.0
G01 X48.48 Y53.09 F3000.0
G01 X48.68 Y52.81 F3000.0
G01 X49.12 Y52.88 F3000.0
G01 X49.26 Y52.96 F3000.0
G01 X49.15 Y53.03 F3000.0
G01 X48.84 Y53.54 F3000.0
G01 X48.57 Y54.11 F3000.0
G01 X48.48 Y54.26 F3000.0
G01 X48.58 Y54.51 F3000.0
G01 X49.0 Y55.04 F3000.0
G01 X49.5 Y55.13 F3000.0
G01 X49.78 Y55.01 F3000.0
G01 X49.84 Y54.74 F3000.0
G01 X49.87 Y54.49 F3000.0
G01 X50.05 Y54.53 F3000.0
G01 X50.45 Y54.63 F3000.0
G01 X50.6 Y54.44 F3000.0
G01 X50.32 Y54.11 F3000.0
G01 X50.11 Y53.88 F3000.0
G01 X50.4 Y53.77 F3000.0
G01 X50.81 Y53.89 F3000.0
G01 X51.18 Y53.94 F3000.0
G01 X51.36 Y53.66 F3000.0
G01 X51.41 Y53.5 F3000.0
G01 X51.64 Y53.55 F3000.0
G01 X52.24 Y53.65 F3000.0
G01 X52.62 Y53.54 F3000.0
G01 X52.57 Y53.34 F3000.0
G01 X51.91 Y53.21 F3000.0
G01 X51.9 Y53.2 F3000.0
G01 X50.94 Y52.96 F3000.0
G01 X49.97 Y52.71 F3000.0
G01 X48.99 Y52.46 F3000.0
G01 X48.67 Y52.38 F3000.0
G01 X47.69 Y52.16 F3000.0
G01 X46.72 Y51.94 F3000.0
G01 X45.42 Y51.65 F3000.0
G01 X45.23 Y51.61 F3000.0
G01 X44.24 Y51.43 F3000.0
G01 X43.26 Y51.25 F3000.0
G01 X42.08 Y51.04 F3000.0
G01 X41.83 Y50.96 F3000.0
G01 X40.88 Y50.65 F3000.0
G01 X39.67 Y50.27 F3000.0
G01 X39.31 F3000.0
G01 X39.27 Y50.39 F3000.0
G01 X39.38 Y50.52 F3000.0
G01 X39.5 Y50.68 F3000.0
G01 X39.34 Y51.01 F3000.0
G01 X38.95 Y51.35 F3000.0
G01 X38.62 Y51.41 F3000.0
G01 X38.46 Y51.46 F3000.0
G01 X38.36 Y51.36 F3000.0
G01 X38.4 Y50.74 F3000.0
G01 X38.47 Y50.08 F3000.0
G01 X38.29 Y49.84 F3000.0
G01 X38.13 Y50.03 F3000.0
G01 F3000.0
M5
G00 X38.45 Y51.98 F3000.0
M3 F3000.0
G01 X38.39 Y52.25 F3000.0
G01 X38.22 Y52.35 F3000.0
G01 X38.06 Y52.08 F3000.0
G01 X38.11 Y51.86 F3000.0
G01 X38.29 Y51.8 F3000.0
G01 X38.45 Y51.84 F3000.0
G01 Y51.98 F3000.0
G01 F3000.0
M5
G00 X39.77 Y52.49 F3000.0
M3 F3000.0
G01 X39.71 Y52.35 F3000.0
G01 X39.77 Y52.21 F3000.0
G01 Y52.49 F3000.0
G01 F3000.0
M5
G00 X41.08 Y52.2 F3000.0
M3 F3000.0
G01 X40.88 Y52.21 F3000.0
G01 X40.94 Y52.14 F3000.0
G01 X41.08 Y52.2 F3000.0
G01 F3000.0
M5
G00 X40.6 Y50.97 F3000.0
M3 F3000.0
G01 X41.52 Y51.25 F3000.0
G01 X42.09 Y51.46 F3000.0
G01 X42.03 Y51.77 F3000.0
G01 X41.92 Y51.95 F3000.0
G01 X41.54 Y51.81 F3000.0
G01 X40.96 Y51.42 F3000.0
G01 X40.81 Y51.28 F3000.0
G01 X40.63 Y51.36 F3000.0
G01 X40.46 Y51.65 F3000.0
G01 X40.39 Y51.74 F3000.0
G01 X40.12 Y51.69 F3000.0
G01 X39.73 Y51.52 F3000.0
G01 X39.8 Y51.15 F3000.0
G01 X40.07 Y50.84 F3000.0
G01 X40.6 Y50.97 F3000.0
G01 F3000.0
M5
G00 X41.99 Y47.55 F3000.0
M3 F3000.0
G01 X42.34 Y47.66 F3000.0
G01 X42.48 Y47.55 F3000.0
G01 X42.12 Y47.44 F3000.0
G01 X41.92 Y47.47 F3000.0
G01 X41.99 Y47.55 F3000.0
G01 F3000.0
M5
G00 X42.86 Y43.24 F3000.0
M3 F3000.0
G01 X43.05 Y43.5 F3000.0
G01 X43.1 Y43.51 F3000.0
G01 X44.07 Y43.75 F3000.0
G01 X45.04 Y43.98 F3000.0
G01 X46.06 Y44.22 F3000.0
G01 X46.25 Y44.27 F3000.0
G01 X47.42 Y44.52 F3000.0
G01 X47.56 Y44.64 F3000.0
G01 X47.0 Y44.76 F3000.0
G01 X46.46 Y44.89 F3000.0
G01 X46.29 Y45.04 F3000.0
G01 X46.43 Y45.17 F3000.0
G01 X47.0 F3000.0
G01 X47.89 Y45.08 F3000.0
G01 X48.42 Y44.89 F3000.0
G01 X48.61 Y44.61 F3000.0
G01 X48.48 Y44.21 F3000.0
G01 X47.98 Y43.75 F3000.0
G01 X47.49 Y43.55 F3000.0
G01 X47.36 Y43.77 F3000.0
G01 X47.56 Y43.99 F3000.0
G01 X47.75 Y44.12 F3000.0
G01 X46.83 Y43.97 F3000.0
G01 X46.4 Y43.89 F3000.0
G01 X45.0 Y43.63 F3000.0
G01 X44.72 Y43.57 F3000.0
G01 X43.47 Y43.29 F3000.0
G01 X42.91 Y43.1 F3000.0
G01 X42.86 Y43.24 F3000.0
G01 F3000.0
M5
G00 X51.69 Y39.7 F3000.0
M3 F3000.0
G01 X51.32 Y40.27 F3000.0
G01 X51.15 Y40.87 F3000.0
G01 X51.12 Y40.94 F3000.0
G01 X50.73 Y41.94 F3000.0
G01 X50.61 Y42.21 F3000.0
G01 X50.11 Y43.41 F3000.0
G01 Y43.42 F3000.0
G01 X49.72 Y44.34 F3000.0
G01 X49.67 Y44.43 F3000.0
G01 X49.17 Y45.29 F3000.0
G01 X48.61 Y46.24 F3000.0
G01 X48.5 Y46.44 F3000.0
G01 X47.99 Y47.3 F3000.0
G01 X47.37 Y48.36 F3000.0
G01 X47.31 Y48.46 F3000.0
G01 X46.75 Y49.43 F3000.0
G01 X46.68 Y49.89 F3000.0
G01 X47.26 Y50.16 F3000.0
G01 X47.32 Y50.17 F3000.0
G01 X48.36 Y50.43 F3000.0
G01 X48.71 Y50.49 F3000.0
G01 X50.05 Y50.72 F3000.0
G01 X50.39 Y50.78 F3000.0
G01 X51.37 Y50.97 F3000.0
G01 X52.69 Y51.21 F3000.0
G01 X53.02 Y51.29 F3000.0
G01 X54.97 Y51.77 F3000.0
G01 X56.27 Y52.08 F3000.0
G01 X56.28 Y52.09 F3000.0
G01 X57.26 Y52.29 F3000.0
G01 X58.26 Y52.49 F3000.0
G01 X58.77 Y52.51 F3000.0
G01 X58.84 Y53.21 F3000.0
G01 X59.0 Y54.2 F3000.0
G01 X59.08 Y54.4 F3000.0
G01 X59.11 Y54.15 F3000.0
G01 Y54.05 F3000.0
G01 Y52.95 F3000.0
G01 X59.16 Y52.08 F3000.0
G01 X59.48 Y51.25 F3000.0
G01 X59.89 Y50.52 F3000.0
G01 X60.35 Y49.97 F3000.0
G01 X60.89 Y49.55 F3000.0
G01 X61.38 Y49.63 F3000.0
G01 X61.64 Y49.79 F3000.0
G01 X61.75 Y50.04 F3000.0
G01 X61.96 Y50.36 F3000.0
G01 X62.11 Y50.3 F3000.0
G01 X62.18 Y49.95 F3000.0
G01 X62.15 Y49.44 F3000.0
G01 X61.74 Y49.23 F3000.0
G01 X61.26 Y48.95 F3000.0
G01 Y48.51 F3000.0
G01 X61.5 Y47.82 F3000.0
G01 X61.89 Y47.12 F3000.0
G01 X62.16 Y46.57 F3000.0
G01 X62.49 Y45.82 F3000.0
G01 X62.82 Y45.16 F3000.0
G01 X62.5 Y44.69 F3000.0
G01 X61.99 Y44.39 F3000.0
G01 X61.97 Y44.38 F3000.0
G01 X61.01 Y44.01 F3000.0
G01 X60.95 Y43.99 F3000.0
G01 X59.96 Y43.63 F3000.0
G01 X59.44 Y43.79 F3000.0
G01 X59.11 Y44.06 F3000.0
G01 X58.84 Y44.55 F3000.0
G01 X58.83 Y44.59 F3000.0
G01 X58.45 Y45.57 F3000.0
G01 X58.06 Y46.46 F3000.0
G01 X57.84 Y46.85 F3000.0
G01 X57.7 Y47.5 F3000.0
G01 X57.58 Y48.34 F3000.0
G01 X57.94 Y48.43 F3000.0
G01 X57.95 F3000.0
G01 X58.94 Y48.68 F3000.0
G01 X59.49 Y48.95 F3000.0
G01 X59.68 Y49.28 F3000.0
G01 X59.89 Y49.62 F3000.0
G01 X59.84 Y49.82 F3000.0
G01 X59.73 Y50.03 F3000.0
G01 X59.28 Y50.92 F3000.0
G01 X58.73 Y52.02 F3000.0
G01 X57.99 F3000.0
G01 X57.97 Y52.01 F3000.0
G01 X56.99 Y51.8 F3000.0
G01 X56.0 Y51.59 F3000.0
G01 X55.9 Y51.57 F3000.0
G01 X53.96 Y51.09 F3000.0
G01 X52.99 Y50.85 F3000.0
G01 X51.92 Y50.59 F3000.0
G01 X51.51 Y50.52 F3000.0
G01 X50.1 Y50.28 F3000.0
G01 X50.09 F3000.0
G01 X49.12 Y50.08 F3000.0
G01 X48.13 Y49.88 F3000.0
G01 X48.11 Y49.87 F3000.0
G01 X47.13 Y49.6 F3000.0
G01 X47.52 Y48.87 F3000.0
G01 X47.57 Y48.79 F3000.0
G01 X48.08 Y47.93 F3000.0
G01 X49.1 Y46.21 F3000.0
G01 X49.66 Y45.26 F3000.0
G01 X49.79 Y45.0 F3000.0
G01 X50.35 Y43.84 F3000.0
G01 X50.47 Y43.57 F3000.0
G01 X50.99 Y42.37 F3000.0
G01 X51.08 Y42.16 F3000.0
G01 X51.54 Y41.02 F3000.0
G01 X51.86 Y40.26 F3000.0
G01 X52.1 Y39.98 F3000.0
G01 X52.8 Y40.26 F3000.0
G01 X52.85 Y40.28 F3000.0
G01 X53.85 Y40.57 F3000.0
G01 X54.17 Y40.6 F3000.0
G01 X55.49 Y40.74 F3000.0
G01 X55.65 Y40.76 F3000.0
G01 X56.79 Y40.95 F3000.0
G01 X57.01 Y41.03 F3000.0
G01 X58.18 Y41.44 F3000.0
G01 X58.51 Y41.57 F3000.0
G01 X59.76 Y42.06 F3000.0
G01 X59.95 Y42.14 F3000.0
G01 X60.88 Y42.52 F3000.0
G01 X62.0 Y42.98 F3000.0
G01 X62.14 Y43.04 F3000.0
G01 X63.2 Y43.48 F3000.0
G01 X63.41 F3000.0
G01 X63.5 Y43.37 F3000.0
G01 X63.44 Y43.1 F3000.0
G01 X63.16 Y42.97 F3000.0
G01 X63.05 Y42.93 F3000.0
G01 X62.01 Y42.52 F3000.0
G01 F3000.0
G01 X61.08 Y42.14 F3000.0
G01 X60.14 Y41.76 F3000.0
G01 X59.99 Y41.7 F3000.0
G01 X59.05 Y41.35 F3000.0
G01 X57.96 Y40.94 F3000.0
G01 X57.78 Y40.88 F3000.0
G01 X56.65 Y40.5 F3000.0
G01 X56.5 Y40.48 F3000.0
G01 X55.35 Y40.35 F3000.0
G01 X55.23 Y40.34 F3000.0
G01 X54.13 Y40.22 F3000.0
G01 X53.22 Y39.94 F3000.0
G01 X53.12 Y39.91 F3000.0
G01 X52.09 Y39.54 F3000.0
G01 X51.86 Y39.56 F3000.0
G01 X51.69 Y39.7 F3000.0
G01 F3000.0
M5
G00 X54.64 Y43.12 F3000.0
M3 F3000.0
G01 X54.43 Y43.45 F3000.0
G01 X54.33 Y43.6 F3000.0
G01 X53.65 Y44.57 F3000.0
G01 X53.6 Y44.67 F3000.0
G01 X53.16 Y45.57 F3000.0
G01 X52.66 Y46.57 F3000.0
G01 X52.61 Y46.68 F3000.0
G01 X52.11 Y47.69 F3000.0
G01 X51.89 Y48.13 F3000.0
G01 X51.97 Y48.28 F3000.0
G01 X52.09 Y48.32 F3000.0
G01 X52.19 Y48.24 F3000.0
G01 X52.21 Y48.21 F3000.0
G01 X52.67 Y47.28 F3000.0
G01 X52.84 Y46.94 F3000.0
G01 X53.28 Y46.04 F3000.0
G01 X53.89 Y44.8 F3000.0
G01 X53.96 Y44.69 F3000.0
G01 X54.59 Y43.76 F3000.0
G01 X55.03 Y43.02 F3000.0
G01 X54.84 Y42.87 F3000.0
G01 X54.64 Y43.12 F3000.0
G01 F3000.0
M5
G00 X56.17 Y43.36 F3000.0
M3 F3000.0
G01 X55.95 Y43.83 F3000.0
G01 X55.56 Y44.5 F3000.0
G01 X55.35 Y44.92 F3000.0
G01 X54.9 Y45.81 F3000.0
G01 X54.44 Y46.71 F3000.0
G01 X53.99 Y47.6 F3000.0
G01 X53.33 Y48.91 F3000.0
G01 X53.45 Y49.13 F3000.0
G01 X53.66 Y48.91 F3000.0
G01 X53.84 Y48.55 F3000.0
G01 X54.3 Y47.66 F3000.0
G01 X54.76 Y46.77 F3000.0
G01 X55.21 Y45.88 F3000.0
G01 X55.85 Y44.63 F3000.0
G01 X56.4 Y43.82 F3000.0
G01 X56.59 Y43.34 F3000.0
G01 X56.5 Y43.03 F3000.0
G01 X56.17 Y43.36 F3000.0
G01 F3000.0
M5
G00 X57.06 Y44.09 F3000.0
M3 F3000.0
G01 X56.99 Y44.21 F3000.0
G01 X56.44 Y45.21 F3000.0
G01 X56.3 Y45.44 F3000.0
G01 X55.66 Y46.53 F3000.0
G01 X55.2 Y47.4 F3000.0
G01 X55.16 Y47.5 F3000.0
G01 X54.75 Y48.52 F3000.0
G01 X54.58 Y49.28 F3000.0
G01 X54.66 Y49.37 F3000.0
G01 X54.77 Y49.27 F3000.0
G01 X54.78 Y49.25 F3000.0
G01 X55.18 Y48.31 F3000.0
G01 X55.4 Y47.88 F3000.0
G01 X56.06 Y46.55 F3000.0
G01 X56.08 Y46.53 F3000.0
G01 X56.6 Y45.65 F3000.0
G01 X57.03 Y44.87 F3000.0
G01 X57.39 Y44.16 F3000.0
G01 X57.38 Y44.0 F3000.0
G01 X57.26 Y43.95 F3000.0
G01 X57.06 Y44.09 F3000.0
G01 F3000.0
M5
G00 X60.69 Y44.32 F3000.0
M3 F3000.0
G01 X61.02 Y44.46 F3000.0
G01 X60.67 Y44.53 F3000.0
G01 X60.28 Y44.73 F3000.0
G01 X60.12 Y45.07 F3000.0
G01 X60.2 Y45.45 F3000.0
G01 X60.54 Y45.76 F3000.0
G01 X61.03 Y45.87 F3000.0
G01 X61.35 Y45.41 F3000.0
G01 X61.46 Y44.86 F3000.0
G01 X61.62 Y44.77 F3000.0
G01 X62.13 Y45.0 F3000.0
G01 X62.36 Y45.28 F3000.0
G01 X62.11 Y45.78 F3000.0
G01 X61.83 Y46.43 F3000.0
G01 X61.75 Y46.68 F3000.0
G01 X61.53 Y46.59 F3000.0
G01 X60.61 Y46.21 F3000.0
G01 X59.46 Y45.74 F3000.0
G01 X59.05 Y45.53 F3000.0
G01 X58.9 Y45.32 F3000.0
G01 X59.38 Y44.56 F3000.0
G01 X59.95 Y44.18 F3000.0
G01 X60.69 Y44.32 F3000.0
G01 F3000.0
M5
G00 X61.02 Y45.15 F3000.0
M3 F3000.0
G01 X60.82 Y45.35 F3000.0
G01 X60.5 Y45.28 F3000.0
G01 X60.47 Y45.05 F3000.0
G01 X60.78 Y44.96 F3000.0
G01 X61.02 Y45.15 F3000.0
G01 F3000.0
M5
G00 X60.03 Y46.47 F3000.0
M3 F3000.0
G01 X60.17 Y46.53 F3000.0
G01 X61.23 Y46.99 F3000.0
G01 X61.12 Y47.5 F3000.0
G01 X60.97 Y47.93 F3000.0
G01 Y47.59 F3000.0
G01 X60.82 Y47.15 F3000.0
G01 X60.23 Y46.96 F3000.0
G01 X59.89 Y46.94 F3000.0
G01 X59.68 Y47.07 F3000.0
G01 X59.54 Y47.87 F3000.0
G01 X59.52 Y48.24 F3000.0
G01 X59.41 Y48.4 F3000.0
G01 X58.62 Y48.22 F3000.0
G01 X58.16 Y48.0 F3000.0
G01 X58.04 Y47.71 F3000.0
G01 X58.2 Y47.05 F3000.0
G01 X58.26 Y46.96 F3000.0
G01 X58.86 Y46.02 F3000.0
G01 X58.97 Y46.07 F3000.0
G01 X60.03 Y46.47 F3000.0
G01 F3000.0
M5
G00 X60.52 Y48.12 F3000.0
M3 F3000.0
G01 X60.78 Y48.96 F3000.0
G01 X60.54 Y49.23 F3000.0
G01 X60.26 Y49.31 F3000.0
G01 X60.11 Y48.9 F3000.0
G01 X59.99 Y48.21 F3000.0
G01 X60.05 Y47.84 F3000.0
G01 X60.3 Y47.8 F3000.0
G01 X60.52 Y48.12 F3000.0
G01 F3000.0
M5
G00 X61.25 Y50.44 F3000.0
M3 F3000.0
G01 X61.09 Y50.73 F3000.0
G01 X61.3 Y51.43 F3000.0
G01 X61.47 Y52.13 F3000.0
G01 X61.46 Y53.03 F3000.0
G01 X61.47 Y53.81 F3000.0
G01 X61.59 Y53.99 F3000.0
G01 X61.75 Y53.63 F3000.0
G01 X61.9 Y52.75 F3000.0
G01 X61.92 Y52.13 F3000.0
G01 X61.78 Y51.7 F3000.0
G01 X61.63 Y50.85 F3000.0
G01 X61.56 Y50.33 F3000.0
G01 X61.25 Y50.44 F3000.0
G01 F3000.0
M5
G00 X63.42 Y47.8 F3000.0
M3 F3000.0
G01 X63.08 Y48.7 F3000.0
G01 X63.05 Y48.77 F3000.0
G01 X62.7 Y49.79 F3000.0
G01 X62.72 Y50.06 F3000.0
G01 X62.77 Y49.97 F3000.0
G01 X63.32 Y49.01 F3000.0
G01 X63.37 Y48.88 F3000.0
G01 X63.76 Y47.82 F3000.0
G01 X63.58 Y47.66 F3000.0
G01 X63.42 Y47.8 F3000.0
G01 F3000.0
M5
G00 X63.09 Y44.31 F3000.0
M3 F3000.0
G01 Y44.33 F3000.0
G01 X62.99 Y45.34 F3000.0
G01 X62.9 Y45.83 F3000.0
G01 X62.64 Y47.3 F3000.0
G01 X62.59 Y47.51 F3000.0
G01 X62.31 Y48.69 F3000.0
G01 X62.36 Y49.08 F3000.0
G01 X62.74 Y48.18 F3000.0
G01 X62.81 Y47.96 F3000.0
G01 X63.15 Y46.79 F3000.0
G01 X63.3 Y46.3 F3000.0
G01 X63.35 Y46.73 F3000.0
G01 X63.55 Y47.16 F3000.0
G01 X63.87 Y47.08 F3000.0
G01 X63.88 Y46.76 F3000.0
G01 X63.65 Y45.97 F3000.0
G01 X63.64 Y45.94 F3000.0
G01 X63.47 Y44.92 F3000.0
G01 X63.43 Y44.43 F3000.0
G01 X63.3 Y44.24 F3000.0
G01 X63.09 Y44.31 F3000.0
G01 F3000.0
M5
G00 X70.4 Y42.56 F3000.0
M3 F3000.0
G01 X70.38 Y42.98 F3000.0
G01 X70.31 Y44.39 F3000.0
G01 X70.27 Y44.83 F3000.0
G01 X70.16 Y46.27 F3000.0
G01 X70.04 Y46.62 F3000.0
G01 X69.9 Y46.52 F3000.0
G01 X69.8 Y45.92 F3000.0
G01 X69.7 Y45.4 F3000.0
G01 X69.47 Y45.32 F3000.0
G01 X69.39 Y45.91 F3000.0
G01 X69.64 Y46.82 F3000.0
G01 X70.0 Y47.21 F3000.0
G01 X70.33 Y47.02 F3000.0
G01 X70.34 Y46.97 F3000.0
G01 X70.56 Y45.95 F3000.0
G01 Y45.94 F3000.0
G01 X70.64 Y44.94 F3000.0
G01 X70.71 Y43.94 F3000.0
G01 Y43.87 F3000.0
G01 X70.73 Y42.8 F3000.0
G01 X70.61 Y42.49 F3000.0
G01 X70.4 Y42.56 F3000.0
G01 F3000.0
M5
G00 X71.61 Y42.38 F3000.0
M3 F3000.0
G01 X71.55 Y42.96 F3000.0
G01 X71.69 Y43.4 F3000.0
G01 X71.9 Y43.41 F3000.0
G01 X71.94 Y42.82 F3000.0
G01 X71.81 Y42.27 F3000.0
G01 X71.71 Y42.23 F3000.0
G01 X71.61 Y42.38 F3000.0
G01 F3000.0
M5
G00 X72.44 Y42.01 F3000.0
M3 F3000.0
G01 X72.32 Y42.23 F3000.0
G01 X72.34 Y42.48 F3000.0
G01 X72.48 Y42.67 F3000.0
G01 X72.71 Y42.75 F3000.0
G01 X72.84 Y42.5 F3000.0
G01 X72.71 Y42.06 F3000.0
G01 X72.57 Y41.94 F3000.0
G01 X72.44 Y42.01 F3000.0
G01 F3000.0
M5
G00 X73.22 Y41.28 F3000.0
M3 F3000.0
G01 X73.21 Y42.08 F3000.0
G01 X73.4 Y42.82 F3000.0
G01 X73.54 Y42.92 F3000.0
G01 X73.62 Y42.83 F3000.0
G01 Y42.0 F3000.0
G01 X73.45 Y41.19 F3000.0
G01 X73.33 Y41.11 F3000.0
G01 X73.22 Y41.28 F3000.0
G01 F3000.0
M5
G00 X74.07 Y41.25 F3000.0
M3 F3000.0
G01 X73.94 Y41.56 F3000.0
G01 X74.04 Y41.82 F3000.0
G01 X74.31 Y41.7 F3000.0
G01 X74.48 Y41.33 F3000.0
G01 X74.35 Y41.12 F3000.0
G01 X74.07 Y41.25 F3000.0
G01 F3000.0
M5
G00 X75.9 Y44.17 F3000.0
M3 F3000.0
G01 X75.44 Y44.28 F3000.0
G01 X75.18 Y44.34 F3000.0
G01 X75.02 Y44.54 F3000.0
G01 X74.98 Y45.43 F3000.0
G01 X75.01 Y46.0 F3000.0
G01 X74.9 Y46.13 F3000.0
G01 X74.43 Y46.48 F3000.0
G01 X74.05 Y47.2 F3000.0
G01 X73.99 Y47.67 F3000.0
G01 X74.14 Y48.15 F3000.0
G01 X74.16 Y48.24 F3000.0
G01 X74.36 Y49.3 F3000.0
G01 X74.33 Y49.53 F3000.0
G01 X74.16 Y50.74 F3000.0
G01 X73.92 Y51.59 F3000.0
G01 X74.31 Y52.29 F3000.0
G01 X74.39 Y52.46 F3000.0
G01 X74.87 Y53.54 F3000.0
G01 Y53.56 F3000.0
G01 X75.14 Y54.56 F3000.0
G01 X75.3 Y54.75 F3000.0
G01 X75.44 Y54.55 F3000.0
G01 X75.37 Y54.0 F3000.0
G01 X75.22 Y53.62 F3000.0
G01 X74.69 Y52.3 F3000.0
G01 X74.42 Y51.68 F3000.0
G01 Y51.11 F3000.0
G01 X74.65 Y50.19 F3000.0
G01 X74.8 Y49.29 F3000.0
G01 X74.79 Y49.25 F3000.0
G01 X74.59 Y48.23 F3000.0
G01 X74.39 Y47.49 F3000.0
G01 X74.54 Y46.95 F3000.0
G01 X74.76 Y46.66 F3000.0
G01 X75.06 Y46.5 F3000.0
G01 X75.31 Y46.37 F3000.0
G01 X75.44 Y46.14 F3000.0
G01 X75.36 Y45.28 F3000.0
G01 Y44.73 F3000.0
G01 X75.98 Y44.61 F3000.0
G01 X76.36 Y44.56 F3000.0
G01 X76.55 Y44.4 F3000.0
G01 X76.59 Y44.13 F3000.0
G01 X76.28 Y44.07 F3000.0
G01 X75.9 Y44.17 F3000.0
G01 F3000.0
M5
G00 X77.51 Y44.39 F3000.0
M3 F3000.0
G01 X77.32 Y44.69 F3000.0
G01 X77.76 Y44.82 F3000.0
G01 X78.21 Y44.92 F3000.0
G01 X78.71 Y45.38 F3000.0
G01 X79.22 Y45.93 F3000.0
G01 X79.23 F3000.0
G01 X80.23 Y45.9 F3000.0
G01 X80.24 F3000.0
G01 X81.25 F3000.0
G01 X81.03 Y46.24 F3000.0
G01 X80.76 Y46.83 F3000.0
G01 X80.78 Y47.29 F3000.0
G01 X81.05 Y47.47 F3000.0
G01 X82.17 Y48.18 F3000.0
G01 X82.42 Y48.33 F3000.0
G01 X82.3 Y48.48 F3000.0
G01 X81.54 Y48.7 F3000.0
G01 X81.53 F3000.0
G01 X80.57 Y48.98 F3000.0
G01 X79.94 Y49.17 F3000.0
G01 X79.47 Y48.85 F3000.0
G01 X79.18 Y48.59 F3000.0
G01 X78.91 Y48.57 F3000.0
G01 X78.7 Y48.58 F3000.0
G01 X78.58 Y48.46 F3000.0
G01 X78.24 Y48.34 F3000.0
G01 X77.98 Y48.3 F3000.0
G01 X77.76 Y47.92 F3000.0
G01 X77.31 Y47.39 F3000.0
G01 X77.03 Y47.36 F3000.0
G01 X76.72 Y47.49 F3000.0
G01 X76.45 Y47.94 F3000.0
G01 X76.64 Y48.64 F3000.0
G01 X76.77 Y49.0 F3000.0
G01 X76.61 Y49.2 F3000.0
G01 X76.45 Y49.39 F3000.0
G01 X76.61 Y49.63 F3000.0
G01 X77.25 Y50.06 F3000.0
G01 X77.67 Y50.25 F3000.0
G01 X77.39 Y50.44 F3000.0
G01 X77.11 Y50.8 F3000.0
G01 X77.15 Y51.04 F3000.0
G01 X77.74 Y50.66 F3000.0
G01 X78.19 Y50.17 F3000.0
G01 X78.05 Y49.94 F3000.0
G01 X77.37 Y49.62 F3000.0
G01 X77.05 Y49.48 F3000.0
G01 X77.31 Y49.41 F3000.0
G01 X77.59 Y49.19 F3000.0
G01 X77.21 Y48.67 F3000.0
G01 X76.8 Y48.12 F3000.0
G01 X76.92 Y47.85 F3000.0
G01 X77.25 Y47.94 F3000.0
G01 X77.58 Y48.63 F3000.0
G01 X77.89 Y49.27 F3000.0
G01 X78.02 Y49.28 F3000.0
G01 X78.15 Y49.09 F3000.0
G01 X78.27 Y48.93 F3000.0
G01 X78.41 Y49.18 F3000.0
G01 X78.61 Y49.5 F3000.0
G01 X78.85 Y49.35 F3000.0
G01 X79.02 Y49.25 F3000.0
G01 X79.34 Y49.4 F3000.0
G01 X80.0 Y49.61 F3000.0
G01 X80.67 Y49.4 F3000.0
G01 X81.28 Y49.19 F3000.0
G01 X82.17 Y48.99 F3000.0
G01 X82.86 Y48.59 F3000.0
G01 X83.38 Y48.3 F3000.0
G01 X83.69 Y48.15 F3000.0
G01 X84.02 Y47.7 F3000.0
G01 X84.05 Y47.66 F3000.0
G01 X84.6 Y46.78 F3000.0
G01 X84.8 Y46.25 F3000.0
G01 X84.44 Y46.04 F3000.0
G01 X83.94 Y45.81 F3000.0
G01 X83.34 Y45.34 F3000.0
G01 X83.33 Y45.33 F3000.0
G01 X82.4 Y44.93 F3000.0
G01 X81.44 Y44.69 F3000.0
G01 X80.81 Y44.74 F3000.0
G01 X80.6 Y45.03 F3000.0
G01 X80.72 Y45.35 F3000.0
G01 X80.67 Y45.45 F3000.0
G01 X80.1 Y45.48 F3000.0
G01 X79.35 F3000.0
G01 X78.85 Y44.93 F3000.0
G01 X78.12 Y44.37 F3000.0
G01 X77.8 Y44.3 F3000.0
G01 X77.51 Y44.39 F3000.0
G01 F3000.0
M5
G00 X81.28 Y45.32 F3000.0
M3 F3000.0
G01 X81.25 Y45.48 F3000.0
G01 X81.1 Y45.32 F3000.0
G01 X81.13 Y45.15 F3000.0
G01 X81.28 Y45.32 F3000.0
G01 F3000.0
M5
G00 X81.79 Y46.34 F3000.0
M3 F3000.0
G01 X81.69 Y46.8 F3000.0
G01 X81.86 Y47.08 F3000.0
G01 X82.19 Y46.94 F3000.0
G01 X82.33 Y46.44 F3000.0
G01 X82.29 Y46.2 F3000.0
G01 X82.12 Y46.13 F3000.0
G01 X81.79 Y46.34 F3000.0
G01 F3000.0
M5
G00 X83.18 Y46.06 F3000.0
M3 F3000.0
G01 X83.27 Y46.09 F3000.0
G01 X84.27 Y46.53 F3000.0
G01 X83.83 Y47.2 F3000.0
G01 X83.38 Y47.78 F3000.0
G01 X82.93 Y47.88 F3000.0
G01 X82.43 Y47.78 F3000.0
G01 X81.81 Y47.44 F3000.0
G01 X81.13 Y47.01 F3000.0
G01 X81.3 Y46.6 F3000.0
G01 X81.58 Y46.08 F3000.0
G01 X81.68 Y45.78 F3000.0
G01 X81.75 Y45.63 F3000.0
G01 X81.98 Y45.61 F3000.0
G01 X82.11 Y45.66 F3000.0
G01 X83.18 Y46.06 F3000.0
G01 F3000.0
M5
G00 X84.06 Y48.6 F3000.0
M3 F3000.0
G01 X83.69 Y48.77 F3000.0
G01 X83.46 Y49.06 F3000.0
G01 X83.42 Y49.3 F3000.0
G01 X83.2 Y50.53 F3000.0
G01 Y50.55 F3000.0
G01 X83.15 Y51.58 F3000.0
G01 X83.21 Y51.76 F3000.0
G01 X83.34 Y51.78 F3000.0
G01 X83.47 Y51.59 F3000.0
G01 X83.48 Y51.57 F3000.0
G01 X83.58 Y50.55 F3000.0
G01 X83.59 Y50.48 F3000.0
G01 X83.74 Y49.42 F3000.0
G01 X83.88 Y49.21 F3000.0
G01 X84.12 Y49.1 F3000.0
G01 X84.72 Y48.98 F3000.0
G01 X85.12 Y49.19 F3000.0
G01 X85.46 Y49.4 F3000.0
G01 X85.6 Y49.23 F3000.0
G01 X85.52 Y48.89 F3000.0
G01 X85.51 F3000.0
G01 X84.6 Y48.43 F3000.0
G01 X84.06 Y48.6 F3000.0
G01 F3000.0
M5
G00 X82.01 Y49.78 F3000.0
M3 F3000.0
G01 X81.96 Y50.43 F3000.0
G01 Y50.93 F3000.0
G01 X81.69 Y51.44 F3000.0
G01 X81.25 Y52.32 F3000.0
G01 X81.15 Y53.11 F3000.0
G01 X81.31 Y53.47 F3000.0
G01 X81.49 Y52.9 F3000.0
G01 X81.79 Y51.97 F3000.0
G01 X82.25 Y51.14 F3000.0
G01 X82.35 Y50.59 F3000.0
G01 X82.5 Y50.06 F3000.0
G01 X82.6 Y49.92 F3000.0
G01 X82.54 Y49.77 F3000.0
G01 X82.28 Y49.63 F3000.0
G01 X82.01 Y49.78 F3000.0
G01 F3000.0
M5
G00 X83.89 Y51.66 F3000.0
M3 F3000.0
G01 X83.58 Y52.04 F3000.0
G01 X83.51 Y52.47 F3000.0
G01 X83.83 Y52.45 F3000.0
G01 X84.1 Y52.38 F3000.0
G01 X84.51 Y52.5 F3000.0
G01 X85.07 Y52.62 F3000.0
G01 X85.16 Y52.39 F3000.0
G01 X84.96 Y52.19 F3000.0
G01 X84.81 Y51.95 F3000.0
G01 X84.78 Y51.76 F3000.0
G01 X84.56 Y51.63 F3000.0
G01 X83.89 Y51.66 F3000.0
G01 F3000.0
M5
G00 X87.46 Y51.94 F3000.0
M3 F3000.0
G01 X87.36 Y52.02 F3000.0
G01 X87.16 Y51.89 F3000.0
G01 X87.03 Y51.67 F3000.0
G01 X87.24 Y51.72 F3000.0
G01 X87.46 Y51.94 F3000.0
G01 F3000.0
M5
G00 X88.5 Y47.51 F3000.0
M3 F3000.0
G01 X88.66 Y47.72 F3000.0
G01 X88.61 Y47.8 F3000.0
G01 X88.39 Y47.73 F3000.0
G01 X88.14 Y47.51 F3000.0
G01 X88.2 Y47.15 F3000.0
G01 X88.27 Y47.03 F3000.0
G01 X88.31 Y47.2 F3000.0
G01 X88.5 Y47.51 F3000.0
G01 F3000.0
M5
G00 X92.12 Y45.13 F3000.0
M3 F3000.0
G01 X92.16 Y45.54 F3000.0
G01 X92.25 Y46.17 F3000.0
G01 X92.39 Y46.54 F3000.0
G01 X92.56 Y46.0 F3000.0
G01 X92.54 Y45.19 F3000.0
G01 X92.33 Y44.94 F3000.0
G01 X92.12 Y45.13 F3000.0
G01 F3000.0
M5
G00 X92.81 Y45.25 F3000.0
M3 F3000.0
G01 X92.7 Y45.79 F3000.0
G01 X92.81 Y46.19 F3000.0
G01 X93.02 Y45.98 F3000.0
G01 X93.13 Y45.42 F3000.0
G01 X93.03 Y45.11 F3000.0
G01 X92.81 Y45.25 F3000.0
G01 F3000.0
M5
G00 X89.72 Y41.08 F3000.0
M3 F3000.0
G01 X89.64 Y41.45 F3000.0
G01 X89.78 Y41.85 F3000.0
G01 X90.01 Y41.91 F3000.0
G01 X90.33 Y41.83 F3000.0
G01 X90.6 Y41.63 F3000.0
G01 X90.52 Y41.3 F3000.0
G01 X90.38 Y41.24 F3000.0
G01 X90.23 Y41.38 F3000.0
G01 X90.1 Y41.52 F3000.0
G01 X90.08 Y41.3 F3000.0
G01 X89.96 Y41.02 F3000.0
G01 X89.72 Y41.08 F3000.0
G01 F3000.0
M5
G00 X88.92 Y41.29 F3000.0
M3 F3000.0
G01 X88.8 Y41.84 F3000.0
G01 X88.98 Y42.04 F3000.0
G01 X89.26 Y41.58 F3000.0
G01 X89.36 Y40.99 F3000.0
G01 X89.16 Y40.93 F3000.0
G01 X88.92 Y41.29 F3000.0
G01 F3000.0
M5
G00 X93.04 Y39.5 F3000.0
M3 F3000.0
G01 X92.9 Y39.86 F3000.0
G01 X92.88 Y39.99 F3000.0
G01 X92.82 Y39.81 F3000.0
G01 X92.57 Y39.51 F3000.0
G01 X92.32 Y39.69 F3000.0
G01 X92.37 Y40.13 F3000.0
G01 X92.7 Y40.35 F3000.0
G01 X92.91 Y40.25 F3000.0
G01 X93.13 Y40.21 F3000.0
G01 X93.31 Y40.18 F3000.0
G01 X93.35 Y39.82 F3000.0
G01 X93.28 Y39.4 F3000.0
G01 X93.04 Y39.5 F3000.0
G01 F3000.0
M5
G00 X94.99 Y35.44 F3000.0
M3 F3000.0
G01 X94.9 Y35.82 F3000.0
G01 X94.81 Y36.1 F3000.0
G01 X94.66 Y36.4 F3000.0
G01 X94.79 Y36.84 F3000.0
G01 X95.1 Y36.96 F3000.0
G01 X95.2 Y36.62 F3000.0
G01 X95.23 Y36.1 F3000.0
G01 X95.32 Y35.48 F3000.0
G01 X95.2 Y35.38 F3000.0
G01 X94.99 Y35.44 F3000.0
G01 F3000.0
M5
G00 X95.28 Y34.82 F3000.0
M3 F3000.0
G01 X95.4 Y35.3 F3000.0
G01 X95.65 Y35.66 F3000.0
G01 X95.81 Y35.51 F3000.0
G01 X95.8 Y35.07 F3000.0
G01 X95.69 Y34.77 F3000.0
G01 X95.53 Y34.68 F3000.0
G01 X95.28 Y34.82 F3000.0
G01 F3000.0
M5
G00 X92.08 Y32.88 F3000.0
M3 F3000.0
G01 X92.09 Y33.15 F3000.0
G01 X92.31 Y33.27 F3000.0
G01 X92.51 Y33.1 F3000.0
G01 X92.53 Y32.82 F3000.0
G01 X92.29 Y32.73 F3000.0
G01 X92.08 Y32.88 F3000.0
G01 F3000.0
M5
G00 X90.6 Y33.84 F3000.0
M3 F3000.0
G01 X90.61 Y34.13 F3000.0
G01 X90.85 Y34.25 F3000.0
G01 X91.01 Y34.18 F3000.0
G01 X91.06 Y33.97 F3000.0
G01 X91.01 Y33.76 F3000.0
G01 X90.85 Y33.7 F3000.0
G01 X90.6 Y33.84 F3000.0
G01 F3000.0
M5
G00 X88.52 Y33.99 F3000.0
M3 F3000.0
G01 X88.45 Y34.24 F3000.0
G01 X88.69 Y34.34 F3000.0
G01 X88.97 Y34.11 F3000.0
G01 X88.95 Y33.98 F3000.0
G01 X88.8 Y33.92 F3000.0
G01 X88.52 Y33.99 F3000.0
G01 F3000.0
M5
G00 X87.63 Y33.46 F3000.0
M3 F3000.0
G01 X87.65 Y33.86 F3000.0
G01 X87.7 Y35.27 F3000.0
G01 X87.68 Y35.44 F3000.0
G01 X87.49 Y36.59 F3000.0
G01 X87.26 Y37.25 F3000.0
G01 Y36.98 F3000.0
G01 X87.25 Y35.72 F3000.0
G01 X87.26 Y35.65 F3000.0
G01 X87.28 Y34.65 F3000.0
G01 X87.31 Y33.59 F3000.0
G01 X87.47 Y32.72 F3000.0
G01 X87.63 Y33.46 F3000.0
G01 F3000.0
M5
G00 X86.32 Y33.95 F3000.0
M3 F3000.0
G01 X86.33 Y34.31 F3000.0
G01 X86.34 Y35.31 F3000.0
G01 X86.35 Y36.67 F3000.0
G01 X86.36 Y36.96 F3000.0
G01 X86.4 Y38.25 F3000.0
G01 X86.59 Y38.72 F3000.0
G01 X86.8 Y39.04 F3000.0
G01 X86.53 Y39.02 F3000.0
G01 X86.21 Y38.67 F3000.0
G01 Y38.45 F3000.0
