
;Inkscape Lasertools G-code
;https://github.com/ChrisWag91/Inkscape-Lasertools-Plugin

G90	;Absolute programming
G21	;Programming in millimeters (mm)
M5
M03 S1 ;Activate laser and set power to 0 (CUSTOM)

; START perimeter strategy
G01 F3000.0
M5
G00 X0.19 Y0.15 F3000.0
M3 F3000.0
G01 X0.0 Y0.19 F3000.0
G01 X0.17 Y0.21 F3000.0
G01 X0.31 F3000.0
G01 X1.45 Y0.19 F3000.0
G01 X1.58 Y0.18 F3000.0
G01 X2.57 Y0.12 F3000.0
G01 X3.7 Y0.05 F3000.0
G01 X3.54 Y0.04 F3000.0
G01 X2.37 Y0.01 F3000.0
G01 X2.28 Y0.02 F3000.0
G01 X1.28 Y0.08 F3000.0
G01 X0.19 Y0.15 F3000.0
G01 F3000.0
M5
G00 X22.77 Y18.04 F3000.0
M3 F3000.0
G01 X23.25 Y18.57 F3000.0
G01 X23.35 Y18.94 F3000.0
G01 X23.07 Y19.17 F3000.0
G01 X22.4 Y19.28 F3000.0
G01 X21.76 Y19.37 F3000.0
G01 X21.57 Y19.53 F3000.0
G01 X21.82 Y19.68 F3000.0
G01 X22.5 Y19.78 F3000.0
G01 X23.3 Y19.73 F3000.0
G01 X23.83 Y19.23 F3000.0
G01 X24.27 Y18.76 F3000.0
G01 X24.54 Y18.65 F3000.0
G01 X24.65 Y18.91 F3000.0
G01 X24.62 Y19.56 F3000.0
G01 X24.68 Y20.49 F3000.0
G01 X24.82 Y20.44 F3000.0
G01 X24.98 Y19.98 F3000.0
G01 X25.13 Y19.59 F3000.0
G01 X25.4 Y19.56 F3000.0
G01 X25.68 Y19.55 F3000.0
G01 X25.89 Y19.32 F3000.0
G01 X26.1 Y19.1 F3000.0
G01 X26.34 Y19.09 F3000.0
G01 X26.53 Y19.1 F3000.0
G01 X26.55 Y18.87 F3000.0
G01 X26.39 Y18.61 F3000.0
G01 X26.12 Y18.5 F3000.0
G01 X25.84 Y18.56 F3000.0
G01 X25.65 Y18.8 F3000.0
G01 X25.39 Y19.14 F3000.0
G01 X25.24 Y18.97 F3000.0
G01 X25.39 Y18.4 F3000.0
G01 X25.4 Y17.89 F3000.0
G01 X25.24 Y17.88 F3000.0
G01 X25.04 Y18.1 F3000.0
G01 X24.81 Y18.31 F3000.0
G01 X24.53 Y18.34 F3000.0
G01 X23.97 Y18.47 F3000.0
G01 X23.77 Y18.59 F3000.0
G01 X23.72 Y18.48 F3000.0
G01 X23.26 Y17.85 F3000.0
G01 X22.51 Y17.46 F3000.0
G01 X22.3 Y17.55 F3000.0
G01 X22.77 Y18.04 F3000.0
G01 F3000.0
M5
G00 X22.07 Y22.37 F3000.0
M3 F3000.0
G01 X21.84 Y22.85 F3000.0
G01 X21.92 Y23.39 F3000.0
G01 X22.22 Y23.83 F3000.0
G01 X22.7 Y24.02 F3000.0
G01 X23.32 Y23.87 F3000.0
G01 X23.64 Y23.49 F3000.0
G01 Y23.0 F3000.0
G01 X23.27 Y22.52 F3000.0
G01 X22.59 Y22.18 F3000.0
G01 X22.07 Y22.37 F3000.0
G01 F3000.0
M5
G00 X23.12 Y22.84 F3000.0
M3 F3000.0
G01 X23.33 Y23.15 F3000.0
G01 X23.21 Y23.42 F3000.0
G01 X22.72 Y23.67 F3000.0
G01 X22.28 Y23.5 F3000.0
G01 Y22.9 F3000.0
G01 X22.6 Y22.5 F3000.0
G01 X23.12 Y22.84 F3000.0
G01 F3000.0
M5
G00 X24.16 Y22.92 F3000.0
M3 F3000.0
G01 X24.13 Y23.05 F3000.0
G01 X23.88 Y24.15 F3000.0
G01 X24.59 Y24.32 F3000.0
G01 X25.5 Y24.22 F3000.0
G01 X25.85 Y23.81 F3000.0
G01 X26.08 Y23.25 F3000.0
G01 X26.11 Y22.81 F3000.0
G01 X26.04 Y22.72 F3000.0
G01 X25.89 Y22.76 F3000.0
G01 X25.57 Y22.83 F3000.0
G01 X25.18 Y22.74 F3000.0
G01 X24.86 Y22.56 F3000.0
G01 X24.72 Y22.33 F3000.0
G01 X24.67 Y21.97 F3000.0
G01 X24.53 F3000.0
G01 Y21.98 F3000.0
G01 X24.16 Y22.92 F3000.0
G01 F3000.0
M5
G00 X24.99 Y23.77 F3000.0
M3 F3000.0
G01 X25.21 Y23.98 F3000.0
G01 X24.91 F3000.0
G01 X24.43 Y23.72 F3000.0
G01 X24.42 Y23.56 F3000.0
G01 X24.52 Y23.52 F3000.0
G01 X24.99 Y23.77 F3000.0
G01 F3000.0
M5
G00 X25.4 Y23.34 F3000.0
M3 F3000.0
G01 X25.14 Y23.4 F3000.0
G01 X24.89 Y23.24 F3000.0
G01 X25.14 Y23.18 F3000.0
G01 X25.4 Y23.34 F3000.0
G01 F3000.0
M5
G00 X27.35 Y22.91 F3000.0
M3 F3000.0
G01 X27.33 Y22.98 F3000.0
G01 X27.06 Y24.03 F3000.0
G01 X27.16 Y24.69 F3000.0
G01 X27.31 Y24.57 F3000.0
G01 X27.43 Y24.18 F3000.0
G01 X27.44 Y24.13 F3000.0
G01 X27.73 Y23.12 F3000.0
G01 X27.91 Y22.51 F3000.0
G01 X27.75 Y22.33 F3000.0
G01 X27.35 Y22.91 F3000.0
G01 F3000.0
M5
G00 X28.59 Y23. F3000.0
M3 F3000.0
G01 X28.37 Y23.8 F3000.0
G01 X28.19 Y24.49 F3000.0
G01 X28.23 Y24.72 F3000.0
G01 X28.95 Y24.93 F3000.0
G01 X29.71 Y24.88 F3000.0
G01 X30.19 Y24.24 F3000.0
G01 X30.34 Y23.77 F3000.0
G01 X30.3 Y23.43 F3000.0
G01 X30.06 Y23.17 F3000.0
G01 X29.58 Y22.94 F3000.0
G01 X28.86 Y22.7 F3000.0
G01 X28.59 Y23.0 F3000.0
G01 F3000.0
M5
G00 X29.85 Y23.52 F3000.0
M3 F3000.0
G01 X29.6 Y23.56 F3000.0
G01 X29.18 Y23.34 F3000.0
G01 X29.43 Y23.3 F3000.0
G01 X29.85 Y23.52 F3000.0
G01 F3000.0
M5
G00 X29.64 Y23.95 F3000.0
M3 F3000.0
G01 X29.71 Y24.13 F3000.0
G01 X29.62 Y24.31 F3000.0
G01 X29.16 Y24.52 F3000.0
G01 X28.78 Y24.33 F3000.0
G01 X28.87 Y23.96 F3000.0
G01 X29.26 Y23.85 F3000.0
G01 X29.64 Y23.95 F3000.0
G01 F3000.0
M5
G00 X31.72 Y23.88 F3000.0
M3 F3000.0
G01 X31.41 Y24.71 F3000.0
G01 X31.46 Y25.01 F3000.0
G01 X31.66 Y25.16 F3000.0
G01 X31.88 Y25.12 F3000.0
G01 X31.95 Y24.86 F3000.0
G01 X32.13 Y24.15 F3000.0
G01 X32.24 Y23.82 F3000.0
G01 X32.16 Y23.63 F3000.0
G01 X31.96 F3000.0
G01 X31.72 Y23.88 F3000.0
G01 F3000.0
M5
G00 X32.54 Y24.32 F3000.0
M3 F3000.0
G01 X32.51 Y24.59 F3000.0
G01 X33.05 Y24.69 F3000.0
G01 X33.56 Y24.54 F3000.0
G01 X33.06 Y24.32 F3000.0
G01 X32.54 F3000.0
G01 F3000.0
M5
G00 X32.57 Y25.14 F3000.0
M3 F3000.0
G01 X32.48 Y25.42 F3000.0
G01 X32.88 Y25.53 F3000.0
G01 X33.28 Y25.39 F3000.0
G01 X33.03 Y25.13 F3000.0
G01 X32.73 Y25.03 F3000.0
G01 X32.57 Y25.14 F3000.0
G01 F3000.0
M5
G00 X30.84 Y19.55 F3000.0
M3 F3000.0
G01 X30.93 Y20.14 F3000.0
G01 X31.02 Y20.43 F3000.0
G01 X30.71 Y20.49 F3000.0
G01 X30.19 Y20.65 F3000.0
G01 X30.3 Y20.78 F3000.0
G01 X30.75 Y20.82 F3000.0
G01 X31.49 Y20.67 F3000.0
G01 X31.56 Y20.46 F3000.0
G01 X31.45 Y20.15 F3000.0
G01 X31.38 Y19.87 F3000.0
G01 X31.78 Y19.81 F3000.0
G01 X32.27 Y19.68 F3000.0
G01 X32.24 Y19.55 F3000.0
G01 X32.02 Y19.41 F3000.0
G01 X31.29 Y19.32 F3000.0
G01 X30.84 Y19.55 F3000.0
G01 F3000.0
M5
G00 X31.19 Y18.31 F3000.0
M3 F3000.0
G01 Y18.77 F3000.0
G01 X31.45 Y18.64 F3000.0
G01 X31.61 Y18.18 F3000.0
G01 X31.57 Y18.0 F3000.0
G01 X31.45 Y17.97 F3000.0
G01 X31.19 Y18.31 F3000.0
G01 F3000.0
M5
G00 X30.7 Y17.95 F3000.0
M3 F3000.0
G01 X30.51 Y18.41 F3000.0
G01 X30.58 Y18.57 F3000.0
G01 X30.76 Y18.64 F3000.0
G01 X31.06 Y18.25 F3000.0
G01 X31.28 Y17.7 F3000.0
G01 X31.09 Y17.65 F3000.0
G01 X30.7 Y17.95 F3000.0
G01 F3000.0
M5
G00 X30.35 Y16.3 F3000.0
M3 F3000.0
G01 X30.34 Y16.55 F3000.0
G01 X30.91 Y16.72 F3000.0
G01 X31.43 Y16.67 F3000.0
G01 X31.02 Y16.31 F3000.0
G01 X30.54 Y16.13 F3000.0
G01 X30.35 Y16.3 F3000.0
G01 F3000.0
M5
G00 X29. Y15.86 F3000.0
M3 F3000.0
G01 X28.76 Y16.78 F3000.0
G01 X28.68 Y17.03 F3000.0
G01 X28.33 Y16.95 F3000.0
G01 X27.83 Y16.8 F3000.0
G01 X27.75 Y17.02 F3000.0
G01 X28.15 Y17.36 F3000.0
G01 X28.46 Y17.53 F3000.0
G01 X28.64 Y17.8 F3000.0
G01 X28.9 Y18.12 F3000.0
G01 X29.04 Y18.08 F3000.0
G01 X29.09 Y17.88 F3000.0
G01 X29.19 Y17.7 F3000.0
G01 X29.43 Y17.63 F3000.0
G01 X29.77 Y17.46 F3000.0
G01 X30.44 Y17.29 F3000.0
G01 X31.09 Y17.15 F3000.0
G01 X30.99 Y17.02 F3000.0
G01 X30.59 Y16.89 F3000.0
G01 X29.9 Y16.81 F3000.0
G01 X29.77 Y17.04 F3000.0
G01 X29.51 Y17.29 F3000.0
G01 X29.33 Y17.23 F3000.0
G01 X29.27 Y17.02 F3000.0
G01 X29.51 Y16.18 F3000.0
G01 X29.67 Y15.43 F3000.0
G01 X29.52 Y15.29 F3000.0
G01 X29.36 Y15.32 F3000.0
G01 X29.0 Y15.86 F3000.0
G01 F3000.0
M5
G00 X27.13 Y15.61 F3000.0
M3 F3000.0
G01 X26.48 Y16.19 F3000.0
G01 X26.3 Y16.63 F3000.0
G01 X26.66 Y17.16 F3000.0
G01 X27.3 Y17.81 F3000.0
G01 X27.5 Y17.92 F3000.0
G01 X27.58 Y17.86 F3000.0
G01 X27.14 Y17.27 F3000.0
G01 X26.85 Y16.88 F3000.0
G01 X26.82 Y16.56 F3000.0
G01 X27.03 Y16.28 F3000.0
G01 X27.5 Y16.02 F3000.0
G01 X27.89 Y15.8 F3000.0
G01 X28.0 Y15.61 F3000.0
G01 X27.7 Y15.46 F3000.0
G01 X27.13 Y15.61 F3000.0
G01 F3000.0
M5
G00 X27.45 Y18.84 F3000.0
M3 F3000.0
G01 X27.25 Y19.32 F3000.0
G01 X27.42 Y19.73 F3000.0
G01 X27.55 Y19.88 F3000.0
G01 X27.45 Y20.0 F3000.0
G01 X26.7 Y20.03 F3000.0
G01 X26.2 Y20.0 F3000.0
G01 X26.15 Y20.12 F3000.0
G01 X27.07 Y20.34 F3000.0
G01 X27.69 Y20.33 F3000.0
G01 X27.89 Y20.1 F3000.0
G01 X27.75 Y19.57 F3000.0
G01 X27.66 Y19.35 F3000.0
G01 X27.86 Y19.18 F3000.0
G01 X28.38 Y19.09 F3000.0
G01 X28.53 Y19.07 F3000.0
G01 X28.59 Y18.9 F3000.0
G01 X28.45 Y18.71 F3000.0
G01 X28.13 Y18.64 F3000.0
G01 X27.75 Y18.68 F3000.0
G01 X27.45 Y18.84 F3000.0
G01 F3000.0
M5
G00 X29.09 Y18.94 F3000.0
M3 F3000.0
G01 X29.3 Y19.28 F3000.0
G01 X29.39 Y19.48 F3000.0
G01 X29.18 Y19.7 F3000.0
G01 X29.02 Y19.9 F3000.0
G01 X29.06 Y20.05 F3000.0
G01 X29.6 Y20.07 F3000.0
G01 X29.84 Y19.91 F3000.0
G01 X29.92 Y19.66 F3000.0
G01 X29.63 Y19.08 F3000.0
G01 X29.23 Y18.82 F3000.0
G01 X29.09 Y18.94 F3000.0
G01 F3000.0
M5
G00 X32.12 Y16.95 F3000.0
M3 F3000.0
G01 X31.96 Y17.15 F3000.0
G01 X32.04 Y17.31 F3000.0
G01 X32.28 Y17.39 F3000.0
G01 X32.59 Y17.31 F3000.0
G01 X33.28 Y17.12 F3000.0
G01 X33.63 Y16.96 F3000.0
G01 X33.44 Y16.84 F3000.0
G01 X33.0 Y16.8 F3000.0
G01 X32.12 Y16.95 F3000.0
G01 F3000.0
M5
G00 X32.88 Y17.68 F3000.0
M3 F3000.0
G01 X32.58 Y17.98 F3000.0
G01 X32.2 Y18.01 F3000.0
G01 X31.89 Y18.0 F3000.0
G01 X31.79 Y18.11 F3000.0
G01 X31.89 Y18.26 F3000.0
G01 X32.19 Y18.4 F3000.0
G01 X32.68 Y18.72 F3000.0
G01 X32.84 Y18.86 F3000.0
G01 X33.12 F3000.0
G01 X33.45 Y18.65 F3000.0
G01 X33.3 Y18.39 F3000.0
G01 X33.22 Y18.21 F3000.0
G01 X33.3 Y17.88 F3000.0
G01 X33.37 Y17.54 F3000.0
G01 X33.29 Y17.38 F3000.0
G01 X33.11 Y17.42 F3000.0
G01 X32.88 Y17.68 F3000.0
G01 F3000.0
M5
G00 X34.4 Y18. F3000.0
M3 F3000.0
G01 X34.15 Y18.49 F3000.0
G01 X34.38 Y18.64 F3000.0
G01 X34.77 Y18.35 F3000.0
G01 X34.98 Y17.81 F3000.0
G01 X34.92 Y17.66 F3000.0
G01 X34.79 Y17.64 F3000.0
G01 X34.4 Y18.0 F3000.0
G01 F3000.0
M5
G00 X35.59 Y18.27 F3000.0
M3 F3000.0
G01 X35.31 Y18.78 F3000.0
G01 X35.38 Y18.94 F3000.0
G01 X35.55 Y18.96 F3000.0
G01 X35.96 Y18.62 F3000.0
G01 X36.08 Y18.3 F3000.0
G01 X36.03 Y18.11 F3000.0
G01 X35.85 Y18.08 F3000.0
G01 X35.59 Y18.27 F3000.0
G01 F3000.0
M5
G00 X26.66 Y12.03 F3000.0
M3 F3000.0
G01 X26.61 Y12.05 F3000.0
G01 X25.65 Y12.33 F3000.0
G01 X24.64 Y12.63 F3000.0
G01 X24.49 Y12.67 F3000.0
G01 X23.51 Y12.87 F3000.0
G01 X22.38 Y13.12 F3000.0
G01 X22.37 F3000.0
G01 X21.37 Y13.09 F3000.0
G01 X20.36 Y13.07 F3000.0
G01 X20.12 Y13.06 F3000.0
G01 X19.98 Y13.17 F3000.0
G01 X19.82 Y14.06 F3000.0
G01 X19.78 Y14.27 F3000.0
G01 X19.57 Y15.46 F3000.0
G01 X19.54 Y15.5 F3000.0
G01 X18.91 Y16.33 F3000.0
G01 X18.33 Y16.81 F3000.0
G01 X17.81 Y16.96 F3000.0
G01 X17.48 Y17.02 F3000.0
G01 X17.34 Y17.2 F3000.0
G01 X17.66 Y17.95 F3000.0
G01 X17.84 Y18.38 F3000.0
G01 X18.43 Y19.72 F3000.0
G01 X18.48 Y19.9 F3000.0
G01 X18.8 Y21.05 F3000.0
G01 X18.78 Y21.26 F3000.0
G01 X18.69 Y22.47 F3000.0
G01 X18.68 Y22.5 F3000.0
G01 X18.46 Y23.48 F3000.0
G01 X18.24 Y24.48 F3000.0
G01 X18.11 Y25.18 F3000.0
G01 X18.29 Y25.32 F3000.0
G01 X18.64 Y25.37 F3000.0
G01 X19.02 Y25.47 F3000.0
G01 X20.35 Y25.85 F3000.0
G01 X20.44 Y25.89 F3000.0
G01 X21.43 Y26.34 F3000.0
G01 X22.0 Y26.89 F3000.0
G01 X22.46 Y27.37 F3000.0
G01 X23.27 Y27.38 F3000.0
G01 X23.6 Y27.37 F3000.0
G01 X24.94 Y27.3 F3000.0
G01 X25.3 Y27.33 F3000.0
G01 X26.66 Y27.43 F3000.0
G01 X27.52 Y27.49 F3000.0
G01 X27.65 Y27.38 F3000.0
G01 X27.3 Y27.31 F3000.0
G01 X25.98 Y27.05 F3000.0
G01 X25.81 Y27.04 F3000.0
G01 X24.82 Y27.02 F3000.0
G01 X23.65 Y26.99 F3000.0
G01 X22.79 Y27.0 F3000.0
G01 X22.29 Y26.57 F3000.0
G01 X21.67 Y26.11 F3000.0
G01 X21.61 Y26.08 F3000.0
G01 X20.67 Y25.6 F3000.0
G01 X20.61 Y25.58 F3000.0
G01 X19.62 Y25.19 F3000.0
G01 X18.84 Y25.02 F3000.0
G01 X18.59 Y24.96 F3000.0
G01 X18.67 Y24.7 F3000.0
G01 X18.76 Y24.22 F3000.0
G01 X19.04 Y22.75 F3000.0
G01 X19.07 Y22.47 F3000.0
G01 X19.16 Y21.2 F3000.0
G01 X19.14 Y21.09 F3000.0
G01 X18.86 Y20.01 F3000.0
G01 X18.69 Y19.58 F3000.0
G01 X18.15 Y18.23 F3000.0
G01 X17.98 Y17.53 F3000.0
G01 X18.1 Y17.36 F3000.0
G01 X18.37 Y17.3 F3000.0
G01 X18.39 Y17.28 F3000.0
G01 X19.19 Y16.66 F3000.0
G01 X19.27 Y16.56 F3000.0
G01 X19.96 Y15.66 F3000.0
G01 X19.99 Y15.45 F3000.0
G01 X20.19 Y14.26 F3000.0
G01 Y13.4 F3000.0
G01 X20.73 Y13.53 F3000.0
G01 X21.7 Y13.62 F3000.0
G01 X21.82 Y13.61 F3000.0
G01 X22.93 Y13.5 F3000.0
G01 X23.16 Y13.44 F3000.0
G01 X24.13 Y13.19 F3000.0
G01 X25.09 Y12.93 F3000.0
G01 X26.29 Y12.61 F3000.0
G01 X26.3 F3000.0
G01 X27.27 Y12.29 F3000.0
G01 X27.36 Y12.37 F3000.0
G01 X28.2 Y13.1 F3000.0
G01 X28.24 Y13.13 F3000.0
G01 X29.08 Y13.75 F3000.0
G01 X29.91 Y14.17 F3000.0
G01 X30.31 Y14.25 F3000.0
G01 X31.69 Y14.53 F3000.0
G01 X32.44 F3000.0
G01 X32.96 Y14.39 F3000.0
G01 X33.23 Y14.29 F3000.0
G01 X33.53 Y14.34 F3000.0
G01 X33.75 Y14.47 F3000.0
G01 X34.83 Y15.12 F3000.0
G01 X35.03 Y15.23 F3000.0
G01 X36.09 Y15.85 F3000.0
G01 X36.12 Y15.86 F3000.0
G01 X37.07 Y16.27 F3000.0
G01 X37.25 Y16.34 F3000.0
G01 X38.34 Y16.82 F3000.0
G01 X38.7 Y17.18 F3000.0
G01 X38.66 Y17.58 F3000.0
G01 X38.59 Y17.89 F3000.0
G01 X38.69 Y18.26 F3000.0
G01 X38.92 Y18.65 F3000.0
G01 X39.67 Y19.9 F3000.0
G01 X39.75 Y20.02 F3000.0
G01 X40.34 Y21.01 F3000.0
G01 F3000.0
G01 X39.5 Y21.57 F3000.0
G01 X39.48 Y21.58 F3000.0
G01 X38.66 Y22.19 F3000.0
G01 X38.13 Y22.96 F3000.0
G01 X37.9 Y23.9 F3000.0
G01 Y23.96 F3000.0
G01 X37.96 Y25.02 F3000.0
G01 X38.09 Y25.77 F3000.0
G01 X37.92 Y25.83 F3000.0
G01 X36.8 Y26.21 F3000.0
G01 X36.35 Y26.42 F3000.0
G01 X35.0 Y27.06 F3000.0
G01 X34.38 Y27.57 F3000.0
G01 X33.93 Y28.16 F3000.0
G01 X33.55 Y28.72 F3000.0
G01 X33.26 Y28.58 F3000.0
G01 X32.06 Y27.99 F3000.0
G01 X31.99 Y27.95 F3000.0
G01 X31.07 Y27.57 F3000.0
G01 X30.07 Y27.16 F3000.0
G01 X29.9 Y27.17 F3000.0
G01 X28.73 Y27.24 F3000.0
G01 X28.7 Y27.26 F3000.0
G01 X27.74 Y27.64 F3000.0
G01 X27.64 Y27.97 F3000.0
G01 X28.24 Y27.78 F3000.0
G01 X28.97 Y27.56 F3000.0
G01 X29.82 Y27.6 F3000.0
G01 X29.86 Y27.61 F3000.0
G01 X30.85 Y27.89 F3000.0
G01 X31.0 Y27.96 F3000.0
G01 X32.08 Y28.44 F3000.0
G01 X32.47 Y28.62 F3000.0
G01 X33.77 Y29.23 F3000.0
G01 X34.14 Y28.72 F3000.0
G01 X34.67 Y27.92 F3000.0
G01 X34.71 Y27.89 F3000.0
G01 X35.54 Y27.24 F3000.0
G01 X35.67 Y27.17 F3000.0
G01 X36.71 Y26.68 F3000.0
G01 X36.95 Y26.62 F3000.0
G01 X38.14 Y26.28 F3000.0
G01 X38.6 Y26.11 F3000.0
G01 Y25.72 F3000.0
G01 X38.56 Y25.43 F3000.0
G01 X38.39 Y24.15 F3000.0
G01 X38.41 Y24.07 F3000.0
G01 X38.62 Y23.02 F3000.0
G01 X38.74 Y22.89 F3000.0
G01 X39.55 Y22.04 F3000.0
G01 X39.71 Y21.94 F3000.0
G01 X40.71 Y21.29 F3000.0
G01 X40.58 Y20.81 F3000.0
G01 X40.5 Y20.67 F3000.0
G01 X39.93 Y19.65 F3000.0
G01 X39.79 Y19.4 F3000.0
G01 X39.15 Y18.27 F3000.0
G01 X39.07 Y17.92 F3000.0
G01 X39.12 Y17.63 F3000.0
G01 X39.14 Y17.13 F3000.0
G01 X38.86 Y16.63 F3000.0
G01 X38.38 Y16.23 F3000.0
G01 X37.75 Y16.03 F3000.0
G01 X37.53 Y15.96 F3000.0
G01 X36.36 Y15.59 F3000.0
G01 X36.32 Y15.57 F3000.0
G01 X35.46 Y15.06 F3000.0
G01 X34.56 Y14.53 F3000.0
G01 X34.39 Y14.42 F3000.0
G01 X33.39 Y13.74 F3000.0
G01 X32.79 Y14.02 F3000.0
G01 X32.11 Y14.2 F3000.0
G01 X31.19 Y14.12 F3000.0
G01 X30.9 Y14.05 F3000.0
G01 X29.65 Y13.72 F3000.0
G01 X29.42 Y13.55 F3000.0
G01 X28.39 Y12.77 F3000.0
G01 X28.3 Y12.71 F3000.0
G01 X27.43 Y12.03 F3000.0
G01 X27.08 Y11.96 F3000.0
G01 X26.66 Y12.03 F3000.0
G01 F3000.0
M5
G00 X20.37 Y22.28 F3000.0
M3 F3000.0
G01 X20.36 Y22.32 F3000.0
G01 X20.19 Y23.35 F3000.0
G01 X20.33 Y23.85 F3000.0
G01 X20.68 Y22.93 F3000.0
G01 Y22.91 F3000.0
G01 X20.87 Y21.92 F3000.0
G01 X20.71 Y21.7 F3000.0
G01 X20.37 Y22.28 F3000.0
G01 F3000.0
M5
G00 X26.74 Y33.86 F3000.0
M3 F3000.0
G01 X26.69 Y34.01 F3000.0
G01 X26.57 Y34.02 F3000.0
G01 X26.41 Y33.75 F3000.0
G01 X26.57 Y33.6 F3000.0
G01 X26.74 Y33.86 F3000.0
G01 F3000.0
M5
G00 X27.32 Y33.85 F3000.0
M3 F3000.0
G01 X27.08 Y34.69 F3000.0
G01 X27.17 Y33.95 F3000.0
G01 X27.32 Y33.14 F3000.0
G01 X27.51 Y32.96 F3000.0
G01 X27.32 Y33.85 F3000.0
G01 F3000.0
M5
G00 X27.86 Y34.13 F3000.0
M3 F3000.0
G01 X27.8 Y34.2 F3000.0
G01 X27.76 Y34.03 F3000.0
G01 X27.85 Y33.81 F3000.0
G01 X27.86 Y34.13 F3000.0
G01 F3000.0
M5
G00 X29.37 Y33.97 F3000.0
M3 F3000.0
G01 X29.31 Y34.0 F3000.0
G01 X29.29 Y33.76 F3000.0
G01 X29.31 Y33.53 F3000.0
G01 X29.37 Y33.55 F3000.0
G01 Y33.97 F3000.0
G01 F3000.0
M5
G00 X29.55 Y33.12 F3000.0
M3 F3000.0
G01 X29.48 Y33.2 F3000.0
G01 X29.44 Y33.02 F3000.0
G01 X29.53 Y32.8 F3000.0
G01 X29.55 Y33.12 F3000.0
G01 F3000.0
M5
G00 X29.71 Y32.45 F3000.0
M3 F3000.0
G01 X29.64 Y32.52 F3000.0
G01 X29.61 Y32.35 F3000.0
G01 X29.7 Y32.13 F3000.0
G01 X29.71 Y32.45 F3000.0
G01 F3000.0
M5
G00 X29.09 Y32.54 F3000.0
M3 F3000.0
G01 X29.06 Y32.72 F3000.0
G01 X28.86 Y33.89 F3000.0
G01 X28.85 Y34.0 F3000.0
G01 X28.71 Y35.11 F3000.0
G01 X29.42 Y34.61 F3000.0
G01 X29.53 Y34.55 F3000.0
G01 X30.53 Y34.03 F3000.0
G01 X31.03 Y33.93 F3000.0
G01 X30.5 Y34.17 F3000.0
G01 X30.43 Y34.23 F3000.0
G01 X29.58 Y34.91 F3000.0
G01 X29.09 Y35.71 F3000.0
G01 X29.14 Y35.9 F3000.0
G01 X29.25 Y35.93 F3000.0
G01 X29.63 Y35.49 F3000.0
G01 X29.68 Y35.44 F3000.0
G01 X30.44 Y34.71 F3000.0
G01 X30.98 Y34.4 F3000.0
G01 X30.79 Y34.75 F3000.0
G01 X30.68 Y35.1 F3000.0
G01 X30.77 Y35.43 F3000.0
G01 X30.9 Y35.84 F3000.0
G01 X30.37 Y36.18 F3000.0
G01 X29.8 Y36.4 F3000.0
G01 X29.27 Y36.12 F3000.0
G01 X28.8 Y35.73 F3000.0
G01 X28.55 Y35.33 F3000.0
G01 X28.5 Y34.81 F3000.0
G01 X28.61 Y34.07 F3000.0
G01 X28.73 Y33.2 F3000.0
G01 X28.61 Y32.73 F3000.0
G01 X28.52 Y32.48 F3000.0
G01 X28.76 Y32.42 F3000.0
G01 X29.09 Y32.54 F3000.0
G01 F3000.0
M5
G00 X30.63 Y32.67 F3000.0
M3 F3000.0
G01 X30.4 Y33.6 F3000.0
G01 X30.34 Y32.85 F3000.0
G01 X30.55 Y31.87 F3000.0
G01 X30.63 Y31.77 F3000.0
G01 X30.66 Y31.83 F3000.0
G01 X30.63 Y32.67 F3000.0
G01 F3000.0
M5
G00 X31.06 Y33.13 F3000.0
M3 F3000.0
G01 X31.01 Y33.2 F3000.0
G01 X30.98 Y32.84 F3000.0
G01 X31.0 Y32.45 F3000.0
G01 X31.06 Y32.46 F3000.0
G01 Y33.13 F3000.0
G01 F3000.0
M5
G00 X31.78 Y32.59 F3000.0
M3 F3000.0
G01 X31.61 Y33.43 F3000.0
G01 X31.45 Y33.0 F3000.0
G01 X31.55 Y32.12 F3000.0
G01 X31.73 Y31.79 F3000.0
G01 X31.78 Y32.59 F3000.0
G01 F3000.0
M5
G00 X31.74 Y33.86 F3000.0
M3 F3000.0
G01 X31.41 Y33.88 F3000.0
G01 X31.34 Y33.81 F3000.0
G01 X31.52 Y33.78 F3000.0
G01 X31.74 Y33.86 F3000.0
G01 F3000.0
M5
G00 X31.56 Y35.02 F3000.0
M3 F3000.0
G01 X31.74 Y35.54 F3000.0
G01 X32.0 Y35.73 F3000.0
G01 X32.21 Y35.55 F3000.0
G01 X32.45 Y35.42 F3000.0
G01 X32.89 Y35.82 F3000.0
G01 X33.13 Y36.12 F3000.0
G01 X33.03 Y36.07 F3000.0
G01 X32.38 Y35.79 F3000.0
G01 X32.19 Y35.9 F3000.0
G01 X32.12 Y36.19 F3000.0
G01 X32.34 Y36.72 F3000.0
G01 X32.4 Y36.76 F3000.0
G01 X33.23 Y37.42 F3000.0
G01 X33.44 Y37.59 F3000.0
G01 X33.17 Y37.54 F3000.0
G01 X32.87 Y37.5 F3000.0
G01 X32.83 Y37.62 F3000.0
G01 X32.86 Y37.65 F3000.0
G01 X33.59 Y38.4 F3000.0
G01 X33.61 Y38.42 F3000.0
G01 X34.3 Y39.19 F3000.0
G01 X33.36 Y38.87 F3000.0
G01 X33.18 Y38.75 F3000.0
G01 X32.16 Y38.09 F3000.0
G01 X32.11 Y38.07 F3000.0
G01 X31.2 Y37.53 F3000.0
G01 X30.39 Y37.12 F3000.0
G01 X30.17 Y36.83 F3000.0
G01 X30.46 Y36.55 F3000.0
G01 X31.04 Y36.28 F3000.0
G01 X31.46 Y36.01 F3000.0
G01 X31.59 Y35.76 F3000.0
G01 X31.4 Y35.53 F3000.0
G01 X31.12 Y35.05 F3000.0
G01 X31.18 Y34.85 F3000.0
G01 X31.38 Y34.77 F3000.0
G01 X31.55 Y34.84 F3000.0
G01 X31.56 Y35.02 F3000.0
G01 F3000.0
M5
G00 X33.08 Y33.05 F3000.0
M3 F3000.0
G01 X33.02 Y33.11 F3000.0
G01 X32.99 Y32.84 F3000.0
G01 X33.01 Y32.54 F3000.0
G01 X33.07 F3000.0
G01 X33.08 Y33.05 F3000.0
G01 F3000.0
M5
G00 X33.63 Y32.67 F3000.0
M3 F3000.0
G01 X33.52 Y33.27 F3000.0
G01 X33.49 Y32.89 F3000.0
G01 X33.55 Y32.08 F3000.0
G01 X33.71 Y31.78 F3000.0
G01 X33.63 Y32.67 F3000.0
G01 F3000.0
M5
G00 X34.19 Y32.97 F3000.0
M3 F3000.0
G01 X34.21 Y33.4 F3000.0
G01 X34.13 Y33.51 F3000.0
G01 X33.97 Y32.8 F3000.0
G01 X34.03 Y32.29 F3000.0
G01 X34.19 Y32.97 F3000.0
G01 F3000.0
M5
G00 X34.35 Y33.99 F3000.0
M3 F3000.0
G01 X34.38 Y34.01 F3000.0
G01 X35.23 Y34.61 F3000.0
G01 X35.56 Y35.0 F3000.0
G01 X34.95 Y34.63 F3000.0
G01 X34.77 Y34.55 F3000.0
G01 X33.69 Y34.02 F3000.0
G01 X33.27 Y33.84 F3000.0
G01 X33.43 Y33.78 F3000.0
G01 X34.35 Y33.99 F3000.0
G01 F3000.0
M5
G00 X34.54 Y34.95 F3000.0
M3 F3000.0
G01 X35.23 Y35.46 F3000.0
G01 X35.8 Y36.08 F3000.0
G01 X36.18 Y36.71 F3000.0
G01 X36.32 Y37.28 F3000.0
G01 X36.48 Y37.63 F3000.0
G01 X36.7 Y37.3 F3000.0
G01 X36.62 Y36.62 F3000.0
G01 X36.54 Y36.34 F3000.0
G01 X36.66 Y36.39 F3000.0
G01 X36.68 Y36.44 F3000.0
G01 X37.07 Y37.43 F3000.0
G01 X37.21 Y38.2 F3000.0
G01 X36.92 Y38.53 F3000.0
G01 X36.69 Y38.64 F3000.0
G01 X36.43 Y38.59 F3000.0
G01 X36.31 Y38.5 F3000.0
G01 X35.38 Y37.8 F3000.0
G01 X35.12 Y37.53 F3000.0
G01 X34.42 Y36.82 F3000.0
G01 X33.45 Y35.84 F3000.0
G01 X33.43 Y35.82 F3000.0
G01 X32.74 Y35.06 F3000.0
G01 X32.11 Y34.56 F3000.0
G01 X31.53 Y34.26 F3000.0
G01 X31.55 F3000.0
G01 X32.56 Y34.31 F3000.0
G01 X32.57 Y34.32 F3000.0
G01 X33.58 Y34.48 F3000.0
G01 X33.61 Y34.49 F3000.0
G01 X34.54 Y34.95 F3000.0
G01 F3000.0
M5
G00 X36.38 Y35.37 F3000.0
M3 F3000.0
G01 X36.41 Y35.53 F3000.0
G01 X36.32 F3000.0
G01 X36.15 Y35.27 F3000.0
G01 X36.23 Y35.12 F3000.0
G01 X36.38 Y35.37 F3000.0
G01 F3000.0
M5
G00 X37.61 Y34.56 F3000.0
M3 F3000.0
G01 X37.56 Y34.6 F3000.0
G01 X37.54 Y34.27 F3000.0
G01 X37.56 Y33.94 F3000.0
G01 X37.61 Y33.97 F3000.0
G01 Y34.56 F3000.0
G01 F3000.0
M5
G00 X38.25 Y33.09 F3000.0
M3 F3000.0
G01 X38.18 Y33.26 F3000.0
G01 X38.0 Y33.09 F3000.0
G01 X38.08 Y32.92 F3000.0
G01 X38.25 Y33.09 F3000.0
G01 F3000.0
M5
G00 X37.11 Y32.79 F3000.0
M3 F3000.0
G01 X37.04 Y32.86 F3000.0
G01 X37.01 Y32.68 F3000.0
G01 X37.09 Y32.46 F3000.0
G01 X37.11 Y32.79 F3000.0
G01 F3000.0
M5
G00 X36.1 Y32.62 F3000.0
M3 F3000.0
G01 X36.03 Y32.69 F3000.0
G01 X36.0 Y32.52 F3000.0
G01 X36.09 Y32.3 F3000.0
G01 X36.1 Y32.62 F3000.0
G01 F3000.0
M5
G00 X37.78 Y36.66 F3000.0
M3 F3000.0
G01 X37.72 Y36.69 F3000.0
G01 X37.69 Y36.45 F3000.0
G01 X37.72 Y36.22 F3000.0
G01 X37.78 Y36.24 F3000.0
G01 Y36.66 F3000.0
G01 F3000.0
M5
G00 X38.12 Y37.84 F3000.0
M3 F3000.0
G01 X38.07 Y37.88 F3000.0
G01 X38.05 Y37.46 F3000.0
G01 X38.07 Y37.04 F3000.0
G01 X38.12 Y37.08 F3000.0
G01 Y37.84 F3000.0
G01 F3000.0
M5
G00 X38.96 Y37.75 F3000.0
M3 F3000.0
G01 X38.9 Y37.81 F3000.0
G01 X38.87 Y37.54 F3000.0
G01 X38.9 Y37.25 F3000.0
G01 X38.95 F3000.0
G01 X38.96 Y37.75 F3000.0
G01 F3000.0
M5
G00 X39.78 Y38.67 F3000.0
M3 F3000.0
G01 X40.03 Y38.71 F3000.0
G01 X40.18 Y38.75 F3000.0
G01 X39.96 Y39.12 F3000.0
G01 X39.26 Y39.29 F3000.0
G01 X39.1 Y39.33 F3000.0
G01 X37.98 Y39.66 F3000.0
G01 X37.41 Y39.88 F3000.0
G01 X37.07 Y39.63 F3000.0
G01 X36.85 Y39.31 F3000.0
G01 X37.04 Y39.02 F3000.0
G01 X37.61 Y38.75 F3000.0
G01 X38.49 Y38.57 F3000.0
G01 X39.33 Y38.53 F3000.0
G01 X39.78 Y38.67 F3000.0
G01 F3000.0
M5
G00 X40.47 Y37.33 F3000.0
M3 F3000.0
G01 X40.41 Y37.36 F3000.0
G01 X40.38 Y37.12 F3000.0
G01 X40.41 Y36.89 F3000.0
G01 X40.47 Y36.91 F3000.0
G01 Y37.33 F3000.0
G01 F3000.0
M5
G00 X41.36 Y40.59 F3000.0
M3 F3000.0
G01 Y41.13 F3000.0
G01 X40.84 Y40.64 F3000.0
G01 X40.36 Y40.28 F3000.0
G01 X40.0 Y40.33 F3000.0
G01 X39.37 Y40.45 F3000.0
G01 X38.83 Y40.6 F3000.0
G01 X38.57 Y40.7 F3000.0
G01 X38.27 Y40.56 F3000.0
G01 X38.05 Y40.34 F3000.0
G01 X38.35 Y40.16 F3000.0
G01 X38.71 Y40.13 F3000.0
G01 X40.06 Y40.02 F3000.0
G01 X40.21 F3000.0
G01 X41.36 Y40.05 F3000.0
G01 Y40.59 F3000.0
M5
G00 X40.56 Y41.54 F3000.0
M3 F3000.0
G01 X40.68 Y41.66 F3000.0
G01 X40.91 Y41.52 F3000.0
G01 X41.12 Y41.47 F3000.0
G01 X41.08 Y42.19 F3000.0
G01 Y42.22 F3000.0
G01 X40.85 Y43.22 F3000.0
G01 X40.74 Y43.31 F3000.0
G01 X40.69 Y42.99 F3000.0
G01 X40.44 Y42.24 F3000.0
G01 X40.2 Y41.65 F3000.0
G01 X40.22 Y41.42 F3000.0
G01 X40.34 Y41.33 F3000.0
G01 X40.56 Y41.54 F3000.0
G01 F3000.0
M5
G00 X39.85 Y41.42 F3000.0
M3 F3000.0
G01 X39.62 Y42.1 F3000.0
G01 X39.51 Y41.79 F3000.0
G01 X39.41 Y41.09 F3000.0
G01 Y40.88 F3000.0
G01 X39.65 Y40.82 F3000.0
G01 X39.9 Y40.92 F3000.0
G01 X39.85 Y41.42 F3000.0
G01 F3000.0
M5
G00 X39.85 Y42.67 F3000.0
M3 F3000.0
G01 X39.67 Y42.84 F3000.0
G01 X39.6 Y42.67 F3000.0
G01 X39.78 Y42.5 F3000.0
G01 X39.85 Y42.67 F3000.0
G01 F3000.0
M5
G00 X40.16 Y43.8 F3000.0
M3 F3000.0
G01 X40.56 Y44.1 F3000.0
G01 X40.24 Y44.68 F3000.0
G01 X39.85 Y45.12 F3000.0
G01 X39.22 Y45.52 F3000.0
G01 X38.81 Y45.66 F3000.0
G01 X37.44 Y46.1 F3000.0
G01 X36.88 F3000.0
G01 X36.5 Y45.5 F3000.0
G01 X36.17 Y44.63 F3000.0
G01 X36.5 Y45.07 F3000.0
G01 X36.95 Y45.68 F3000.0
G01 X37.08 Y45.47 F3000.0
G01 X37.7 Y44.4 F3000.0
G01 X37.73 Y44.33 F3000.0
G01 X38.16 Y43.34 F3000.0
G01 X38.14 Y42.89 F3000.0
G01 X38.28 Y42.86 F3000.0
G01 X38.85 Y43.08 F3000.0
G01 X39.06 Y43.2 F3000.0
G01 X40.16 Y43.8 F3000.0
G01 F3000.0
M5
G00 X39.49 Y44. F3000.0
M3 F3000.0
G01 X39.6 Y44.21 F3000.0
G01 X39.54 Y44.49 F3000.0
G01 X39.36 Y44.75 F3000.0
G01 X39.11 Y44.86 F3000.0
G01 X38.9 Y44.78 F3000.0
G01 X38.78 Y44.59 F3000.0
G01 Y44.39 F3000.0
G01 X38.93 Y44.24 F3000.0
G01 X39.08 Y44.0 F3000.0
G01 X39.13 Y43.86 F3000.0
G01 X39.49 Y44.0 F3000.0
G01 F3000.0
M5
G00 X38.43 Y43.55 F3000.0
M3 F3000.0
G01 X38.42 Y43.56 F3000.0
G01 X38.11 Y44.52 F3000.0
G01 X38.0 Y45.42 F3000.0
G01 X38.38 Y45.48 F3000.0
G01 X39.0 Y45.36 F3000.0
G01 X39.59 Y45.14 F3000.0
G01 X39.9 Y44.89 F3000.0
G01 X40.1 Y44.32 F3000.0
G01 X40.06 Y44.02 F3000.0
G01 X39.66 Y43.69 F3000.0
G01 X38.84 Y43.36 F3000.0
G01 X38.57 Y43.39 F3000.0
G01 X38.43 Y43.55 F3000.0
G01 F3000.0
M5
G00 X36.77 Y42.81 F3000.0
M3 F3000.0
G01 X36.72 Y42.89 F3000.0
G01 X36.18 Y43.85 F3000.0
G01 X36.02 Y44.44 F3000.0
G01 X36.0 Y43.92 F3000.0
G01 X36.15 Y43.37 F3000.0
G01 X36.52 Y42.71 F3000.0
G01 X36.9 Y42.22 F3000.0
G01 X37.14 Y42.17 F3000.0
G01 X36.77 Y42.81 F3000.0
G01 F3000.0
M5
G00 X35.91 Y42.85 F3000.0
M3 F3000.0
G01 X35.48 Y43.61 F3000.0
G01 X35.13 Y44.36 F3000.0
G01 X34.34 Y44.95 F3000.0
G01 X33.49 Y45.18 F3000.0
G01 X33.43 Y45.11 F3000.0
G01 X33.72 Y44.91 F3000.0
G01 X33.86 Y44.8 F3000.0
G01 X34.81 Y44.08 F3000.0
G01 X34.9 Y43.94 F3000.0
G01 X35.57 Y42.99 F3000.0
G01 X35.85 Y42.53 F3000.0
G01 X36.11 Y42.33 F3000.0
G01 X36.19 Y42.46 F3000.0
G01 X35.91 Y42.85 F3000.0
G01 F3000.0
M5
G00 X33.89 Y44.07 F3000.0
M3 F3000.0
G01 X34.02 Y43.75 F3000.0
G01 X34.03 Y43.58 F3000.0
G01 X34.2 Y43.51 F3000.0
G01 X34.45 Y43.67 F3000.0
G01 X34.09 Y44.13 F3000.0
G01 X34.05 Y44.16 F3000.0
G01 X33.13 Y44.69 F3000.0
G01 X32.21 Y44.79 F3000.0
G01 X31.9 Y44.68 F3000.0
G01 X31.82 Y44.54 F3000.0
G01 X32.42 Y44.01 F3000.0
G01 X33.0 Y43.68 F3000.0
G01 X33.35 Y43.87 F3000.0
G01 X33.89 Y44.07 F3000.0
G01 F3000.0
M5
G00 X34.2 Y45.66 F3000.0
M3 F3000.0
G01 X33.92 Y46.12 F3000.0
G01 X33.85 Y46.28 F3000.0
G01 X33.82 Y45.99 F3000.0
G01 X33.87 Y45.63 F3000.0
G01 X34.09 Y45.53 F3000.0
G01 X34.26 Y45.57 F3000.0
G01 X34.2 Y45.66 F3000.0
G01 F3000.0
M5
G00 X32.38 Y45.32 F3000.0
M3 F3000.0
G01 X31.88 Y45.26 F3000.0
G01 X31.45 Y45.02 F3000.0
G01 X31.94 Y45.07 F3000.0
G01 X32.38 Y45.32 F3000.0
G01 F3000.0
M5
G00 X32.06 Y48.09 F3000.0
M3 F3000.0
G01 X32.0 Y48.12 F3000.0
G01 X31.98 Y47.88 F3000.0
G01 X32.0 Y47.65 F3000.0
G01 X32.06 Y47.67 F3000.0
G01 Y48.09 F3000.0
G01 F3000.0
M5
G00 X32.61 Y48.83 F3000.0
M3 F3000.0
G01 X32.07 Y48.87 F3000.0
G01 X31.11 Y48.72 F3000.0
G01 X31.04 Y48.64 F3000.0
G01 X31.61 Y48.67 F3000.0
G01 X31.62 F3000.0
G01 X32.61 Y48.83 F3000.0
G01 F3000.0
M5
G00 X33.34 Y49. F3000.0
M3 F3000.0
G01 X32.92 F3000.0
G01 X32.89 Y48.94 F3000.0
G01 X33.13 Y48.92 F3000.0
G01 X33.36 Y48.94 F3000.0
G01 X33.34 Y49.0 F3000.0
G01 F3000.0
M5
G00 X33.42 Y48.01 F3000.0
M3 F3000.0
G01 X33.37 Y48.09 F3000.0
G01 X33.34 Y47.63 F3000.0
G01 X33.36 Y47.15 F3000.0
G01 X33.41 Y47.16 F3000.0
G01 X33.42 Y48.01 F3000.0
G01 F3000.0
M5
G00 X34.08 Y48. F3000.0
M3 F3000.0
G01 X34.03 Y48.07 F3000.0
G01 X34.0 Y47.8 F3000.0
G01 X34.02 Y47.5 F3000.0
G01 X34.08 F3000.0
G01 Y48.0 F3000.0
G01 F3000.0
M5
G00 X34.79 Y50.19 F3000.0
M3 F3000.0
G01 X34.62 Y50.33 F3000.0
G01 X33.7 Y51.12 F3000.0
G01 X33.07 Y51.51 F3000.0
G01 X32.79 Y51.58 F3000.0
G01 X33.32 Y51.11 F3000.0
G01 X33.44 Y51.03 F3000.0
G01 X34.37 Y50.37 F3000.0
G01 X34.91 Y49.93 F3000.0
G01 X34.79 Y50.19 F3000.0
G01 F3000.0
M5
G00 X34.56 Y53.26 F3000.0
M3 F3000.0
G01 X34.52 F3000.0
G01 X33.5 Y53.42 F3000.0
G01 X32.94 Y53.49 F3000.0
G01 X32.68 Y53.68 F3000.0
G01 X32.43 Y53.87 F3000.0
G01 X31.85 Y53.93 F3000.0
G01 X31.14 Y53.78 F3000.0
G01 X31.16 Y53.64 F3000.0
G01 X31.49 Y53.52 F3000.0
G01 X31.71 Y53.48 F3000.0
G01 X32.7 Y53.33 F3000.0
G01 X33.91 Y53.13 F3000.0
G01 X34.6 Y53.12 F3000.0
G01 X34.69 Y53.17 F3000.0
G01 X34.56 Y53.26 F3000.0
G01 F3000.0
M5
G00 X34.47 Y54.3 F3000.0
M3 F3000.0
G01 X34.21 Y54.32 F3000.0
G01 X32.95 Y54.46 F3000.0
G01 X32.46 Y54.49 F3000.0
G01 X30.97 Y54.58 F3000.0
G01 X30.37 Y54.64 F3000.0
G01 X30.23 Y54.57 F3000.0
G01 X30.44 Y54.53 F3000.0
G01 X31.64 Y54.3 F3000.0
G01 X31.8 Y54.28 F3000.0
G01 X32.8 Y54.21 F3000.0
G01 X33.97 Y54.13 F3000.0
G01 X34.65 Y54.15 F3000.0
G01 X34.47 Y54.3 F3000.0
G01 F3000.0
M5
G00 X35.98 Y53.58 F3000.0
M3 F3000.0
G01 X35.42 Y53.76 F3000.0
G01 X34.64 F3000.0
G01 X34.4 Y53.7 F3000.0
G01 X34.81 Y53.6 F3000.0
G01 X34.83 Y53.59 F3000.0
G01 X35.84 Y53.45 F3000.0
G01 X36.06 Y53.48 F3000.0
G01 X35.98 Y53.58 F3000.0
G01 F3000.0
M5
G00 X32.36 Y54.92 F3000.0
M3 F3000.0
G01 X31.94 Y54.98 F3000.0
G01 X30.54 Y55.19 F3000.0
G01 X30.48 Y55.2 F3000.0
G01 X29.43 Y55.22 F3000.0
G01 X29.0 Y55.13 F3000.0
G01 X29.56 Y55.03 F3000.0
G01 X29.71 Y55.02 F3000.0
G01 X30.86 Y54.96 F3000.0
G01 X30.99 Y54.94 F3000.0
G01 X32.12 Y54.8 F3000.0
G01 X32.37 Y54.82 F3000.0
G01 X32.36 Y54.92 F3000.0
G01 F3000.0
M5
G00 X31.69 Y55.59 F3000.0
M3 F3000.0
G01 X31.4 Y55.65 F3000.0
G01 X30.14 Y55.91 F3000.0
G01 X30.1 F3000.0
G01 X29.11 Y56.01 F3000.0
G01 X28.08 Y56.12 F3000.0
G01 X27.76 Y56.05 F3000.0
G01 X27.9 Y55.9 F3000.0
G01 X28.0 Y55.87 F3000.0
G01 X29.06 Y55.6 F3000.0
G01 X29.54 Y55.57 F3000.0
G01 X31.02 Y55.47 F3000.0
G01 X31.57 Y55.5 F3000.0
G01 X31.69 Y55.59 F3000.0
G01 F3000.0
M5
G00 X31.35 Y56.26 F3000.0
M3 F3000.0
G01 X31.0 Y56.33 F3000.0
G01 X29.67 Y56.58 F3000.0
G01 X29.52 Y56.59 F3000.0
G01 X28.53 Y56.68 F3000.0
G01 X27.39 Y56.79 F3000.0
G01 X26.92 Y56.73 F3000.0
G01 X27.03 Y56.61 F3000.0
G01 X27.23 Y56.58 F3000.0
G01 X28.41 Y56.37 F3000.0
G01 X28.57 Y56.35 F3000.0
G01 X29.73 Y56.21 F3000.0
G01 X30.67 Y56.12 F3000.0
G01 X31.23 Y56.16 F3000.0
G01 X31.35 Y56.26 F3000.0
G01 F3000.0
M5
G00 X31.21 Y56.93 F3000.0
M3 F3000.0
G01 X30.75 Y57.02 F3000.0
G01 X29.31 Y57.28 F3000.0
G01 X29.23 Y57.29 F3000.0
G01 X28.23 Y57.42 F3000.0
G01 X27.16 Y57.56 F3000.0
G01 X26.82 Y57.68 F3000.0
G01 X26.74 Y57.82 F3000.0
G01 X26.92 Y57.94 F3000.0
G01 X27.45 Y57.9 F3000.0
G01 X27.7 Y57.87 F3000.0
G01 X28.69 Y57.75 F3000.0
G01 X29.93 Y57.59 F3000.0
G01 X30.03 F3000.0
G01 X31.12 Y57.55 F3000.0
G01 X31.28 Y57.71 F3000.0
G01 X31.19 Y57.84 F3000.0
G01 X30.31 Y58.03 F3000.0
G01 X30.13 Y58.04 F3000.0
G01 X29.14 Y58.13 F3000.0
G01 X27.96 Y58.23 F3000.0
G01 X27.76 Y58.25 F3000.0
G01 X26.57 Y58.34 F3000.0
G01 Y57.82 F3000.0
G01 X26.61 Y57.47 F3000.0
G01 X26.83 Y57.26 F3000.0
G01 X27.18 Y57.21 F3000.0
G01 X28.5 Y56.98 F3000.0
G01 X29.0 Y56.94 F3000.0
G01 X30.5 Y56.82 F3000.0
G01 X31.06 Y56.84 F3000.0
G01 X31.21 Y56.93 F3000.0
G01 F3000.0
M5
G00 X31.28 Y58.53 F3000.0
M3 F3000.0
G01 X30.57 Y58.74 F3000.0
G01 X30.29 Y58.77 F3000.0
G01 X29.02 Y58.92 F3000.0
G01 X28.73 Y58.93 F3000.0
G01 X27.44 Y58.99 F3000.0
G01 X26.68 Y58.89 F3000.0
G01 X26.82 Y58.85 F3000.0
G01 X27.91 Y58.55 F3000.0
G01 X28.12 Y58.53 F3000.0
G01 X29.11 Y58.44 F3000.0
G01 X30.31 Y58.32 F3000.0
G01 X31.06 Y58.36 F3000.0
G01 X31.28 Y58.53 F3000.0
G01 F3000.0
M5
G00 X31.44 Y59.35 F3000.0
M3 F3000.0
G01 X31.14 Y59.92 F3000.0
G01 X30.61 Y60.22 F3000.0
G01 X30.41 Y60.24 F3000.0
G01 X29.23 Y60.35 F3000.0
G01 X28.82 F3000.0
G01 X27.42 Y60.32 F3000.0
G01 X27.81 Y60.21 F3000.0
G01 X27.92 Y60.2 F3000.0
G01 X29.02 Y60.1 F3000.0
G01 X29.49 Y60.04 F3000.0
G01 X30.95 Y59.85 F3000.0
G01 X30.5 Y59.83 F3000.0
G01 X29.04 Y59.78 F3000.0
G01 X28.74 F3000.0
G01 X27.45 Y59.79 F3000.0
G01 X26.84 Y59.68 F3000.0
G01 X26.83 Y59.57 F3000.0
G01 X27.0 Y59.48 F3000.0
G01 X27.13 Y59.45 F3000.0
G01 X28.25 Y59.25 F3000.0
G01 X28.66 Y59.23 F3000.0
G01 X30.06 Y59.16 F3000.0
G01 X30.1 Y59.17 F3000.0
G01 X31.13 Y59.19 F3000.0
G01 X31.44 Y59.35 F3000.0
G01 F3000.0
M5
G00 X32.29 Y60.44 F3000.0
M3 F3000.0
G01 X33.06 Y61.05 F3000.0
G01 X33.92 Y61.43 F3000.0
G01 X33.95 Y61.28 F3000.0
G01 X33.33 Y60.77 F3000.0
G01 X32.6 Y60.34 F3000.0
G01 X32.37 Y60.32 F3000.0
G01 X32.29 Y60.44 F3000.0
G01 F3000.0
M5
G00 X32.04 Y60.98 F3000.0
M3 F3000.0
G01 X32.24 Y61.31 F3000.0
G01 X32.45 Y61.46 F3000.0
G01 X32.24 Y61.49 F3000.0
G01 X32.02 Y61.54 F3000.0
G01 X31.96 Y61.65 F3000.0
G01 X32.33 Y61.89 F3000.0
G01 X33.05 Y61.99 F3000.0
G01 X33.6 Y61.93 F3000.0
G01 X33.82 Y61.77 F3000.0
G01 X33.51 Y61.55 F3000.0
G01 X32.77 Y61.13 F3000.0
G01 X32.26 Y60.84 F3000.0
G01 X32.04 Y60.98 F3000.0
G01 F3000.0
M5
G00 X30.14 Y60.77 F3000.0
M3 F3000.0
G01 X29.39 F3000.0
G01 X29.34 Y60.72 F3000.0
G01 X29.77 Y60.7 F3000.0
G01 X30.19 Y60.72 F3000.0
G01 X30.14 Y60.77 F3000.0
G01 F3000.0
M5
G00 X32.8 Y62.74 F3000.0
M3 F3000.0
G01 X32.7 Y63.04 F3000.0
G01 X32.87 Y63.5 F3000.0
G01 X33.16 Y63.87 F3000.0
G01 X33.5 Y64.01 F3000.0
G01 X33.88 Y63.92 F3000.0
G01 X34.26 Y63.61 F3000.0
G01 X34.51 Y63.22 F3000.0
G01 X34.36 Y62.85 F3000.0
G01 X34.04 Y62.61 F3000.0
G01 X33.59 Y62.5 F3000.0
G01 X33.13 Y62.54 F3000.0
G01 X32.8 Y62.74 F3000.0
G01 F3000.0
M5
G00 X33.7 Y63.02 F3000.0
M3 F3000.0
G01 X33.92 Y62.89 F3000.0
G01 X33.97 Y63.05 F3000.0
G01 X33.74 Y63.49 F3000.0
G01 X33.54 Y63.56 F3000.0
G01 X33.34 Y63.49 F3000.0
G01 X33.13 Y63.02 F3000.0
G01 X33.16 Y62.85 F3000.0
G01 X33.28 Y63.0 F3000.0
G01 X33.46 Y63.15 F3000.0
G01 X33.7 Y63.02 F3000.0
G01 F3000.0
M5
G00 X32.84 Y55.99 F3000.0
M3 F3000.0
G01 X32.77 Y56.1 F3000.0
G01 X32.15 Y57.04 F3000.0
G01 X31.88 Y57.48 F3000.0
G01 X31.79 Y57.37 F3000.0
G01 X32.05 Y56.66 F3000.0
G01 X32.7 Y55.91 F3000.0
G01 X33.1 Y55.63 F3000.0
G01 X32.84 Y55.99 F3000.0
G01 F3000.0
M5
G00 X29.65 Y54.27 F3000.0
M3 F3000.0
G01 X29.01 Y54.52 F3000.0
G01 X28.66 Y54.57 F3000.0
G01 X28.8 Y54.44 F3000.0
G01 X29.1 Y53.96 F3000.0
G01 X29.13 Y53.77 F3000.0
G01 X29.26 Y53.93 F3000.0
G01 X29.42 Y54.06 F3000.0
G01 X29.55 Y53.76 F3000.0
G01 X29.68 Y53.34 F3000.0
G01 X29.73 Y53.74 F3000.0
G01 X29.65 Y54.27 F3000.0
G01 F3000.0
M5
G00 X28.23 Y55.01 F3000.0
M3 F3000.0
G01 X28.08 Y55.11 F3000.0
G01 X27.98 Y55.03 F3000.0
G01 X28.0 Y54.49 F3000.0
G01 X28.13 Y54.02 F3000.0
G01 X28.25 Y54.44 F3000.0
G01 X28.23 Y55.01 F3000.0
G01 F3000.0
M5
G00 X27.75 Y55.3 F3000.0
M3 F3000.0
G01 X27.58 Y55.36 F3000.0
G01 X27.41 Y55.09 F3000.0
G01 X27.58 Y55.02 F3000.0
G01 X27.75 Y55.3 F3000.0
G01 F3000.0
M5
G00 X26.99 Y55.6 F3000.0
M3 F3000.0
G01 X26.91 Y55.86 F3000.0
G01 X26.79 F3000.0
G01 X26.74 Y55.71 F3000.0
G01 X26.81 Y55.46 F3000.0
G01 X26.99 Y55.6 F3000.0
G01 F3000.0
M5
G00 X26.33 Y54.26 F3000.0
M3 F3000.0
G01 X25.93 Y54.43 F3000.0
G01 X25.75 Y54.38 F3000.0
G01 X25.97 Y54.18 F3000.0
G01 X26.35 Y54.01 F3000.0
G01 X26.33 Y54.26 F3000.0
G01 F3000.0
M5
G00 X23.61 Y53.72 F3000.0
M3 F3000.0
G01 X23.45 Y54.7 F3000.0
G01 X23.35 Y54.77 F3000.0
G01 X23.23 Y54.63 F3000.0
G01 Y54.61 F3000.0
G01 X23.26 Y53.6 F3000.0
G01 X23.57 Y52.75 F3000.0
G01 X23.61 Y53.72 F3000.0
G01 F3000.0
M5
G00 X26.95 Y51.36 F3000.0
M3 F3000.0
G01 X27.35 Y51.38 F3000.0
G01 X28.75 Y51.45 F3000.0
G01 X29.06 Y51.98 F3000.0
G01 X29.29 Y52.48 F3000.0
G01 X28.98 Y52.81 F3000.0
G01 X28.59 Y53.35 F3000.0
G01 X28.41 Y53.57 F3000.0
G01 X27.98 Y53.61 F3000.0
G01 X27.49 Y53.49 F3000.0
G01 X27.12 Y53.23 F3000.0
G01 X26.98 Y53.08 F3000.0
G01 X26.16 Y52.2 F3000.0
G01 X25.77 Y52.0 F3000.0
G01 X25.35 Y51.95 F3000.0
G01 X24.59 Y51.83 F3000.0
G01 X24.39 Y51.38 F3000.0
G01 X24.46 Y51.13 F3000.0
G01 X24.77 Y51.15 F3000.0
G01 X24.86 Y51.16 F3000.0
G01 X25.86 Y51.26 F3000.0
G01 X26.95 Y51.36 F3000.0
G01 F3000.0
M5
G00 X23.91 Y47.67 F3000.0
M3 F3000.0
G01 X24.05 Y47.88 F3000.0
G01 X23.84 Y47.73 F3000.0
G01 X23.55 Y47.44 F3000.0
G01 X23.64 Y47.4 F3000.0
G01 X23.91 Y47.67 F3000.0
G01 F3000.0
M5
G00 X28.37 Y42.2 F3000.0
M3 F3000.0
G01 X28.3 Y42.27 F3000.0
G01 X28.27 Y42.1 F3000.0
G01 X28.36 Y41.88 F3000.0
G01 X28.37 Y42.2 F3000.0
G01 F3000.0
M5
G00 X28.67 Y40.48 F3000.0
M3 F3000.0
G01 X28.78 Y40.52 F3000.0
G01 X29.83 Y40.9 F3000.0
G01 X30.01 Y41.05 F3000.0
G01 X29.59 Y41.42 F3000.0
G01 X28.91 Y41.83 F3000.0
G01 X28.52 Y41.16 F3000.0
G01 X28.12 Y40.52 F3000.0
G01 X27.98 Y40.49 F3000.0
G01 X27.91 Y40.7 F3000.0
G01 X27.87 Y40.79 F3000.0
G01 X27.75 Y40.65 F3000.0
G01 X27.57 Y40.32 F3000.0
G01 X27.64 Y40.18 F3000.0
G01 X27.67 Y40.19 F3000.0
G01 X28.67 Y40.48 F3000.0
G01 F3000.0
M5
G00 X28.76 Y39.16 F3000.0
M3 F3000.0
G01 X28.59 Y39.23 F3000.0
G01 X28.42 Y38.95 F3000.0
G01 X28.59 Y38.89 F3000.0
G01 X28.76 Y39.16 F3000.0
G01 F3000.0
M5
G00 X30.61 Y37.61 F3000.0
M3 F3000.0
G01 X30.35 Y38.09 F3000.0
G01 X30.2 Y38.46 F3000.0
G01 X30.64 Y38.8 F3000.0
G01 X31.36 Y39.14 F3000.0
G01 X31.95 Y39.47 F3000.0
G01 X32.37 Y39.79 F3000.0
G01 X32.35 Y39.8 F3000.0
G01 X31.42 Y40.21 F3000.0
G01 X30.49 Y40.54 F3000.0
G01 X29.65 Y40.42 F3000.0
G01 X29.52 Y40.37 F3000.0
G01 X28.46 Y40.0 F3000.0
G01 X28.09 Y39.63 F3000.0
G01 X28.15 Y39.52 F3000.0
G01 X28.38 Y39.56 F3000.0
G01 X29.15 Y39.79 F3000.0
G01 X29.24 Y39.67 F3000.0
G01 X29.19 Y39.38 F3000.0
G01 X28.88 Y38.69 F3000.0
G01 X28.4 Y38.47 F3000.0
G01 X28.1 Y38.66 F3000.0
G01 X28.07 Y39.18 F3000.0
G01 X27.92 Y39.31 F3000.0
G01 X27.78 Y39.14 F3000.0
G01 X27.76 Y38.74 F3000.0
G01 X28.01 Y37.89 F3000.0
G01 X28.32 Y37.67 F3000.0
G01 X28.76 Y37.56 F3000.0
G01 X29.19 Y37.57 F3000.0
G01 X29.48 Y37.71 F3000.0
G01 X29.63 Y37.77 F3000.0
G01 X29.8 Y37.61 F3000.0
G01 X30.27 Y37.42 F3000.0
G01 X30.5 Y37.47 F3000.0
G01 X30.61 Y37.61 F3000.0
G01 F3000.0
M5
G00 X31.43 Y38.36 F3000.0
M3 F3000.0
G01 F3000.0
G01 X32.29 Y38.89 F3000.0
G01 X32.96 Y39.33 F3000.0
G01 X32.88 Y39.3 F3000.0
G01 X31.87 Y38.92 F3000.0
G01 X31.8 Y38.88 F3000.0
G01 X30.86 Y38.33 F3000.0
G01 X30.79 Y38.18 F3000.0
G01 X31.01 Y38.13 F3000.0
G01 X31.43 Y38.36 F3000.0
G01 F3000.0
M5
G00 X33.3 Y36.8 F3000.0
M3 F3000.0
G01 X33.04 Y36.85 F3000.0
G01 X32.79 Y36.61 F3000.0
G01 X33.04 Y36.56 F3000.0
G01 X33.3 Y36.8 F3000.0
G01 F3000.0
M5
G00 X34.05 Y37.12 F3000.0
M3 F3000.0
G01 X34.27 Y37.42 F3000.0
G01 X33.99 Y37.46 F3000.0
G01 X33.72 Y37.38 F3000.0
G01 X33.63 Y37.12 F3000.0
G01 X33.69 Y36.79 F3000.0
G01 X34.05 Y37.12 F3000.0
G01 F3000.0
M5
G00 X35.97 Y38.86 F3000.0
M3 F3000.0
G01 X35.8 Y38.83 F3000.0
G01 X35.4 Y38.54 F3000.0
G01 X34.73 Y37.85 F3000.0
G01 X34.86 Y37.83 F3000.0
G01 X35.3 Y38.15 F3000.0
G01 X35.97 Y38.86 F3000.0
G01 F3000.0
M5
G00 X35.57 Y39.49 F3000.0
M3 F3000.0
G01 X36.04 Y39.58 F3000.0
G01 X36.58 Y39.66 F3000.0
G01 X36.83 Y40.09 F3000.0
G01 X36.73 Y40.25 F3000.0
G01 X36.5 Y40.32 F3000.0
G01 X36.12 Y40.46 F3000.0
G01 X35.62 Y40.71 F3000.0
G01 X35.24 Y40.73 F3000.0
G01 X35.06 Y40.49 F3000.0
G01 X34.7 Y39.9 F3000.0
G01 X34.55 Y39.48 F3000.0
G01 X35.06 Y39.31 F3000.0
G01 X35.57 Y39.49 F3000.0
G01 F3000.0
M5
G00 X34.27 Y40.01 F3000.0
M3 F3000.0
G01 X34.28 Y40.02 F3000.0
G01 X34.85 Y40.86 F3000.0
G01 X34.99 Y41.06 F3000.0
G01 X35.14 Y41.08 F3000.0
G01 X35.31 Y41.06 F3000.0
G01 X35.3 Y41.09 F3000.0
G01 X34.8 Y42.0 F3000.0
G01 X34.43 Y42.23 F3000.0
G01 X33.2 Y42.99 F3000.0
G01 X33.03 Y43.12 F3000.0
G01 X32.23 Y43.71 F3000.0
G01 X31.26 Y44.43 F3000.0
G01 X31.25 Y44.44 F3000.0
G01 X30.42 Y45.02 F3000.0
G01 X29.9 Y45.44 F3000.0
G01 X29.37 Y45.86 F3000.0
G01 X29.13 Y46.03 F3000.0
G01 X28.06 Y46.77 F3000.0
G01 X27.76 Y46.98 F3000.0
G01 X26.63 Y47.75 F3000.0
G01 X26.09 Y47.83 F3000.0
G01 X25.5 Y47.72 F3000.0
G01 X25.47 Y47.7 F3000.0
G01 X24.5 Y47.33 F3000.0
G01 X24.0 Y46.74 F3000.0
G01 X23.7 Y46.22 F3000.0
G01 X23.76 Y46.18 F3000.0
G01 X24.67 Y45.6 F3000.0
G01 X24.99 Y45.36 F3000.0
G01 X25.79 Y44.77 F3000.0
G01 X26.91 Y43.94 F3000.0
G01 X27.2 Y43.72 F3000.0
G01 X28.0 Y43.12 F3000.0
G01 X29.09 Y42.31 F3000.0
G01 X29.27 Y42.17 F3000.0
G01 X30.25 Y41.44 F3000.0
G01 X30.69 Y41.16 F3000.0
G01 X31.0 Y40.93 F3000.0
G01 X31.53 Y40.59 F3000.0
G01 X31.69 Y40.5 F3000.0
G01 X32.76 Y39.98 F3000.0
G01 X32.78 Y39.97 F3000.0
G01 X33.68 Y39.48 F3000.0
G01 X34.27 Y40.01 F3000.0
G01 F3000.0
M5
G00 X29.47 Y36.69 F3000.0
M3 F3000.0
G01 X29.64 Y36.89 F3000.0
G01 X29.25 Y37.02 F3000.0
G01 X28.57 Y37.03 F3000.0
G01 X28.16 Y37.13 F3000.0
G01 X27.98 Y37.24 F3000.0
G01 X27.92 Y37.15 F3000.0
G01 X28.35 Y36.74 F3000.0
G01 X29.01 Y36.46 F3000.0
G01 X29.47 Y36.69 F3000.0
G01 F3000.0
M5
G00 X28.42 Y35.95 F3000.0
M3 F3000.0
G01 X28.52 Y36.28 F3000.0
G01 X28.25 Y35.95 F3000.0
G01 X28.16 Y35.61 F3000.0
G01 X28.42 Y35.95 F3000.0
G01 F3000.0
M5
G00 X27.57 Y36.02 F3000.0
M3 F3000.0
G01 Y36.39 F3000.0
G01 X27.54 Y37.77 F3000.0
G01 X27.49 Y38.12 F3000.0
G01 X27.31 Y39.46 F3000.0
G01 X26.98 Y39.24 F3000.0
G01 X26.8 Y38.82 F3000.0
G01 X26.78 Y38.2 F3000.0
G01 X26.92 Y37.49 F3000.0
G01 X27.19 Y36.82 F3000.0
G01 X27.38 Y36.38 F3000.0
G01 X27.32 Y36.15 F3000.0
G01 X27.03 Y35.75 F3000.0
G01 X27.01 Y35.55 F3000.0
G01 X27.18 Y35.56 F3000.0
G01 X27.57 Y36.02 F3000.0
G01 F3000.0
M5
G00 X25.08 Y35.66 F3000.0
M3 F3000.0
G01 X24.94 Y35.76 F3000.0
G01 X24.99 Y35.56 F3000.0
G01 X25.2 Y35.36 F3000.0
G01 X25.08 Y35.66 F3000.0
G01 F3000.0
M5
G00 X24.82 Y38.6 F3000.0
M3 F3000.0
G01 X24.69 Y38.66 F3000.0
G01 X24.63 Y38.52 F3000.0
G01 X24.68 Y37.7 F3000.0
G01 X24.81 Y36.87 F3000.0
G01 X24.86 Y37.69 F3000.0
G01 X24.82 Y38.6 F3000.0
G01 F3000.0
M5
G00 X25.01 Y40.28 F3000.0
M3 F3000.0
G01 X24.95 Y40.31 F3000.0
G01 X24.93 Y39.98 F3000.0
G01 X24.95 Y39.65 F3000.0
G01 X25.01 Y39.69 F3000.0
G01 Y40.28 F3000.0
G01 F3000.0
M5
G00 X14.74 Y46.01 F3000.0
M3 F3000.0
G01 X14.82 Y46.29 F3000.0
G01 X15.1 F3000.0
G01 X15.03 Y46.01 F3000.0
G01 X14.86 Y45.92 F3000.0
G01 X14.74 Y46.01 F3000.0
G01 F3000.0
M5
G00 X13.13 Y45.86 F3000.0
M3 F3000.0
G01 X13.38 Y46.03 F3000.0
G01 X13.63 Y45.86 F3000.0
G01 X13.38 Y45.7 F3000.0
G01 X13.13 Y45.86 F3000.0
G01 F3000.0
M5
G00 X12.56 Y46.63 F3000.0
M3 F3000.0
G01 X12.46 Y47.21 F3000.0
G01 X12.24 Y47.59 F3000.0
G01 X12.12 Y47.73 F3000.0
G01 X12.22 Y47.88 F3000.0
G01 X12.77 Y47.97 F3000.0
G01 X13.03 Y47.79 F3000.0
G01 X13.02 Y47.39 F3000.0
G01 X13.11 Y46.8 F3000.0
G01 X13.28 Y46.52 F3000.0
G01 X12.98 Y46.37 F3000.0
G01 X12.56 Y46.63 F3000.0
G01 F3000.0
M5
G00 X11.11 Y46.37 F3000.0
M3 F3000.0
G01 X10.78 Y46.42 F3000.0
G01 X10.53 Y46.19 F3000.0
G01 X10.86 Y46.14 F3000.0
G01 X11.11 Y46.37 F3000.0
G01 F3000.0
M5
G00 X10.94 Y46.96 F3000.0
M3 F3000.0
G01 X10.84 Y47.14 F3000.0
G01 X10.61 Y47.21 F3000.0
G01 X10.37 Y47.14 F3000.0
G01 X10.27 Y46.96 F3000.0
G01 X10.37 Y46.78 F3000.0
G01 X10.61 Y46.7 F3000.0
G01 X10.84 Y46.78 F3000.0
G01 X10.94 Y46.96 F3000.0
G01 F3000.0
M5
G00 X10.13 Y45.74 F3000.0
M3 F3000.0
G01 X9.89 Y46.66 F3000.0
G01 X9.87 Y47.22 F3000.0
G01 X10.1 Y47.5 F3000.0
G01 X10.59 Y47.6 F3000.0
G01 X11.1 Y47.48 F3000.0
G01 X11.46 Y46.64 F3000.0
G01 X11.47 Y46.63 F3000.0
G01 X11.71 Y45.64 F3000.0
G01 X11.6 Y45.55 F3000.0
G01 X11.34 Y45.71 F3000.0
G01 X11.07 Y45.84 F3000.0
G01 X10.81 Y45.57 F3000.0
G01 X10.42 Y45.22 F3000.0
G01 X10.13 Y45.74 F3000.0
G01 F3000.0
M5
G00 X8.25 Y45.07 F3000.0
M3 F3000.0
G01 X8.51 Y45.53 F3000.0
G01 X8.74 Y46.0 F3000.0
G01 X8.34 Y46.4 F3000.0
G01 X7.92 Y46.73 F3000.0
G01 X8.09 Y46.86 F3000.0
G01 X8.73 Y46.69 F3000.0
G01 X9.23 Y46.32 F3000.0
G01 X9.09 Y45.68 F3000.0
G01 X9.01 Y45.42 F3000.0
G01 X9.32 Y45.45 F3000.0
G01 X9.83 Y45.39 F3000.0
G01 X9.87 Y45.24 F3000.0
G01 X9.76 Y45.12 F3000.0
G01 X8.95 Y44.92 F3000.0
G01 X8.39 Y44.89 F3000.0
G01 X8.25 Y45.07 F3000.0
G01 F3000.0
M5
G00 X6.83 Y45.22 F3000.0
M3 F3000.0
G01 X6.81 Y45.33 F3000.0
G01 X6.57 Y46.41 F3000.0
G01 X6.62 Y46.65 F3000.0
G01 X6.76 Y46.58 F3000.0
G01 Y46.57 F3000.0
G01 X7.16 Y45.65 F3000.0
G01 X7.18 Y45.58 F3000.0
G01 X7.52 Y44.56 F3000.0
G01 X7.51 Y44.41 F3000.0
G01 X7.35 Y44.35 F3000.0
G01 X7.09 Y44.58 F3000.0
G01 X6.83 Y45.22 F3000.0
G01 F3000.0
M5
G00 X8.44 Y42.07 F3000.0
M3 F3000.0
G01 X8.02 Y42.38 F3000.0
G01 X7.4 Y42.62 F3000.0
G01 X7.39 F3000.0
G01 X6.4 Y42.78 F3000.0
G01 X5.41 Y42.95 F3000.0
G01 X5.39 F3000.0
G01 X4.39 Y43.09 F3000.0
G01 X4.28 Y43.21 F3000.0
G01 X4.32 Y43.41 F3000.0
G01 X4.33 Y43.56 F3000.0
G01 X4.4 Y44.55 F3000.0
G01 X4.47 Y45.7 F3000.0
G01 Y46.16 F3000.0
G01 X4.49 Y47.63 F3000.0
G01 X5.25 Y47.72 F3000.0
G01 X5.93 Y47.92 F3000.0
G01 X6.71 Y48.34 F3000.0
G01 X7.45 Y48.86 F3000.0
G01 X7.96 Y49.39 F3000.0
G01 X8.44 Y49.73 F3000.0
G01 F3000.0
G01 X9.44 Y49.66 F3000.0
G01 X10.25 Y49.63 F3000.0
G01 X11.12 Y49.8 F3000.0
G01 X12.02 Y49.98 F3000.0
G01 X12.87 Y49.89 F3000.0
G01 X13.7 Y49.79 F3000.0
G01 X14.47 Y49.98 F3000.0
G01 X14.59 Y50.01 F3000.0
G01 X15.66 Y50.34 F3000.0
G01 X15.85 Y50.19 F3000.0
G01 X15.97 Y49.79 F3000.0
G01 X15.99 Y49.74 F3000.0
G01 X16.44 Y48.85 F3000.0
G01 X16.91 Y47.9 F3000.0
G01 X17.03 Y47.71 F3000.0
G01 X17.67 Y46.66 F3000.0
G01 X17.29 Y46.29 F3000.0
G01 X17.12 Y46.09 F3000.0
G01 X16.3 Y45.12 F3000.0
G01 X16.22 Y44.96 F3000.0
G01 X15.64 Y43.94 F3000.0
G01 X15.38 Y43.26 F3000.0
G01 X14.98 Y43.27 F3000.0
G01 X13.58 Y43.32 F3000.0
G01 X13.18 Y43.34 F3000.0
G01 X11.78 Y43.38 F3000.0
G01 X11.55 Y43.23 F3000.0
G01 X10.5 Y42.52 F3000.0
G01 X10.2 Y42.34 F3000.0
G01 X9.02 Y41.66 F3000.0
G01 X8.44 Y42.07 F3000.0
G01 F3000.0
M5
G00 X10.42 Y42.88 F3000.0
M3 F3000.0
G01 X10.55 Y42.97 F3000.0
G01 X11.52 Y43.6 F3000.0
G01 X11.92 F3000.0
G01 X13.33 F3000.0
G01 X13.62 Y43.61 F3000.0
G01 X14.92 Y43.65 F3000.0
G01 X15.15 Y43.77 F3000.0
G01 X15.23 Y44.02 F3000.0
G01 X15.46 Y44.38 F3000.0
G01 X16.22 Y45.59 F3000.0
G01 X16.37 Y45.78 F3000.0
G01 X17.12 Y46.75 F3000.0
G01 X17.07 Y46.83 F3000.0
G01 X16.48 Y47.75 F3000.0
G01 X16.29 Y48.1 F3000.0
G01 X15.64 Y49.33 F3000.0
G01 X15.43 Y49.77 F3000.0
G01 X15.17 Y49.81 F3000.0
G01 X15.06 Y49.78 F3000.0
G01 X13.99 Y49.47 F3000.0
G01 X13.93 Y49.48 F3000.0
G01 X12.87 Y49.53 F3000.0
G01 X11.97 Y49.62 F3000.0
G01 X11.02 Y49.45 F3000.0
G01 X10.1 Y49.29 F3000.0
G01 X9.29 Y49.31 F3000.0
G01 X8.57 F3000.0
G01 X7.94 Y48.84 F3000.0
G01 X7.64 Y48.61 F3000.0
G01 X6.55 Y47.76 F3000.0
G01 X6.47 Y47.74 F3000.0
G01 X5.44 Y47.38 F3000.0
G01 X4.89 F3000.0
G01 Y47.13 F3000.0
G01 Y45.89 F3000.0
G01 X4.87 Y45.39 F3000.0
G01 X4.79 Y43.91 F3000.0
G01 X4.7 Y43.42 F3000.0
G01 X5.06 Y43.36 F3000.0
G01 X6.41 Y43.15 F3000.0
G01 X6.62 Y43.1 F3000.0
G01 X7.81 Y42.86 F3000.0
G01 X8.57 Y42.53 F3000.0
G01 X9.17 Y42.18 F3000.0
G01 X9.36 Y42.28 F3000.0
G01 X10.42 Y42.88 F3000.0
G01 F3000.0
M5
G00 X14.27 Y47.63 F3000.0
M3 F3000.0
G01 X14.16 Y48.01 F3000.0
G01 X14.27 Y48.25 F3000.0
G01 X14.46 Y48.3 F3000.0
G01 X14.63 Y47.98 F3000.0
G01 X14.8 Y47.38 F3000.0
G01 X14.64 Y47.21 F3000.0
G01 X14.27 Y47.63 F3000.0
G01 F3000.0
M5
G00 X11.95 Y51.09 F3000.0
M3 F3000.0
G01 X12.29 Y51.7 F3000.0
G01 X12.61 Y52.25 F3000.0
G01 X12.55 Y52.38 F3000.0
G01 X12.36 Y52.42 F3000.0
G01 X12.19 Y52.48 F3000.0
G01 X12.17 Y52.63 F3000.0
G01 X12.48 Y52.78 F3000.0
G01 X13.02 Y52.63 F3000.0
G01 X13.18 Y52.61 F3000.0
G01 X13.26 Y52.7 F3000.0
G01 X13.2 Y53.51 F3000.0
G01 X13.15 Y54.27 F3000.0
G01 X13.31 Y54.4 F3000.0
G01 X13.69 Y53.58 F3000.0
G01 X13.99 Y52.64 F3000.0
G01 X14.06 Y52.48 F3000.0
G01 X13.99 Y52.35 F3000.0
G01 X13.57 F3000.0
G01 X13.31 Y52.3 F3000.0
G01 X13.02 Y51.97 F3000.0
G01 X12.47 Y51.25 F3000.0
G01 X12.04 Y50.91 F3000.0
G01 X11.95 Y51.09 F3000.0
G01 F3000.0
M5
G00 X9.8 Y50.42 F3000.0
M3 F3000.0
G01 X10.27 Y50.71 F3000.0
G01 X11.05 Y51.03 F3000.0
G01 X11.3 Y51.25 F3000.0
G01 X11.35 Y51.43 F3000.0
G01 X10.78 Y51.58 F3000.0
G01 X9.85 Y51.75 F3000.0
G01 X9.55 Y51.94 F3000.0
G01 X9.43 Y52.14 F3000.0
G01 X9.8 Y52.51 F3000.0
G01 X9.84 Y52.52 F3000.0
G01 X10.82 Y52.85 F3000.0
G01 X11.28 Y52.79 F3000.0
G01 X10.7 Y52.52 F3000.0
G01 X10.2 Y52.38 F3000.0
G01 X10.05 Y52.24 F3000.0
G01 X10.81 Y51.97 F3000.0
G01 X11.47 Y51.79 F3000.0
G01 X11.77 Y51.51 F3000.0
G01 X11.72 Y51.16 F3000.0
G01 X11.3 Y50.76 F3000.0
G01 X11.24 Y50.73 F3000.0
G01 X10.27 Y50.29 F3000.0
G01 X9.9 Y50.26 F3000.0
G01 X9.8 Y50.42 F3000.0
G01 F3000.0
M5
G00 X11.12 Y55.34 F3000.0
M3 F3000.0
G01 X10.8 Y55.99 F3000.0
G01 Y56.28 F3000.0
G01 X11.06 Y56.17 F3000.0
G01 X11.51 Y55.62 F3000.0
G01 X11.92 Y54.9 F3000.0
G01 X11.89 Y54.8 F3000.0
G01 X11.71 Y54.77 F3000.0
G01 X11.12 Y55.34 F3000.0
G01 F3000.0
M5
G00 X13.17 Y56.24 F3000.0
M3 F3000.0
G01 X13.49 Y56.89 F3000.0
G01 X13.44 Y57.13 F3000.0
G01 X13.25 Y57.25 F3000.0
G01 X12.93 Y57.43 F3000.0
G01 X13.42 Y57.6 F3000.0
G01 X13.88 Y57.57 F3000.0
G01 X13.97 Y57.2 F3000.0
G01 X14.04 Y56.85 F3000.0
G01 X14.35 F3000.0
G01 X15.04 Y56.95 F3000.0
G01 X15.26 Y57.0 F3000.0
G01 X15.14 Y57.21 F3000.0
G01 X15.02 Y57.74 F3000.0
G01 X15.36 Y58.19 F3000.0
G01 X15.92 Y58.41 F3000.0
G01 X16.48 Y58.23 F3000.0
G01 X16.85 Y57.67 F3000.0
G01 Y57.17 F3000.0
G01 X16.33 Y56.8 F3000.0
G01 X15.76 Y56.72 F3000.0
G01 X15.58 Y56.67 F3000.0
G01 X14.43 Y56.38 F3000.0
G01 X14.28 Y56.33 F3000.0
G01 X13.17 Y55.96 F3000.0
G01 X13.03 Y56.01 F3000.0
G01 X13.17 Y56.24 F3000.0
G01 F3000.0
M5
G00 X11.62 Y58.27 F3000.0
M3 F3000.0
G01 X12.04 Y58.61 F3000.0
G01 X12.38 Y58.86 F3000.0
G01 X12.62 Y59.24 F3000.0
G01 X12.7 Y60.18 F3000.0
G01 X12.53 Y60.55 F3000.0
G01 X12.18 Y60.65 F3000.0
G01 X11.45 Y60.49 F3000.0
G01 X11.18 Y60.4 F3000.0
G01 X11.03 Y60.49 F3000.0
G01 X11.13 Y60.7 F3000.0
G01 X11.56 Y60.92 F3000.0
G01 X11.57 F3000.0
G01 X12.56 Y61.08 F3000.0
G01 X12.85 Y60.92 F3000.0
G01 X13.03 Y60.61 F3000.0
G01 X13.04 Y60.6 F3000.0
G01 X13.1 Y59.58 F3000.0
G01 Y59.16 F3000.0
G01 X13.25 Y59.1 F3000.0
G01 X13.47 Y59.37 F3000.0
G01 X13.79 Y59.94 F3000.0
G01 X14.12 Y60.19 F3000.0
G01 X14.54 Y60.31 F3000.0
G01 X14.95 Y60.29 F3000.0
G01 X15.27 Y60.12 F3000.0
G01 X15.5 Y60.09 F3000.0
G01 X15.68 Y60.35 F3000.0
G01 X15.76 Y60.73 F3000.0
G01 X15.65 Y61.07 F3000.0
G01 X15.54 Y61.42 F3000.0
G01 X15.89 Y61.44 F3000.0
G01 X16.08 Y61.24 F3000.0
G01 X16.15 Y60.91 F3000.0
G01 X16.22 Y60.6 F3000.0
G01 X16.41 Y60.49 F3000.0
G01 X16.66 Y60.32 F3000.0
G01 X16.12 Y59.89 F3000.0
G01 X15.38 Y59.71 F3000.0
G01 X15.14 Y59.65 F3000.0
G01 X14.83 Y59.2 F3000.0
G01 X14.22 Y58.97 F3000.0
G01 X14.09 Y58.93 F3000.0
G01 X13.03 Y58.55 F3000.0
G01 X12.99 Y58.54 F3000.0
G01 X12.02 Y58.16 F3000.0
G01 X11.72 Y58.15 F3000.0
G01 X11.62 Y58.27 F3000.0
G01 F3000.0
M5
G00 X14.71 Y59.59 F3000.0
M3 F3000.0
G01 X14.74 Y59.94 F3000.0
G01 X14.31 Y59.81 F3000.0
G01 X13.97 Y59.47 F3000.0
G01 X14.07 Y59.33 F3000.0
G01 X14.3 Y59.32 F3000.0
G01 X14.71 Y59.59 F3000.0
G01 F3000.0
M5
G00 X16.49 Y57.37 F3000.0
M3 F3000.0
G01 X16.21 Y57.87 F3000.0
G01 X15.73 Y58.02 F3000.0
G01 X15.49 Y57.67 F3000.0
G01 X15.59 Y57.24 F3000.0
G01 X16.12 Y57.13 F3000.0
G01 X16.38 Y57.21 F3000.0
G01 X16.49 Y57.37 F3000.0
G01 F3000.0
M5
G00 X18.11 Y58.25 F3000.0
M3 F3000.0
G01 Y58.28 F3000.0
G01 X18.07 Y59.31 F3000.0
G01 X18.13 Y59.5 F3000.0
G01 X18.23 Y59.46 F3000.0
G01 X18.25 Y59.34 F3000.0
G01 X18.42 Y58.23 F3000.0
G01 X18.41 Y58.18 F3000.0
G01 X18.38 Y57.12 F3000.0
G01 X18.36 Y57.2 F3000.0
G01 X18.11 Y58.25 F3000.0
G01 F3000.0
M5
G00 X18.04 Y60.5 F3000.0
M3 F3000.0
G01 X18.02 Y60.93 F3000.0
G01 X17.48 Y60.9 F3000.0
G01 X17.06 Y60.89 F3000.0
G01 X16.8 Y61.02 F3000.0
G01 X16.69 Y61.32 F3000.0
G01 X16.73 Y61.79 F3000.0
G01 X16.89 Y62.28 F3000.0
G01 X17.07 Y62.46 F3000.0
G01 X17.2 Y62.32 F3000.0
G01 Y61.84 F3000.0
G01 Y61.43 F3000.0
G01 X17.44 Y61.33 F3000.0
G01 X17.95 Y61.47 F3000.0
G01 X18.19 Y61.9 F3000.0
G01 X18.46 Y62.29 F3000.0
G01 X18.61 Y62.25 F3000.0
G01 X18.67 Y62.03 F3000.0
G01 X18.78 Y61.76 F3000.0
G01 X19.05 Y61.59 F3000.0
G01 X19.32 Y61.47 F3000.0
G01 X18.98 Y61.31 F3000.0
G01 X18.62 Y61.05 F3000.0
G01 X18.43 Y60.56 F3000.0
G01 X18.3 Y60.15 F3000.0
G01 X18.14 Y59.99 F3000.0
G01 X18.04 Y60.1 F3000.0
G01 Y60.5 F3000.0
G01 F3000.0
M5
G00 X20.02 Y55.97 F3000.0
M3 F3000.0
G01 X19.85 Y56.03 F3000.0
G01 X19.68 Y55.76 F3000.0
G01 X19.85 Y55.7 F3000.0
G01 X20.02 Y55.97 F3000.0
G01 F3000.0
M5
G00 X14.28 Y52.88 F3000.0
M3 F3000.0
G01 Y53.43 F3000.0
G01 X14.47 Y53.81 F3000.0
G01 X14.82 Y54.01 F3000.0
G01 X15.34 F3000.0
G01 X15.88 Y53.98 F3000.0
G01 X15.98 Y54.23 F3000.0
G01 X16.09 Y54.5 F3000.0
G01 X16.41 Y54.65 F3000.0
G01 X16.91 Y54.59 F3000.0
G01 X16.89 Y54.48 F3000.0
G01 X16.66 Y54.35 F3000.0
G01 X16.32 Y54.0 F3000.0
G01 X16.46 Y53.78 F3000.0
G01 X16.93 Y54.01 F3000.0
G01 X17.18 Y54.3 F3000.0
G01 X17.2 Y54.68 F3000.0
G01 X17.29 Y55.1 F3000.0
G01 X17.43 Y55.06 F3000.0
G01 X17.57 Y54.83 F3000.0
G01 X17.69 Y54.64 F3000.0
G01 X17.9 Y54.86 F3000.0
G01 X18.14 Y55.05 F3000.0
G01 X18.4 F3000.0
G01 X18.64 F3000.0
G01 X18.79 Y55.24 F3000.0
G01 X19.16 Y55.81 F3000.0
G01 X19.64 Y56.36 F3000.0
G01 X19.92 Y56.52 F3000.0
G01 X20.44 Y56.33 F3000.0
G01 X20.95 Y55.9 F3000.0
G01 X20.93 Y55.75 F3000.0
G01 X20.69 F3000.0
G01 X20.24 Y55.45 F3000.0
G01 X19.95 Y55.21 F3000.0
G01 X19.61 Y55.11 F3000.0
G01 X19.12 Y54.86 F3000.0
G01 X18.93 Y54.68 F3000.0
G01 X18.61 Y54.6 F3000.0
G01 X18.3 Y54.53 F3000.0
G01 X18.11 Y54.35 F3000.0
G01 X17.78 Y54.1 F3000.0
G01 X17.25 Y53.76 F3000.0
G01 X16.83 Y53.5 F3000.0
G01 X16.15 Y53.43 F3000.0
G01 X15.47 Y53.35 F3000.0
G01 X15.06 Y53.09 F3000.0
G01 X14.57 Y52.77 F3000.0
G01 X14.38 Y52.76 F3000.0
G01 X14.28 Y52.88 F3000.0
G01 F3000.0
M5
G00 X36.55 Y46.91 F3000.0
M3 F3000.0
G01 X36.59 Y47.25 F3000.0
G01 X36.49 Y47.38 F3000.0
G01 X36.32 Y46.84 F3000.0
G01 X36.38 Y46.4 F3000.0
G01 X36.55 Y46.91 F3000.0
G01 F3000.0
M5
G00 X37.58 Y46.78 F3000.0
M3 F3000.0
G01 X36.98 Y47.18 F3000.0
G01 X36.86 Y47.15 F3000.0
G01 X36.83 Y46.96 F3000.0
G01 X37.18 Y46.64 F3000.0
G01 X38.0 Y46.38 F3000.0
G01 X37.58 Y46.78 F3000.0
G01 F3000.0
M5
G00 X39.35 Y46.2 F3000.0
M3 F3000.0
G01 X39.01 Y46.54 F3000.0
G01 X38.3 Y47.02 F3000.0
G01 X38.15 Y47.12 F3000.0
G01 X37.16 Y47.78 F3000.0
G01 X36.84 Y47.91 F3000.0
G01 X36.91 Y47.84 F3000.0
G01 X37.11 Y47.67 F3000.0
G01 X38.06 Y46.84 F3000.0
G01 X38.21 Y46.72 F3000.0
G01 X39.15 Y45.98 F3000.0
G01 X39.48 Y45.88 F3000.0
G01 X39.35 Y46.2 F3000.0
G01 F3000.0
M5
G00 X40.52 Y46.94 F3000.0
M3 F3000.0
G01 X40.26 Y47.11 F3000.0
G01 X40.1 Y47.13 F3000.0
G01 Y47.04 F3000.0
G01 X40.35 Y46.88 F3000.0
G01 X40.52 Y46.94 F3000.0
G01 F3000.0
M5
G00 X40.61 Y48.24 F3000.0
M3 F3000.0
G01 X40.56 Y48.25 F3000.0
G01 X39.52 Y48.37 F3000.0
G01 X39.28 Y48.33 F3000.0
G01 X39.27 Y48.21 F3000.0
G01 X39.69 Y48.14 F3000.0
G01 X40.29 Y48.08 F3000.0
G01 X40.92 Y48.02 F3000.0
G01 X41.06 Y48.12 F3000.0
G01 X40.61 Y48.24 F3000.0
G01 F3000.0
M5
G00 X42.63 Y48.69 F3000.0
M3 F3000.0
G01 X42.69 Y48.78 F3000.0
G01 X42.45 Y48.84 F3000.0
G01 X42.14 Y48.85 F3000.0
G01 X40.83 Y48.88 F3000.0
G01 X40.61 Y48.89 F3000.0
G01 X39.61 Y48.94 F3000.0
G01 X38.39 Y49.0 F3000.0
G01 X38.21 Y49.04 F3000.0
G01 X38.22 Y48.96 F3000.0
G01 X38.54 Y48.89 F3000.0
G01 X39.84 Y48.63 F3000.0
G01 X39.86 F3000.0
G01 X40.86 Y48.55 F3000.0
G01 X41.88 Y48.47 F3000.0
G01 X42.63 Y48.69 F3000.0
G01 F3000.0
M5
G00 X43.46 Y49.06 F3000.0
M3 F3000.0
G01 X43.47 Y49.18 F3000.0
G01 X43.32 Y49.23 F3000.0
G01 X42.87 Y49.26 F3000.0
G01 X41.42 Y49.38 F3000.0
G01 X41.13 Y49.4 F3000.0
G01 X39.14 Y49.56 F3000.0
G01 X37.86 Y49.66 F3000.0
G01 X37.09 Y49.67 F3000.0
G01 X36.9 Y49.58 F3000.0
G01 X37.81 Y49.32 F3000.0
G01 X38.25 Y49.3 F3000.0
G01 X39.24 Y49.24 F3000.0
G01 X40.67 Y49.15 F3000.0
G01 X40.85 Y49.14 F3000.0
G01 X41.84 Y49.06 F3000.0
G01 X43.01 Y48.98 F3000.0
G01 X43.25 Y48.9 F3000.0
G01 X43.46 Y49.06 F3000.0
G01 F3000.0
M5
G00 X44.8 Y49.83 F3000.0
M3 F3000.0
G01 X44.55 Y49.86 F3000.0
G01 X43.56 Y49.94 F3000.0
G01 X42.56 Y50.03 F3000.0
G01 X41.56 Y50.11 F3000.0
G01 X39.57 Y50.28 F3000.0
G01 X38.58 Y50.37 F3000.0
G01 X37.33 Y50.48 F3000.0
G01 X37.12 Y50.47 F3000.0
G01 X35.9 Y50.44 F3000.0
G01 X35.67 Y50.32 F3000.0
G01 X35.92 Y50.18 F3000.0
G01 X36.0 Y50.17 F3000.0
G01 X36.99 Y50.08 F3000.0
G01 X39.98 Y49.8 F3000.0
G01 X40.98 Y49.71 F3000.0
G01 X41.97 Y49.62 F3000.0
G01 X43.04 Y49.52 F3000.0
G01 X43.22 Y49.53 F3000.0
G01 X44.39 Y49.62 F3000.0
G01 X44.82 Y49.73 F3000.0
G01 X44.8 Y49.83 F3000.0
G01 F3000.0
M5
G00 X46.07 Y50.4 F3000.0
M3 F3000.0
G01 X46.14 Y50.53 F3000.0
G01 X45.73 Y50.58 F3000.0
G01 X44.89 Y50.64 F3000.0
G01 X44.83 Y50.65 F3000.0
G01 X39.84 Y50.97 F3000.0
G01 X38.84 Y51.03 F3000.0
G01 X37.84 Y51.1 F3000.0
G01 X36.78 Y51.16 F3000.0
G01 X36.44 Y51.17 F3000.0
G01 X35.1 Y51.2 F3000.0
G01 X34.83 Y51.17 F3000.0
G01 X34.9 Y51.1 F3000.0
G01 X35.11 Y51.08 F3000.0
G01 X36.1 Y50.95 F3000.0
G01 X37.09 Y50.83 F3000.0
G01 X38.3 Y50.68 F3000.0
G01 X38.34 F3000.0
G01 X39.34 Y50.59 F3000.0
G01 X40.33 Y50.51 F3000.0
G01 X41.33 Y50.43 F3000.0
G01 X42.37 Y50.34 F3000.0
G01 X42.51 F3000.0
G01 X43.51 Y50.3 F3000.0
G01 X44.65 Y50.27 F3000.0
G01 X44.86 Y50.29 F3000.0
G01 X46.07 Y50.4 F3000.0
G01 F3000.0
M5
G00 X48.1 Y51.4 F3000.0
M3 F3000.0
G01 X48.87 Y51.8 F3000.0
G01 X48.91 Y51.89 F3000.0
G01 X48.76 Y51.93 F3000.0
G01 X47.83 Y52.0 F3000.0
G01 X47.65 Y52.02 F3000.0
G01 X46.65 Y52.09 F3000.0
G01 X45.65 Y52.16 F3000.0
G01 X44.47 Y52.24 F3000.0
G01 X44.4 Y52.25 F3000.0
G01 X43.4 Y52.31 F3000.0
G01 X42.4 Y52.38 F3000.0
G01 X41.41 Y52.45 F3000.0
G01 X39.41 Y52.59 F3000.0
G01 X38.34 Y52.66 F3000.0
G01 X38.31 Y52.67 F3000.0
G01 X37.31 Y52.71 F3000.0
G01 X36.31 Y52.76 F3000.0
G01 X35.31 Y52.8 F3000.0
G01 X34.28 Y52.85 F3000.0
G01 X34.02 Y52.86 F3000.0
G01 X32.77 Y52.93 F3000.0
G01 X31.99 Y53.01 F3000.0
G01 X32.49 Y52.62 F3000.0
G01 X33.24 Y52.39 F3000.0
G01 X33.64 Y52.37 F3000.0
G01 X35.63 Y52.29 F3000.0
G01 X37.03 Y52.22 F3000.0
G01 X37.33 Y52.21 F3000.0
G01 X38.33 Y52.16 F3000.0
G01 X39.33 Y52.11 F3000.0
G01 X40.33 Y52.07 F3000.0
G01 X41.33 Y52.02 F3000.0
G01 X42.33 Y51.97 F3000.0
G01 X43.63 Y51.91 F3000.0
G01 X43.98 Y51.89 F3000.0
G01 X45.98 Y51.8 F3000.0
G01 X47.33 Y51.73 F3000.0
G01 X47.39 Y51.7 F3000.0
G01 X47.26 Y51.68 F3000.0
G01 X46.52 Y51.65 F3000.0
G01 X46.12 Y51.66 F3000.0
G01 X45.12 F3000.0
G01 X43.71 Y51.67 F3000.0
G01 X43.23 Y51.69 F3000.0
G01 X41.23 Y51.77 F3000.0
G01 X40.23 Y51.81 F3000.0
G01 X39.23 Y51.85 F3000.0
G01 X37.75 Y51.91 F3000.0
G01 X37.69 F3000.0
G01 X35.7 Y52.01 F3000.0
G01 X34.64 Y52.07 F3000.0
G01 X34.57 Y52.06 F3000.0
G01 X33.5 Y52.03 F3000.0
G01 Y51.96 F3000.0
G01 X33.8 Y51.84 F3000.0
G01 X34.12 Y51.8 F3000.0
G01 X35.11 Y51.66 F3000.0
G01 X36.42 Y51.49 F3000.0
G01 X36.73 Y51.46 F3000.0
G01 X37.73 Y51.39 F3000.0
G01 X38.73 Y51.32 F3000.0
G01 X39.72 Y51.25 F3000.0
G01 X40.72 Y51.18 F3000.0
G01 X42.03 Y51.09 F3000.0
G01 X42.19 F3000.0
G01 X43.19 Y51.05 F3000.0
G01 X44.19 Y51.02 F3000.0
G01 X45.19 Y50.98 F3000.0
G01 X46.34 Y50.94 F3000.0
G01 X47.3 Y51.08 F3000.0
G01 X48.1 Y51.4 F3000.0
G01 F3000.0
M5
G00 X48.66 Y52.8 F3000.0
M3 F3000.0
G01 X48.23 Y52.84 F3000.0
G01 X47.23 Y52.95 F3000.0
G01 X45.81 Y53.09 F3000.0
G01 X46.26 Y53.16 F3000.0
G01 X46.63 F3000.0
G01 X48.0 Y53.15 F3000.0
G01 X48.23 Y53.14 F3000.0
G01 X49.23 F3000.0
G01 X50.46 Y53.13 F3000.0
G01 X50.74 Y53.19 F3000.0
G01 X50.6 Y53.32 F3000.0
G01 X49.69 Y53.54 F3000.0
G01 X49.28 Y53.58 F3000.0
G01 X47.88 Y53.71 F3000.0
G01 X47.87 F3000.0
G01 X46.87 Y53.74 F3000.0
G01 X45.86 Y53.78 F3000.0
G01 X45.14 Y53.53 F3000.0
G01 X44.9 Y53.43 F3000.0
G01 X43.75 Y52.93 F3000.0
G01 F3000.0
G01 X42.79 Y52.65 F3000.0
G01 X43.13 Y52.62 F3000.0
G01 X44.47 Y52.51 F3000.0
G01 X44.5 F3000.0
G01 X45.5 Y52.44 F3000.0
G01 X46.5 Y52.37 F3000.0
G01 X47.49 Y52.31 F3000.0
G01 X48.52 Y52.24 F3000.0
G01 X49.4 Y52.27 F3000.0
G01 X49.92 Y52.42 F3000.0
G01 X50.21 Y52.57 F3000.0
G01 X50.18 Y52.65 F3000.0
G01 X49.92 Y52.68 F3000.0
G01 X48.66 Y52.8 F3000.0
G01 F3000.0
M5
G00 X49.04 Y54.1 F3000.0
M3 F3000.0
G01 X48.59 Y54.13 F3000.0
G01 X47.59 Y54.19 F3000.0
G01 X46.15 Y54.27 F3000.0
G01 X46.32 Y54.1 F3000.0
G01 X46.7 Y54.07 F3000.0
G01 X48.09 Y53.96 F3000.0
G01 F3000.0
G01 X49.09 Y53.99 F3000.0
G01 X49.18 Y54.04 F3000.0
G01 X49.04 Y54.1 F3000.0
G01 F3000.0
M5
G00 X48.5 Y54.75 F3000.0
M3 F3000.0
G01 X47.62 Y54.98 F3000.0
G01 X46.82 Y54.94 F3000.0
G01 X46.84 Y54.82 F3000.0
G01 X47.05 Y54.72 F3000.0
G01 X47.99 Y54.62 F3000.0
G01 X48.42 Y54.65 F3000.0
G01 X48.5 Y54.75 F3000.0
G01 F3000.0
M5
G00 X47.5 Y55.44 F3000.0
M3 F3000.0
G01 X47.23 Y55.61 F3000.0
G01 X47.08 Y55.44 F3000.0
G01 X47.34 Y55.28 F3000.0
G01 X47.49 Y55.33 F3000.0
G01 X47.5 Y55.44 F3000.0
G01 F3000.0
M5
G00 X52.19 Y53.53 F3000.0
M3 F3000.0
G01 X52.39 Y53.67 F3000.0
G01 X52.32 Y53.8 F3000.0
G01 X51.52 Y53.93 F3000.0
G01 X50.98 Y53.98 F3000.0
G01 X50.77 Y54.12 F3000.0
G01 X51.6 Y54.24 F3000.0
G01 X51.78 Y54.22 F3000.0
G01 X52.95 Y54.08 F3000.0
G01 X53.15 Y54.16 F3000.0
G01 X53.21 Y54.6 F3000.0
G01 Y55.19 F3000.0
G01 X53.12 Y55.2 F3000.0
G01 X52.12 Y55.25 F3000.0
G01 X51.03 Y55.32 F3000.0
G01 X50.81 F3000.0
G01 X49.81 Y55.35 F3000.0
G01 X48.59 Y55.39 F3000.0
G01 X48.46 Y55.33 F3000.0
G01 X48.54 Y55.26 F3000.0
G01 X49.16 Y55.11 F3000.0
G01 X49.25 F3000.0
G01 X50.24 Y55.03 F3000.0
G01 X51.32 Y54.94 F3000.0
G01 X51.43 F3000.0
G01 X52.54 Y54.89 F3000.0
G01 X52.96 Y54.76 F3000.0
G01 X52.52 Y54.63 F3000.0
G01 X52.35 F3000.0
G01 X51.18 F3000.0
G01 X50.8 Y54.64 F3000.0
G01 X49.41 Y54.69 F3000.0
G01 X49.85 Y54.31 F3000.0
G01 F3000.0
G01 X50.74 Y53.84 F3000.0
G01 X51.53 Y53.59 F3000.0
G01 X51.9 Y53.44 F3000.0
G01 X52.19 Y53.53 F3000.0
G01 F3000.0
M5
G00 X51.87 Y51.75 F3000.0
M3 F3000.0
G01 X51.79 Y51.91 F3000.0
G01 X51.62 Y51.75 F3000.0
G01 X51.69 Y51.58 F3000.0
G01 X51.87 Y51.75 F3000.0
G01 F3000.0
M5
G00 X51.06 Y51.61 F3000.0
M3 F3000.0
G01 X50.99 Y51.68 F3000.0
G01 X50.96 Y51.51 F3000.0
G01 X51.04 Y51.29 F3000.0
G01 X51.06 Y51.61 F3000.0
G01 F3000.0
M5
G00 X51.95 Y49.95 F3000.0
M3 F3000.0
G01 X51.78 Y50.11 F3000.0
G01 X51.28 Y50.16 F3000.0
G01 X50.64 Y50.05 F3000.0
G01 Y49.95 F3000.0
G01 X50.9 Y49.85 F3000.0
G01 X51.65 Y49.76 F3000.0
G01 X51.95 Y49.95 F3000.0
G01 F3000.0
M5
G00 X51.28 Y48.62 F3000.0
M3 F3000.0
G01 X51.03 Y48.89 F3000.0
G01 X50.82 Y49.01 F3000.0
G01 X50.77 Y48.83 F3000.0
G01 X50.85 Y48.63 F3000.0
G01 X51.03 Y48.55 F3000.0
G01 X51.28 Y48.62 F3000.0
G01 F3000.0
M5
G00 X51.35 Y47.98 F3000.0
M3 F3000.0
G01 X52.34 Y47.99 F3000.0
G01 X52.49 Y48.12 F3000.0
G01 X51.95 Y48.21 F3000.0
G01 X51.88 Y48.22 F3000.0
G01 X50.81 Y48.23 F3000.0
G01 X50.53 Y48.11 F3000.0
G01 X50.44 Y47.9 F3000.0
G01 X50.47 Y47.73 F3000.0
G01 X50.59 Y47.86 F3000.0
G01 X50.85 Y48.01 F3000.0
G01 X51.35 Y47.98 F3000.0
G01 F3000.0
M5
G00 X51.61 Y46.7 F3000.0
M3 F3000.0
G01 X51.23 Y47.1 F3000.0
G01 X51.26 Y47.35 F3000.0
G01 X51.71 Y47.45 F3000.0
G01 X52.6 Y47.43 F3000.0
G01 X53.44 Y47.41 F3000.0
G01 X53.51 Y47.46 F3000.0
G01 X53.4 Y47.56 F3000.0
G01 X53.2 Y47.57 F3000.0
G01 X52.0 Y47.67 F3000.0
G01 X51.83 Y47.65 F3000.0
G01 X50.67 Y47.5 F3000.0
G01 X50.79 Y46.82 F3000.0
G01 X51.03 Y46.3 F3000.0
G01 X51.57 Y46.2 F3000.0
G01 X52.19 F3000.0
G01 X51.61 Y46.7 F3000.0
M5
G00 X50.44 Y45.65 F3000.0
M3 F3000.0
G01 X50.29 Y45.86 F3000.0
G01 X50.34 Y45.64 F3000.0
G01 X50.45 Y45.14 F3000.0
G01 X50.48 Y45.03 F3000.0
G01 X50.55 Y45.14 F3000.0
G01 X50.44 Y45.65 F3000.0
G01 F3000.0
M5
G00 X51.22 Y45.07 F3000.0
M3 F3000.0
G01 X51.16 Y45.09 F3000.0
G01 X51.14 Y44.86 F3000.0
G01 X51.16 Y44.62 F3000.0
G01 X51.22 Y44.65 F3000.0
G01 Y45.07 F3000.0
G01 F3000.0
M5
G00 X49.47 Y46.03 F3000.0
M3 F3000.0
G01 X49.46 Y46.4 F3000.0
G01 X49.59 Y46.54 F3000.0
G01 X49.7 Y46.4 F3000.0
G01 X49.77 Y46.02 F3000.0
G01 X49.9 Y45.9 F3000.0
G01 X49.93 Y46.14 F3000.0
G01 X49.7 Y46.68 F3000.0
G01 X49.51 Y46.85 F3000.0
G01 X49.36 F3000.0
G01 X49.23 Y46.02 F3000.0
G01 X49.29 Y45.57 F3000.0
G01 X49.4 Y45.43 F3000.0
G01 X49.47 Y46.03 F3000.0
G01 F3000.0
M5
G00 X48.09 Y46.54 F3000.0
M3 F3000.0
G01 X48.19 Y46.8 F3000.0
G01 X47.93 Y46.67 F3000.0
G01 X47.6 Y46.35 F3000.0
G01 X47.74 Y46.2 F3000.0
G01 X48.09 Y46.54 F3000.0
G01 F3000.0
M5
G00 X47.41 Y46.97 F3000.0
M3 F3000.0
G01 X47.26 Y47.28 F3000.0
G01 X47.04 Y46.97 F3000.0
G01 X47.03 Y46.68 F3000.0
G01 X47.19 Y46.65 F3000.0
G01 X47.41 Y46.96 F3000.0
G01 Y46.97 F3000.0
M5
G00 X47.69 Y45.4 F3000.0
M3 F3000.0
G01 X47.63 Y45.43 F3000.0
G01 X47.61 Y45.19 F3000.0
G01 X47.63 Y44.96 F3000.0
G01 X47.69 Y44.98 F3000.0
G01 Y45.4 F3000.0
G01 F3000.0
M5
G00 X46.48 Y45.39 F3000.0
M3 F3000.0
G01 X46.68 Y45.95 F3000.0
G01 X46.45 Y45.83 F3000.0
G01 X46.17 Y45.25 F3000.0
G01 X46.13 Y44.86 F3000.0
G01 X46.48 Y45.39 F3000.0
G01 F3000.0
M5
G00 X46.78 Y43.71 F3000.0
M3 F3000.0
G01 X46.68 F3000.0
G01 X46.71 Y43.4 F3000.0
G01 X46.8 Y43.1 F3000.0
G01 X46.87 Y43.24 F3000.0
G01 X46.78 Y43.71 F3000.0
G01 F3000.0
M5
G00 X46.24 Y43.34 F3000.0
M3 F3000.0
G01 X46.13 Y43.68 F3000.0
G01 X46.09 Y43.57 F3000.0
G01 X46.16 Y42.96 F3000.0
G01 X46.33 Y42.71 F3000.0
G01 X46.24 Y43.34 F3000.0
G01 F3000.0
M5
G00 X46.24 Y42.33 F3000.0
M3 F3000.0
G01 X46.08 Y42.5 F3000.0
G01 X45.82 Y42.33 F3000.0
G01 Y42.22 F3000.0
G01 X45.97 Y42.17 F3000.0
G01 X46.24 Y42.33 F3000.0
G01 F3000.0
M5
G00 X47.41 Y41.56 F3000.0
M3 F3000.0
G01 X47.15 Y41.73 F3000.0
G01 X46.99 Y41.75 F3000.0
G01 Y41.66 F3000.0
G01 X47.24 Y41.5 F3000.0
G01 X47.41 Y41.56 F3000.0
G01 F3000.0
M5
G00 X46.85 Y41.02 F3000.0
M3 F3000.0
G01 X46.79 Y41.09 F3000.0
G01 X46.75 Y40.92 F3000.0
G01 X46.84 Y40.7 F3000.0
G01 X46.86 Y41.02 F3000.0
G01 X46.85 F3000.0
M5
G00 X44.29 Y40.95 F3000.0
M3 F3000.0
G01 X44.18 Y41.83 F3000.0
G01 X44.05 Y41.66 F3000.0
G01 X43.37 Y41.49 F3000.0
G01 X42.83 Y41.56 F3000.0
G01 X42.6 Y41.79 F3000.0
G01 X42.35 Y42.39 F3000.0
G01 X42.27 Y42.99 F3000.0
G01 X42.53 Y43.63 F3000.0
G01 X43.01 Y44.14 F3000.0
G01 X43.59 Y44.35 F3000.0
G01 X43.76 Y44.45 F3000.0
G01 Y44.78 F3000.0
G01 X43.64 Y45.07 F3000.0
G01 X43.45 Y45.13 F3000.0
G01 X43.15 Y45.24 F3000.0
G01 X43.09 Y45.3 F3000.0
G01 X43.06 Y45.15 F3000.0
G01 X42.86 Y44.88 F3000.0
G01 X42.28 Y44.65 F3000.0
G01 X41.72 Y44.43 F3000.0
G01 X41.45 Y44.07 F3000.0
G01 X41.42 Y43.45 F3000.0
G01 Y43.43 F3000.0
G01 X41.61 Y42.43 F3000.0
G01 X41.63 Y42.36 F3000.0
G01 X41.93 Y41.33 F3000.0
G01 X42.48 Y40.98 F3000.0
G01 X42.53 Y40.95 F3000.0
G01 X43.43 Y40.38 F3000.0
G01 X43.8 Y40.05 F3000.0
G01 X44.07 Y40.04 F3000.0
G01 X44.23 Y40.34 F3000.0
G01 X44.29 Y40.95 F3000.0
G01 F3000.0
M5
G00 X44.05 Y42.37 F3000.0
M3 F3000.0
G01 X44.02 Y42.63 F3000.0
G01 X43.84 Y42.46 F3000.0
G01 X43.21 Y42.12 F3000.0
G01 X43.03 Y42.06 F3000.0
G01 X43.42 Y42.02 F3000.0
G01 X43.94 Y42.07 F3000.0
G01 X44.05 Y42.37 F3000.0
G01 F3000.0
M5
G00 X43.55 Y42.83 F3000.0
M3 F3000.0
G01 X43.38 Y43.09 F3000.0
G01 X43.26 F3000.0
G01 X43.21 Y42.93 F3000.0
G01 X43.38 Y42.67 F3000.0
G01 X43.55 Y42.83 F3000.0
G01 F3000.0
M5
G00 X43.04 Y43.53 F3000.0
M3 F3000.0
G01 X42.88 Y43.6 F3000.0
G01 X42.71 Y43.32 F3000.0
G01 X42.88 Y43.26 F3000.0
G01 X43.04 Y43.53 F3000.0
G01 F3000.0
M5
G00 X44.63 Y44.98 F3000.0
M3 F3000.0
G01 X44.78 Y45.58 F3000.0
G01 X44.73 Y45.84 F3000.0
G01 X44.53 Y46.01 F3000.0
G01 X44.59 Y46.26 F3000.0
G01 X45.35 Y46.84 F3000.0
G01 X45.74 Y47.04 F3000.0
G01 X46.63 Y47.51 F3000.0
G01 X47.9 Y48.18 F3000.0
G01 X48.0 Y48.24 F3000.0
G01 X48.85 Y48.77 F3000.0
G01 X49.8 Y49.36 F3000.0
G01 X50.0 Y49.76 F3000.0
G01 X50.06 Y50.12 F3000.0
G01 X50.16 Y50.45 F3000.0
G01 X50.52 Y51.75 F3000.0
G01 X49.65 Y51.38 F3000.0
G01 X49.52 Y51.3 F3000.0
G01 X48.54 Y50.69 F3000.0
G01 X48.4 Y50.61 F3000.0
G01 X47.53 Y50.13 F3000.0
G01 X46.65 Y49.65 F3000.0
G01 X45.64 Y49.09 F3000.0
G01 X45.52 Y49.03 F3000.0
G01 X44.62 Y48.58 F3000.0
G01 X43.73 Y48.14 F3000.0
G01 X42.83 Y47.69 F3000.0
G01 X41.81 Y47.19 F3000.0
G01 X41.32 Y46.83 F3000.0
G01 X41.22 Y46.54 F3000.0
G01 Y46.52 F3000.0
G01 X41.35 Y45.5 F3000.0
G01 X41.59 Y44.98 F3000.0
G01 X42.08 Y45.06 F3000.0
G01 X42.79 Y45.43 F3000.0
G01 X43.09 Y45.59 F3000.0
G01 X44.29 Y46.2 F3000.0
G01 X44.21 Y45.36 F3000.0
G01 Y45.27 F3000.0
G01 X44.25 Y44.18 F3000.0
G01 X44.63 Y44.98 F3000.0
G01 F3000.0
M5
G00 X48.87 Y42.7 F3000.0
M3 F3000.0
G01 X48.8 Y42.78 F3000.0
G01 X48.77 Y42.6 F3000.0
G01 X48.86 Y42.38 F3000.0
G01 X48.87 Y42.7 F3000.0
G01 F3000.0
M5
G00 X49.95 Y41.05 F3000.0
M3 F3000.0
G01 X50.07 Y41.07 F3000.0
G01 X51.19 Y41.23 F3000.0
G01 X51.24 F3000.0
G01 X52.29 Y41.16 F3000.0
G01 X51.95 Y41.04 F3000.0
G01 X51.08 Y40.99 F3000.0
G01 X51.02 F3000.0
G01 X49.95 Y41.05 F3000.0
G01 F3000.0
M5
G00 X51.24 Y40.59 F3000.0
M3 F3000.0
G01 X52.06 Y40.8 F3000.0
G01 X52.75 Y41.26 F3000.0
G01 X53.38 Y41.82 F3000.0
G01 X52.45 Y41.85 F3000.0
G01 X51.53 Y41.87 F3000.0
G01 X51.62 Y41.89 F3000.0
G01 X52.71 Y42.01 F3000.0
G01 X52.73 F3000.0
G01 X53.76 Y42.07 F3000.0
G01 X54.39 Y41.85 F3000.0
G01 X54.74 Y41.56 F3000.0
G01 X54.87 Y41.27 F3000.0
G01 X54.97 Y41.05 F3000.0
G01 X55.41 Y40.99 F3000.0
G01 X56.03 Y41.13 F3000.0
G01 X56.06 Y41.29 F3000.0
G01 X55.9 Y41.5 F3000.0
G01 X55.65 Y42.02 F3000.0
G01 X55.49 Y42.28 F3000.0
G01 X54.77 Y42.35 F3000.0
G01 X53.88 Y42.37 F3000.0
G01 X54.79 Y42.56 F3000.0
G01 X55.59 Y42.79 F3000.0
G01 X55.79 Y42.99 F3000.0
G01 X55.41 Y43.12 F3000.0
G01 X54.46 Y43.18 F3000.0
G01 X54.3 F3000.0
G01 X53.14 Y43.24 F3000.0
G01 X53.17 F3000.0
G01 X54.17 Y43.32 F3000.0
G01 X55.2 Y43.4 F3000.0
G01 X55.7 Y43.42 F3000.0
G01 X57.19 Y43.5 F3000.0
G01 X57.38 Y43.0 F3000.0
G01 X57.69 Y42.53 F3000.0
G01 X58.04 Y42.97 F3000.0
G01 X58.33 Y43.34 F3000.0
G01 X58.85 Y43.43 F3000.0
G01 X59.34 Y43.5 F3000.0
G01 X59.38 Y43.89 F3000.0
G01 X59.39 Y44.27 F3000.0
G01 X59.74 Y44.35 F3000.0
G01 X60.09 Y44.27 F3000.0
G01 X60.34 Y44.06 F3000.0
G01 X60.52 Y43.86 F3000.0
G01 X60.68 Y44.02 F3000.0
G01 X60.81 Y44.31 F3000.0
G01 X60.64 Y44.49 F3000.0
G01 X60.42 Y44.51 F3000.0
G01 X59.2 Y44.6 F3000.0
G01 X59.14 F3000.0
G01 X58.08 Y44.65 F3000.0
G01 X57.66 Y44.77 F3000.0
G01 X58.02 Y44.88 F3000.0
G01 X59.01 F3000.0
G01 X59.06 F3000.0
G01 X60.11 F3000.0
G01 X60.31 Y44.95 F3000.0
G01 X60.35 Y45.09 F3000.0
G01 X60.26 Y45.28 F3000.0
G01 X60.02 Y45.36 F3000.0
G01 X59.68 Y45.53 F3000.0
G01 X60.26 Y45.7 F3000.0
G01 X60.86 Y45.57 F3000.0
G01 X61.48 Y45.16 F3000.0
G01 X61.81 Y44.92 F3000.0
G01 X61.28 Y45.5 F3000.0
G01 X61.21 Y45.57 F3000.0
G01 X60.45 Y46.37 F3000.0
G01 X60.32 F3000.0
G01 X59.18 Y46.4 F3000.0
G01 X59.05 F3000.0
G01 X57.92 Y46.43 F3000.0
G01 X57.99 Y46.44 F3000.0
G01 X59.05 Y46.49 F3000.0
G01 X60.0 Y46.59 F3000.0
G01 X60.08 Y46.7 F3000.0
G01 X60.01 Y46.88 F3000.0
G01 X59.67 Y47.15 F3000.0
G01 X58.75 Y47.21 F3000.0
G01 X58.7 Y47.22 F3000.0
G01 X57.66 Y47.38 F3000.0
G01 X58.62 Y47.54 F3000.0
G01 X59.34 Y47.59 F3000.0
G01 X59.43 Y47.65 F3000.0
G01 X59.38 Y47.74 F3000.0
G01 X58.71 Y47.94 F3000.0
G01 X58.66 F3000.0
G01 X57.62 Y47.96 F3000.0
G01 X57.6 F3000.0
G01 X56.6 Y47.82 F3000.0
G01 X56.15 Y47.55 F3000.0
G01 X55.77 Y47.34 F3000.0
G01 X55.65 Y47.3 F3000.0
G01 X55.69 Y47.23 F3000.0
G01 X56.32 Y46.97 F3000.0
G01 X56.4 Y46.94 F3000.0
G01 X57.41 Y46.52 F3000.0
G01 X57.39 Y46.41 F3000.0
G01 X57.12 Y46.37 F3000.0
G01 X56.29 Y46.51 F3000.0
G01 X55.8 Y46.52 F3000.0
G01 X54.3 Y46.55 F3000.0
G01 X54.16 Y46.54 F3000.0
G01 X53.02 Y46.43 F3000.0
G01 X52.94 Y46.35 F3000.0
G01 X53.12 Y46.22 F3000.0
G01 X53.71 Y45.98 F3000.0
G01 X54.64 Y45.88 F3000.0
G01 X54.91 Y45.83 F3000.0
G01 X54.83 Y45.72 F3000.0
G01 X54.79 Y45.58 F3000.0
G01 X55.07 Y45.49 F3000.0
G01 X55.15 F3000.0
G01 X56.24 F3000.0
G01 X56.84 Y45.62 F3000.0
G01 X57.08 Y45.89 F3000.0
G01 X57.34 Y46.19 F3000.0
G01 X57.6 Y45.95 F3000.0
G01 X58.09 Y45.7 F3000.0
G01 X58.56 Y45.56 F3000.0
G01 X57.98 Y45.4 F3000.0
G01 X57.06 Y45.18 F3000.0
G01 X56.57 Y45.05 F3000.0
G01 X56.54 Y45.06 F3000.0
G01 X55.52 Y45.09 F3000.0
G01 X55.45 Y45.1 F3000.0
G01 X54.46 Y45.17 F3000.0
G01 X53.46 Y45.24 F3000.0
G01 X52.4 Y45.32 F3000.0
G01 X51.62 Y45.22 F3000.0
G01 X51.91 Y44.85 F3000.0
G01 X52.09 Y44.69 F3000.0
G01 X51.99 Y44.58 F3000.0
G01 X51.77 Y44.41 F3000.0
G01 X51.79 Y44.22 F3000.0
G01 X52.4 Y44.02 F3000.0
G01 X52.91 Y43.93 F3000.0
G01 X52.27 Y43.78 F3000.0
G01 X51.62 Y43.68 F3000.0
G01 X52.03 Y43.42 F3000.0
G01 X52.54 Y43.19 F3000.0
G01 X52.09 Y43.18 F3000.0
G01 X51.67 Y43.04 F3000.0
G01 X51.3 Y42.58 F3000.0
G01 X50.97 Y41.94 F3000.0
G01 X51.22 Y41.95 F3000.0
G01 X51.4 Y41.98 F3000.0
G01 X51.38 Y41.86 F3000.0
G01 X50.94 Y41.66 F3000.0
G01 X50.21 Y41.47 F3000.0
G01 X49.77 Y41.15 F3000.0
G01 X49.35 Y40.92 F3000.0
G01 X48.92 Y40.65 F3000.0
G01 X49.59 Y40.49 F3000.0
G01 X49.91 Y40.51 F3000.0
G01 X51.23 Y40.59 F3000.0
G01 X51.24 F3000.0
M5
G00 X51.45 Y40.07 F3000.0
M3 F3000.0
G01 X51.51 Y40.2 F3000.0
G01 X51.37 Y40.27 F3000.0
G01 X51.29 Y40.28 F3000.0
G01 X50.21 Y40.32 F3000.0
G01 X49.99 Y40.29 F3000.0
G01 X48.79 Y40.16 F3000.0
G01 X49.04 Y40.03 F3000.0
G01 X49.98 Y39.94 F3000.0
G01 X50.1 Y39.93 F3000.0
G01 X51.22 Y39.85 F3000.0
G01 X51.45 Y40.07 F3000.0
G01 F3000.0
M5
G00 X53.14 Y38.61 F3000.0
M3 F3000.0
G01 X52.67 Y39.16 F3000.0
G01 X52.17 F3000.0
G01 X52.02 Y39.03 F3000.0
G01 X52.08 Y38.98 F3000.0
G01 X52.26 Y38.92 F3000.0
G01 X52.28 Y38.8 F3000.0
G01 X51.91 Y38.62 F3000.0
G01 X51.77 Y38.57 F3000.0
G01 X52.12 Y38.47 F3000.0
G01 X53.1 Y38.33 F3000.0
G01 X53.21 Y38.41 F3000.0
G01 X53.14 Y38.61 F3000.0
G01 F3000.0
M5
G00 X54. Y37.85 F3000.0
M3 F3000.0
G01 X53.51 Y38.16 F3000.0
G01 X53.5 F3000.0
G01 X52.5 F3000.0
G01 X52.38 Y38.15 F3000.0
G01 X51.28 Y37.97 F3000.0
G01 X51.03 Y37.81 F3000.0
G01 X51.04 Y37.61 F3000.0
G01 X51.39 Y37.58 F3000.0
G01 X52.75 Y37.46 F3000.0
G01 X53.05 F3000.0
G01 X54.36 F3000.0
G01 X54.0 Y37.85 F3000.0
M5
G00 X53.42 Y36.22 F3000.0
M3 F3000.0
G01 X53.1 Y36.23 F3000.0
G01 X53.02 Y36.16 F3000.0
G01 X53.2 Y36.13 F3000.0
G01 X53.42 Y36.22 F3000.0
G01 F3000.0
M5
G00 X55.73 Y37.46 F3000.0
M3 F3000.0
G01 X55.64 Y37.96 F3000.0
G01 X55.25 Y38.3 F3000.0
G01 X54.63 Y38.74 F3000.0
G01 X54.59 Y38.77 F3000.0
G01 X53.76 Y39.41 F3000.0
G01 X53.4 Y39.71 F3000.0
G01 X53.29 Y40.07 F3000.0
G01 X53.43 Y40.47 F3000.0
G01 X53.8 Y40.85 F3000.0
G01 X54.28 Y41.33 F3000.0
G01 X54.23 Y41.45 F3000.0
G01 X53.98 Y41.49 F3000.0
G01 X53.36 Y41.14 F3000.0
G01 X53.26 Y41.07 F3000.0
G01 X52.38 Y40.37 F3000.0
G01 X52.32 Y40.31 F3000.0
G01 X51.52 Y39.57 F3000.0
G01 X51.26 Y39.17 F3000.0
G01 X51.82 Y39.38 F3000.0
G01 X52.45 Y39.64 F3000.0
G01 X52.78 Y39.38 F3000.0
G01 X53.88 Y38.5 F3000.0
G01 X54.13 Y38.29 F3000.0
G01 X55.15 Y37.43 F3000.0
G01 X55.51 Y37.32 F3000.0
G01 X55.73 Y37.46 F3000.0
G01 F3000.0
M5
G00 X56.43 Y37.67 F3000.0
M3 F3000.0
G01 X56.74 Y37.75 F3000.0
G01 F3000.0
G01 X57.75 Y37.77 F3000.0
G01 X57.79 F3000.0
G01 X58.83 Y37.71 F3000.0
G01 X58.67 Y37.69 F3000.0
G01 X57.52 Y37.59 F3000.0
G01 X57.48 Y37.6 F3000.0
G01 X56.43 Y37.67 F3000.0
G01 F3000.0
M5
G00 X57.29 Y39.69 F3000.0
M3 F3000.0
G01 X57.52 Y40.23 F3000.0
G01 X57.69 Y40.49 F3000.0
G01 X58.0 Y40.65 F3000.0
G01 X58.13 Y40.77 F3000.0
G01 X57.44 Y40.93 F3000.0
G01 X56.61 Y41.03 F3000.0
G01 X56.31 Y40.81 F3000.0
G01 X56.16 Y40.38 F3000.0
G01 X56.33 Y40.53 F3000.0
G01 X56.55 Y40.74 F3000.0
G01 X56.83 Y40.81 F3000.0
G01 X57.1 Y40.76 F3000.0
G01 X57.27 Y40.57 F3000.0
G01 X57.28 Y40.28 F3000.0
G01 X57.13 Y40.04 F3000.0
G01 X56.87 Y39.89 F3000.0
G01 X56.55 F3000.0
G01 X56.26 Y39.91 F3000.0
G01 Y39.73 F3000.0
G01 X56.44 Y39.55 F3000.0
G01 X56.73 Y39.49 F3000.0
G01 X57.29 Y39.69 F3000.0
G01 F3000.0
M5
G00 X58.47 Y39.43 F3000.0
M3 F3000.0
G01 X59.14 F3000.0
G01 X59.15 Y39.37 F3000.0
G01 X58.76 Y39.35 F3000.0
G01 X58.39 Y39.38 F3000.0
G01 X58.47 Y39.43 F3000.0
G01 F3000.0
M5
G00 X60.03 Y39.37 F3000.0
M3 F3000.0
G01 X60.15 Y39.39 F3000.0
G01 X61.26 Y39.52 F3000.0
G01 X61.32 Y39.51 F3000.0
G01 X62.37 Y39.46 F3000.0
G01 X62.27 Y39.44 F3000.0
G01 X61.17 Y39.31 F3000.0
G01 X61.1 F3000.0
G01 X60.03 Y39.37 F3000.0
G01 F3000.0
M5
G00 X60.19 Y37.64 F3000.0
M3 F3000.0
G01 X59.55 Y37.73 F3000.0
G01 X60.52 Y37.77 F3000.0
G01 X60.76 Y37.75 F3000.0
G01 X61.99 Y37.66 F3000.0
G01 X62.0 Y37.57 F3000.0
G01 X61.68 Y37.54 F3000.0
G01 X61.43 Y37.56 F3000.0
G01 X60.19 Y37.64 F3000.0
G01 F3000.0
M5
G00 X59.77 Y36.12 F3000.0
M3 F3000.0
G01 X59.8 Y36.28 F3000.0
G01 X60.19 Y36.12 F3000.0
G01 X60.34 Y35.98 F3000.0
G01 X60.15 Y35.95 F3000.0
G01 X59.77 Y36.12 F3000.0
G01 F3000.0
M5
G00 X60.86 Y36.12 F3000.0
M3 F3000.0
G01 X60.9 F3000.0
G01 X61.92 Y36.26 F3000.0
G01 X62.62 Y36.12 F3000.0
G01 X62.4 Y36.0 F3000.0
G01 X61.58 Y35.96 F3000.0
G01 X60.8 Y36.01 F3000.0
G01 X60.73 Y36.05 F3000.0
G01 X60.86 Y36.12 F3000.0
G01 F3000.0
M5
G00 X63.28 Y35.84 F3000.0
M3 F3000.0
G01 X63.1 Y36.32 F3000.0
G01 X62.81 Y36.6 F3000.0
G01 X62.56 Y36.65 F3000.0
G01 X61.33 Y36.89 F3000.0
G01 X61.05 Y36.93 F3000.0
G01 X59.77 Y37.08 F3000.0
G01 X60.0 F3000.0
G01 X61.24 Y37.1 F3000.0
G01 X61.47 F3000.0
G01 X62.71 Y37.12 F3000.0
G01 Y37.6 F3000.0
G01 X62.65 Y38.01 F3000.0
G01 X62.46 Y38.28 F3000.0
G01 X61.54 Y38.5 F3000.0
G01 X60.77 Y38.52 F3000.0
G01 X61.61 Y38.62 F3000.0
G01 X62.34 Y38.79 F3000.0
G01 X62.56 Y39.31 F3000.0
G01 X62.65 Y39.93 F3000.0
G01 X62.46 F3000.0
G01 X61.46 Y39.96 F3000.0
G01 X60.27 Y40.0 F3000.0
G01 F3000.0
G01 X59.27 Y39.99 F3000.0
G01 X58.26 Y39.98 F3000.0
G01 X57.97 Y39.89 F3000.0
G01 X57.92 Y39.71 F3000.0
G01 X57.86 Y39.46 F3000.0
G01 X57.66 Y39.29 F3000.0
G01 X56.79 Y39.15 F3000.0
G01 X56.23 Y39.23 F3000.0
G01 X55.9 Y39.64 F3000.0
G01 X55.55 Y40.07 F3000.0
G01 X54.72 Y40.11 F3000.0
G01 X53.82 Y39.94 F3000.0
G01 X54.73 Y39.81 F3000.0
G01 X55.39 Y39.77 F3000.0
G01 X55.56 Y39.65 F3000.0
G01 X54.94 Y39.48 F3000.0
G01 X54.43 F3000.0
G01 X54.85 Y39.14 F3000.0
G01 X55.4 Y38.88 F3000.0
G01 X56.25 Y38.81 F3000.0
G01 X57.1 Y38.72 F3000.0
G01 X56.59 Y38.59 F3000.0
G01 X56.15 Y38.43 F3000.0
G01 Y37.8 F3000.0
G01 Y37.29 F3000.0
G01 X56.3 F3000.0
G01 X57.44 F3000.0
G01 X57.55 F3000.0
G01 X58.66 Y37.23 F3000.0
G01 X58.62 Y37.22 F3000.0
G01 X57.62 Y37.14 F3000.0
G01 X56.58 Y37.05 F3000.0
G01 X56.57 F3000.0
G01 X55.57 Y37.08 F3000.0
G01 X54.56 Y37.12 F3000.0
G01 X54.41 Y37.13 F3000.0
G01 X53.41 Y37.21 F3000.0
G01 X52.27 Y37.29 F3000.0
G01 X51.85 Y37.28 F3000.0
G01 X50.42 Y37.25 F3000.0
G01 X50.21 Y37.15 F3000.0
G01 X50.26 Y36.97 F3000.0
G01 X50.74 Y36.69 F3000.0
G01 X51.03 Y36.67 F3000.0
G01 X52.33 Y36.56 F3000.0
G01 X52.53 Y36.54 F3000.0
G01 X53.53 Y36.49 F3000.0
G01 X54.53 Y36.44 F3000.0
G01 X55.73 Y36.38 F3000.0
G01 X55.97 Y36.37 F3000.0
G01 X56.97 Y36.33 F3000.0
G01 X58.21 Y36.29 F3000.0
G01 X59.18 Y36.16 F3000.0
G01 X59.1 Y36.15 F3000.0
G01 X58.11 Y36.11 F3000.0
G01 X57.03 Y36.06 F3000.0
G01 X56.67 F3000.0
G01 X55.31 Y36.05 F3000.0
G01 X55.3 Y35.99 F3000.0
G01 X55.73 Y35.87 F3000.0
G01 X56.16 Y35.83 F3000.0
G01 X57.16 Y35.74 F3000.0
G01 X58.59 Y35.61 F3000.0
G01 X59.06 Y35.59 F3000.0
G01 X60.06 Y35.54 F3000.0
G01 X61.53 Y35.47 F3000.0
G01 X61.73 Y35.46 F3000.0
G01 X62.92 Y35.42 F3000.0
G01 X63.28 Y35.54 F3000.0
G01 Y35.84 F3000.0
G01 F3000.0
M5
G00 X65.56 Y35.95 F3000.0
M3 F3000.0
G01 X65.9 Y36.61 F3000.0
G01 X65.94 Y36.8 F3000.0
G01 X66.22 Y37.96 F3000.0
G01 X66.4 Y38.66 F3000.0
G01 X66.35 Y38.83 F3000.0
G01 X66.3 Y38.82 F3000.0
G01 X65.29 Y38.56 F3000.0
G01 X64.55 Y38.39 F3000.0
G01 X64.45 Y37.91 F3000.0
G01 X64.39 Y37.47 F3000.0
G01 X64.11 Y37.32 F3000.0
G01 X63.83 Y37.39 F3000.0
G01 X63.64 Y37.61 F3000.0
G01 X63.58 Y37.9 F3000.0
G01 X63.69 Y38.19 F3000.0
G01 X63.73 Y38.39 F3000.0
G01 X63.45 Y38.58 F3000.0
G01 X63.18 Y38.67 F3000.0
G01 X63.05 Y38.57 F3000.0
G01 X63.15 Y37.65 F3000.0
G01 X63.37 Y37.19 F3000.0
G01 X64.28 Y37.12 F3000.0
G01 X64.43 Y37.1 F3000.0
G01 X65.56 Y36.94 F3000.0
G01 X65.61 Y36.86 F3000.0
G01 X65.48 Y36.82 F3000.0
G01 X64.59 Y36.84 F3000.0
G01 X63.61 Y36.85 F3000.0
G01 X63.45 Y36.79 F3000.0
G01 Y36.67 F3000.0
G01 X63.55 Y36.38 F3000.0
G01 X64.47 Y36.42 F3000.0
G01 X65.17 Y36.43 F3000.0
G01 X65.4 Y36.31 F3000.0
G01 X65.17 Y36.17 F3000.0
G01 X64.56 Y36.12 F3000.0
G01 X63.8 Y36.02 F3000.0
G01 X63.72 Y35.9 F3000.0
G01 X63.83 Y35.72 F3000.0
G01 X64.16 Y35.61 F3000.0
G01 X64.67 Y35.62 F3000.0
G01 X65.56 Y35.95 F3000.0
G01 F3000.0
M5
G00 X65. Y37.77 F3000.0
M3 F3000.0
G01 X64.82 Y37.91 F3000.0
G01 X65.14 Y38.1 F3000.0
G01 X65.71 Y38.21 F3000.0
G01 X65.82 Y38.1 F3000.0
G01 X65.79 Y37.88 F3000.0
G01 X65.54 Y37.65 F3000.0
G01 X65.0 Y37.77 F3000.0
G01 F3000.0
M5
G00 X63.46 Y39.48 F3000.0
M3 F3000.0
G01 X63.39 Y39.65 F3000.0
G01 X63.21 Y39.48 F3000.0
G01 X63.28 Y39.31 F3000.0
G01 X63.46 Y39.48 F3000.0
G01 F3000.0
M5
G00 X64.43 Y40.26 F3000.0
M3 F3000.0
G01 X64.01 F3000.0
G01 X63.98 Y40.2 F3000.0
G01 X64.22 Y40.18 F3000.0
G01 X64.45 Y40.2 F3000.0
G01 X64.43 Y40.26 F3000.0
G01 F3000.0
M5
G00 X65.35 Y41.26 F3000.0
M3 F3000.0
G01 X65.03 Y41.27 F3000.0
G01 X64.96 Y41.21 F3000.0
G01 X65.13 Y41.17 F3000.0
G01 X65.35 Y41.26 F3000.0
G01 F3000.0
M5
G00 X66.11 Y41.27 F3000.0
M3 F3000.0
G01 X65.69 F3000.0
G01 X65.67 Y41.21 F3000.0
G01 X65.9 Y41.19 F3000.0
G01 X66.14 Y41.21 F3000.0
G01 X66.11 Y41.27 F3000.0
G01 F3000.0
M5
G00 X66.19 Y42.27 F3000.0
M3 F3000.0
G01 X65.87 Y42.28 F3000.0
G01 X65.8 Y42.21 F3000.0
G01 X65.97 Y42.18 F3000.0
G01 X66.19 Y42.27 F3000.0
G01 F3000.0
M5
G00 X67.02 Y42.2 F3000.0
M3 F3000.0
G01 X66.96 Y42.27 F3000.0
G01 X66.92 Y42.1 F3000.0
G01 X67.01 Y41.88 F3000.0
G01 X67.02 Y42.2 F3000.0
G01 F3000.0
M5
G00 X66.53 Y43.28 F3000.0
M3 F3000.0
G01 X66.2 Y43.29 F3000.0
G01 X66.13 Y43.22 F3000.0
G01 X66.31 Y43.19 F3000.0
G01 X66.53 Y43.28 F3000.0
G01 F3000.0
M5
G00 X66.57 Y43.93 F3000.0
M3 F3000.0
G01 X66.49 Y44.11 F3000.0
G01 X66.3 Y44.18 F3000.0
G01 X66.12 Y44.14 F3000.0
G01 X66.24 Y43.93 F3000.0
G01 X66.51 Y43.68 F3000.0
G01 X66.57 Y43.93 F3000.0
G01 F3000.0
M5
G00 X66.88 Y44.72 F3000.0
M3 F3000.0
G01 X67.08 Y45.09 F3000.0
G01 X66.87 Y44.99 F3000.0
G01 X66.32 Y44.64 F3000.0
G01 X66.08 Y44.57 F3000.0
G01 X66.33 Y44.54 F3000.0
G01 X66.88 Y44.72 F3000.0
G01 F3000.0
M5
G00 X65.67 Y45.24 F3000.0
M3 F3000.0
G01 X65.52 Y45.36 F3000.0
G01 X65.15 Y45.21 F3000.0
G01 X65.16 Y45.11 F3000.0
G01 X65.31 Y45.09 F3000.0
G01 X65.67 Y45.24 F3000.0
G01 F3000.0
M5
G00 X64.69 Y45.34 F3000.0
M3 F3000.0
G01 X65.06 Y46.06 F3000.0
G01 X64.59 Y46.03 F3000.0
G01 X63.11 Y45.96 F3000.0
G01 X62.46 Y45.83 F3000.0
G01 X62.93 Y45.58 F3000.0
G01 X63.82 Y45.44 F3000.0
G01 X64.44 Y45.41 F3000.0
G01 X64.38 Y45.29 F3000.0
G01 X63.9 Y45.19 F3000.0
G01 X63.33 Y45.07 F3000.0
G01 X63.08 Y44.9 F3000.0
G01 X63.19 Y44.75 F3000.0
G01 X63.67 Y44.69 F3000.0
G01 X64.28 Y44.8 F3000.0
G01 X64.69 Y45.34 F3000.0
G01 F3000.0
M5
G00 X65.56 Y44.06 F3000.0
M3 F3000.0
G01 X65.37 Y44.33 F3000.0
G01 X64.82 Y44.25 F3000.0
G01 X64.59 Y44.1 F3000.0
G01 X64.57 Y43.94 F3000.0
G01 X65.06 Y43.76 F3000.0
G01 X65.45 Y43.83 F3000.0
G01 X65.56 Y44.06 F3000.0
G01 F3000.0
M5
G00 X65.56 Y43.24 F3000.0
M3 F3000.0
G01 X65.3 Y43.41 F3000.0
G01 X65.15 Y43.43 F3000.0
G01 X65.14 Y43.34 F3000.0
G01 X65.39 Y43.18 F3000.0
G01 X65.56 Y43.24 F3000.0
G01 F3000.0
M5
G00 X68.49 Y44.1 F3000.0
M3 F3000.0
G01 X68.66 Y44.7 F3000.0
G01 X68.55 Y44.76 F3000.0
G01 X68.33 Y44.57 F3000.0
G01 X68.1 Y44.02 F3000.0
G01 X68.15 Y43.68 F3000.0
G01 X68.49 Y44.1 F3000.0
G01 F3000.0
M5
G00 X69.45 Y44.27 F3000.0
M3 F3000.0
G01 X69.29 Y44.47 F3000.0
G01 X68.97 Y44.19 F3000.0
G01 X68.85 Y43.94 F3000.0
G01 X69.11 Y43.99 F3000.0
G01 X69.45 Y44.27 F3000.0
G01 F3000.0
M5
G00 X69.21 Y42.04 F3000.0
M3 F3000.0
G01 X69.16 Y42.11 F3000.0
G01 X69.14 Y41.75 F3000.0
G01 X69.16 Y41.36 F3000.0
G01 X69.21 Y41.37 F3000.0
G01 Y42.04 F3000.0
G01 F3000.0
M5
G00 X69.21 Y39.6 F3000.0
M3 F3000.0
G01 X69.17 Y39.66 F3000.0
G01 X69.14 Y39.14 F3000.0
G01 X69.17 Y38.62 F3000.0
G01 X69.21 Y38.68 F3000.0
G01 Y39.6 F3000.0
G01 F3000.0
M5
G00 X68.53 Y39.52 F3000.0
M3 F3000.0
G01 X68.47 Y39.54 F3000.0
G01 X68.45 Y39.31 F3000.0
G01 X68.47 Y39.07 F3000.0
G01 X68.53 Y39.1 F3000.0
G01 Y39.52 F3000.0
G01 F3000.0
M5
G00 X66.38 Y39.76 F3000.0
M3 F3000.0
G01 X66.11 Y40.08 F3000.0
G01 X66.0 Y40.09 F3000.0
G01 X66.06 Y40.04 F3000.0
G01 X66.24 Y39.9 F3000.0
G01 X66.19 Y39.79 F3000.0
G01 X65.52 Y39.74 F3000.0
G01 X65.02 Y39.77 F3000.0
G01 X65.31 Y39.66 F3000.0
G01 X66.18 Y39.5 F3000.0
G01 X66.35 Y39.58 F3000.0
G01 X66.38 Y39.76 F3000.0
G01 F3000.0
M5
G00 X62.73 Y40.52 F3000.0
M3 F3000.0
G01 X62.68 Y40.71 F3000.0
G01 X62.16 Y40.82 F3000.0
G01 X61.45 Y40.91 F3000.0
G01 X62.14 Y41.03 F3000.0
G01 X63.04 Y41.41 F3000.0
G01 X63.09 Y41.54 F3000.0
G01 X63.81 Y43.41 F3000.0
G01 X64.22 Y44.48 F3000.0
G01 X63.23 Y44.49 F3000.0
G01 X62.43 Y44.4 F3000.0
G01 X62.34 Y44.31 F3000.0
G01 X62.38 Y44.17 F3000.0
G01 X62.42 Y43.79 F3000.0
G01 X62.84 Y43.68 F3000.0
G01 X63.46 Y43.51 F3000.0
G01 X63.32 Y43.39 F3000.0
G01 X62.75 Y43.34 F3000.0
G01 X61.86 Y43.2 F3000.0
G01 X61.62 Y43.03 F3000.0
G01 X61.53 Y42.8 F3000.0
G01 X62.35 Y42.77 F3000.0
G01 X63.0 Y42.8 F3000.0
G01 X63.29 Y42.68 F3000.0
G01 X63.17 Y42.53 F3000.0
G01 X62.43 Y42.51 F3000.0
G01 X62.3 Y42.5 F3000.0
G01 X61.17 Y42.43 F3000.0
G01 X60.52 Y42.5 F3000.0
G01 X60.07 Y42.58 F3000.0
G01 X60.27 Y42.06 F3000.0
G01 X60.48 Y41.64 F3000.0
G01 X60.27 Y41.39 F3000.0
G01 X59.83 Y41.26 F3000.0
G01 X59.68 Y41.09 F3000.0
G01 X59.55 Y40.87 F3000.0
G01 X59.22 Y40.72 F3000.0
G01 X58.61 Y40.51 F3000.0
G01 X58.7 Y40.29 F3000.0
G01 X59.45 Y40.18 F3000.0
G01 X59.62 Y40.19 F3000.0
G01 X60.78 Y40.21 F3000.0
G01 X60.93 Y40.23 F3000.0
G01 X62.08 Y40.33 F3000.0
G01 X62.73 Y40.52 F3000.0
G01 F3000.0
M5
G00 X61.78 Y41.83 F3000.0
M3 F3000.0
G01 X62.61 Y41.97 F3000.0
G01 X62.79 Y41.94 F3000.0
G01 Y41.83 F3000.0
G01 X61.98 Y41.68 F3000.0
G01 X61.45 Y41.72 F3000.0
G01 X61.78 Y41.83 F3000.0
G01 F3000.0
M5
G00 X61.05 Y43.02 F3000.0
M3 F3000.0
G01 X61.27 Y43.22 F3000.0
G01 X61.3 Y43.44 F3000.0
G01 X61.34 Y43.64 F3000.0
G01 X61.62 Y43.78 F3000.0
G01 X62.01 Y43.97 F3000.0
G01 X61.76 Y44.38 F3000.0
G01 X61.34 Y44.67 F3000.0
G01 X61.19 Y44.3 F3000.0
G01 X61.06 Y43.83 F3000.0
G01 X60.74 Y43.56 F3000.0
G01 X60.36 Y43.53 F3000.0
G01 X60.04 Y43.8 F3000.0
G01 X59.75 Y43.97 F3000.0
G01 X60.1 Y43.34 F3000.0
G01 X60.62 Y42.88 F3000.0
G01 X61.05 Y43.02 F3000.0
G01 F3000.0
M5
G00 X59.73 Y42.32 F3000.0
M3 F3000.0
G01 X59.45 Y42.81 F3000.0
G01 X59.09 Y43.15 F3000.0
G01 X58.74 Y43.28 F3000.0
G01 X58.48 Y43.14 F3000.0
G01 X58.36 Y42.7 F3000.0
G01 X58.75 Y42.63 F3000.0
G01 X59.15 Y42.59 F3000.0
G01 X59.47 Y42.19 F3000.0
G01 X59.87 Y41.68 F3000.0
G01 X59.73 Y42.32 F3000.0
G01 F3000.0
M5
G00 X59.01 Y42.17 F3000.0
M3 F3000.0
G01 X58.84 Y42.33 F3000.0
G01 X58.67 Y42.17 F3000.0
G01 X58.84 Y42.0 F3000.0
G01 X59.01 Y42.17 F3000.0
G01 F3000.0
M5
G00 X57.74 Y41.8 F3000.0
M3 F3000.0
G01 X57.46 Y42.28 F3000.0
G01 X57.1 Y41.93 F3000.0
G01 X56.74 Y41.58 F3000.0
G01 X57.16 Y41.47 F3000.0
G01 X57.87 Y41.37 F3000.0
G01 X57.74 Y41.8 F3000.0
G01 F3000.0
M5
G00 X56.96 Y42.53 F3000.0
M3 F3000.0
G01 X56.88 Y42.57 F3000.0
G01 X56.78 Y42.35 F3000.0
G01 X56.74 Y42.09 F3000.0
G01 X56.85 Y42.13 F3000.0
G01 X56.96 Y42.53 F3000.0
G01 F3000.0
M5
G00 X56.91 Y43.01 F3000.0
M3 F3000.0
G01 X56.52 Y43.16 F3000.0
G01 X56.36 Y43.13 F3000.0
G01 X56.57 Y43.01 F3000.0
G01 X56.95 Y42.86 F3000.0
G01 X56.91 Y43.01 F3000.0
G01 F3000.0
M5
G00 X56.19 Y43.77 F3000.0
M3 F3000.0
G01 X56.28 Y43.79 F3000.0
G01 X57.34 Y44.02 F3000.0
G01 X57.45 F3000.0
G01 X58.55 Y44.05 F3000.0
G01 X58.58 Y43.95 F3000.0
G01 X58.09 Y43.82 F3000.0
G01 X57.93 Y43.8 F3000.0
G01 X56.78 Y43.69 F3000.0
G01 X56.19 Y43.77 F3000.0
G01 F3000.0
M5
G00 X54.32 Y44.59 F3000.0
M3 F3000.0
G01 X54.44 Y44.6 F3000.0
G01 X55.55 Y44.7 F3000.0
G01 X55.66 F3000.0
G01 X56.77 Y44.63 F3000.0
G01 X56.66 Y44.62 F3000.0
G01 X55.56 Y44.52 F3000.0
G01 X55.44 Y44.53 F3000.0
G01 X54.32 Y44.59 F3000.0
G01 F3000.0
M5
G00 X53.77 Y44.63 F3000.0
M3 F3000.0
G01 X54.09 Y44.62 F3000.0
G01 X53.87 Y44.53 F3000.0
G01 X53.7 Y44.57 F3000.0
G01 X53.77 Y44.63 F3000.0
G01 F3000.0
M5
G00 X53.18 Y45.75 F3000.0
M3 F3000.0
G01 X53.09 Y45.76 F3000.0
G01 X52.0 Y45.89 F3000.0
G01 X51.5 Y45.8 F3000.0
G01 X51.51 Y45.69 F3000.0
G01 X51.61 Y45.68 F3000.0
G01 X52.71 Y45.55 F3000.0
G01 X53.35 Y45.58 F3000.0
G01 X53.18 Y45.75 F3000.0
G01 F3000.0
M5
G00 X54.64 Y46.87 F3000.0
M3 F3000.0
G01 X54.9 Y46.97 F3000.0
G01 X54.82 Y47.04 F3000.0
G01 X54.52 Y47.05 F3000.0
G01 X53.22 Y47.12 F3000.0
G01 X53.12 F3000.0
G01 X52.03 F3000.0
G01 X51.91 Y47.06 F3000.0
G01 X52.03 Y46.94 F3000.0
G01 X52.12 Y46.92 F3000.0
G01 X53.2 Y46.73 F3000.0
G01 X53.42 Y46.75 F3000.0
G01 X54.64 Y46.87 F3000.0
G01 F3000.0
M5
G00 X55.31 Y45.87 F3000.0
M3 F3000.0
G01 X56.07 Y46.03 F3000.0
G01 X56.83 Y45.89 F3000.0
G01 X56.07 Y45.72 F3000.0
G01 X55.31 Y45.87 F3000.0
G01 F3000.0
M5
G00 X55.59 Y47.8 F3000.0
M3 F3000.0
G01 X55.49 Y47.83 F3000.0
G01 X54.41 Y48.12 F3000.0
G01 X53.63 Y48.08 F3000.0
G01 X54.19 Y47.78 F3000.0
G01 X54.27 Y47.76 F3000.0
G01 X55.35 Y47.6 F3000.0
G01 X55.84 Y47.62 F3000.0
G01 X55.59 Y47.8 F3000.0
G01 F3000.0
M5
G00 X56.15 Y48.36 F3000.0
M3 F3000.0
G01 X55.61 Y48.75 F3000.0
G01 X55.45 Y48.83 F3000.0
G01 X54.4 Y49.34 F3000.0
G01 X54.24 Y49.41 F3000.0
G01 X53.15 Y49.86 F3000.0
G01 X52.51 Y50.01 F3000.0
G01 X52.87 Y49.8 F3000.0
G01 X54.09 Y49.09 F3000.0
G01 X54.11 Y49.08 F3000.0
G01 X55.02 Y48.66 F3000.0
G01 X55.94 Y48.23 F3000.0
G01 X56.15 Y48.36 F3000.0
G01 F3000.0
M5
G00 X56.41 Y49.06 F3000.0
M3 F3000.0
G01 X56.34 Y49.23 F3000.0
G01 X55.87 Y49.34 F3000.0
G01 X55.66 Y49.39 F3000.0
G01 X55.8 Y49.17 F3000.0
G01 X56.14 Y48.9 F3000.0
G01 X56.41 Y49.06 F3000.0
G01 F3000.0
M5
G00 X56.14 Y49.83 F3000.0
M3 F3000.0
G01 X55.53 Y50.28 F3000.0
G01 X55.49 Y50.3 F3000.0
G01 X54.53 Y50.75 F3000.0
G01 X54.19 Y50.82 F3000.0
G01 X54.31 Y50.63 F3000.0
G01 X54.42 Y50.56 F3000.0
G01 X55.4 Y49.96 F3000.0
G01 X56.26 Y49.6 F3000.0
G01 X56.14 Y49.83 F3000.0
G01 F3000.0
M5
G00 X54.96 Y49.62 F3000.0
M3 F3000.0
G01 X54.47 Y49.88 F3000.0
G01 X54.16 Y50.02 F3000.0
G01 X54.38 Y49.82 F3000.0
G01 X54.86 Y49.57 F3000.0
G01 X55.01 Y49.54 F3000.0
G01 X54.96 Y49.62 F3000.0
G01 F3000.0
M5
G00 X54.02 Y48.57 F3000.0
M3 F3000.0
G01 X53.98 Y48.58 F3000.0
G01 X52.96 Y48.81 F3000.0
G01 X52.19 Y48.79 F3000.0
G01 X52.98 Y48.57 F3000.0
G01 X52.99 F3000.0
G01 X53.99 Y48.41 F3000.0
G01 X54.1 Y48.45 F3000.0
G01 X54.02 Y48.57 F3000.0
G01 F3000.0
M5
G00 X53.3 Y49.02 F3000.0
M3 F3000.0
G01 X52.68 Y49.37 F3000.0
G01 X52.59 Y49.39 F3000.0
G01 X51.53 Y49.56 F3000.0
G01 X51.06 Y49.51 F3000.0
G01 Y49.39 F3000.0
G01 X51.15 Y49.36 F3000.0
G01 X52.21 Y49.08 F3000.0
G01 X52.24 Y49.07 F3000.0
G01 X53.25 Y48.91 F3000.0
G01 X53.3 Y49.02 F3000.0
G01 F3000.0
M5
G00 X53.6 Y50.69 F3000.0
M3 F3000.0
G01 X53.59 Y50.88 F3000.0
G01 X53.45 Y50.98 F3000.0
G01 X53.37 F3000.0
G01 X52.3 Y51.0 F3000.0
G01 X52.11 Y50.98 F3000.0
G01 X50.94 Y50.87 F3000.0
G01 X50.78 Y50.74 F3000.0
G01 X50.95 Y50.56 F3000.0
G01 X51.73 Y50.41 F3000.0
G01 X52.42 Y50.61 F3000.0
G01 X52.64 Y50.71 F3000.0
G01 X52.91 Y50.52 F3000.0
G01 X53.36 Y50.3 F3000.0
G01 X53.6 Y50.69 F3000.0
G01 F3000.0
M5
G00 X55.81 Y51.42 F3000.0
M3 F3000.0
G01 X55.26 Y51.69 F3000.0
G01 X55.05 Y51.7 F3000.0
G01 X53.85 Y51.71 F3000.0
G01 X53.73 Y51.7 F3000.0
G01 X52.61 Y51.62 F3000.0
G01 X52.16 Y51.46 F3000.0
G01 X52.39 Y51.31 F3000.0
G01 X53.36 Y51.32 F3000.0
G01 X53.55 Y51.31 F3000.0
G01 X54.73 Y51.23 F3000.0
G01 X55.49 Y51.07 F3000.0
G01 X56.15 F3000.0
G01 X55.81 Y51.42 F3000.0
M5
G00 X56.57 Y51.58 F3000.0
M3 F3000.0
G01 X56.27 Y51.74 F3000.0
G01 X56.19 Y51.7 F3000.0
G01 X56.32 Y51.58 F3000.0
G01 X56.62 Y51.42 F3000.0
G01 X56.57 Y51.58 F3000.0
G01 F3000.0
M5
G00 X58.98 Y50.35 F3000.0
M3 F3000.0
G01 X59.3 Y50.34 F3000.0
G01 X59.08 Y50.25 F3000.0
G01 X58.91 Y50.28 F3000.0
G01 X58.98 Y50.35 F3000.0
G01 F3000.0
M5
G00 X60.31 Y49.67 F3000.0
M3 F3000.0
G01 X60.73 F3000.0
G01 X60.76 Y49.61 F3000.0
G01 X60.52 Y49.59 F3000.0
G01 X60.29 Y49.61 F3000.0
G01 X60.31 Y49.67 F3000.0
G01 F3000.0
M5
G00 X61.15 Y49.67 F3000.0
M3 F3000.0
G01 X61.57 F3000.0
G01 X61.6 Y49.61 F3000.0
G01 X61.36 Y49.59 F3000.0
G01 X61.13 Y49.61 F3000.0
G01 X61.15 Y49.67 F3000.0
G01 F3000.0
M5
G00 X61.64 Y50.02 F3000.0
M3 F3000.0
G01 X60.89 Y50.09 F3000.0
G01 X60.87 F3000.0
G01 X59.85 Y50.21 F3000.0
G01 X59.7 Y50.35 F3000.0
G01 X60.47 Y50.39 F3000.0
G01 X60.52 Y50.4 F3000.0
G01 X61.56 Y50.55 F3000.0
G01 X61.64 Y50.68 F3000.0
G01 X61.33 Y50.82 F3000.0
G01 X60.92 Y50.85 F3000.0
G01 X59.51 Y50.95 F3000.0
G01 X59.5 F3000.0
G01 X58.49 Y51.02 F3000.0
G01 X58.17 Y51.16 F3000.0
G01 X58.76 Y51.26 F3000.0
G01 F3000.0
G01 X59.76 Y51.23 F3000.0
G01 X60.76 Y51.2 F3000.0
G01 X60.8 F3000.0
G01 X61.8 Y51.25 F3000.0
G01 X62.83 Y51.31 F3000.0
G01 X63.52 Y51.27 F3000.0
G01 X63.54 Y51.16 F3000.0
G01 X63.3 Y51.01 F3000.0
G01 X63.04 Y50.73 F3000.0
G01 X63.17 Y50.63 F3000.0
G01 X63.89 Y50.57 F3000.0
G01 X64.47 Y50.44 F3000.0
G01 X63.72 Y50.41 F3000.0
G01 X63.66 Y50.4 F3000.0
G01 X62.63 Y50.14 F3000.0
G01 X62.08 Y49.91 F3000.0
G01 X61.64 Y50.02 F3000.0
G01 F3000.0
M5
G00 X62.51 Y50.44 F3000.0
M3 F3000.0
G01 X62.7 Y50.76 F3000.0
G01 X62.55 Y50.91 F3000.0
G01 X62.2 Y50.57 F3000.0
G01 X62.16 Y50.24 F3000.0
G01 X62.51 Y50.44 F3000.0
G01 F3000.0
M5
G00 X62.71 Y47.88 F3000.0
M3 F3000.0
G01 X63.21 Y48.05 F3000.0
G01 X63.72 Y47.88 F3000.0
G01 X63.21 Y47.71 F3000.0
G01 X62.71 Y47.88 F3000.0
G01 F3000.0
M5
G00 X63.13 Y47.04 F3000.0
M3 F3000.0
G01 X63.31 Y47.15 F3000.0
G01 X63.21 Y47.19 F3000.0
G01 X62.62 Y47.04 F3000.0
G01 X62.44 Y46.93 F3000.0
G01 X62.54 Y46.9 F3000.0
G01 X63.13 Y47.04 F3000.0
G01 F3000.0
M5
G00 X62.46 Y45.35 F3000.0
M3 F3000.0
G01 X62.27 Y45.67 F3000.0
G01 X62.28 Y45.94 F3000.0
G01 X62.52 Y46.15 F3000.0
G01 X62.95 Y46.29 F3000.0
G01 X63.66 Y46.58 F3000.0
G01 X63.56 Y46.68 F3000.0
G01 X63.11 Y46.66 F3000.0
G01 X62.16 Y46.45 F3000.0
G01 X61.96 F3000.0
G01 X61.87 Y46.64 F3000.0
G01 X62.04 Y47.48 F3000.0
G01 X62.13 Y47.86 F3000.0
G01 X62.05 Y48.1 F3000.0
G01 X61.9 Y48.06 F3000.0
G01 X61.78 Y47.65 F3000.0
G01 X61.6 Y47.16 F3000.0
G01 X61.25 Y47.04 F3000.0
G01 X60.56 Y47.39 F3000.0
G01 X60.3 Y47.68 F3000.0
G01 X59.37 Y48.72 F3000.0
G01 X59.12 Y48.96 F3000.0
G01 X59.02 Y48.92 F3000.0
G01 X59.56 Y48.1 F3000.0
G01 X59.84 Y47.78 F3000.0
G01 X60.77 Y46.7 F3000.0
G01 X61.05 Y46.42 F3000.0
G01 X62.03 Y45.43 F3000.0
G01 X62.69 Y44.95 F3000.0
G01 X62.46 Y45.35 F3000.0
G01 F3000.0
M5
G00 X58.98 Y45.56 F3000.0
M3 F3000.0
G01 X59.18 Y45.68 F3000.0
G01 X59.38 Y45.56 F3000.0
G01 X59.45 Y45.4 F3000.0
G01 X59.18 Y45.36 F3000.0
G01 X58.9 Y45.4 F3000.0
G01 X58.98 Y45.56 F3000.0
G01 F3000.0
M5
G00 X58.72 Y48.41 F3000.0
M3 F3000.0
G01 X58.64 Y48.43 F3000.0
G01 X57.59 Y48.67 F3000.0
G01 X56.94 Y48.68 F3000.0
G01 X56.66 Y48.58 F3000.0
G01 X56.95 Y48.32 F3000.0
G01 X56.97 Y48.31 F3000.0
G01 X57.99 Y48.23 F3000.0
G01 X58.67 Y48.26 F3000.0
G01 X58.72 Y48.41 F3000.0
G01 F3000.0
M5
G00 X56.53 Y47.49 F3000.0
M3 F3000.0
G01 X57.04 F3000.0
G01 Y47.43 F3000.0
G01 X56.74 Y47.41 F3000.0
G01 X56.47 Y47.44 F3000.0
G01 X56.53 Y47.49 F3000.0
G01 F3000.0
M5
G00 X55.82 Y40.53 F3000.0
M3 F3000.0
G01 X55.6 Y40.68 F3000.0
G01 X54.89 F3000.0
G01 X53.99 Y40.47 F3000.0
G01 X54.22 Y40.36 F3000.0
G01 X54.89 Y40.32 F3000.0
G01 X55.59 Y40.37 F3000.0
G01 X55.82 Y40.53 F3000.0
G01 F3000.0
M5
G00 X50.34 Y37.9 F3000.0
M3 F3000.0
G01 X50.54 Y38.13 F3000.0
G01 X50.61 Y38.62 F3000.0
G01 X50.79 Y39.43 F3000.0
G01 X50.7 Y39.59 F3000.0
G01 X49.95 Y39.67 F3000.0
G01 X49.94 F3000.0
G01 X48.92 Y39.64 F3000.0
G01 X49.19 Y39.31 F3000.0
G01 X49.71 Y39.14 F3000.0
G01 X50.19 Y38.97 F3000.0
G01 X50.13 Y38.85 F3000.0
G01 X49.83 Y38.81 F3000.0
G01 X49.48 Y38.76 F3000.0
G01 X49.66 Y38.5 F3000.0
G01 X49.93 Y37.99 F3000.0
G01 X50.0 Y37.81 F3000.0
G01 X50.34 Y37.9 F3000.0
G01 F3000.0
M5
G00 X49.21 Y48.25 F3000.0
M3 F3000.0
G01 X49.14 Y48.32 F3000.0
G01 X49.11 Y48.15 F3000.0
G01 X49.2 Y47.93 F3000.0
G01 X49.21 Y48.25 F3000.0
G01 F3000.0
M5
G00 X53.93 Y54.8 F3000.0
M3 F3000.0
G01 X54.06 Y54.97 F3000.0
G01 X54.44 Y55.12 F3000.0
G01 X55.08 Y55.34 F3000.0
G01 X54.79 Y55.44 F3000.0
G01 X53.94 Y55.3 F3000.0
G01 X53.71 Y55.14 F3000.0
G01 X53.63 Y54.92 F3000.0
G01 X53.8 Y54.6 F3000.0
G01 X53.93 Y54.8 F3000.0
G01 F3000.0
M5
G00 X53.3 Y55.7 F3000.0
M3 F3000.0
G01 X53.11 Y55.84 F3000.0
G01 X52.47 Y55.97 F3000.0
G01 X52.05 Y56.0 F3000.0
G01 X51.05 Y56.09 F3000.0
G01 X49.64 Y56.21 F3000.0
G01 X49.35 Y56.22 F3000.0
G01 X48.07 Y56.26 F3000.0
G01 X47.58 Y56.15 F3000.0
G01 X47.66 Y55.95 F3000.0
G01 X48.01 Y55.82 F3000.0
G01 X48.04 F3000.0
G01 X49.04 Y55.74 F3000.0
G01 X50.06 Y55.66 F3000.0
G01 X50.17 Y55.65 F3000.0
G01 X51.17 Y55.59 F3000.0
G01 X52.27 Y55.51 F3000.0
G01 X52.84 Y55.5 F3000.0
G01 X53.3 Y55.7 F3000.0
G01 F3000.0
M5
G00 X52.96 Y56.28 F3000.0
M3 F3000.0
G01 X53.21 Y56.45 F3000.0
G01 X53.46 Y56.6 F3000.0
G01 X53.12 Y56.64 F3000.0
G01 X52.13 Y56.78 F3000.0
G01 X50.8 Y56.96 F3000.0
G01 X50.33 Y56.98 F3000.0
G01 X49.33 Y57.01 F3000.0
G01 X47.85 Y57.07 F3000.0
G01 X47.6 Y56.9 F3000.0
G01 X47.85 Y56.74 F3000.0
G01 X48.01 Y56.72 F3000.0
G01 X49.0 Y56.58 F3000.0
G01 X50.14 Y56.42 F3000.0
G01 X50.49 Y56.39 F3000.0
G01 X51.49 Y56.28 F3000.0
G01 X52.83 Y56.14 F3000.0
G01 X52.96 Y56.28 F3000.0
G01 F3000.0
M5
G00 X53.59 Y57.34 F3000.0
M3 F3000.0
G01 X53.08 Y57.55 F3000.0
G01 X52.96 Y57.57 F3000.0
G01 X51.85 Y57.72 F3000.0
G01 X51.58 Y57.73 F3000.0
G01 X50.58 Y57.75 F3000.0
G01 X49.58 Y57.78 F3000.0
G01 X48.3 Y57.81 F3000.0
G01 X47.79 Y57.75 F3000.0
G01 X47.81 Y57.62 F3000.0
G01 X47.98 Y57.58 F3000.0
G01 X49.14 Y57.33 F3000.0
G01 X49.17 F3000.0
G01 X50.17 Y57.27 F3000.0
G01 X51.17 Y57.21 F3000.0
G01 X52.21 Y57.14 F3000.0
G01 X52.22 Y57.15 F3000.0
G01 X53.23 Y57.19 F3000.0
G01 X53.59 Y57.34 F3000.0
G01 F3000.0
M5
G00 X53.72 Y58.13 F3000.0
M3 F3000.0
G01 X53.63 Y58.27 F3000.0
G01 X53.13 Y58.38 F3000.0
G01 X52.81 Y58.4 F3000.0
G01 X51.81 Y58.47 F3000.0
G01 X50.5 Y58.56 F3000.0
G01 X50.16 F3000.0
G01 X48.82 Y58.59 F3000.0
G01 X48.18 Y58.48 F3000.0
G01 X48.21 Y58.33 F3000.0
G01 X48.54 Y58.22 F3000.0
G01 X48.91 Y58.19 F3000.0
G01 X50.27 Y58.09 F3000.0
G01 X50.47 F3000.0
G01 X51.47 Y58.05 F3000.0
G01 X52.66 Y58.02 F3000.0
G01 X52.69 F3000.0
G01 X53.72 Y58.13 F3000.0
G01 F3000.0
M5
G00 X53.8 Y58.87 F3000.0
M3 F3000.0
G01 X53.52 Y59.07 F3000.0
G01 X52.66 Y59.2 F3000.0
G01 X52.29 Y59.21 F3000.0
G01 X51.29 Y59.25 F3000.0
G01 X49.92 Y59.3 F3000.0
G01 X49.67 Y59.28 F3000.0
G01 X48.42 Y59.16 F3000.0
G01 X48.49 Y59.02 F3000.0
G01 X48.75 Y58.92 F3000.0
G01 X48.92 Y58.91 F3000.0
G01 X50.1 Y58.82 F3000.0
G01 X50.26 Y58.81 F3000.0
G01 X51.42 Y58.72 F3000.0
G01 X51.53 F3000.0
G01 X52.64 Y58.66 F3000.0
G01 X53.54 Y58.7 F3000.0
G01 X53.8 Y58.87 F3000.0
G01 F3000.0
M5
G00 X53.8 Y59.71 F3000.0
M3 F3000.0
G01 X53.7 Y59.83 F3000.0
G01 X53.34 Y59.91 F3000.0
G01 X52.86 Y59.93 F3000.0
G01 X51.38 Y59.97 F3000.0
G01 X51.11 Y59.96 F3000.0
G01 X50.11 Y59.9 F3000.0
G01 X48.85 Y59.83 F3000.0
G01 X48.92 Y59.72 F3000.0
G01 X49.4 Y59.65 F3000.0
G01 X49.87 Y59.63 F3000.0
G01 X50.87 Y59.58 F3000.0
G01 X52.33 Y59.51 F3000.0
G01 X52.42 F3000.0
G01 X53.52 Y59.52 F3000.0
G01 X53.8 Y59.71 F3000.0
G01 F3000.0
M5
G00 X53.72 Y60.49 F3000.0
M3 F3000.0
G01 X53.09 Y60.61 F3000.0
G01 X52.95 F3000.0
G01 X51.82 Y60.65 F3000.0
G01 X51.79 F3000.0
G01 X50.79 Y60.57 F3000.0
G01 X49.77 Y60.49 F3000.0
G01 X49.79 Y60.41 F3000.0
G01 X50.11 Y60.36 F3000.0
G01 X50.39 F3000.0
G01 X51.67 Y60.32 F3000.0
G01 X51.95 Y60.33 F3000.0
G01 X53.24 Y60.36 F3000.0
G01 X53.72 Y60.49 F3000.0
G01 F3000.0
M5
G00 X54.68 Y61.78 F3000.0
M3 F3000.0
G01 X53.93 F3000.0
G01 X53.88 Y61.73 F3000.0
G01 X54.3 Y61.71 F3000.0
G01 X54.73 Y61.73 F3000.0
G01 X54.68 Y61.78 F3000.0
G01 F3000.0
M5
G00 X56.53 Y61.61 F3000.0
M3 F3000.0
G01 X55.69 Y61.62 F3000.0
G01 X55.61 Y61.56 F3000.0
G01 X56.07 Y61.54 F3000.0
G01 X56.55 Y61.56 F3000.0
G01 X56.53 Y61.61 F3000.0
G01 F3000.0
M5
G00 X57.33 Y59.8 F3000.0
M3 F3000.0
G01 X57.24 Y59.95 F3000.0
G01 X56.96 Y60.07 F3000.0
G01 X56.88 F3000.0
G01 X55.8 Y60.15 F3000.0
G01 X54.83 Y60.0 F3000.0
G01 X54.95 Y59.87 F3000.0
G01 X55.52 Y59.77 F3000.0
G01 X55.74 Y59.76 F3000.0
G01 X56.95 Y59.68 F3000.0
G01 X57.33 Y59.8 F3000.0
G01 F3000.0
M5
G00 X57.49 Y58.93 F3000.0
M3 F3000.0
G01 X57.41 Y59.19 F3000.0
G01 X57.15 Y59.35 F3000.0
G01 X57.0 Y59.37 F3000.0
G01 X55.85 Y59.49 F3000.0
G01 X55.6 Y59.48 F3000.0
G01 X54.36 Y59.42 F3000.0
G01 X54.58 Y59.31 F3000.0
G01 X55.07 Y59.15 F3000.0
G01 X55.16 Y59.13 F3000.0
G01 X56.24 Y58.93 F3000.0
G01 X56.3 F3000.0
G01 X57.37 Y58.84 F3000.0
G01 X57.49 Y58.93 F3000.0
G01 F3000.0
M5
G00 X57.74 Y58.45 F3000.0
M3 F3000.0
G01 X57.41 Y58.5 F3000.0
G01 X56.1 Y58.67 F3000.0
G01 X56.01 Y58.68 F3000.0
G01 X54.93 Y58.79 F3000.0
G01 X54.46 Y58.99 F3000.0
G01 X54.34 Y59.1 F3000.0
G01 X54.31 Y58.85 F3000.0
G01 X54.34 Y58.64 F3000.0
G01 X54.55 Y58.53 F3000.0
G01 X54.79 Y58.51 F3000.0
G01 X56.03 Y58.43 F3000.0
G01 X56.43 Y58.41 F3000.0
G01 X57.83 Y58.34 F3000.0
G01 X57.74 Y58.45 F3000.0
G01 F3000.0
M5
G00 X59.12 Y59.69 F3000.0
M3 F3000.0
G01 X59.06 Y59.71 F3000.0
G01 X59.04 Y59.48 F3000.0
G01 X59.06 Y59.24 F3000.0
G01 X59.12 Y59.27 F3000.0
G01 Y59.69 F3000.0
G01 F3000.0
M5
G00 X58.63 Y60.56 F3000.0
M3 F3000.0
G01 X58.05 Y60.65 F3000.0
G01 X57.95 Y60.66 F3000.0
G01 X56.95 Y60.71 F3000.0
G01 X55.84 Y60.76 F3000.0
G01 X55.76 Y60.77 F3000.0
G01 X54.67 Y60.8 F3000.0
G01 X54.3 Y60.69 F3000.0
G01 X54.94 Y60.51 F3000.0
G01 X55.15 Y60.49 F3000.0
G01 X56.36 Y60.41 F3000.0
G01 X56.6 F3000.0
G01 X57.84 Y60.42 F3000.0
G01 X58.63 Y60.56 F3000.0
G01 F3000.0
M5
G00 X58.93 Y61.18 F3000.0
M3 F3000.0
G01 X58.82 Y61.19 F3000.0
G01 X57.82 Y61.25 F3000.0
G01 X56.82 Y61.32 F3000.0
G01 X55.72 Y61.39 F3000.0
G01 X55.35 Y61.4 F3000.0
G01 X53.99 Y61.43 F3000.0
G01 X53.4 Y61.38 F3000.0
G01 X53.82 Y61.33 F3000.0
G01 X55.24 Y61.15 F3000.0
G01 X55.62 Y61.13 F3000.0
G01 X56.62 Y61.09 F3000.0
G01 X58.0 Y61.03 F3000.0
G01 X58.16 Y61.04 F3000.0
G01 X59.32 Y61.06 F3000.0
G01 X59.31 Y61.1 F3000.0
G01 X58.93 Y61.18 F3000.0
G01 F3000.0
M5
G00 X59.76 Y57.53 F3000.0
M3 F3000.0
G01 X59.82 Y57.57 F3000.0
G01 X60.75 Y58.11 F3000.0
G01 X60.58 F3000.0
G01 X59.58 F3000.0
G01 X58.58 F3000.0
G01 X57.4 F3000.0
G01 X57.23 F3000.0
G01 X56.23 Y58.09 F3000.0
G01 X55.05 Y58.07 F3000.0
G01 X54.48 Y58.03 F3000.0
G01 X54.39 Y57.97 F3000.0
G01 X54.62 Y57.95 F3000.0
G01 X55.62 Y57.89 F3000.0
G01 X56.86 Y57.81 F3000.0
G01 X57.15 Y57.8 F3000.0
G01 X58.44 Y57.75 F3000.0
G01 X59.1 Y57.62 F3000.0
G01 X58.61 Y57.49 F3000.0
G01 X58.25 F3000.0
G01 X56.88 Y57.46 F3000.0
G01 X56.59 F3000.0
G01 X55.59 F3000.0
G01 X54.3 F3000.0
