
;Inkscape Lasertools G-code
;https://github.com/ChrisWag91/Inkscape-Lasertools-Plugin

G90	;Absolute programming
G21	;Programming in millimeters (mm)
M5
M03 S1 ;Activate laser and set power to 0 (CUSTOM)

; START perimeter strategy
G01 F6000.0
M5
G00 X8.71 Y140.82 F6000.0
M3 F6000.0
G01 X8.72 Y140.85 F6000.0
G01 X9.2 Y141.75 F6000.0
G01 X8.79 F6000.0
G01 X7.37 F6000.0
G01 X7.38 Y141.73 F6000.0
G01 X7.86 Y140.82 F6000.0
G01 X8.71 F6000.0
M5
G00 X7.05 Y140.4 F6000.0
M3 F6000.0
G01 X7.3 F6000.0
G01 X8.3 F6000.0
G01 X9.55 F6000.0
G01 Y140.26 F6000.0
G01 Y139.11 F6000.0
G01 X9.51 F6000.0
G01 Y139.32 F6000.0
G01 X9.3 F6000.0
G01 X8.3 F6000.0
G01 X7.1 F6000.0
G01 Y139.11 F6000.0
G01 X7.05 F6000.0
G01 Y139.26 F6000.0
G01 Y140.4 F6000.0
M5
G00 X6.46 Y140.78 F6000.0
M3 F6000.0
G01 Y140.82 F6000.0
G01 X6.63 F6000.0
G01 X7.81 F6000.0
G01 X7.79 Y140.85 F6000.0
G01 X7.32 Y141.75 F6000.0
G01 X6.59 F6000.0
G01 Y141.8 F6000.0
G01 X6.93 F6000.0
G01 X8.28 F6000.0
G01 Y142.24 F6000.0
G01 X8.32 F6000.0
G01 Y141.8 F6000.0
G01 X8.67 F6000.0
G01 X10.02 F6000.0
G01 Y141.75 F6000.0
G01 X9.25 F6000.0
G01 X9.24 Y141.74 F6000.0
G01 X8.77 Y140.82 F6000.0
G01 X8.96 F6000.0
G01 X10.15 F6000.0
G01 Y140.78 F6000.0
G01 X9.8 F6000.0
G01 X7.8 F6000.0
G01 X6.46 F6000.0
M5
G00 X7.1 Y139.37 F6000.0
M3 F6000.0
G01 X7.3 F6000.0
G01 X8.3 F6000.0
G01 X9.51 F6000.0
G01 Y140.36 F6000.0
G01 X9.3 F6000.0
G01 X8.3 F6000.0
G01 X7.1 F6000.0
G01 Y139.37 F6000.0
M5
G00 X7.58 Y137.76 F6000.0
M3 F6000.0
G01 Y137.71 F6000.0
G01 X7.03 F6000.0
G01 Y137.62 F6000.0
G01 Y136.53 F6000.0
G01 X7.58 Y136.77 F6000.0
G01 X7.59 Y136.73 F6000.0
G01 X7.03 Y136.48 F6000.0
G01 Y136.4 F6000.0
G01 Y135.32 F6000.0
G01 X7.0 Y135.02 F6000.0
G01 X6.8 Y134.96 F6000.0
G01 X6.43 Y134.98 F6000.0
G01 X6.44 Y135.03 F6000.0
G01 X6.8 Y135.0 F6000.0
G01 X6.96 Y135.05 F6000.0
G01 X6.99 Y135.32 F6000.0
G01 Y135.39 F6000.0
G01 Y136.46 F6000.0
G01 X6.4 Y136.28 F6000.0
G01 X6.39 Y136.32 F6000.0
G01 X6.99 Y136.52 F6000.0
G01 Y136.62 F6000.0
G01 Y137.71 F6000.0
G01 X6.4 F6000.0
G01 Y137.76 F6000.0
G01 X6.99 F6000.0
G01 Y138.56 F6000.0
G01 X7.03 F6000.0
G01 Y137.76 F6000.0
G01 X7.58 F6000.0
M5
G00 X7.84 Y137.75 F6000.0
M3 F6000.0
G01 Y137.12 F6000.0
G01 X7.89 F6000.0
G01 X8.89 F6000.0
G01 X9.95 F6000.0
G01 Y137.75 F6000.0
G01 X9.89 F6000.0
G01 X8.89 F6000.0
G01 X7.84 F6000.0
M5
G00 X7.84 Y137.8 F6000.0
M3 F6000.0
G01 X7.89 F6000.0
G01 X8.89 F6000.0
G01 X9.95 F6000.0
G01 Y138.37 F6000.0
G01 X9.89 F6000.0
G01 X8.89 F6000.0
G01 X7.84 F6000.0
G01 Y137.8 F6000.0
M5
G00 X7.86 Y137.08 F6000.0
M3 F6000.0
G01 X7.79 F6000.0
G01 Y137.25 F6000.0
G01 Y138.41 F6000.0
G01 X7.9 F6000.0
G01 X8.9 F6000.0
G01 X10.0 F6000.0
G01 Y138.25 F6000.0
G01 Y137.08 F6000.0
G01 X9.93 F6000.0
G01 X8.93 F6000.0
G01 X7.86 F6000.0
M5
G00 X7.31 Y134.97 F6000.0
M3 F6000.0
G01 X7.75 Y135.6 F6000.0
G01 X8.0 Y136.34 F6000.0
G01 X8.05 F6000.0
G01 X7.89 Y135.79 F6000.0
G01 X8.31 Y135.39 F6000.0
G01 X8.85 Y135.15 F6000.0
G01 Y135.38 F6000.0
G01 Y136.61 F6000.0
G01 X8.76 F6000.0
G01 X7.67 F6000.0
G01 Y136.65 F6000.0
G01 X7.92 F6000.0
G01 X8.92 F6000.0
G01 X10.17 F6000.0
G01 Y136.61 F6000.0
G01 X10.03 F6000.0
G01 X8.89 F6000.0
G01 Y135.96 F6000.0
G01 X8.97 F6000.0
G01 X10.04 F6000.0
G01 Y135.91 F6000.0
G01 X9.97 F6000.0
G01 X8.89 F6000.0
G01 Y135.14 F6000.0
G01 X8.94 F6000.0
G01 X9.97 Y135.05 F6000.0
G01 X10.17 F6000.0
G01 Y135.0 F6000.0
G01 X9.97 F6000.0
G01 X9.81 Y135.02 F6000.0
G01 X8.65 Y135.16 F6000.0
G01 X7.87 Y135.74 F6000.0
G01 X7.34 Y134.94 F6000.0
G01 X7.31 Y134.97 F6000.0
M5
G00 X7.84 Y133.4 F6000.0
M3 F6000.0
G01 Y133.44 F6000.0
G01 X7.87 F6000.0
G01 X8.89 F6000.0
G01 Y133.74 F6000.0
G01 X8.94 F6000.0
G01 Y133.44 F6000.0
G01 X9.0 F6000.0
G01 X10.06 F6000.0
G01 Y133.4 F6000.0
G01 X9.95 F6000.0
G01 X8.95 F6000.0
G01 X7.84 F6000.0
M5
G00 X7.99 Y132.59 F6000.0
M3 F6000.0
G01 X7.98 Y132.64 F6000.0
G01 X8.03 Y132.65 F6000.0
G01 X9.04 Y132.93 F6000.0
G01 X8.11 Y133.18 F6000.0
G01 X8.12 Y133.22 F6000.0
G01 X8.13 F6000.0
G01 X9.11 Y132.95 F6000.0
G01 X9.8 Y133.29 F6000.0
G01 X9.82 Y133.26 F6000.0
G01 X9.17 Y132.93 F6000.0
G01 X9.99 Y132.64 F6000.0
G01 X9.97 Y132.6 F6000.0
G01 X9.11 Y132.9 F6000.0
G01 X9.03 Y132.88 F6000.0
G01 X7.99 Y132.59 F6000.0
G01 F6000.0
M5
G00 X7.58 Y131.72 F6000.0
M3 F6000.0
G01 X7.46 Y132.12 F6000.0
G01 X6.98 Y132.54 F6000.0
G01 X7.02 Y132.61 F6000.0
G01 X7.63 Y133.5 F6000.0
G01 X6.65 F6000.0
G01 Y133.07 F6000.0
G01 Y132.07 F6000.0
G01 Y130.64 F6000.0
G01 X6.61 F6000.0
G01 Y131.09 F6000.0
G01 Y132.09 F6000.0
G01 Y133.54 F6000.0
G01 X6.64 F6000.0
G01 X7.67 F6000.0
G01 Y133.48 F6000.0
G01 X7.64 Y133.43 F6000.0
G01 X7.05 Y132.55 F6000.0
G01 X7.5 Y132.13 F6000.0
G01 X7.62 Y131.72 F6000.0
G01 X7.49 Y131.39 F6000.0
G01 X6.99 Y131.3 F6000.0
G01 X6.84 F6000.0
G01 Y131.34 F6000.0
G01 X6.99 F6000.0
G01 X7.47 Y131.42 F6000.0
G01 X7.58 Y131.72 F6000.0
G01 F6000.0
M5
G00 X7.63 Y130.68 F6000.0
M3 F6000.0
G01 X7.6 Y130.69 F6000.0
G01 X7.75 Y131.23 F6000.0
G01 X7.82 Y131.94 F6000.0
G01 Y132.47 F6000.0
G01 X7.96 F6000.0
G01 X8.96 F6000.0
G01 X10.1 F6000.0
G01 Y132.42 F6000.0
G01 X9.98 F6000.0
G01 X8.98 F6000.0
G01 X7.86 F6000.0
G01 Y131.94 F6000.0
G01 X7.79 Y131.23 F6000.0
G01 X7.63 Y130.68 F6000.0
G01 F6000.0
M5
G00 X7.45 Y129.66 F6000.0
M3 F6000.0
G01 X6.71 Y130.01 F6000.0
G01 X6.72 Y130.04 F6000.0
G01 X7.47 Y129.7 F6000.0
G01 X7.45 Y129.66 F6000.0
M5
G00 X7.88 Y129.33 F6000.0
M3 F6000.0
G01 X7.9 F6000.0
G01 X8.91 F6000.0
G01 Y129.82 F6000.0
G01 X8.9 F6000.0
G01 X7.88 F6000.0
G01 Y129.33 F6000.0
M5
G00 X7.2 Y129.05 F6000.0
M3 F6000.0
G01 X6.43 Y129.43 F6000.0
G01 X6.45 Y129.47 F6000.0
G01 X7.22 Y129.08 F6000.0
G01 X7.2 Y129.05 F6000.0
M5
G00 X7.86 Y128.23 F6000.0
M3 F6000.0
G01 X7.85 Y128.28 F6000.0
G01 X7.87 F6000.0
G01 X8.84 Y128.57 F6000.0
G01 X8.19 Y129.15 F6000.0
G01 X8.23 Y129.18 F6000.0
G01 X8.89 Y128.6 F6000.0
G01 X8.94 Y128.64 F6000.0
G01 X9.78 Y129.29 F6000.0
G01 X9.33 F6000.0
G01 X7.88 F6000.0
G01 X7.78 Y128.65 F6000.0
G01 X7.49 Y128.13 F6000.0
G01 X7.45 Y128.15 F6000.0
G01 X7.74 Y128.67 F6000.0
G01 X7.84 Y129.29 F6000.0
G01 Y129.86 F6000.0
G01 X7.88 F6000.0
G01 X8.91 F6000.0
G01 Y130.18 F6000.0
G01 X8.96 F6000.0
G01 Y129.86 F6000.0
G01 X9.04 F6000.0
G01 X10.12 F6000.0
G01 Y129.8 F6000.0
G01 X9.82 Y129.45 F6000.0
G01 X9.79 Y129.49 F6000.0
G01 X10.08 Y129.82 F6000.0
G01 X10.02 F6000.0
G01 X8.96 F6000.0
G01 Y129.33 F6000.0
G01 X9.83 F6000.0
G01 Y129.27 F6000.0
G01 X9.77 Y129.23 F6000.0
G01 X8.93 Y128.57 F6000.0
G01 X9.07 Y128.52 F6000.0
G01 X10.15 Y128.15 F6000.0
G01 X10.14 Y128.11 F6000.0
G01 X9.98 Y128.16 F6000.0
G01 X8.88 Y128.55 F6000.0
G01 X8.85 Y128.54 F6000.0
G01 X7.86 Y128.23 F6000.0
G01 F6000.0
M5
G00 X6.62 Y128.07 F6000.0
M3 F6000.0
G01 X6.6 Y128.11 F6000.0
G01 X6.68 Y128.18 F6000.0
G01 X7.53 Y128.88 F6000.0
G01 X7.57 Y128.86 F6000.0
G01 X7.48 Y128.78 F6000.0
G01 X6.62 Y128.07 F6000.0
G01 F6000.0
M5
G00 X6.63 Y126.45 F6000.0
M3 F6000.0
G01 X6.62 Y126.5 F6000.0
G01 X7.0 Y126.6 F6000.0
G01 X8.34 Y126.97 F6000.0
G01 X8.2 Y127.0 F6000.0
G01 X7.08 Y127.23 F6000.0
G01 X6.87 Y127.08 F6000.0
G01 X6.85 Y127.12 F6000.0
G01 X6.87 Y127.14 F6000.0
G01 X7.66 Y127.81 F6000.0
G01 X7.54 F6000.0
G01 X6.42 F6000.0
G01 Y127.85 F6000.0
G01 X6.55 F6000.0
G01 X7.69 F6000.0
G01 X7.93 Y128.14 F6000.0
G01 X7.97 Y128.12 F6000.0
G01 X7.75 Y127.85 F6000.0
G01 X7.97 F6000.0
G01 X8.97 F6000.0
G01 X10.19 F6000.0
G01 Y127.81 F6000.0
G01 X9.39 F6000.0
G01 X9.01 Y127.37 F6000.0
G01 X8.46 Y126.99 F6000.0
G01 X8.75 Y126.89 F6000.0
G01 X9.99 Y126.48 F6000.0
G01 X9.97 Y126.44 F6000.0
G01 X9.66 Y126.54 F6000.0
G01 X8.4 Y126.96 F6000.0
G01 X7.57 Y126.64 F6000.0
G01 X6.63 Y126.45 F6000.0
G01 F6000.0
M5
G00 X6.59 Y125.67 F6000.0
M3 F6000.0
G01 Y125.71 F6000.0
G01 X6.64 F6000.0
G01 X7.69 F6000.0
G01 Y125.67 F6000.0
G01 X7.64 F6000.0
G01 X6.59 F6000.0
M5
G00 X6.46 Y125.1 F6000.0
M3 F6000.0
G01 Y125.14 F6000.0
G01 X6.64 F6000.0
G01 X7.82 F6000.0
G01 Y125.1 F6000.0
G01 X7.64 F6000.0
G01 X6.46 F6000.0
M5
G00 X6.61 Y124.5 F6000.0
M3 F6000.0
G01 Y124.55 F6000.0
G01 X6.64 F6000.0
G01 X7.67 F6000.0
G01 Y124.5 F6000.0
G01 X7.64 F6000.0
G01 X6.61 F6000.0
M5
G00 X6.61 Y123.91 F6000.0
M3 F6000.0
G01 Y123.95 F6000.0
G01 X6.64 F6000.0
G01 X7.67 F6000.0
G01 Y123.91 F6000.0
G01 X7.64 F6000.0
G01 X6.61 F6000.0
M5
G00 X6.63 Y122.41 F6000.0
M3 F6000.0
G01 X6.64 F6000.0
G01 X7.65 F6000.0
G01 Y123.32 F6000.0
G01 X7.64 F6000.0
G01 X6.63 F6000.0
G01 Y122.41 F6000.0
M5
G00 X6.63 Y122.37 F6000.0
M3 F6000.0
G01 Y122.16 F6000.0
G01 X6.59 F6000.0
G01 Y122.26 F6000.0
G01 Y123.36 F6000.0
G01 X6.64 F6000.0
G01 X7.69 F6000.0
G01 Y122.37 F6000.0
G01 X7.66 F6000.0
G01 X6.63 F6000.0
M5
G00 X8.15 Y124.8 F6000.0
M3 F6000.0
G01 Y124.59 F6000.0
G01 Y123.38 F6000.0
G01 X8.18 F6000.0
G01 X9.21 F6000.0
G01 Y123.59 F6000.0
G01 Y124.8 F6000.0
G01 X9.18 F6000.0
G01 X8.15 F6000.0
M5
G00 X8.18 Y124.84 F6000.0
M3 F6000.0
G01 X8.22 F6000.0
G01 X9.26 F6000.0
G01 Y124.59 F6000.0
G01 Y123.34 F6000.0
G01 X9.21 F6000.0
G01 X8.15 F6000.0
G01 Y123.0 F6000.0
G01 X8.11 F6000.0
G01 Y123.42 F6000.0
G01 Y124.84 F6000.0
G01 X8.18 F6000.0
M5
G00 X8.4 Y127.01 F6000.0
M3 F6000.0
G01 X8.95 Y127.37 F6000.0
G01 X9.35 Y127.81 F6000.0
G01 X9.03 F6000.0
G01 X7.72 F6000.0
G01 X7.13 Y127.27 F6000.0
G01 X7.28 Y127.24 F6000.0
G01 X8.4 Y127.01 F6000.0
G01 F6000.0
M5
G00 X10.25 Y125.69 F6000.0
M3 F6000.0
G01 Y125.65 F6000.0
G01 X9.98 F6000.0
G01 Y125.62 F6000.0
G01 Y123.62 F6000.0
G01 Y122.6 F6000.0
G01 X9.91 Y122.3 F6000.0
G01 X9.62 Y122.24 F6000.0
G01 X9.02 Y122.26 F6000.0
G01 Y122.3 F6000.0
G01 X9.62 Y122.28 F6000.0
G01 X9.88 Y122.33 F6000.0
G01 X9.93 Y122.6 F6000.0
G01 Y122.62 F6000.0
G01 Y124.62 F6000.0
G01 Y125.65 F6000.0
G01 X9.45 F6000.0
G01 X7.96 F6000.0
G01 Y125.69 F6000.0
G01 X8.11 F6000.0
G01 X9.11 F6000.0
G01 X10.25 F6000.0
M5
G00 X12.18 Y126.79 F6000.0
M3 F6000.0
G01 Y126.5 F6000.0
G01 X12.14 F6000.0
G01 Y126.69 F6000.0
G01 Y128.69 F6000.0
G01 Y129.88 F6000.0
G01 X12.6 F6000.0
G01 X13.6 F6000.0
G01 X15.05 F6000.0
G01 Y129.69 F6000.0
G01 Y127.69 F6000.0
G01 Y126.5 F6000.0
G01 X15.01 F6000.0
G01 Y126.79 F6000.0
G01 X14.6 F6000.0
G01 X13.6 F6000.0
G01 X12.18 F6000.0
M5
G00 X12.18 Y126.84 F6000.0
M3 F6000.0
G01 X12.6 F6000.0
G01 X13.6 F6000.0
G01 X15.01 F6000.0
G01 F6000.0
G01 Y128.84 F6000.0
G01 Y129.84 F6000.0
G01 X14.6 F6000.0
G01 X13.6 F6000.0
G01 X12.18 F6000.0
G01 Y129.62 F6000.0
G01 Y128.4 F6000.0
G01 X12.4 F6000.0
G01 X13.4 F6000.0
G01 X14.63 F6000.0
G01 Y128.36 F6000.0
G01 X14.4 F6000.0
G01 X13.4 F6000.0
G01 X12.18 F6000.0
G01 Y128.1 F6000.0
G01 Y126.84 F6000.0
M5
G00 X11.88 Y131.23 F6000.0
M3 F6000.0
G01 Y130.94 F6000.0
G01 X11.84 F6000.0
G01 Y131.01 F6000.0
G01 Y133.01 F6000.0
G01 Y134.07 F6000.0
G01 X12.73 F6000.0
G01 Y133.65 F6000.0
G01 Y132.65 F6000.0
G01 Y131.23 F6000.0
G01 X11.88 F6000.0
M5
G00 X11.88 Y131.28 F6000.0
M3 F6000.0
G01 X12.69 F6000.0
G01 Y131.65 F6000.0
G01 Y132.65 F6000.0
G01 Y134.03 F6000.0
G01 X11.88 F6000.0
G01 Y133.65 F6000.0
G01 Y132.65 F6000.0
G01 Y131.28 F6000.0
M5
G00 X10.17 Y130.79 F6000.0
M3 F6000.0
G01 Y130.75 F6000.0
G01 X10.06 F6000.0
G01 X9.06 F6000.0
G01 X7.94 F6000.0
G01 Y130.79 F6000.0
G01 X8.01 F6000.0
G01 X9.09 F6000.0
G01 Y131.38 F6000.0
G01 X8.28 F6000.0
G01 Y131.43 F6000.0
G01 X9.09 F6000.0
G01 Y131.93 F6000.0
G01 X8.32 F6000.0
G01 X7.99 Y131.45 F6000.0
G01 X7.96 Y131.48 F6000.0
G01 X8.4 Y132.24 F6000.0
G01 X8.45 Y132.23 F6000.0
G01 X8.34 Y131.98 F6000.0
G01 X9.09 F6000.0
G01 Y132.28 F6000.0
G01 X9.13 F6000.0
G01 Y131.98 F6000.0
G01 X10.06 F6000.0
G01 Y131.93 F6000.0
G01 X9.13 F6000.0
G01 Y131.43 F6000.0
G01 X9.93 F6000.0
G01 Y131.38 F6000.0
G01 X9.13 F6000.0
G01 Y130.79 F6000.0
G01 X9.15 F6000.0
G01 X10.17 F6000.0
M5
G00 X10.1 Y134.03 F6000.0
M3 F6000.0
G01 Y133.99 F6000.0
G01 F6000.0
G01 X9.09 F6000.0
G01 Y133.74 F6000.0
G01 X9.04 F6000.0
G01 Y133.99 F6000.0
G01 X8.8 F6000.0
G01 X7.56 F6000.0
G01 Y133.74 F6000.0
G01 X7.52 F6000.0
G01 Y133.99 F6000.0
G01 X7.51 F6000.0
G01 X6.5 F6000.0
G01 Y134.03 F6000.0
G01 X6.51 F6000.0
G01 X7.52 F6000.0
G01 Y134.43 F6000.0
G01 X7.56 F6000.0
G01 Y134.03 F6000.0
G01 X7.8 F6000.0
G01 X9.04 F6000.0
G01 Y134.43 F6000.0
G01 X9.09 F6000.0
G01 Y134.03 F6000.0
G01 X9.1 F6000.0
G01 X10.1 F6000.0
M5
G00 X11.97 Y135.07 F6000.0
M3 F6000.0
G01 Y134.85 F6000.0
G01 X11.92 F6000.0
G01 Y134.96 F6000.0
G01 Y136.06 F6000.0
G01 X12.04 F6000.0
G01 X13.15 F6000.0
G01 Y135.07 F6000.0
G01 X13.06 F6000.0
G01 X11.97 F6000.0
M5
G00 X11.97 Y135.11 F6000.0
M3 F6000.0
G01 X12.04 F6000.0
G01 X13.11 F6000.0
G01 Y136.02 F6000.0
G01 X13.04 F6000.0
G01 X11.97 F6000.0
G01 Y135.11 F6000.0
M5
G00 X11.95 Y136.61 F6000.0
M3 F6000.0
G01 Y136.65 F6000.0
G01 X12.04 F6000.0
G01 X13.13 F6000.0
G01 Y136.61 F6000.0
G01 X13.04 F6000.0
G01 X11.95 F6000.0
M5
G00 X11.95 Y137.2 F6000.0
M3 F6000.0
G01 Y137.25 F6000.0
G01 X12.04 F6000.0
G01 X13.13 F6000.0
G01 Y137.2 F6000.0
G01 X13.04 F6000.0
G01 X11.95 F6000.0
M5
G00 X11.8 Y137.8 F6000.0
M3 F6000.0
G01 Y137.84 F6000.0
G01 X12.04 F6000.0
G01 X13.28 F6000.0
G01 Y137.8 F6000.0
G01 X13.04 F6000.0
G01 X11.8 F6000.0
M5
G00 X11.92 Y138.37 F6000.0
M3 F6000.0
G01 Y138.41 F6000.0
G01 X12.04 F6000.0
G01 X13.15 F6000.0
G01 Y138.37 F6000.0
G01 X13.04 F6000.0
G01 X11.92 F6000.0
M5
G00 X13.73 Y138.53 F6000.0
M3 F6000.0
G01 X13.77 Y138.55 F6000.0
G01 X14.1 Y137.9 F6000.0
G01 X14.66 F6000.0
G01 X15.07 Y138.57 F6000.0
G01 X15.11 Y138.55 F6000.0
G01 X14.72 Y137.9 F6000.0
G01 X15.33 F6000.0
G01 Y137.78 F6000.0
G01 Y136.65 F6000.0
G01 X14.71 F6000.0
G01 Y136.47 F6000.0
G01 Y135.28 F6000.0
G01 X14.77 Y135.06 F6000.0
G01 X15.07 Y135.03 F6000.0
G01 X15.41 Y135.16 F6000.0
G01 X15.48 Y136.04 F6000.0
G01 X15.52 F6000.0
G01 X15.47 Y135.17 F6000.0
G01 X15.3 Y135.0 F6000.0
G01 X15.07 Y134.98 F6000.0
G01 X14.73 Y135.03 F6000.0
G01 X14.67 Y135.28 F6000.0
G01 Y135.47 F6000.0
G01 Y136.65 F6000.0
G01 X14.12 F6000.0
G01 X14.11 Y136.59 F6000.0
G01 X13.93 Y135.55 F6000.0
G01 X13.29 Y134.93 F6000.0
G01 X13.26 Y134.97 F6000.0
G01 X13.89 Y135.57 F6000.0
G01 X13.9 Y135.62 F6000.0
G01 X14.08 Y136.65 F6000.0
G01 X13.57 F6000.0
G01 X13.51 F6000.0
G01 Y136.78 F6000.0
G01 Y137.9 F6000.0
G01 X14.05 F6000.0
G01 X13.73 Y138.53 F6000.0
G01 F6000.0
M5
G00 X13.55 Y136.7 F6000.0
M3 F6000.0
G01 X13.92 F6000.0
G01 X15.29 F6000.0
G01 Y136.78 F6000.0
G01 Y137.86 F6000.0
G01 X14.92 F6000.0
G01 X13.55 F6000.0
G01 Y137.78 F6000.0
G01 Y136.7 F6000.0
M5
G00 X12.85 Y140.52 F6000.0
M3 F6000.0
G01 X12.88 Y140.55 F6000.0
G01 X12.99 Y140.38 F6000.0
G01 X13.67 Y139.4 F6000.0
G01 X13.63 Y139.37 F6000.0
G01 X13.33 Y139.84 F6000.0
G01 X12.97 Y139.74 F6000.0
G01 X11.65 Y139.34 F6000.0
G01 X11.64 Y139.39 F6000.0
G01 X11.92 Y139.45 F6000.0
G01 Y139.54 F6000.0
G01 Y141.54 F6000.0
G01 Y142.62 F6000.0
G01 X12.19 F6000.0
G01 X13.47 F6000.0
G01 Y142.25 F6000.0
G01 Y140.87 F6000.0
G01 X13.22 F6000.0
G01 X11.97 F6000.0
G01 Y140.66 F6000.0
G01 Y139.46 F6000.0
G01 X12.16 Y139.52 F6000.0
G01 X13.31 Y139.89 F6000.0
G01 X12.85 Y140.52 F6000.0
G01 F6000.0
M5
G00 X11.97 Y140.91 F6000.0
M3 F6000.0
G01 X12.2 F6000.0
G01 X13.43 F6000.0
G01 Y141.75 F6000.0
G01 X13.2 F6000.0
G01 X11.97 F6000.0
G01 Y140.91 F6000.0
M5
G00 X11.97 Y141.8 F6000.0
M3 F6000.0
G01 X12.2 F6000.0
G01 X13.43 F6000.0
G01 Y142.58 F6000.0
G01 X13.2 F6000.0
G01 X11.97 F6000.0
G01 Y141.8 F6000.0
M5
G00 X10.12 Y142.47 F6000.0
M3 F6000.0
G01 Y142.43 F6000.0
G01 X10.11 F6000.0
G01 X9.09 F6000.0
G01 Y142.09 F6000.0
G01 X9.04 F6000.0
G01 Y142.43 F6000.0
G01 X8.8 F6000.0
G01 X7.56 F6000.0
G01 Y142.09 F6000.0
G01 X7.52 F6000.0
G01 Y142.43 F6000.0
G01 X7.5 F6000.0
G01 X6.48 F6000.0
G01 Y142.47 F6000.0
G01 X6.5 F6000.0
G01 X7.52 F6000.0
G01 Y142.83 F6000.0
G01 X7.56 F6000.0
G01 Y142.47 F6000.0
G01 X7.8 F6000.0
G01 X9.04 F6000.0
G01 Y142.83 F6000.0
G01 X9.09 F6000.0
G01 Y142.47 F6000.0
G01 X9.11 F6000.0
G01 X10.12 F6000.0
M5
G00 X13.93 Y142.58 F6000.0
M3 F6000.0
G01 Y142.36 F6000.0
G01 Y140.36 F6000.0
G01 Y139.13 F6000.0
G01 X13.89 F6000.0
G01 Y139.38 F6000.0
G01 Y141.38 F6000.0
G01 Y142.62 F6000.0
G01 X14.1 F6000.0
G01 X15.31 F6000.0
G01 Y142.34 F6000.0
G01 Y141.34 F6000.0
G01 Y140.06 F6000.0
G01 X15.27 Y139.76 F6000.0
G01 X15.03 Y139.7 F6000.0
G01 X14.34 Y139.72 F6000.0
G01 Y139.77 F6000.0
G01 X15.03 Y139.75 F6000.0
G01 X15.24 Y139.79 F6000.0
G01 X15.27 Y140.06 F6000.0
G01 Y140.32 F6000.0
G01 Y141.32 F6000.0
G01 Y142.58 F6000.0
G01 X15.1 F6000.0
G01 X13.93 F6000.0
M5
G00 X17.26 Y140.72 F6000.0
M3 F6000.0
G01 X17.44 F6000.0
G01 X18.63 F6000.0
G01 Y141.38 F6000.0
G01 X18.44 F6000.0
G01 X17.26 F6000.0
G01 Y140.72 F6000.0
M5
G00 X17.26 Y140.68 F6000.0
M3 F6000.0
G01 Y140.02 F6000.0
G01 X17.44 F6000.0
G01 X18.63 F6000.0
G01 Y140.68 F6000.0
G01 X18.44 F6000.0
G01 X17.26 F6000.0
M5
G00 X19.14 Y140.87 F6000.0
M3 F6000.0
G01 X19.18 F6000.0
G01 Y140.2 F6000.0
G01 X19.43 Y140.3 F6000.0
G01 X20.61 Y140.77 F6000.0
G01 X20.64 Y140.73 F6000.0
G01 X20.37 Y140.63 F6000.0
G01 X19.18 Y140.15 F6000.0
G01 Y139.41 F6000.0
G01 X19.22 Y139.26 F6000.0
G01 X19.42 Y139.22 F6000.0
G01 X19.82 F6000.0
G01 X20.22 F6000.0
G01 X20.38 Y139.23 F6000.0
G01 X20.49 Y139.27 F6000.0
G01 X20.57 Y139.33 F6000.0
G01 X20.62 Y139.45 F6000.0
G01 X20.66 Y139.63 F6000.0
G01 X20.68 Y139.9 F6000.0
G01 X20.73 F6000.0
G01 X20.69 Y139.61 F6000.0
G01 X20.65 Y139.42 F6000.0
G01 X20.6 Y139.29 F6000.0
G01 X20.52 Y139.23 F6000.0
G01 X20.4 Y139.2 F6000.0
G01 X20.22 Y139.18 F6000.0
G01 X19.82 Y139.17 F6000.0
G01 X19.42 Y139.18 F6000.0
G01 X19.18 Y139.22 F6000.0
G01 X19.14 Y139.41 F6000.0
G01 Y139.64 F6000.0
G01 Y140.87 F6000.0
M5
G00 X18.68 Y139.39 F6000.0
M3 F6000.0
G01 X18.63 Y139.2 F6000.0
G01 X18.42 Y139.17 F6000.0
G01 X17.99 Y139.2 F6000.0
G01 X18.0 Y139.24 F6000.0
G01 X18.42 Y139.22 F6000.0
G01 X18.6 Y139.24 F6000.0
G01 X18.63 Y139.39 F6000.0
G01 Y139.98 F6000.0
G01 X18.44 F6000.0
G01 X17.26 F6000.0
G01 Y139.15 F6000.0
G01 X17.21 F6000.0
G01 Y139.28 F6000.0
G01 Y140.28 F6000.0
G01 Y141.42 F6000.0
G01 X17.44 F6000.0
G01 X18.68 F6000.0
G01 Y141.4 F6000.0
G01 Y140.4 F6000.0
G01 Y139.39 F6000.0
M5
G00 X19.44 Y138.56 F6000.0
M3 F6000.0
G01 X19.73 Y138.31 F6000.0
G01 X20.78 Y137.42 F6000.0
G01 X20.76 Y137.39 F6000.0
G01 X20.46 Y137.64 F6000.0
G01 X19.39 Y138.54 F6000.0
G01 X19.09 Y138.29 F6000.0
G01 X18.03 Y137.39 F6000.0
G01 X18.01 Y137.42 F6000.0
G01 X18.3 Y137.67 F6000.0
G01 X19.35 Y138.56 F6000.0
G01 X19.44 F6000.0
M5
G00 X20.71 Y136.74 F6000.0
M3 F6000.0
G01 Y136.69 F6000.0
G01 X20.58 F6000.0
G01 X19.46 F6000.0
G01 Y136.51 F6000.0
G01 Y135.32 F6000.0
G01 X19.42 Y135.02 F6000.0
G01 X19.18 Y134.96 F6000.0
G01 X18.69 Y134.98 F6000.0
G01 X18.7 Y135.03 F6000.0
G01 X19.19 Y135.0 F6000.0
G01 X19.39 Y135.05 F6000.0
G01 X19.42 Y135.32 F6000.0
G01 Y135.51 F6000.0
G01 Y136.69 F6000.0
G01 X19.29 F6000.0
G01 X18.17 F6000.0
G01 Y136.74 F6000.0
G01 X18.29 F6000.0
G01 X19.42 F6000.0
G01 Y137.54 F6000.0
G01 X18.53 F6000.0
G01 Y137.59 F6000.0
G01 X18.89 F6000.0
G01 X20.26 F6000.0
G01 Y137.54 F6000.0
G01 X19.46 F6000.0
G01 Y136.74 F6000.0
G01 X19.58 F6000.0
G01 X20.71 F6000.0
M5
G00 X20. Y136.31 F6000.0
M3 F6000.0
G01 X20.04 Y136.34 F6000.0
G01 X20.15 Y136.16 F6000.0
G01 X20.8 Y135.14 F6000.0
G01 X20.76 Y135.12 F6000.0
G01 X20.65 Y135.29 F6000.0
G01 X20.0 Y136.31 F6000.0
G01 F6000.0
M5
G00 X17.98 Y136.27 F6000.0
M3 F6000.0
G01 X17.88 Y136.76 F6000.0
G01 X17.55 Y137.27 F6000.0
G01 X17.6 Y137.38 F6000.0
G01 X18.11 Y138.39 F6000.0
G01 X17.22 F6000.0
G01 Y138.15 F6000.0
G01 Y136.15 F6000.0
G01 Y134.92 F6000.0
G01 X17.17 F6000.0
G01 Y135.17 F6000.0
G01 Y137.17 F6000.0
G01 Y138.43 F6000.0
G01 X18.15 F6000.0
G01 Y138.37 F6000.0
G01 X18.1 Y138.27 F6000.0
G01 X17.6 Y137.27 F6000.0
G01 X17.93 Y136.75 F6000.0
G01 X18.02 Y136.27 F6000.0
G01 X17.9 Y135.91 F6000.0
G01 X17.53 Y135.81 F6000.0
G01 X17.38 F6000.0
G01 Y135.85 F6000.0
G01 X17.53 F6000.0
G01 X17.87 Y135.95 F6000.0
G01 X17.98 Y136.27 F6000.0
G01 F6000.0
M5
G00 X17.98 Y135.18 F6000.0
M3 F6000.0
G01 X18.08 Y135.34 F6000.0
G01 X18.73 Y136.33 F6000.0
G01 X18.77 Y136.31 F6000.0
G01 X18.45 Y135.68 F6000.0
G01 X18.01 Y135.15 F6000.0
G01 X17.98 Y135.18 F6000.0
M5
G00 X17.04 Y132.55 F6000.0
M3 F6000.0
G01 Y132.59 F6000.0
G01 X17.39 F6000.0
G01 X19.39 F6000.0
G01 X20.73 F6000.0
G01 Y132.55 F6000.0
G01 X20.39 F6000.0
G01 X18.39 F6000.0
G01 X17.04 F6000.0
M5
G00 X17.4 Y130.05 F6000.0
M3 F6000.0
G01 X17.45 F6000.0
G01 Y130.0 F6000.0
G01 Y128.95 F6000.0
G01 X17.6 Y128.99 F6000.0
G01 X18.73 Y129.24 F6000.0
G01 X18.74 Y129.2 F6000.0
G01 X18.58 Y129.16 F6000.0
G01 X17.45 Y128.9 F6000.0
G01 Y128.71 F6000.0
G01 Y127.51 F6000.0
G01 X17.51 Y127.29 F6000.0
G01 X17.87 Y127.26 F6000.0
G01 X18.1 F6000.0
G01 X18.25 Y127.3 F6000.0
G01 X18.36 Y127.39 F6000.0
G01 X18.41 Y127.57 F6000.0
G01 X18.44 Y127.84 F6000.0
G01 X18.46 Y128.25 F6000.0
G01 X18.51 F6000.0
G01 X18.43 Y127.44 F6000.0
G01 X18.23 Y127.24 F6000.0
G01 X17.87 Y127.22 F6000.0
G01 X17.47 Y127.26 F6000.0
G01 X17.4 Y127.51 F6000.0
G01 Y127.7 F6000.0
G01 Y128.89 F6000.0
G01 X16.92 Y128.79 F6000.0
G01 X16.91 Y128.83 F6000.0
G01 X17.4 Y128.94 F6000.0
G01 Y129.0 F6000.0
G01 Y130.05 F6000.0
M5
G00 X19.33 Y129.75 F6000.0
M3 F6000.0
G01 X19.31 Y129.49 F6000.0
G01 X19.21 Y128.24 F6000.0
G01 X19.2 Y128.22 F6000.0
G01 X18.82 Y127.27 F6000.0
G01 X18.81 Y127.26 F6000.0
G01 X18.07 Y126.55 F6000.0
G01 X18.04 Y126.59 F6000.0
G01 X18.05 Y126.6 F6000.0
G01 X18.79 Y127.3 F6000.0
G01 X18.8 Y127.31 F6000.0
G01 X19.17 Y128.25 F6000.0
G01 X19.19 Y128.5 F6000.0
G01 X19.29 Y129.75 F6000.0
G01 X18.34 F6000.0
G01 Y129.8 F6000.0
G01 X18.5 F6000.0
G01 X19.5 F6000.0
G01 X20.66 F6000.0
G01 Y129.78 F6000.0
G01 Y129.67 F6000.0
G01 X20.65 Y128.56 F6000.0
G01 X20.61 Y127.71 F6000.0
G01 X20.54 Y127.14 F6000.0
G01 X20.42 Y126.81 F6000.0
G01 X20.26 Y126.66 F6000.0
G01 X20.05 Y126.62 F6000.0
G01 X19.41 Y126.66 F6000.0
G01 X19.42 Y126.71 F6000.0
G01 X20.05 Y126.67 F6000.0
G01 X20.32 Y126.75 F6000.0
G01 X20.5 Y127.15 F6000.0
G01 X20.59 Y128.07 F6000.0
G01 X20.6 Y128.41 F6000.0
G01 X20.62 Y129.75 F6000.0
G01 X20.48 F6000.0
G01 X19.33 F6000.0
M5
G00 X22.46 Y127.05 F6000.0
M3 F6000.0
G01 X23.27 F6000.0
G01 Y127.42 F6000.0
G01 Y128.42 F6000.0
G01 Y129.8 F6000.0
G01 X22.46 F6000.0
G01 Y129.42 F6000.0
G01 Y128.42 F6000.0
G01 Y127.05 F6000.0
M5
G00 X22.46 Y127. F6000.0
M3 F6000.0
G01 Y126.71 F6000.0
G01 X22.42 F6000.0
G01 Y126.77 F6000.0
G01 Y128.77 F6000.0
G01 Y129.84 F6000.0
G01 X23.31 F6000.0
G01 Y129.42 F6000.0
G01 Y128.42 F6000.0
G01 Y127.0 F6000.0
G01 X22.46 F6000.0
M5
G00 X23.71 Y128.42 F6000.0
M3 F6000.0
G01 X23.65 F6000.0
G01 Y128.67 F6000.0
G01 Y129.92 F6000.0
G01 X23.75 F6000.0
G01 X24.75 F6000.0
G01 X25.85 F6000.0
G01 Y129.67 F6000.0
G01 Y128.42 F6000.0
G01 X25.13 F6000.0
G01 Y128.15 F6000.0
G01 Y126.88 F6000.0
G01 X25.19 Y126.64 F6000.0
G01 X25.58 Y126.6 F6000.0
G01 X25.98 Y126.75 F6000.0
G01 X26.06 Y127.75 F6000.0
G01 X26.11 F6000.0
G01 X26.05 Y126.8 F6000.0
G01 X25.86 Y126.58 F6000.0
G01 X25.58 Y126.56 F6000.0
G01 X25.16 Y126.6 F6000.0
G01 X25.09 Y126.88 F6000.0
G01 Y127.15 F6000.0
G01 Y128.42 F6000.0
G01 X24.39 F6000.0
G01 X24.31 Y127.69 F6000.0
G01 X24.1 Y127.17 F6000.0
G01 X23.71 Y126.79 F6000.0
G01 X23.12 Y126.5 F6000.0
G01 X23.11 Y126.54 F6000.0
G01 X23.69 Y126.82 F6000.0
G01 X24.06 Y127.19 F6000.0
G01 X24.27 Y127.7 F6000.0
G01 X24.35 Y128.42 F6000.0
G01 X23.71 F6000.0
M5
G00 X23.69 Y128.46 F6000.0
M3 F6000.0
G01 X23.75 F6000.0
G01 X24.75 F6000.0
G01 X25.81 F6000.0
G01 Y128.67 F6000.0
G01 Y129.88 F6000.0
G01 X25.75 F6000.0
G01 X24.75 F6000.0
G01 X23.69 F6000.0
G01 Y129.67 F6000.0
G01 Y128.46 F6000.0
M5
G00 X25.03 Y131.74 F6000.0
M3 F6000.0
G01 Y131.69 F6000.0
G01 Y130.64 F6000.0
G01 X24.98 F6000.0
G01 Y130.69 F6000.0
G01 Y131.74 F6000.0
G01 X24.97 F6000.0
G01 X23.97 F6000.0
G01 Y131.45 F6000.0
G01 X23.92 F6000.0
G01 Y131.61 F6000.0
G01 Y132.61 F6000.0
G01 Y133.78 F6000.0
G01 X23.95 F6000.0
G01 X24.98 F6000.0
G01 Y134.33 F6000.0
G01 X25.03 F6000.0
G01 Y133.78 F6000.0
G01 X25.05 F6000.0
G01 X26.08 F6000.0
G01 Y133.61 F6000.0
G01 Y132.61 F6000.0
G01 Y131.45 F6000.0
G01 X26.04 F6000.0
G01 Y131.74 F6000.0
G01 X26.03 F6000.0
G01 X25.03 F6000.0
M5
G00 X25.03 Y131.79 F6000.0
M3 F6000.0
G01 F6000.0
G01 X26.04 F6000.0
G01 Y132.76 F6000.0
G01 X26.03 F6000.0
G01 X25.03 F6000.0
G01 Y131.79 F6000.0
M5
G00 X23.97 Y132.76 F6000.0
M3 F6000.0
G01 Y131.79 F6000.0
G01 F6000.0
G01 X24.98 F6000.0
G01 Y132.76 F6000.0
G01 X24.97 F6000.0
G01 X23.97 F6000.0
M5
G00 X22.99 Y133.61 F6000.0
M3 F6000.0
G01 X23.67 F6000.0
G01 Y133.55 F6000.0
G01 X23.62 Y133.47 F6000.0
G01 X23.06 Y132.54 F6000.0
G01 X23.07 Y132.53 F6000.0
G01 X23.76 Y131.8 F6000.0
G01 X23.72 Y131.76 F6000.0
G01 X23.71 Y131.77 F6000.0
G01 X23.02 Y132.51 F6000.0
G01 X22.99 Y132.46 F6000.0
G01 Y132.05 F6000.0
G01 Y130.64 F6000.0
G01 X22.95 F6000.0
G01 Y131.03 F6000.0
G01 Y132.41 F6000.0
G01 X22.2 Y131.82 F6000.0
G01 X22.17 Y131.86 F6000.0
G01 X22.22 Y131.89 F6000.0
G01 X23.03 Y132.56 F6000.0
G01 X23.07 Y132.64 F6000.0
G01 X23.63 Y133.57 F6000.0
G01 X23.45 F6000.0
G01 X22.27 F6000.0
G01 Y133.61 F6000.0
G01 X22.95 F6000.0
G01 Y134.33 F6000.0
G01 X22.99 F6000.0
G01 Y133.61 F6000.0
M5
G00 X24.98 Y133.74 F6000.0
M3 F6000.0
G01 X24.97 F6000.0
G01 X23.97 F6000.0
G01 Y132.81 F6000.0
G01 F6000.0
G01 X24.98 F6000.0
G01 Y133.74 F6000.0
M5
G00 X25.03 Y133.74 F6000.0
M3 F6000.0
G01 Y132.81 F6000.0
G01 F6000.0
G01 X26.04 F6000.0
G01 Y133.74 F6000.0
G01 X26.03 F6000.0
G01 X25.03 F6000.0
M5
G00 X28.54 Y136.27 F6000.0
M3 F6000.0
G01 X28.45 Y136.76 F6000.0
G01 X28.11 Y137.27 F6000.0
G01 X28.17 Y137.38 F6000.0
G01 X28.67 Y138.39 F6000.0
G01 X27.78 F6000.0
G01 Y138.15 F6000.0
G01 Y136.15 F6000.0
G01 Y134.92 F6000.0
G01 X27.73 F6000.0
G01 Y135.17 F6000.0
G01 Y137.17 F6000.0
G01 Y138.43 F6000.0
G01 X28.71 F6000.0
G01 Y138.37 F6000.0
G01 X28.66 Y138.27 F6000.0
G01 X28.16 Y137.27 F6000.0
G01 X28.49 Y136.75 F6000.0
G01 X28.58 Y136.27 F6000.0
G01 X28.46 Y135.91 F6000.0
G01 X28.09 Y135.81 F6000.0
G01 X27.94 F6000.0
G01 Y135.85 F6000.0
G01 X28.09 F6000.0
G01 X28.44 Y135.95 F6000.0
G01 X28.54 Y136.27 F6000.0
G01 F6000.0
M5
G00 X29.15 Y137.5 F6000.0
M3 F6000.0
G01 Y137.29 F6000.0
G01 Y136.08 F6000.0
G01 X29.25 F6000.0
G01 X30.34 F6000.0
G01 Y136.29 F6000.0
G01 Y137.5 F6000.0
G01 X30.25 F6000.0
G01 X29.15 F6000.0
M5
G00 X29.17 Y137.54 F6000.0
M3 F6000.0
G01 X29.28 F6000.0
G01 X30.38 F6000.0
G01 Y137.29 F6000.0
G01 Y136.04 F6000.0
G01 X30.27 F6000.0
G01 X29.15 F6000.0
G01 Y135.7 F6000.0
G01 X29.11 F6000.0
G01 Y136.12 F6000.0
G01 Y137.54 F6000.0
G01 X29.17 F6000.0
M5
G00 X31.42 Y138.39 F6000.0
M3 F6000.0
G01 Y138.35 F6000.0
G01 X31.14 F6000.0
G01 Y138.32 F6000.0
G01 Y136.32 F6000.0
G01 Y135.3 F6000.0
G01 X31.08 Y135.0 F6000.0
G01 X30.78 Y134.94 F6000.0
G01 X30.17 Y134.96 F6000.0
G01 Y135.0 F6000.0
G01 X30.78 Y134.98 F6000.0
G01 X31.05 Y135.03 F6000.0
G01 X31.1 Y135.3 F6000.0
G01 Y135.32 F6000.0
G01 Y137.32 F6000.0
G01 Y138.35 F6000.0
G01 X31.01 F6000.0
G01 X30.01 F6000.0
G01 X28.92 F6000.0
G01 Y138.39 F6000.0
G01 X29.17 F6000.0
G01 X30.17 F6000.0
G01 X31.42 F6000.0
M5
G00 X33.01 Y139.47 F6000.0
M3 F6000.0
G01 Y139.51 F6000.0
G01 X33.26 F6000.0
G01 X35.26 F6000.0
G01 X36.52 F6000.0
G01 Y139.47 F6000.0
G01 X36.26 F6000.0
G01 X34.26 F6000.0
G01 X33.01 F6000.0
M5
G00 X33.55 Y141.04 F6000.0
M3 F6000.0
G01 Y141.08 F6000.0
G01 X33.76 F6000.0
G01 X34.76 F6000.0
G01 X35.97 F6000.0
G01 Y141.04 F6000.0
G01 X35.76 F6000.0
G01 X34.76 F6000.0
G01 X33.55 F6000.0
M5
G00 X33.3 Y142.39 F6000.0
M3 F6000.0
G01 Y142.43 F6000.0
G01 X33.76 F6000.0
G01 X34.76 F6000.0
G01 X36.22 F6000.0
G01 Y142.39 F6000.0
G01 X35.76 F6000.0
G01 X34.76 F6000.0
G01 X33.3 F6000.0
M5
G00 X31.06 Y141.52 F6000.0
M3 F6000.0
G01 Y142.07 F6000.0
G01 X31.02 F6000.0
G01 X30.02 F6000.0
G01 X28.98 F6000.0
G01 Y141.52 F6000.0
G01 X29.02 F6000.0
G01 X30.02 F6000.0
G01 X31.06 F6000.0
M5
G00 X31.38 Y140.51 F6000.0
M3 F6000.0
G01 Y140.47 F6000.0
G01 X30.91 F6000.0
G01 Y139.58 F6000.0
G01 X30.87 Y139.24 F6000.0
G01 X30.64 Y139.17 F6000.0
G01 X30.1 Y139.2 F6000.0
G01 X30.11 Y139.24 F6000.0
G01 X30.64 Y139.22 F6000.0
G01 X30.83 Y139.27 F6000.0
G01 X30.87 Y139.58 F6000.0
G01 Y140.47 F6000.0
G01 X30.73 F6000.0
G01 X29.73 F6000.0
G01 X28.6 F6000.0
G01 Y140.51 F6000.0
G01 X28.73 F6000.0
G01 X29.73 F6000.0
G01 X30.87 F6000.0
G01 Y141.01 F6000.0
G01 X30.75 F6000.0
G01 X29.75 F6000.0
G01 X28.64 F6000.0
G01 Y141.06 F6000.0
G01 X28.99 F6000.0
G01 X29.99 F6000.0
G01 X31.33 F6000.0
G01 Y141.01 F6000.0
G01 X30.91 F6000.0
G01 Y140.51 F6000.0
G01 X31.38 F6000.0
M5
G00 X29.09 Y140.22 F6000.0
M3 F6000.0
G01 X29.12 Y140.26 F6000.0
G01 X29.16 Y140.22 F6000.0
G01 X29.9 Y139.48 F6000.0
G01 X29.86 Y139.45 F6000.0
G01 X29.83 Y139.48 F6000.0
G01 X29.09 Y140.22 F6000.0
G01 F6000.0
M5
G00 X29. Y141.48 F6000.0
M3 F6000.0
G01 X28.94 F6000.0
G01 Y141.57 F6000.0
G01 Y142.66 F6000.0
G01 X29.02 F6000.0
G01 X30.02 F6000.0
G01 X31.1 F6000.0
G01 Y142.57 F6000.0
G01 Y141.48 F6000.0
G01 X31.05 F6000.0
G01 X30.05 F6000.0
G01 X29.0 F6000.0
M5
G00 X28.98 Y142.12 F6000.0
M3 F6000.0
G01 X29.02 F6000.0
G01 X30.02 F6000.0
G01 X31.06 F6000.0
G01 Y142.62 F6000.0
G01 X31.02 F6000.0
G01 X30.02 F6000.0
G01 X28.98 F6000.0
G01 Y142.12 F6000.0
M5
G00 X28.14 Y141.32 F6000.0
M3 F6000.0
G01 Y141.21 F6000.0
G01 Y140.21 F6000.0
G01 Y139.11 F6000.0
G01 X28.09 F6000.0
G01 Y139.19 F6000.0
G01 Y140.19 F6000.0
G01 Y141.26 F6000.0
G01 X27.55 Y140.78 F6000.0
G01 X27.53 Y140.81 F6000.0
G01 X28.08 Y141.32 F6000.0
G01 X28.49 Y141.92 F6000.0
G01 X28.53 Y141.9 F6000.0
G01 X28.14 Y141.32 F6000.0
G01 F6000.0
M5
G00 X27.57 Y141.87 F6000.0
M3 F6000.0
G01 X28.13 Y142.3 F6000.0
G01 X28.53 Y142.81 F6000.0
G01 X28.57 Y142.78 F6000.0
G01 X28.16 Y142.27 F6000.0
G01 X27.59 Y141.83 F6000.0
G01 X27.57 Y141.87 F6000.0
M5
G00 X22.82 Y142.03 F6000.0
M3 F6000.0
G01 X23.18 F6000.0
G01 X24.18 F6000.0
G01 X25.53 F6000.0
G01 Y142.6 F6000.0
G01 X25.18 F6000.0
G01 X24.18 F6000.0
G01 X22.82 F6000.0
G01 Y142.03 F6000.0
M5
G00 X22.82 Y141.35 F6000.0
M3 F6000.0
G01 X23.18 F6000.0
G01 X24.18 F6000.0
G01 X25.53 F6000.0
G01 Y141.99 F6000.0
G01 X25.18 F6000.0
G01 X24.18 F6000.0
G01 X22.82 F6000.0
G01 Y141.35 F6000.0
M5
G00 X22.84 Y141.31 F6000.0
M3 F6000.0
G01 X22.78 F6000.0
G01 Y141.48 F6000.0
G01 Y142.64 F6000.0
G01 X23.18 F6000.0
G01 X24.18 F6000.0
G01 X25.58 F6000.0
G01 Y142.48 F6000.0
G01 Y141.31 F6000.0
G01 X25.21 F6000.0
G01 X24.21 F6000.0
G01 X22.84 F6000.0
M5
G00 X22.36 Y139.2 F6000.0
M3 F6000.0
G01 X22.83 Y139.83 F6000.0
G01 X23.09 Y140.58 F6000.0
G01 X23.14 Y140.57 F6000.0
G01 X22.98 Y140.04 F6000.0
G01 X23.48 Y139.62 F6000.0
G01 X24.2 Y139.38 F6000.0
G01 Y139.61 F6000.0
G01 Y140.85 F6000.0
G01 X23.79 F6000.0
G01 X22.38 F6000.0
G01 Y140.89 F6000.0
G01 X22.68 F6000.0
G01 X24.68 F6000.0
G01 X25.98 F6000.0
G01 Y140.85 F6000.0
G01 X25.61 F6000.0
G01 X24.24 F6000.0
G01 Y140.17 F6000.0
G01 X24.46 F6000.0
G01 X25.68 F6000.0
G01 Y140.13 F6000.0
G01 X25.46 F6000.0
G01 X24.24 F6000.0
G01 Y139.37 F6000.0
G01 X24.49 Y139.36 F6000.0
G01 X25.75 Y139.28 F6000.0
G01 X25.98 F6000.0
G01 Y139.24 F6000.0
G01 X25.75 F6000.0
G01 X25.33 Y139.27 F6000.0
G01 X23.91 Y139.4 F6000.0
G01 X23.37 Y139.63 F6000.0
G01 X22.96 Y139.99 F6000.0
G01 F6000.0
G01 X22.39 Y139.17 F6000.0
G01 X22.36 Y139.2 F6000.0
M5
G00 X24.16 Y138.56 F6000.0
M3 F6000.0
G01 X24.2 F6000.0
G01 Y137.71 F6000.0
G01 X24.57 F6000.0
G01 X25.93 F6000.0
G01 Y137.67 F6000.0
G01 X25.57 F6000.0
G01 X24.2 F6000.0
G01 X24.32 Y136.85 F6000.0
G01 X24.69 Y136.12 F6000.0
G01 X25.25 Y135.5 F6000.0
G01 X25.98 Y135.05 F6000.0
G01 X25.97 Y135.02 F6000.0
G01 X25.32 Y135.4 F6000.0
G01 X24.79 Y135.9 F6000.0
G01 X24.41 Y136.52 F6000.0
G01 X24.18 Y137.24 F6000.0
G01 X23.95 Y136.52 F6000.0
G01 X23.56 Y135.9 F6000.0
G01 X23.03 Y135.4 F6000.0
G01 X22.39 Y135.02 F6000.0
G01 X22.37 Y135.05 F6000.0
G01 X23.1 Y135.5 F6000.0
G01 X23.67 Y136.12 F6000.0
G01 X24.04 Y136.85 F6000.0
G01 X24.16 Y137.67 F6000.0
G01 X23.79 F6000.0
G01 X22.42 F6000.0
G01 Y137.71 F6000.0
G01 X22.79 F6000.0
G01 X24.16 F6000.0
G01 Y138.56 F6000.0
M5
G00 X19.14 Y142.73 F6000.0
M3 F6000.0
G01 X19.18 F6000.0
G01 Y141.97 F6000.0
G01 X19.43 Y142.07 F6000.0
G01 X20.61 Y142.55 F6000.0
G01 X20.64 Y142.51 F6000.0
G01 X20.37 Y142.4 F6000.0
G01 X19.18 Y141.93 F6000.0
G01 Y141.35 F6000.0
G01 X19.22 Y141.2 F6000.0
G01 X19.42 Y141.17 F6000.0
G01 X19.82 Y141.16 F6000.0
G01 X20.22 Y141.17 F6000.0
G01 X20.37 Y141.18 F6000.0
G01 X20.48 Y141.21 F6000.0
G01 X20.55 Y141.27 F6000.0
G01 X20.6 Y141.4 F6000.0
G01 X20.64 Y141.58 F6000.0
G01 X20.66 Y141.85 F6000.0
G01 X20.71 Y141.84 F6000.0
G01 X20.68 Y141.63 F6000.0
G01 X20.65 Y141.47 F6000.0
G01 X20.62 Y141.33 F6000.0
G01 X20.59 Y141.25 F6000.0
G01 X20.54 Y141.19 F6000.0
G01 X20.46 Y141.16 F6000.0
G01 X20.36 Y141.14 F6000.0
G01 X20.22 Y141.13 F6000.0
G01 X19.82 Y141.12 F6000.0
G01 X19.42 Y141.13 F6000.0
G01 X19.18 Y141.17 F6000.0
G01 X19.14 Y141.35 F6000.0
G01 Y141.54 F6000.0
G01 Y142.73 F6000.0
M5
G00 X18.27 Y142.55 F6000.0
M3 F6000.0
G01 X18.3 Y142.58 F6000.0
G01 X18.34 Y142.52 F6000.0
G01 X18.91 Y141.62 F6000.0
G01 X18.88 Y141.59 F6000.0
G01 X18.71 Y141.88 F6000.0
G01 X18.32 Y141.85 F6000.0
G01 X16.94 Y141.74 F6000.0
G01 Y141.78 F6000.0
G01 X17.06 F6000.0
G01 X17.22 Y141.79 F6000.0
G01 X17.25 Y141.85 F6000.0
G01 X17.74 Y142.8 F6000.0
G01 X17.77 Y142.78 F6000.0
G01 X17.75 Y142.73 F6000.0
G01 X17.27 Y141.79 F6000.0
G01 X17.48 Y141.81 F6000.0
G01 X18.68 Y141.92 F6000.0
G01 X18.27 Y142.55 F6000.0
G01 F6000.0
M5
G00 X13.11 Y132.7 F6000.0
M3 F6000.0
G01 X13.16 F6000.0
G01 X14.16 F6000.0
G01 X15.22 F6000.0
G01 Y132.91 F6000.0
G01 Y134.12 F6000.0
G01 X15.16 F6000.0
G01 X14.16 F6000.0
G01 X13.11 F6000.0
G01 Y133.91 F6000.0
G01 Y132.7 F6000.0
M5
G00 X13.13 Y132.65 F6000.0
M3 F6000.0
G01 X13.07 F6000.0
G01 Y132.9 F6000.0
G01 Y134.16 F6000.0
G01 X13.17 F6000.0
G01 X14.17 F6000.0
G01 X15.27 F6000.0
G01 Y133.9 F6000.0
G01 Y132.65 F6000.0
G01 X14.55 F6000.0
G01 Y132.38 F6000.0
G01 Y131.11 F6000.0
G01 X14.61 Y130.87 F6000.0
G01 X14.99 Y130.83 F6000.0
G01 X15.4 Y130.98 F6000.0
G01 X15.48 Y131.98 F6000.0
G01 X15.52 F6000.0
G01 X15.46 Y131.03 F6000.0
G01 X15.28 Y130.82 F6000.0
G01 X14.99 Y130.79 F6000.0
G01 X14.58 Y130.84 F6000.0
G01 X14.5 Y131.11 F6000.0
G01 Y131.38 F6000.0
G01 Y132.65 F6000.0
G01 X13.81 F6000.0
G01 X13.73 Y131.93 F6000.0
G01 X13.51 Y131.4 F6000.0
G01 X13.13 Y131.02 F6000.0
G01 X12.54 Y130.74 F6000.0
G01 X12.53 Y130.78 F6000.0
G01 X13.1 Y131.05 F6000.0
G01 X13.48 Y131.42 F6000.0
G01 X13.69 Y131.94 F6000.0
G01 X13.76 Y132.65 F6000.0
G01 X13.13 F6000.0
M5
G00 X20.68 Y125.52 F6000.0
M3 F6000.0
G01 Y125.48 F6000.0
G01 X19.71 F6000.0
G01 Y125.01 F6000.0
G01 X19.67 F6000.0
G01 Y125.48 F6000.0
G01 X19.39 F6000.0
G01 X18.11 F6000.0
G01 Y125.01 F6000.0
G01 X18.06 F6000.0
G01 Y125.48 F6000.0
G01 X17.09 F6000.0
G01 Y125.52 F6000.0
G01 X18.06 F6000.0
G01 Y125.95 F6000.0
G01 X18.11 F6000.0
G01 Y125.52 F6000.0
G01 X18.39 F6000.0
G01 X19.67 F6000.0
G01 Y125.95 F6000.0
G01 X19.71 F6000.0
G01 Y125.52 F6000.0
G01 X20.68 F6000.0
M5
G00 X20.18 Y122.47 F6000.0
M3 F6000.0
G01 Y122.63 F6000.0
G01 Y123.78 F6000.0
G01 X19.89 F6000.0
G01 X18.89 F6000.0
G01 X17.6 F6000.0
G01 Y123.63 F6000.0
G01 Y122.47 F6000.0
G01 X17.89 F6000.0
G01 X18.89 F6000.0
G01 X20.18 F6000.0
M5
G00 X17.6 Y122.43 F6000.0
M3 F6000.0
G01 Y122.18 F6000.0
G01 X17.55 F6000.0
G01 Y122.5 F6000.0
G01 Y123.83 F6000.0
G01 X17.71 F6000.0
G01 X18.87 F6000.0
G01 Y124.52 F6000.0
G01 X18.48 F6000.0
G01 X17.09 F6000.0
G01 Y124.57 F6000.0
G01 X17.48 F6000.0
G01 X18.87 F6000.0
G01 Y125.18 F6000.0
G01 X18.91 F6000.0
G01 Y124.57 F6000.0
G01 X19.3 F6000.0
G01 X20.68 F6000.0
G01 Y124.52 F6000.0
G01 X20.3 F6000.0
G01 X18.91 F6000.0
G01 Y123.83 F6000.0
G01 X19.06 F6000.0
G01 X20.22 F6000.0
G01 Y123.5 F6000.0
G01 Y122.18 F6000.0
G01 X20.18 F6000.0
G01 Y122.43 F6000.0
G01 X19.89 F6000.0
G01 X18.89 F6000.0
G01 X17.6 F6000.0
M5
G00 X13.36 Y120.91 F6000.0
M3 F6000.0
G01 X13.81 F6000.0
G01 X15.27 F6000.0
G01 Y121.48 F6000.0
G01 X14.81 F6000.0
G01 X13.36 F6000.0
G01 Y120.91 F6000.0
M5
G00 X13.36 Y120.87 F6000.0
M3 F6000.0
G01 Y120.27 F6000.0
G01 X13.81 F6000.0
G01 X15.27 F6000.0
G01 Y120.87 F6000.0
G01 X14.81 F6000.0
G01 X13.36 F6000.0
M5
G00 X12.17 Y121.07 F6000.0
M3 F6000.0
G01 X11.93 Y121.62 F6000.0
G01 X11.97 Y121.64 F6000.0
G01 X12.21 Y121.09 F6000.0
G01 X12.17 Y121.07 F6000.0
M5
G00 X13.36 Y119.36 F6000.0
M3 F6000.0
G01 Y118.52 F6000.0
G01 X13.7 F6000.0
G01 X15.03 F6000.0
G01 Y118.47 F6000.0
G01 X14.7 F6000.0
G01 X13.36 F6000.0
G01 Y118.22 F6000.0
G01 X13.32 F6000.0
G01 Y118.29 F6000.0
G01 Y119.36 F6000.0
G01 X13.36 F6000.0
M5
G00 X13.62 Y118.7 F6000.0
M3 F6000.0
G01 X13.6 Y118.74 F6000.0
G01 X14.03 Y119.16 F6000.0
G01 X14.29 Y119.7 F6000.0
G01 X13.45 F6000.0
G01 X12.9 Y119.08 F6000.0
G01 X12.88 Y119.12 F6000.0
G01 X13.21 Y119.48 F6000.0
G01 X12.44 Y119.2 F6000.0
G01 X12.26 Y118.53 F6000.0
G01 X11.89 Y118.0 F6000.0
G01 X11.86 Y118.04 F6000.0
G01 X12.21 Y118.53 F6000.0
G01 X12.39 Y119.19 F6000.0
G01 X11.69 Y119.03 F6000.0
G01 Y119.07 F6000.0
G01 X12.4 Y119.24 F6000.0
G01 X12.43 Y119.98 F6000.0
G01 Y120.06 F6000.0
G01 X11.75 F6000.0
G01 Y120.11 F6000.0
G01 X12.43 F6000.0
G01 Y120.91 F6000.0
G01 X11.71 F6000.0
G01 Y120.95 F6000.0
G01 X12.61 F6000.0
G01 X12.89 Y121.63 F6000.0
G01 X12.93 Y121.62 F6000.0
G01 X12.66 Y120.95 F6000.0
G01 X13.11 F6000.0
G01 Y120.91 F6000.0
G01 X12.47 F6000.0
G01 Y120.11 F6000.0
G01 X13.09 F6000.0
G01 Y120.06 F6000.0
G01 X12.47 F6000.0
G01 Y119.98 F6000.0
G01 X12.44 Y119.25 F6000.0
G01 X13.12 Y119.48 F6000.0
G01 X13.16 Y119.4 F6000.0
G01 X13.71 Y120.23 F6000.0
G01 X13.38 F6000.0
G01 X13.32 F6000.0
G01 Y120.38 F6000.0
G01 Y121.52 F6000.0
G01 X13.81 F6000.0
G01 X15.31 F6000.0
G01 Y121.38 F6000.0
G01 Y120.23 F6000.0
G01 X15.04 F6000.0
G01 X13.76 F6000.0
G01 X13.49 Y119.75 F6000.0
G01 X13.97 F6000.0
G01 X15.46 F6000.0
G01 X15.43 Y118.87 F6000.0
G01 X15.33 Y118.34 F6000.0
G01 X15.2 Y118.1 F6000.0
G01 X15.01 Y118.03 F6000.0
G01 X14.48 Y118.05 F6000.0
G01 Y118.09 F6000.0
G01 X15.01 Y118.07 F6000.0
G01 X15.14 Y118.1 F6000.0
G01 X15.25 Y118.24 F6000.0
G01 X15.34 Y118.51 F6000.0
G01 X15.39 Y118.98 F6000.0
G01 X15.41 Y119.7 F6000.0
G01 X15.37 F6000.0
G01 X14.33 F6000.0
G01 X14.17 Y119.31 F6000.0
G01 X14.87 Y118.72 F6000.0
G01 X14.84 Y118.69 F6000.0
G01 X14.15 Y119.27 F6000.0
G01 X13.62 Y118.7 F6000.0
G01 F6000.0
M5
G00 X11.84 Y117.2 F6000.0
M3 F6000.0
G01 Y117.24 F6000.0
G01 X11.86 F6000.0
G01 X12.88 F6000.0
G01 Y117.2 F6000.0
G01 X12.86 F6000.0
G01 X11.84 F6000.0
M5
G00 X11.71 Y116.63 F6000.0
M3 F6000.0
G01 Y116.67 F6000.0
G01 X11.86 F6000.0
G01 X13.0 F6000.0
G01 Y116.63 F6000.0
G01 X12.86 F6000.0
G01 X11.71 F6000.0
M5
G00 X11.86 Y116.04 F6000.0
M3 F6000.0
G01 Y116.08 F6000.0
G01 X12.86 F6000.0
G01 Y116.04 F6000.0
G01 X11.86 F6000.0
M5
G00 X11.86 Y115.45 F6000.0
M3 F6000.0
G01 Y115.49 F6000.0
G01 X12.86 F6000.0
G01 Y115.45 F6000.0
G01 X11.86 F6000.0
M5
G00 X13.13 Y115.19 F6000.0
M3 F6000.0
G01 X13.09 F6000.0
G01 Y116.04 F6000.0
G01 X13.78 F6000.0
G01 X13.77 Y116.06 F6000.0
G01 X13.41 Y117.01 F6000.0
G01 X13.09 F6000.0
G01 Y117.05 F6000.0
G01 X13.17 F6000.0
G01 X14.25 F6000.0
G01 Y117.52 F6000.0
G01 X14.29 F6000.0
G01 Y117.05 F6000.0
G01 X14.38 F6000.0
G01 X15.46 F6000.0
G01 Y117.01 F6000.0
G01 X15.07 F6000.0
G01 X15.06 Y117.0 F6000.0
G01 X14.71 Y116.04 F6000.0
G01 X15.5 F6000.0
G01 Y115.19 F6000.0
G01 X15.46 F6000.0
G01 Y116.0 F6000.0
G01 X15.29 F6000.0
G01 X14.29 F6000.0
G01 X13.13 F6000.0
G01 Y115.19 F6000.0
M5
G00 X14.66 Y116.04 F6000.0
M3 F6000.0
G01 X14.67 Y116.06 F6000.0
G01 X15.03 Y117.01 F6000.0
G01 X14.74 F6000.0
G01 X13.45 F6000.0
G01 X13.46 Y117.0 F6000.0
G01 X13.82 Y116.04 F6000.0
G01 X14.66 F6000.0
M5
G00 X15.22 Y114.28 F6000.0
M3 F6000.0
G01 X15.19 Y114.1 F6000.0
G01 X15.03 Y114.07 F6000.0
G01 X14.63 Y114.09 F6000.0
G01 X14.64 Y114.13 F6000.0
G01 X15.03 Y114.12 F6000.0
G01 X15.16 Y114.14 F6000.0
G01 X15.18 Y114.28 F6000.0
G01 Y115.23 F6000.0
G01 X14.29 F6000.0
G01 Y114.95 F6000.0
G01 Y113.67 F6000.0
G01 X14.25 F6000.0
G01 Y113.95 F6000.0
G01 Y115.23 F6000.0
G01 X13.36 F6000.0
G01 Y115.14 F6000.0
G01 Y114.05 F6000.0
G01 X13.32 F6000.0
G01 Y114.16 F6000.0
G01 Y115.28 F6000.0
G01 X14.25 F6000.0
G01 Y115.83 F6000.0
G01 X14.29 F6000.0
G01 Y115.28 F6000.0
G01 X15.22 F6000.0
G01 Y114.28 F6000.0
M5
G00 X17.04 Y114.64 F6000.0
M3 F6000.0
G01 Y114.69 F6000.0
G01 X17.39 F6000.0
G01 X19.39 F6000.0
G01 X20.73 F6000.0
G01 Y114.64 F6000.0
G01 X20.39 F6000.0
G01 X18.39 F6000.0
G01 X17.04 F6000.0
M5
G00 X17.6 Y115.05 F6000.0
M3 F6000.0
G01 X17.53 F6000.0
G01 Y115.36 F6000.0
G01 Y116.67 F6000.0
G01 X17.7 F6000.0
G01 X18.87 F6000.0
G01 Y117.05 F6000.0
G01 X18.5 F6000.0
G01 X17.13 F6000.0
G01 Y117.1 F6000.0
G01 X17.5 F6000.0
G01 X18.87 F6000.0
G01 Y117.43 F6000.0
G01 X18.91 F6000.0
G01 Y117.1 F6000.0
G01 X19.27 F6000.0
G01 X20.64 F6000.0
G01 Y117.05 F6000.0
G01 X20.27 F6000.0
G01 X18.91 F6000.0
G01 Y116.67 F6000.0
G01 X19.07 F6000.0
G01 X20.24 F6000.0
G01 Y116.36 F6000.0
G01 Y115.05 F6000.0
G01 X19.92 F6000.0
G01 X18.92 F6000.0
G01 X17.6 F6000.0
M5
G00 X17.58 Y115.59 F6000.0
M3 F6000.0
G01 Y115.09 F6000.0
G01 X17.89 F6000.0
G01 X18.89 F6000.0
G01 X20.2 F6000.0
G01 Y115.59 F6000.0
G01 X19.89 F6000.0
G01 X18.89 F6000.0
G01 X17.58 F6000.0
M5
G00 X17.58 Y116.12 F6000.0
M3 F6000.0
G01 Y115.64 F6000.0
G01 X17.89 F6000.0
G01 X18.89 F6000.0
G01 X20.2 F6000.0
G01 Y116.12 F6000.0
G01 X19.89 F6000.0
G01 X18.89 F6000.0
G01 X17.58 F6000.0
M5
G00 X17.58 Y116.16 F6000.0
M3 F6000.0
G01 X17.89 F6000.0
G01 X18.89 F6000.0
G01 X20.2 F6000.0
G01 Y116.63 F6000.0
G01 X19.89 F6000.0
G01 X18.89 F6000.0
G01 X17.58 F6000.0
G01 Y116.16 F6000.0
M5
G00 X17.16 Y113.8 F6000.0
M3 F6000.0
G01 X17.35 Y113.89 F6000.0
G01 X18.43 Y114.41 F6000.0
G01 X18.46 Y114.38 F6000.0
G01 X18.27 Y114.28 F6000.0
G01 X17.18 Y113.75 F6000.0
G01 X17.16 Y113.8 F6000.0
M5
G00 X17.26 Y112.8 F6000.0
M3 F6000.0
G01 Y112.21 F6000.0
G01 X17.21 F6000.0
G01 Y112.84 F6000.0
G01 X17.54 F6000.0
G01 X18.87 F6000.0
G01 Y113.25 F6000.0
G01 X18.91 F6000.0
G01 Y112.84 F6000.0
G01 X19.23 F6000.0
G01 X20.56 F6000.0
G01 Y112.21 F6000.0
G01 X20.52 F6000.0
G01 Y112.8 F6000.0
G01 X20.39 F6000.0
G01 X18.39 F6000.0
G01 X17.26 F6000.0
M5
G00 X19.32 Y114.36 F6000.0
M3 F6000.0
G01 X19.34 Y114.4 F6000.0
G01 X19.53 Y114.3 F6000.0
G01 X20.61 Y113.76 F6000.0
G01 X20.59 Y113.73 F6000.0
G01 X20.4 Y113.82 F6000.0
G01 X19.32 Y114.36 F6000.0
G01 F6000.0
M5
G00 X20.68 Y110.85 F6000.0
M3 F6000.0
G01 Y110.81 F6000.0
G01 X20.31 F6000.0
G01 X18.94 F6000.0
G01 X19.16 Y110.42 F6000.0
G01 X19.54 Y110.07 F6000.0
G01 X19.61 Y110.04 F6000.0
G01 X20.61 Y109.61 F6000.0
G01 X20.6 Y109.57 F6000.0
G01 X20.51 Y109.61 F6000.0
G01 X19.5 Y110.04 F6000.0
G01 X19.11 Y110.41 F6000.0
G01 X18.89 Y110.85 F6000.0
G01 X18.66 Y110.42 F6000.0
G01 X18.27 Y110.04 F6000.0
G01 X18.18 Y110.0 F6000.0
G01 X17.18 Y109.57 F6000.0
G01 X17.17 Y109.61 F6000.0
G01 X17.24 Y109.64 F6000.0
G01 X18.23 Y110.07 F6000.0
G01 X18.61 Y110.42 F6000.0
G01 X18.83 Y110.81 F6000.0
G01 X18.46 F6000.0
G01 X17.09 F6000.0
G01 Y110.85 F6000.0
G01 X17.46 F6000.0
G01 X18.84 F6000.0
G01 X18.87 Y111.04 F6000.0
G01 Y111.51 F6000.0
G01 X18.69 F6000.0
G01 X17.51 F6000.0
G01 Y111.55 F6000.0
G01 X17.69 F6000.0
G01 X18.87 F6000.0
G01 Y112.16 F6000.0
G01 X18.67 F6000.0
G01 X17.47 F6000.0
G01 Y112.21 F6000.0
G01 X17.67 F6000.0
G01 X18.87 F6000.0
G01 Y112.63 F6000.0
G01 X18.91 F6000.0
G01 Y112.21 F6000.0
G01 X19.11 F6000.0
G01 X20.3 F6000.0
G01 Y112.16 F6000.0
G01 X20.11 F6000.0
G01 X18.91 F6000.0
G01 Y111.55 F6000.0
G01 X19.09 F6000.0
G01 X20.26 F6000.0
G01 Y111.51 F6000.0
G01 X20.09 F6000.0
G01 X18.91 F6000.0
G01 Y111.04 F6000.0
G01 X18.93 Y110.85 F6000.0
G01 X19.31 F6000.0
G01 X20.68 F6000.0
M5
G00 X22.57 Y110.6 F6000.0
M3 F6000.0
G01 Y110.3 F6000.0
G01 X22.53 F6000.0
G01 Y110.62 F6000.0
G01 Y111.62 F6000.0
G01 Y112.93 F6000.0
G01 X22.65 F6000.0
G01 X23.78 F6000.0
G01 Y112.76 F6000.0
G01 Y111.76 F6000.0
G01 Y110.6 F6000.0
G01 X23.67 F6000.0
G01 X22.57 F6000.0
M5
G00 X22.57 Y111.78 F6000.0
M3 F6000.0
G01 Y111.71 F6000.0
G01 Y110.64 F6000.0
G01 X22.65 F6000.0
G01 X23.73 F6000.0
G01 Y110.71 F6000.0
G01 Y111.78 F6000.0
G01 X23.65 F6000.0
G01 X22.57 F6000.0
M5
G00 X22.57 Y111.83 F6000.0
M3 F6000.0
G01 X22.65 F6000.0
G01 X23.73 F6000.0
G01 Y111.85 F6000.0
G01 Y112.88 F6000.0
G01 X23.65 F6000.0
G01 X22.57 F6000.0
G01 Y112.85 F6000.0
G01 Y111.83 F6000.0
M5
G00 X24.35 Y111.97 F6000.0
M3 F6000.0
G01 Y111.49 F6000.0
G01 X24.32 Y110.94 F6000.0
G01 X24.55 F6000.0
G01 X25.79 F6000.0
G01 Y110.96 F6000.0
G01 Y111.97 F6000.0
G01 X25.57 F6000.0
G01 X24.35 F6000.0
M5
G00 X24.35 Y112.02 F6000.0
M3 F6000.0
G01 X24.57 F6000.0
G01 X25.79 F6000.0
G01 Y112.97 F6000.0
G01 X25.57 F6000.0
G01 X24.35 F6000.0
G01 Y112.02 F6000.0
M5
G00 X25.79 Y109.92 F6000.0
M3 F6000.0
G01 Y110.89 F6000.0
G01 X25.55 F6000.0
G01 X24.32 F6000.0
G01 X24.1 Y110.12 F6000.0
G01 X23.68 Y109.52 F6000.0
G01 X23.65 Y109.55 F6000.0
G01 X24.15 Y110.34 F6000.0
G01 X24.16 Y110.42 F6000.0
G01 X24.31 Y111.49 F6000.0
G01 Y111.75 F6000.0
G01 Y113.01 F6000.0
G01 X24.57 F6000.0
G01 X25.83 F6000.0
G01 Y112.97 F6000.0
G01 Y110.97 F6000.0
G01 Y109.92 F6000.0
G01 X25.79 Y109.62 F6000.0
G01 X25.55 Y109.56 F6000.0
G01 X25.02 Y109.58 F6000.0
G01 X25.03 Y109.62 F6000.0
G01 X25.55 Y109.6 F6000.0
G01 X25.75 Y109.65 F6000.0
G01 X25.79 Y109.92 F6000.0
G01 F6000.0
M5
G00 X27.71 Y109.84 F6000.0
M3 F6000.0
G01 Y109.88 F6000.0
G01 X27.97 F6000.0
G01 X29.97 F6000.0
G01 X31.23 F6000.0
G01 Y109.84 F6000.0
G01 X30.97 F6000.0
G01 X28.97 F6000.0
G01 X27.71 F6000.0
M5
G00 X28.26 Y111.4 F6000.0
M3 F6000.0
G01 Y111.44 F6000.0
G01 X28.47 F6000.0
G01 X29.47 F6000.0
G01 X30.68 F6000.0
G01 Y111.4 F6000.0
G01 X30.47 F6000.0
G01 X29.47 F6000.0
G01 X28.26 F6000.0
M5
G00 X28.01 Y112.76 F6000.0
M3 F6000.0
G01 Y112.8 F6000.0
G01 X28.47 F6000.0
G01 X29.47 F6000.0
G01 X30.93 F6000.0
G01 Y112.76 F6000.0
G01 X30.47 F6000.0
G01 X29.47 F6000.0
G01 X28.01 F6000.0
M5
G00 X28.52 Y113.76 F6000.0
M3 F6000.0
G01 X28.21 Y113.77 F6000.0
G01 X28.2 Y113.8 F6000.0
G01 X28.5 F6000.0
G01 X28.78 Y113.87 F6000.0
G01 X28.96 Y114.23 F6000.0
G01 X28.94 Y114.81 F6000.0
G01 X28.92 Y114.88 F6000.0
G01 X28.87 Y114.83 F6000.0
G01 X28.28 Y114.38 F6000.0
G01 X27.65 Y114.02 F6000.0
G01 X27.62 Y114.06 F6000.0
G01 X28.29 Y114.42 F6000.0
G01 X28.89 Y114.9 F6000.0
G01 X28.91 Y114.92 F6000.0
G01 X28.9 Y114.94 F6000.0
G01 X28.76 Y115.26 F6000.0
G01 X28.73 Y115.29 F6000.0
G01 X28.7 Y115.26 F6000.0
G01 X28.62 Y115.22 F6000.0
G01 X27.68 Y114.66 F6000.0
G01 X27.65 Y114.71 F6000.0
G01 X28.18 Y114.96 F6000.0
G01 X28.69 Y115.29 F6000.0
G01 X28.72 Y115.32 F6000.0
G01 X28.7 Y115.35 F6000.0
G01 X28.49 Y115.6 F6000.0
G01 X28.46 Y115.62 F6000.0
G01 X28.44 Y115.61 F6000.0
G01 X27.63 Y115.22 F6000.0
G01 X27.61 Y115.24 F6000.0
G01 X27.62 Y115.25 F6000.0
G01 X28.52 Y115.69 F6000.0
G01 X29.09 Y116.14 F6000.0
G01 X29.15 Y116.11 F6000.0
G01 X28.54 Y115.66 F6000.0
G01 X28.49 Y115.64 F6000.0
G01 X28.54 Y115.6 F6000.0
G01 X28.87 Y115.12 F6000.0
G01 X29.02 Y114.59 F6000.0
G01 X28.99 Y114.13 F6000.0
G01 X28.83 Y113.85 F6000.0
G01 X28.52 Y113.76 F6000.0
G01 F6000.0
M5
G00 X29.12 Y113.77 F6000.0
M3 F6000.0
G01 X29.09 Y113.8 F6000.0
G01 X29.62 Y114.22 F6000.0
G01 X29.84 Y114.98 F6000.0
G01 Y115.02 F6000.0
G01 X29.38 F6000.0
G01 Y115.17 F6000.0
G01 Y116.31 F6000.0
G01 X30.12 F6000.0
G01 X30.13 Y116.34 F6000.0
G01 X30.31 Y116.71 F6000.0
G01 X30.35 Y116.69 F6000.0
G01 X30.19 Y116.37 F6000.0
G01 X30.16 Y116.31 F6000.0
G01 X31.14 F6000.0
G01 Y116.17 F6000.0
G01 Y115.02 F6000.0
G01 X30.59 F6000.0
G01 F6000.0
G01 Y114.01 F6000.0
G01 X30.64 Y113.9 F6000.0
G01 X30.76 Y113.88 F6000.0
G01 X31.16 F6000.0
G01 X31.29 Y113.97 F6000.0
G01 X31.31 Y114.23 F6000.0
G01 X31.36 Y114.22 F6000.0
G01 X31.31 Y113.9 F6000.0
G01 X31.17 Y113.83 F6000.0
G01 X30.76 F6000.0
G01 X30.58 Y113.86 F6000.0
G01 X30.55 Y114.01 F6000.0
G01 Y114.02 F6000.0
G01 Y115.02 F6000.0
G01 X29.9 F6000.0
G01 X29.89 Y114.99 F6000.0
G01 X29.67 Y114.2 F6000.0
G01 X29.12 Y113.77 F6000.0
G01 F6000.0
M5
G00 X29.43 Y115.07 F6000.0
M3 F6000.0
G01 X29.76 F6000.0
G01 X31.09 F6000.0
G01 Y115.65 F6000.0
G01 X30.76 F6000.0
G01 X29.43 F6000.0
G01 Y115.07 F6000.0
M5
G00 X29.43 Y115.7 F6000.0
M3 F6000.0
G01 X29.76 F6000.0
G01 X31.09 F6000.0
G01 Y116.26 F6000.0
G01 X30.76 F6000.0
G01 X29.43 F6000.0
G01 Y115.7 F6000.0
M5
G00 X28.53 Y115.9 F6000.0
M3 F6000.0
G01 X28.29 Y116.23 F6000.0
G01 X28.32 Y116.24 F6000.0
G01 X28.56 Y115.92 F6000.0
G01 X28.53 Y115.9 F6000.0
M5
G00 X28.09 Y115.66 F6000.0
M3 F6000.0
G01 X27.79 Y116.01 F6000.0
G01 X27.82 Y116.04 F6000.0
G01 X28.13 Y115.69 F6000.0
G01 X28.09 Y115.66 F6000.0
M5
G00 X27.63 Y116.18 F6000.0
M3 F6000.0
G01 X27.61 Y116.2 F6000.0
G01 X27.73 Y116.25 F6000.0
G01 X28.77 Y116.67 F6000.0
G01 X28.76 Y116.66 F6000.0
G01 F6000.0
G01 X28.82 Y116.7 F6000.0
G01 X28.88 Y116.74 F6000.0
G01 X28.89 F6000.0
G01 X28.82 Y116.7 F6000.0
G01 X28.88 Y116.67 F6000.0
G01 X28.72 Y116.61 F6000.0
G01 X27.63 Y116.18 F6000.0
G01 F6000.0
M5
G00 X27.71 Y118.3 F6000.0
M3 F6000.0
G01 Y118.35 F6000.0
G01 X27.97 F6000.0
G01 X29.97 F6000.0
G01 X31.23 F6000.0
G01 Y118.3 F6000.0
G01 X30.97 F6000.0
G01 X28.97 F6000.0
G01 X27.71 F6000.0
M5
G00 X28.26 Y119.87 F6000.0
M3 F6000.0
G01 Y119.91 F6000.0
G01 X28.47 F6000.0
G01 X29.47 F6000.0
G01 X30.68 F6000.0
G01 Y119.87 F6000.0
G01 X30.47 F6000.0
G01 X29.47 F6000.0
G01 X28.26 F6000.0
M5
G00 X28.01 Y121.22 F6000.0
M3 F6000.0
G01 Y121.27 F6000.0
G01 X28.47 F6000.0
G01 X29.47 F6000.0
G01 X30.93 F6000.0
G01 Y121.22 F6000.0
G01 X30.47 F6000.0
G01 X29.47 F6000.0
G01 X28.01 F6000.0
M5
G00 X27.68 Y122.39 F6000.0
M3 F6000.0
G01 X27.94 Y123.24 F6000.0
G01 X27.99 Y123.23 F6000.0
G01 X27.72 Y122.38 F6000.0
G01 X27.68 Y122.39 F6000.0
M5
G00 X28.93 Y123.23 F6000.0
M3 F6000.0
G01 X28.96 Y123.24 F6000.0
G01 X29.19 Y122.48 F6000.0
G01 X29.15 Y122.47 F6000.0
G01 X28.93 Y123.23 F6000.0
G01 F6000.0
M5
G00 X29.49 Y123.06 F6000.0
M3 F6000.0
G01 Y122.39 F6000.0
G01 X30.42 F6000.0
G01 Y123.06 F6000.0
G01 X29.49 F6000.0
M5
G00 X28.91 Y124.03 F6000.0
M3 F6000.0
G01 X28.95 Y124.05 F6000.0
G01 X29.03 Y123.9 F6000.0
G01 X29.09 Y123.99 F6000.0
G01 X29.7 Y124.92 F6000.0
G01 X29.73 Y124.9 F6000.0
G01 X29.53 Y124.48 F6000.0
G01 X30.41 F6000.0
G01 X30.73 Y124.92 F6000.0
G01 X30.77 Y124.9 F6000.0
G01 X30.47 Y124.48 F6000.0
G01 X31.27 F6000.0
G01 Y124.44 F6000.0
G01 X30.47 F6000.0
G01 Y123.81 F6000.0
G01 X31.19 F6000.0
G01 Y123.76 F6000.0
G01 X30.47 F6000.0
G01 Y123.11 F6000.0
G01 X31.19 F6000.0
G01 Y123.06 F6000.0
G01 X30.47 F6000.0
G01 Y122.39 F6000.0
G01 X31.36 F6000.0
G01 Y122.35 F6000.0
G01 X30.92 F6000.0
G01 X29.49 F6000.0
G01 Y122.18 F6000.0
G01 X29.45 F6000.0
G01 Y122.27 F6000.0
G01 Y123.27 F6000.0
G01 Y124.36 F6000.0
G01 X29.05 Y123.86 F6000.0
G01 X29.25 Y123.33 F6000.0
G01 X29.2 Y123.31 F6000.0
G01 X29.14 Y123.53 F6000.0
G01 X28.47 Y123.5 F6000.0
G01 Y123.34 F6000.0
G01 Y122.18 F6000.0
G01 X28.43 F6000.0
G01 Y122.33 F6000.0
G01 Y123.49 F6000.0
G01 X27.63 Y123.44 F6000.0
G01 X27.62 Y123.49 F6000.0
G01 X27.89 Y123.51 F6000.0
G01 X28.24 Y123.82 F6000.0
G01 X27.69 Y124.5 F6000.0
G01 X27.73 Y124.53 F6000.0
G01 X27.81 Y124.42 F6000.0
G01 X27.92 Y124.28 F6000.0
G01 X28.46 Y124.92 F6000.0
G01 X28.5 Y124.9 F6000.0
G01 X27.95 Y124.25 F6000.0
G01 X28.11 Y124.06 F6000.0
G01 X28.27 Y123.86 F6000.0
G01 X28.3 Y123.89 F6000.0
G01 X29.02 Y124.65 F6000.0
G01 X29.05 Y124.62 F6000.0
G01 X28.86 Y124.42 F6000.0
G01 X27.96 Y123.51 F6000.0
G01 X28.04 F6000.0
G01 X29.12 Y123.57 F6000.0
G01 X28.91 Y124.03 F6000.0
G01 F6000.0
M5
G00 X28.9 Y125.1 F6000.0
M3 F6000.0
G01 Y125.71 F6000.0
G01 X28.89 F6000.0
G01 X27.88 F6000.0
G01 Y125.1 F6000.0
G01 X27.89 F6000.0
G01 X28.9 F6000.0
M5
G00 X27.9 Y125.05 F6000.0
M3 F6000.0
G01 X27.84 F6000.0
G01 Y125.76 F6000.0
G01 X27.97 F6000.0
G01 X29.97 F6000.0
G01 X31.1 F6000.0
G01 Y125.05 F6000.0
G01 X31.0 F6000.0
G01 X29.0 F6000.0
G01 X27.9 F6000.0
M5
G00 X30. Y125.1 F6000.0
M3 F6000.0
G01 Y125.71 F6000.0
G01 X29.97 F6000.0
G01 X28.94 F6000.0
G01 Y125.1 F6000.0
G01 X28.97 F6000.0
G01 X30.0 F6000.0
M5
G00 X30.04 Y125.1 F6000.0
M3 F6000.0
G01 X30.05 F6000.0
G01 X31.06 F6000.0
G01 Y125.71 F6000.0
G01 X31.05 F6000.0
G01 X30.04 F6000.0
G01 Y125.1 F6000.0
M5
G00 X30.42 Y123.81 F6000.0
M3 F6000.0
G01 Y124.44 F6000.0
G01 X29.49 F6000.0
G01 Y123.81 F6000.0
G01 X30.42 F6000.0
M5
G00 X30.42 Y123.76 F6000.0
M3 F6000.0
G01 X29.49 F6000.0
G01 Y123.11 F6000.0
G01 X30.42 F6000.0
G01 Y123.76 F6000.0
M5
G00 X29.54 Y127.86 F6000.0
M3 F6000.0
G01 X29.57 Y127.9 F6000.0
G01 X30.32 Y127.33 F6000.0
G01 X30.88 Y127.83 F6000.0
G01 X31.31 Y128.44 F6000.0
G01 X31.07 F6000.0
G01 X29.82 F6000.0
G01 X29.09 Y127.97 F6000.0
G01 X28.31 Y127.64 F6000.0
G01 X28.3 Y127.69 F6000.0
G01 X28.37 Y127.72 F6000.0
G01 X29.35 Y128.18 F6000.0
G01 X29.36 F6000.0
G01 X30.16 Y128.8 F6000.0
G01 X30.19 Y128.77 F6000.0
G01 X29.89 Y128.49 F6000.0
G01 X30.12 F6000.0
G01 X31.36 F6000.0
G01 Y128.43 F6000.0
G01 X30.86 Y127.74 F6000.0
G01 X30.16 Y127.18 F6000.0
G01 X29.29 Y126.75 F6000.0
G01 X29.26 Y126.74 F6000.0
G01 X28.27 Y126.45 F6000.0
G01 X28.26 Y126.5 F6000.0
G01 X28.33 Y126.52 F6000.0
G01 X29.36 Y126.81 F6000.0
G01 X29.38 Y126.82 F6000.0
G01 X30.28 Y127.3 F6000.0
G01 X29.54 Y127.86 F6000.0
G01 F6000.0
M5
G00 X28.9 Y129.32 F6000.0
M3 F6000.0
G01 X28.93 Y129.36 F6000.0
G01 X29.6 Y128.81 F6000.0
G01 X30.11 Y129.29 F6000.0
G01 X30.49 Y129.86 F6000.0
G01 X30.32 F6000.0
G01 X29.15 F6000.0
G01 X28.48 Y129.42 F6000.0
G01 X27.78 Y129.1 F6000.0
G01 X27.77 Y129.15 F6000.0
G01 X27.79 Y129.16 F6000.0
G01 X28.72 Y129.6 F6000.0
G01 X29.44 Y130.2 F6000.0
G01 X29.47 Y130.17 F6000.0
G01 X29.2 Y129.9 F6000.0
G01 X29.37 F6000.0
G01 X30.53 F6000.0
G01 Y129.84 F6000.0
G01 X30.08 Y129.19 F6000.0
G01 X29.45 Y128.65 F6000.0
G01 X28.67 Y128.24 F6000.0
G01 X27.74 Y127.96 F6000.0
G01 X27.73 Y128.0 F6000.0
G01 X27.75 Y128.01 F6000.0
G01 X28.72 Y128.3 F6000.0
G01 X29.57 Y128.78 F6000.0
G01 X28.9 Y129.32 F6000.0
G01 F6000.0
M5
G00 X28.88 Y130.79 F6000.0
M3 F6000.0
G01 X28.83 Y130.82 F6000.0
G01 X29.1 Y131.31 F6000.0
G01 X29.26 Y131.9 F6000.0
G01 X29.32 Y132.46 F6000.0
G01 X29.34 Y133.01 F6000.0
G01 Y133.15 F6000.0
G01 Y134.28 F6000.0
G01 X29.84 F6000.0
G01 X31.33 F6000.0
G01 Y134.24 F6000.0
G01 X30.86 F6000.0
G01 X29.39 F6000.0
G01 Y133.35 F6000.0
G01 X29.85 F6000.0
G01 X31.32 F6000.0
G01 Y133.31 F6000.0
G01 X30.34 F6000.0
G01 X30.36 Y133.25 F6000.0
G01 X30.63 Y132.82 F6000.0
G01 X30.66 Y132.79 F6000.0
G01 X30.68 Y132.82 F6000.0
G01 X31.09 Y133.12 F6000.0
G01 X31.13 Y133.09 F6000.0
G01 X30.71 Y132.81 F6000.0
G01 X30.66 Y132.78 F6000.0
G01 X30.71 Y132.74 F6000.0
G01 X31.34 Y132.37 F6000.0
G01 X31.31 Y132.32 F6000.0
G01 X30.7 Y132.69 F6000.0
G01 X30.3 Y133.28 F6000.0
G01 X30.29 Y133.31 F6000.0
G01 X29.87 F6000.0
G01 Y132.44 F6000.0
G01 X30.44 Y132.54 F6000.0
G01 Y132.51 F6000.0
G01 X29.64 Y132.36 F6000.0
G01 X29.63 Y132.4 F6000.0
G01 X29.69 Y132.42 F6000.0
G01 X29.79 Y132.43 F6000.0
G01 X29.82 Y132.44 F6000.0
G01 Y133.31 F6000.0
G01 X29.39 F6000.0
G01 Y133.01 F6000.0
G01 X29.37 Y132.84 F6000.0
G01 X29.25 Y131.68 F6000.0
G01 X28.87 Y130.79 F6000.0
G01 X28.88 F6000.0
M5
G00 X28.36 Y130.7 F6000.0
M3 F6000.0
G01 Y131.07 F6000.0
G01 Y132.44 F6000.0
G01 X28.29 Y132.45 F6000.0
G01 X27.97 Y131.69 F6000.0
G01 X27.63 Y131.13 F6000.0
G01 X27.6 Y131.16 F6000.0
G01 X27.94 Y131.73 F6000.0
G01 X28.25 Y132.46 F6000.0
G01 X28.26 Y132.5 F6000.0
G01 X27.59 F6000.0
G01 Y132.54 F6000.0
G01 X28.36 F6000.0
G01 Y133.25 F6000.0
G01 X27.67 F6000.0
G01 Y133.3 F6000.0
G01 X28.36 F6000.0
G01 Y133.99 F6000.0
G01 X28.31 Y133.98 F6000.0
G01 X27.64 Y133.87 F6000.0
G01 X27.63 Y133.9 F6000.0
G01 X28.33 Y134.03 F6000.0
G01 X28.36 F6000.0
G01 Y134.45 F6000.0
G01 X28.4 F6000.0
G01 Y134.04 F6000.0
G01 X28.45 Y134.06 F6000.0
G01 X28.91 Y134.2 F6000.0
G01 X28.96 Y134.17 F6000.0
G01 X28.44 Y134.01 F6000.0
G01 X28.4 F6000.0
G01 Y133.3 F6000.0
G01 X29.06 F6000.0
G01 Y133.25 F6000.0
G01 X28.4 F6000.0
G01 Y132.54 F6000.0
G01 X29.13 F6000.0
G01 Y132.5 F6000.0
G01 X28.4 F6000.0
G01 Y132.23 F6000.0
G01 X28.42 Y132.22 F6000.0
G01 X28.99 Y131.77 F6000.0
G01 X28.95 Y131.72 F6000.0
G01 X28.46 Y132.14 F6000.0
G01 X28.4 Y132.19 F6000.0
G01 Y131.94 F6000.0
G01 Y130.7 F6000.0
G01 X28.36 F6000.0
M5
G00 X30.11 Y131.03 F6000.0
M3 F6000.0
G01 X29.73 Y131.54 F6000.0
G01 X29.76 Y131.56 F6000.0
G01 X30.14 Y131.06 F6000.0
G01 X30.11 Y131.03 F6000.0
M5
G00 X30.31 Y130.69 F6000.0
M3 F6000.0
G01 X30.3 Y130.72 F6000.0
G01 X30.65 F6000.0
G01 X30.75 Y130.82 F6000.0
G01 Y131.81 F6000.0
G01 X30.63 F6000.0
G01 X29.52 F6000.0
G01 Y131.86 F6000.0
G01 X29.63 F6000.0
G01 X30.75 F6000.0
G01 Y132.32 F6000.0
G01 X30.79 F6000.0
G01 Y131.86 F6000.0
G01 X31.36 F6000.0
G01 Y131.81 F6000.0
G01 X30.79 F6000.0
G01 Y130.82 F6000.0
G01 X30.73 Y130.71 F6000.0
G01 X30.31 Y130.69 F6000.0
G01 F6000.0
M5
G00 X33.09 Y130.83 F6000.0
M3 F6000.0
G01 Y130.62 F6000.0
G01 X33.05 F6000.0
G01 Y130.73 F6000.0
G01 Y131.83 F6000.0
G01 X33.1 F6000.0
G01 X34.15 F6000.0
G01 Y130.83 F6000.0
G01 X34.12 F6000.0
G01 X33.09 F6000.0
M5
G00 X33.09 Y130.88 F6000.0
M3 F6000.0
G01 X33.1 F6000.0
G01 X34.1 F6000.0
G01 Y131.79 F6000.0
G01 F6000.0
G01 X33.09 F6000.0
G01 Y130.88 F6000.0
M5
G00 X33.07 Y132.38 F6000.0
M3 F6000.0
G01 Y132.42 F6000.0
G01 X33.1 F6000.0
G01 X34.13 F6000.0
G01 Y132.38 F6000.0
G01 X34.1 F6000.0
G01 X33.07 F6000.0
M5
G00 X33.07 Y132.97 F6000.0
M3 F6000.0
G01 Y133.02 F6000.0
G01 X33.1 F6000.0
G01 X34.13 F6000.0
G01 Y132.97 F6000.0
G01 X34.1 F6000.0
G01 X33.07 F6000.0
M5
G00 X32.92 Y133.57 F6000.0
M3 F6000.0
G01 Y133.61 F6000.0
G01 X33.1 F6000.0
G01 X34.27 F6000.0
G01 Y133.57 F6000.0
G01 X34.1 F6000.0
G01 X32.92 F6000.0
M5
G00 X33.05 Y134.14 F6000.0
M3 F6000.0
G01 Y134.18 F6000.0
G01 X33.1 F6000.0
G01 X34.15 F6000.0
G01 Y134.14 F6000.0
G01 X34.1 F6000.0
G01 X33.05 F6000.0
M5
G00 X34.78 Y132.36 F6000.0
M3 F6000.0
G01 Y131.68 F6000.0
G01 X35.1 F6000.0
G01 X36.41 F6000.0
G01 Y132.36 F6000.0
G01 X36.1 F6000.0
G01 X34.78 F6000.0
M5
G00 X34.86 Y132.4 F6000.0
M3 F6000.0
G01 X35.16 F6000.0
G01 X36.46 F6000.0
G01 Y132.03 F6000.0
G01 Y130.66 F6000.0
G01 X36.41 F6000.0
G01 Y130.87 F6000.0
G01 X36.1 F6000.0
G01 X34.78 F6000.0
G01 Y130.66 F6000.0
G01 X34.74 F6000.0
G01 Y130.99 F6000.0
G01 Y132.32 F6000.0
G01 X34.18 Y131.99 F6000.0
G01 X34.15 Y132.03 F6000.0
G01 X34.44 Y132.22 F6000.0
G01 X35.54 Y132.99 F6000.0
G01 X35.43 F6000.0
G01 X34.31 F6000.0
G01 Y133.04 F6000.0
G01 X34.37 F6000.0
G01 X35.42 F6000.0
G01 Y133.86 F6000.0
G01 X34.53 F6000.0
G01 Y133.91 F6000.0
G01 X35.42 F6000.0
G01 Y134.41 F6000.0
G01 X35.46 F6000.0
G01 Y133.91 F6000.0
G01 X36.37 F6000.0
G01 X36.58 Y134.19 F6000.0
G01 X36.61 Y134.17 F6000.0
G01 X36.45 Y133.98 F6000.0
G01 X35.65 Y133.04 F6000.0
G01 X35.67 F6000.0
G01 X36.69 F6000.0
G01 Y132.99 F6000.0
G01 X36.65 F6000.0
G01 X35.6 F6000.0
G01 X34.86 Y132.4 F6000.0
G01 F6000.0
M5
G00 X36.34 Y133.86 F6000.0
M3 F6000.0
G01 X35.46 F6000.0
G01 Y133.04 F6000.0
G01 X35.59 F6000.0
G01 X35.63 Y133.08 F6000.0
G01 X36.34 Y133.86 F6000.0
G01 F6000.0
M5
G00 X38.21 Y132.55 F6000.0
M3 F6000.0
G01 Y132.59 F6000.0
G01 X38.55 F6000.0
G01 X40.55 F6000.0
G01 X41.9 F6000.0
G01 Y132.55 F6000.0
G01 X41.55 F6000.0
G01 X39.55 F6000.0
G01 X38.21 F6000.0
M5
G00 X36.41 Y130.92 F6000.0
M3 F6000.0
G01 Y131.64 F6000.0
G01 X36.1 F6000.0
G01 X34.78 F6000.0
G01 Y130.92 F6000.0
G01 X35.1 F6000.0
G01 X36.41 F6000.0
M5
G00 X38.57 Y130.05 F6000.0
M3 F6000.0
G01 X38.61 F6000.0
G01 Y130.0 F6000.0
G01 Y128.95 F6000.0
G01 X38.77 Y128.99 F6000.0
G01 X39.9 Y129.24 F6000.0
G01 X39.91 Y129.2 F6000.0
G01 X39.75 Y129.16 F6000.0
G01 X38.61 Y128.9 F6000.0
G01 Y128.71 F6000.0
G01 Y127.51 F6000.0
G01 X38.67 Y127.29 F6000.0
G01 X39.04 Y127.26 F6000.0
G01 X39.26 F6000.0
G01 X39.42 Y127.3 F6000.0
G01 X39.53 Y127.39 F6000.0
G01 X39.58 Y127.57 F6000.0
G01 X39.61 Y127.84 F6000.0
G01 X39.63 Y128.25 F6000.0
G01 X39.67 F6000.0
G01 X39.6 Y127.44 F6000.0
G01 X39.39 Y127.24 F6000.0
G01 X39.04 Y127.22 F6000.0
G01 X38.64 Y127.26 F6000.0
G01 X38.57 Y127.51 F6000.0
G01 Y127.7 F6000.0
G01 Y128.89 F6000.0
G01 X38.09 Y128.79 F6000.0
G01 X38.08 Y128.83 F6000.0
G01 X38.57 Y128.94 F6000.0
G01 Y129.0 F6000.0
G01 Y130.05 F6000.0
M5
G00 X40.5 Y129.75 F6000.0
M3 F6000.0
G01 X40.48 Y129.49 F6000.0
G01 X40.38 Y128.24 F6000.0
G01 X40.37 Y128.22 F6000.0
G01 X39.99 Y127.27 F6000.0
G01 X39.98 Y127.26 F6000.0
G01 X39.23 Y126.55 F6000.0
G01 X39.21 Y126.59 F6000.0
G01 X39.22 Y126.6 F6000.0
G01 X39.96 Y127.3 F6000.0
G01 Y127.31 F6000.0
G01 X40.33 Y128.25 F6000.0
G01 X40.35 Y128.5 F6000.0
G01 X40.45 Y129.75 F6000.0
G01 X39.5 F6000.0
G01 Y129.8 F6000.0
G01 X39.67 F6000.0
G01 X40.67 F6000.0
G01 X41.83 F6000.0
G01 Y129.78 F6000.0
G01 Y129.67 F6000.0
G01 X41.82 Y128.56 F6000.0
G01 X41.78 Y127.71 F6000.0
G01 X41.7 Y127.14 F6000.0
G01 X41.59 Y126.81 F6000.0
G01 X41.43 Y126.66 F6000.0
G01 X41.22 Y126.62 F6000.0
G01 X40.58 Y126.66 F6000.0
G01 Y126.71 F6000.0
G01 X41.22 Y126.67 F6000.0
G01 X41.49 Y126.75 F6000.0
G01 X41.66 Y127.15 F6000.0
G01 X41.76 Y128.07 F6000.0
G01 X41.77 Y128.41 F6000.0
G01 X41.79 Y129.75 F6000.0
G01 X41.65 F6000.0
G01 X40.5 F6000.0
M5
G00 X43.45 Y129.17 F6000.0
M3 F6000.0
G01 X44.0 Y129.6 F6000.0
G01 X44.41 Y130.1 F6000.0
G01 X44.44 Y130.09 F6000.0
G01 X44.04 Y129.57 F6000.0
G01 X43.47 Y129.13 F6000.0
G01 X43.45 Y129.17 F6000.0
M5
G00 X44.01 Y128.62 F6000.0
M3 F6000.0
G01 Y128.51 F6000.0
G01 Y127.51 F6000.0
G01 Y126.41 F6000.0
G01 X43.97 F6000.0
G01 Y126.49 F6000.0
G01 Y127.49 F6000.0
G01 Y128.56 F6000.0
G01 X43.43 Y128.08 F6000.0
G01 X43.4 Y128.11 F6000.0
G01 X43.96 Y128.62 F6000.0
G01 X44.36 Y129.22 F6000.0
G01 X44.4 Y129.2 F6000.0
G01 X44.01 Y128.62 F6000.0
G01 F6000.0
M5
G00 X44.88 Y128.78 F6000.0
M3 F6000.0
G01 X44.82 F6000.0
G01 Y128.87 F6000.0
G01 Y129.97 F6000.0
G01 X44.9 F6000.0
G01 X45.9 F6000.0
G01 X46.97 F6000.0
G01 Y129.87 F6000.0
G01 Y128.78 F6000.0
G01 X46.93 F6000.0
G01 X45.93 F6000.0
G01 X44.88 F6000.0
M5
G00 X44.86 Y129.41 F6000.0
M3 F6000.0
G01 X44.9 F6000.0
G01 X45.9 F6000.0
G01 X46.93 F6000.0
G01 Y129.92 F6000.0
G01 X46.9 F6000.0
G01 X45.9 F6000.0
G01 X44.86 F6000.0
G01 Y129.41 F6000.0
M5
G00 X44.97 Y127.52 F6000.0
M3 F6000.0
G01 X44.99 Y127.56 F6000.0
G01 X45.03 Y127.52 F6000.0
G01 X45.77 Y126.78 F6000.0
G01 X45.74 Y126.75 F6000.0
G01 X45.71 Y126.78 F6000.0
G01 X44.97 Y127.52 F6000.0
G01 F6000.0
M5
G00 X47.25 Y127.81 F6000.0
M3 F6000.0
G01 Y127.77 F6000.0
G01 X46.78 F6000.0
G01 Y126.88 F6000.0
G01 X46.74 Y126.54 F6000.0
G01 X46.51 Y126.47 F6000.0
G01 X45.98 Y126.5 F6000.0
G01 Y126.54 F6000.0
G01 X46.51 Y126.52 F6000.0
G01 X46.71 Y126.57 F6000.0
G01 X46.74 Y126.88 F6000.0
G01 Y127.77 F6000.0
G01 X46.61 F6000.0
G01 X45.61 F6000.0
G01 X44.48 F6000.0
G01 Y127.81 F6000.0
G01 X44.61 F6000.0
G01 X45.61 F6000.0
G01 X46.74 F6000.0
G01 Y128.31 F6000.0
G01 X46.63 F6000.0
G01 X45.63 F6000.0
G01 X44.52 F6000.0
G01 Y128.36 F6000.0
G01 X44.86 F6000.0
G01 X45.86 F6000.0
G01 X47.21 F6000.0
G01 Y128.31 F6000.0
G01 X46.78 F6000.0
G01 Y127.81 F6000.0
G01 X47.25 F6000.0
M5
G00 X46.93 Y128.82 F6000.0
M3 F6000.0
G01 Y129.37 F6000.0
G01 X46.9 F6000.0
G01 X45.9 F6000.0
G01 X44.86 F6000.0
G01 Y128.82 F6000.0
G01 X44.9 F6000.0
G01 X45.9 F6000.0
G01 X46.93 F6000.0
M5
G00 X48.85 Y130.72 F6000.0
M3 F6000.0
G01 X48.88 Y130.75 F6000.0
G01 X49.46 Y131.61 F6000.0
G01 X49.5 Y131.59 F6000.0
G01 X49.48 Y131.55 F6000.0
G01 X48.89 Y130.69 F6000.0
G01 X48.85 Y130.72 F6000.0
M5
G00 X50.11 Y131.57 F6000.0
M3 F6000.0
G01 X50.15 Y131.58 F6000.0
G01 X50.31 Y130.68 F6000.0
G01 X50.27 F6000.0
G01 X50.11 Y131.57 F6000.0
G01 F6000.0
M5
G00 X50.95 Y131.59 F6000.0
M3 F6000.0
G01 X50.98 Y131.61 F6000.0
G01 X51.37 Y130.71 F6000.0
G01 X51.33 Y130.7 F6000.0
G01 X50.95 Y131.59 F6000.0
G01 F6000.0
M5
G00 X51.77 Y131.61 F6000.0
M3 F6000.0
G01 X51.81 Y131.63 F6000.0
G01 X51.84 Y131.6 F6000.0
G01 X52.42 Y130.74 F6000.0
G01 X52.38 Y130.71 F6000.0
G01 X52.36 Y130.75 F6000.0
G01 X51.77 Y131.61 F6000.0
G01 F6000.0
M5
G00 X51.08 Y132.95 F6000.0
M3 F6000.0
G01 Y132.94 F6000.0
G01 Y131.94 F6000.0
G01 X51.84 F6000.0
G01 F6000.0
G01 Y132.95 F6000.0
G01 X51.08 F6000.0
M5
G00 X51.08 Y133. F6000.0
M3 F6000.0
G01 X51.84 F6000.0
G01 Y133.97 F6000.0
G01 X51.08 F6000.0
G01 Y133.0 F6000.0
M5
G00 X50.23 Y133. F6000.0
M3 F6000.0
G01 X51.04 F6000.0
G01 Y133.97 F6000.0
G01 X50.23 F6000.0
G01 Y133.0 F6000.0
M5
G00 X50.23 Y132.95 F6000.0
M3 F6000.0
G01 Y132.94 F6000.0
G01 Y131.94 F6000.0
G01 X51.04 F6000.0
G01 F6000.0
G01 Y132.95 F6000.0
G01 X50.23 F6000.0
M5
G00 X50.19 Y132.95 F6000.0
M3 F6000.0
G01 X49.43 F6000.0
G01 Y132.94 F6000.0
G01 Y131.94 F6000.0
G01 X50.19 F6000.0
G01 F6000.0
G01 Y132.95 F6000.0
M5
G00 X49.43 Y133.97 F6000.0
M3 F6000.0
G01 Y133.0 F6000.0
G01 X50.19 F6000.0
G01 Y133.97 F6000.0
G01 X49.43 F6000.0
M5
G00 X48.86 Y133.25 F6000.0
M3 F6000.0
G01 X49.29 Y133.83 F6000.0
G01 X49.59 Y134.48 F6000.0
G01 X49.63 Y134.47 F6000.0
G01 X49.43 Y134.01 F6000.0
G01 X49.87 F6000.0
G01 X50.87 F6000.0
G01 X52.31 F6000.0
G01 Y133.97 F6000.0
G01 X51.88 F6000.0
G01 Y133.0 F6000.0
G01 X52.48 F6000.0
G01 Y132.95 F6000.0
G01 X51.88 F6000.0
G01 Y132.94 F6000.0
G01 Y131.94 F6000.0
G01 X52.39 F6000.0
G01 Y131.89 F6000.0
G01 X52.14 F6000.0
G01 X50.14 F6000.0
G01 X48.88 F6000.0
G01 Y131.94 F6000.0
G01 X49.39 F6000.0
G01 F6000.0
G01 Y132.95 F6000.0
G01 X48.79 F6000.0
G01 Y133.0 F6000.0
G01 X49.39 F6000.0
G01 Y133.91 F6000.0
G01 X48.89 Y133.23 F6000.0
G01 X48.86 Y133.25 F6000.0
M5
G00 X47.23 Y133.02 F6000.0
M3 F6000.0
G01 Y132.97 F6000.0
G01 X46.63 F6000.0
G01 Y132.83 F6000.0
G01 Y131.83 F6000.0
G01 Y130.68 F6000.0
G01 X46.59 F6000.0
G01 Y130.83 F6000.0
G01 Y131.83 F6000.0
G01 Y132.97 F6000.0
G01 X45.62 F6000.0
G01 X45.59 Y132.8 F6000.0
G01 X45.43 Y131.63 F6000.0
G01 X44.97 Y130.78 F6000.0
G01 X44.94 Y130.8 F6000.0
G01 X45.31 Y131.43 F6000.0
G01 X45.52 Y132.39 F6000.0
G01 X45.53 Y132.69 F6000.0
G01 X45.6 Y133.99 F6000.0
G01 X45.83 Y134.03 F6000.0
G01 X47.05 Y134.28 F6000.0
G01 X47.07 Y134.24 F6000.0
G01 X46.85 Y134.19 F6000.0
G01 X45.64 Y133.95 F6000.0
G01 X45.62 Y133.02 F6000.0
G01 X45.93 F6000.0
G01 X47.23 F6000.0
M5
G00 X46.48 Y135.84 F6000.0
M3 F6000.0
G01 X46.52 Y135.87 F6000.0
G01 X46.54 Y135.83 F6000.0
G01 X47.13 Y134.97 F6000.0
G01 X47.09 Y134.95 F6000.0
G01 X47.07 Y134.98 F6000.0
G01 X46.48 Y135.84 F6000.0
G01 F6000.0
M5
G00 X45.66 Y135.83 F6000.0
M3 F6000.0
G01 X45.69 Y135.84 F6000.0
G01 X46.08 Y134.95 F6000.0
G01 X46.04 Y134.93 F6000.0
G01 X45.66 Y135.83 F6000.0
G01 F6000.0
M5
G00 X44.82 Y135.81 F6000.0
M3 F6000.0
G01 X44.86 F6000.0
G01 X45.02 Y134.92 F6000.0
G01 X44.98 Y134.91 F6000.0
G01 X44.82 Y135.81 F6000.0
G01 F6000.0
M5
G00 X44.9 Y137.18 F6000.0
M3 F6000.0
G01 X44.14 F6000.0
G01 F6000.0
G01 Y136.17 F6000.0
G01 X44.9 F6000.0
G01 Y136.18 F6000.0
G01 Y137.18 F6000.0
M5
G00 X44.94 Y137.18 F6000.0
M3 F6000.0
G01 F6000.0
G01 Y136.17 F6000.0
G01 X45.75 F6000.0
G01 Y136.18 F6000.0
G01 Y137.18 F6000.0
G01 X44.94 F6000.0
M5
G00 X44.94 Y137.23 F6000.0
M3 F6000.0
G01 X45.75 F6000.0
G01 Y138.2 F6000.0
G01 X44.94 F6000.0
G01 Y137.23 F6000.0
M5
G00 X45.79 Y137.23 F6000.0
M3 F6000.0
G01 X46.55 F6000.0
G01 Y138.2 F6000.0
G01 X45.79 F6000.0
G01 Y137.23 F6000.0
M5
G00 X45.79 Y137.18 F6000.0
M3 F6000.0
G01 F6000.0
G01 Y136.17 F6000.0
G01 X46.55 F6000.0
G01 Y136.18 F6000.0
G01 Y137.18 F6000.0
G01 X45.79 F6000.0
M5
G00 X44.14 Y138.2 F6000.0
M3 F6000.0
G01 Y137.23 F6000.0
G01 X44.9 F6000.0
G01 Y138.2 F6000.0
G01 X44.14 F6000.0
M5
G00 X43.57 Y137.49 F6000.0
M3 F6000.0
G01 X44.0 Y138.06 F6000.0
G01 X44.3 Y138.72 F6000.0
G01 X44.34 Y138.7 F6000.0
G01 X44.14 Y138.24 F6000.0
G01 X44.58 F6000.0
G01 X45.58 F6000.0
G01 X47.02 F6000.0
G01 Y138.2 F6000.0
G01 X46.59 F6000.0
G01 Y137.23 F6000.0
G01 X47.19 F6000.0
G01 Y137.18 F6000.0
G01 X46.59 F6000.0
G01 F6000.0
G01 Y136.17 F6000.0
G01 X47.1 F6000.0
G01 Y136.12 F6000.0
G01 X46.84 F6000.0
G01 X44.84 F6000.0
G01 X43.59 F6000.0
G01 Y136.17 F6000.0
G01 X44.1 F6000.0
G01 Y136.18 F6000.0
G01 Y137.18 F6000.0
G01 X43.5 F6000.0
G01 Y137.23 F6000.0
G01 X44.1 F6000.0
G01 Y138.15 F6000.0
G01 X43.6 Y137.46 F6000.0
G01 X43.57 Y137.49 F6000.0
M5
G00 X43.97 Y139.83 F6000.0
M3 F6000.0
G01 X44.24 Y139.91 F6000.0
G01 X45.47 Y140.29 F6000.0
G01 X45.48 Y140.25 F6000.0
G01 X45.4 Y140.23 F6000.0
G01 X44.44 Y139.96 F6000.0
G01 X43.4 Y139.66 F6000.0
G01 X43.39 Y139.71 F6000.0
G01 X43.93 Y139.82 F6000.0
G01 Y140.24 F6000.0
G01 Y141.24 F6000.0
G01 Y142.66 F6000.0
G01 X43.97 F6000.0
G01 Y142.25 F6000.0
G01 Y141.25 F6000.0
G01 Y139.83 F6000.0
M5
G00 X44.73 Y142.36 F6000.0
M3 F6000.0
G01 X44.76 Y142.39 F6000.0
G01 X44.9 Y142.22 F6000.0
G01 X45.65 Y141.25 F6000.0
G01 X45.61 Y141.23 F6000.0
G01 X45.48 Y141.41 F6000.0
G01 X44.73 Y142.36 F6000.0
G01 F6000.0
M5
G00 X46.83 Y142.71 F6000.0
M3 F6000.0
G01 X46.87 F6000.0
G01 X46.85 Y142.53 F6000.0
G01 X46.75 Y141.35 F6000.0
G01 X46.74 Y141.33 F6000.0
G01 X46.39 Y140.36 F6000.0
G01 X46.54 Y140.17 F6000.0
G01 X47.32 Y139.2 F6000.0
G01 X47.28 Y139.18 F6000.0
G01 X47.14 Y139.36 F6000.0
G01 X46.36 Y140.32 F6000.0
G01 X45.72 Y139.66 F6000.0
G01 X45.68 Y139.64 F6000.0
G01 X44.76 Y139.16 F6000.0
G01 X44.74 Y139.2 F6000.0
G01 X44.92 Y139.3 F6000.0
G01 X45.96 Y139.91 F6000.0
G01 X46.35 Y140.41 F6000.0
G01 X46.62 Y141.02 F6000.0
G01 X46.66 Y141.37 F6000.0
G01 X46.83 Y142.71 F6000.0
G01 F6000.0
M5
G00 X52.27 Y141.4 F6000.0
M3 F6000.0
G01 X52.24 Y141.09 F6000.0
G01 X52.11 Y139.78 F6000.0
G01 X51.91 Y139.42 F6000.0
G01 X51.61 Y139.3 F6000.0
G01 X50.84 Y139.34 F6000.0
G01 X50.85 Y139.39 F6000.0
G01 X51.61 Y139.34 F6000.0
G01 X51.79 Y139.38 F6000.0
G01 X51.96 Y139.54 F6000.0
G01 X52.1 Y139.88 F6000.0
G01 X52.19 Y140.46 F6000.0
G01 X52.22 Y141.35 F6000.0
G01 X51.31 F6000.0
G01 X51.23 Y141.11 F6000.0
G01 X51.2 Y141.13 F6000.0
G01 X51.24 Y141.31 F6000.0
G01 X51.53 Y142.47 F6000.0
G01 X51.32 F6000.0
G01 X50.11 F6000.0
G01 X50.09 Y142.21 F6000.0
G01 X50.0 Y140.94 F6000.0
G01 Y140.93 F6000.0
G01 X49.67 Y139.97 F6000.0
G01 X49.02 Y139.23 F6000.0
G01 X48.99 Y139.27 F6000.0
G01 X49.6 Y139.92 F6000.0
G01 X49.94 Y140.86 F6000.0
G01 X49.97 Y141.17 F6000.0
G01 X50.07 Y142.47 F6000.0
G01 X50.03 F6000.0
G01 X48.99 F6000.0
G01 Y142.52 F6000.0
G01 X49.28 F6000.0
G01 X50.28 F6000.0
G01 X51.57 F6000.0
G01 Y142.45 F6000.0
G01 X51.56 Y142.41 F6000.0
G01 X51.33 Y141.4 F6000.0
G01 X52.27 F6000.0
M5
G00 X54.15 Y141.72 F6000.0
M3 F6000.0
G01 X54.58 Y142.3 F6000.0
G01 X54.89 Y142.95 F6000.0
G01 X54.92 Y142.94 F6000.0
G01 X54.73 Y142.47 F6000.0
G01 X55.16 F6000.0
G01 X56.16 F6000.0
G01 X57.6 F6000.0
G01 Y142.43 F6000.0
G01 X57.18 F6000.0
G01 Y141.46 F6000.0
G01 X57.77 F6000.0
G01 Y141.42 F6000.0
G01 X57.18 F6000.0
G01 Y141.41 F6000.0
G01 Y140.4 F6000.0
G01 X57.69 F6000.0
G01 Y140.36 F6000.0
G01 X57.43 F6000.0
G01 X55.43 F6000.0
G01 X54.17 F6000.0
G01 Y140.4 F6000.0
G01 X54.68 F6000.0
G01 Y140.41 F6000.0
G01 Y141.42 F6000.0
G01 X54.08 F6000.0
G01 Y141.46 F6000.0
G01 X54.68 F6000.0
G01 Y142.38 F6000.0
G01 X54.18 Y141.69 F6000.0
G01 X54.15 Y141.72 F6000.0
M5
G00 X54.72 Y142.43 F6000.0
M3 F6000.0
G01 Y141.46 F6000.0
G01 X55.48 F6000.0
G01 Y142.43 F6000.0
G01 X54.72 F6000.0
M5
G00 X55.53 Y141.46 F6000.0
M3 F6000.0
G01 X56.33 F6000.0
G01 Y142.43 F6000.0
G01 X55.53 F6000.0
G01 Y141.46 F6000.0
M5
G00 X55.53 Y141.42 F6000.0
M3 F6000.0
G01 Y141.41 F6000.0
G01 Y140.4 F6000.0
G01 X56.33 F6000.0
G01 Y140.41 F6000.0
G01 Y141.42 F6000.0
G01 X55.53 F6000.0
M5
G00 X55.48 Y141.42 F6000.0
M3 F6000.0
G01 X54.72 F6000.0
G01 Y141.41 F6000.0
G01 Y140.4 F6000.0
G01 X55.48 F6000.0
G01 Y140.41 F6000.0
G01 Y141.42 F6000.0
M5
G00 X56.38 Y141.42 F6000.0
M3 F6000.0
G01 Y141.41 F6000.0
G01 Y140.4 F6000.0
G01 X57.13 F6000.0
G01 Y140.41 F6000.0
G01 Y141.42 F6000.0
G01 X56.38 F6000.0
M5
G00 X56.38 Y141.46 F6000.0
M3 F6000.0
G01 X57.13 F6000.0
G01 Y142.43 F6000.0
G01 X56.38 F6000.0
G01 Y141.46 F6000.0
M5
G00 X56.24 Y140.06 F6000.0
M3 F6000.0
G01 X56.27 Y140.07 F6000.0
G01 X56.66 Y139.18 F6000.0
G01 X56.62 Y139.17 F6000.0
G01 X56.24 Y140.06 F6000.0
G01 F6000.0
M5
G00 X57.06 Y140.08 F6000.0
M3 F6000.0
G01 X57.1 Y140.1 F6000.0
G01 X57.13 Y140.07 F6000.0
G01 X57.71 Y139.2 F6000.0
G01 X57.68 Y139.18 F6000.0
G01 X57.65 Y139.22 F6000.0
G01 X57.06 Y140.08 F6000.0
G01 F6000.0
M5
G00 X55.4 Y140.04 F6000.0
M3 F6000.0
G01 X55.44 Y140.05 F6000.0
G01 X55.61 Y139.15 F6000.0
G01 X55.56 F6000.0
G01 X55.4 Y140.04 F6000.0
G01 F6000.0
M5
G00 X54.15 Y139.18 F6000.0
M3 F6000.0
G01 X54.17 Y139.22 F6000.0
G01 X54.75 Y140.08 F6000.0
G01 X54.8 Y140.06 F6000.0
G01 X54.77 Y140.02 F6000.0
G01 X54.18 Y139.16 F6000.0
G01 X54.15 Y139.18 F6000.0
M5
G00 X54.72 Y138.2 F6000.0
M3 F6000.0
G01 Y137.23 F6000.0
G01 X55.48 F6000.0
G01 Y138.2 F6000.0
G01 X54.72 F6000.0
M5
G00 X54.15 Y137.49 F6000.0
M3 F6000.0
G01 X54.58 Y138.06 F6000.0
G01 X54.89 Y138.72 F6000.0
G01 X54.92 Y138.7 F6000.0
G01 X54.73 Y138.24 F6000.0
G01 X55.16 F6000.0
G01 X56.16 F6000.0
G01 X57.6 F6000.0
G01 Y138.2 F6000.0
G01 X57.18 F6000.0
G01 Y137.23 F6000.0
G01 X57.77 F6000.0
G01 Y137.18 F6000.0
G01 X57.18 F6000.0
G01 F6000.0
G01 Y136.17 F6000.0
G01 X57.69 F6000.0
G01 Y136.12 F6000.0
G01 X57.43 F6000.0
G01 X55.43 F6000.0
G01 X54.17 F6000.0
G01 Y136.17 F6000.0
G01 X54.68 F6000.0
G01 Y136.18 F6000.0
G01 Y137.18 F6000.0
G01 X54.08 F6000.0
G01 Y137.23 F6000.0
G01 X54.68 F6000.0
G01 Y138.15 F6000.0
G01 X54.18 Y137.46 F6000.0
G01 X54.15 Y137.49 F6000.0
M5
G00 X55.48 Y137.18 F6000.0
M3 F6000.0
G01 X54.72 F6000.0
G01 F6000.0
G01 Y136.17 F6000.0
G01 X55.48 F6000.0
G01 Y136.18 F6000.0
G01 Y137.18 F6000.0
M5
G00 X55.53 Y137.18 F6000.0
M3 F6000.0
G01 F6000.0
G01 Y136.17 F6000.0
G01 X56.33 F6000.0
G01 Y136.18 F6000.0
G01 Y137.18 F6000.0
G01 X55.53 F6000.0
M5
G00 X55.53 Y137.23 F6000.0
M3 F6000.0
G01 X56.33 F6000.0
G01 Y138.2 F6000.0
G01 X55.53 F6000.0
G01 Y137.23 F6000.0
M5
G00 X56.38 Y137.23 F6000.0
M3 F6000.0
G01 X57.13 F6000.0
G01 Y138.2 F6000.0
G01 X56.38 F6000.0
G01 Y137.23 F6000.0
M5
G00 X56.38 Y137.18 F6000.0
M3 F6000.0
G01 F6000.0
G01 Y136.17 F6000.0
G01 X57.13 F6000.0
G01 Y136.18 F6000.0
G01 Y137.18 F6000.0
G01 X56.38 F6000.0
M5
G00 X56.24 Y135.83 F6000.0
M3 F6000.0
G01 X56.27 Y135.84 F6000.0
G01 X56.66 Y134.95 F6000.0
G01 X56.62 Y134.93 F6000.0
G01 X56.24 Y135.83 F6000.0
G01 F6000.0
M5
G00 X57.06 Y135.84 F6000.0
M3 F6000.0
G01 X57.1 Y135.87 F6000.0
G01 X57.13 Y135.83 F6000.0
G01 X57.71 Y134.97 F6000.0
G01 X57.68 Y134.95 F6000.0
G01 X57.65 Y134.98 F6000.0
G01 X57.06 Y135.84 F6000.0
G01 F6000.0
M5
G00 X55.4 Y135.81 F6000.0
M3 F6000.0
G01 X55.44 F6000.0
G01 X55.61 Y134.92 F6000.0
G01 X55.56 Y134.91 F6000.0
G01 X55.4 Y135.81 F6000.0
G01 F6000.0
M5
G00 X54.15 Y134.95 F6000.0
M3 F6000.0
G01 X54.17 Y134.98 F6000.0
G01 X54.75 Y135.84 F6000.0
G01 X54.8 Y135.82 F6000.0
G01 X54.77 Y135.78 F6000.0
G01 X54.18 Y134.92 F6000.0
G01 X54.15 Y134.95 F6000.0
M5
G00 X54.32 Y133. F6000.0
M3 F6000.0
G01 X54.4 F6000.0
G01 X55.48 F6000.0
G01 Y133.02 F6000.0
G01 Y134.05 F6000.0
G01 X55.4 F6000.0
G01 X54.32 F6000.0
G01 Y134.02 F6000.0
G01 Y133.0 F6000.0
M5
G00 X54.32 Y132.95 F6000.0
M3 F6000.0
G01 Y132.88 F6000.0
G01 Y131.81 F6000.0
G01 X54.4 F6000.0
G01 X55.48 F6000.0
G01 Y131.88 F6000.0
G01 Y132.95 F6000.0
G01 X55.4 F6000.0
G01 X54.32 F6000.0
M5
G00 X54.32 Y131.76 F6000.0
M3 F6000.0
G01 Y131.47 F6000.0
G01 X54.28 F6000.0
G01 Y131.78 F6000.0
G01 Y132.78 F6000.0
G01 Y134.09 F6000.0
G01 X54.4 F6000.0
G01 X55.53 F6000.0
G01 Y133.93 F6000.0
G01 Y132.93 F6000.0
G01 Y131.76 F6000.0
G01 X55.42 F6000.0
G01 X54.32 F6000.0
M5
G00 X56.1 Y133.14 F6000.0
M3 F6000.0
G01 Y132.66 F6000.0
G01 X56.07 Y132.11 F6000.0
G01 X56.3 F6000.0
G01 X57.54 F6000.0
G01 Y132.12 F6000.0
G01 Y133.14 F6000.0
G01 X57.32 F6000.0
G01 X56.1 F6000.0
M5
G00 X56.1 Y133.19 F6000.0
M3 F6000.0
G01 X56.32 F6000.0
G01 X57.54 F6000.0
G01 Y134.14 F6000.0
G01 X57.32 F6000.0
G01 X56.1 F6000.0
G01 Y133.19 F6000.0
M5
G00 X57.54 Y131.09 F6000.0
M3 F6000.0
G01 Y132.06 F6000.0
G01 X57.3 F6000.0
G01 X56.07 F6000.0
G01 X55.85 Y131.29 F6000.0
G01 X55.43 Y130.68 F6000.0
G01 X55.4 Y130.72 F6000.0
G01 X55.9 Y131.51 F6000.0
G01 X55.91 Y131.59 F6000.0
G01 X56.06 Y132.66 F6000.0
G01 Y132.92 F6000.0
G01 Y134.18 F6000.0
G01 X56.32 F6000.0
G01 X57.58 F6000.0
G01 Y134.13 F6000.0
G01 Y132.13 F6000.0
G01 Y131.09 F6000.0
G01 X57.54 Y130.79 F6000.0
G01 X57.3 Y130.73 F6000.0
G01 X56.77 Y130.75 F6000.0
G01 X56.78 Y130.79 F6000.0
G01 X57.3 Y130.77 F6000.0
G01 X57.5 Y130.82 F6000.0
G01 X57.54 Y131.09 F6000.0
G01 F6000.0
M5
G00 X59.44 Y130.72 F6000.0
M3 F6000.0
G01 X59.46 Y130.75 F6000.0
G01 X60.05 Y131.61 F6000.0
G01 X60.09 Y131.59 F6000.0
G01 X60.06 Y131.55 F6000.0
G01 X59.47 Y130.69 F6000.0
G01 X59.44 Y130.72 F6000.0
M5
G00 X60.7 Y131.57 F6000.0
M3 F6000.0
G01 X60.74 Y131.58 F6000.0
G01 X60.9 Y130.68 F6000.0
G01 X60.86 F6000.0
G01 X60.7 Y131.57 F6000.0
G01 F6000.0
M5
G00 X61.53 Y131.59 F6000.0
M3 F6000.0
G01 X61.57 Y131.61 F6000.0
G01 X61.95 Y130.71 F6000.0
G01 X61.91 Y130.7 F6000.0
G01 X61.53 Y131.59 F6000.0
G01 F6000.0
M5
G00 X62.36 Y131.61 F6000.0
M3 F6000.0
G01 X62.39 Y131.63 F6000.0
G01 X62.42 Y131.6 F6000.0
G01 X63.01 Y130.74 F6000.0
G01 X62.97 Y130.71 F6000.0
G01 X62.94 Y130.75 F6000.0
G01 X62.36 Y131.61 F6000.0
G01 F6000.0
M5
G00 X61.67 Y132.95 F6000.0
M3 F6000.0
G01 Y132.94 F6000.0
G01 Y131.94 F6000.0
G01 X62.43 F6000.0
G01 F6000.0
G01 Y132.95 F6000.0
G01 X61.67 F6000.0
M5
G00 X61.67 Y133. F6000.0
M3 F6000.0
G01 X62.43 F6000.0
G01 Y133.97 F6000.0
G01 X61.67 F6000.0
G01 Y133.0 F6000.0
M5
G00 X60.82 Y133. F6000.0
M3 F6000.0
G01 X61.62 F6000.0
G01 Y133.97 F6000.0
G01 X60.82 F6000.0
G01 Y133.0 F6000.0
M5
G00 X60.82 Y132.95 F6000.0
M3 F6000.0
G01 Y132.94 F6000.0
G01 Y131.94 F6000.0
G01 X61.62 F6000.0
G01 F6000.0
G01 Y132.95 F6000.0
G01 X60.82 F6000.0
M5
G00 X60.77 Y132.95 F6000.0
M3 F6000.0
G01 X60.01 F6000.0
G01 Y132.94 F6000.0
G01 Y131.94 F6000.0
G01 X60.77 F6000.0
G01 F6000.0
G01 Y132.95 F6000.0
M5
G00 X60.01 Y133.97 F6000.0
M3 F6000.0
G01 Y133.0 F6000.0
G01 X60.77 F6000.0
G01 Y133.97 F6000.0
G01 X60.01 F6000.0
M5
G00 X59.44 Y133.25 F6000.0
M3 F6000.0
G01 X59.88 Y133.83 F6000.0
G01 X60.18 Y134.48 F6000.0
G01 X60.22 Y134.47 F6000.0
G01 X60.02 Y134.01 F6000.0
G01 X60.45 F6000.0
G01 X61.45 F6000.0
G01 X62.89 F6000.0
G01 Y133.97 F6000.0
G01 X62.47 F6000.0
G01 Y133.0 F6000.0
G01 X63.06 F6000.0
G01 Y132.95 F6000.0
G01 X62.47 F6000.0
G01 Y132.94 F6000.0
G01 Y131.94 F6000.0
G01 X62.98 F6000.0
G01 Y131.89 F6000.0
G01 X62.72 F6000.0
G01 X60.72 F6000.0
G01 X59.46 F6000.0
G01 Y131.94 F6000.0
G01 X59.97 F6000.0
G01 F6000.0
G01 Y132.95 F6000.0
G01 X59.38 F6000.0
G01 Y133.0 F6000.0
G01 X59.97 F6000.0
G01 Y133.91 F6000.0
G01 X59.47 Y133.23 F6000.0
G01 X59.44 Y133.25 F6000.0
M5
G00 X59.86 Y136.55 F6000.0
M3 F6000.0
G01 X60.08 F6000.0
G01 X61.3 F6000.0
G01 Y136.59 F6000.0
G01 Y137.63 F6000.0
G01 X61.08 F6000.0
G01 X59.86 F6000.0
G01 Y137.59 F6000.0
G01 Y136.55 F6000.0
M5
G00 X59.34 Y137.32 F6000.0
M3 F6000.0
G01 X60.05 Y137.94 F6000.0
G01 X60.53 Y138.68 F6000.0
G01 X60.57 Y138.66 F6000.0
G01 X60.4 Y138.35 F6000.0
G01 X60.65 F6000.0
G01 X61.9 F6000.0
G01 Y138.29 F6000.0
G01 X61.38 Y137.67 F6000.0
G01 X61.56 F6000.0
G01 X62.74 F6000.0
G01 Y137.48 F6000.0
G01 Y136.29 F6000.0
G01 X62.7 F6000.0
G01 Y136.5 F6000.0
G01 X62.28 F6000.0
G01 X61.28 F6000.0
G01 X59.86 F6000.0
G01 Y135.51 F6000.0
G01 Y135.33 F6000.0
G01 X59.88 Y135.21 F6000.0
G01 X59.92 Y135.12 F6000.0
G01 X60.0 Y135.08 F6000.0
G01 X60.12 Y135.06 F6000.0
G01 X60.29 Y135.05 F6000.0
G01 X61.11 Y135.03 F6000.0
G01 X62.0 Y135.05 F6000.0
G01 X62.26 Y135.06 F6000.0
G01 X62.46 Y135.08 F6000.0
G01 X62.61 Y135.12 F6000.0
G01 X62.71 Y135.19 F6000.0
G01 X62.79 Y135.29 F6000.0
G01 X62.83 Y135.46 F6000.0
G01 X62.87 Y135.67 F6000.0
G01 X62.91 Y135.94 F6000.0
G01 X62.95 Y135.93 F6000.0
G01 X62.91 Y135.65 F6000.0
G01 X62.87 Y135.43 F6000.0
G01 X62.82 Y135.26 F6000.0
G01 X62.74 Y135.16 F6000.0
G01 X62.64 Y135.08 F6000.0
G01 X62.48 Y135.05 F6000.0
G01 X62.28 Y135.02 F6000.0
G01 X62.0 Y135.0 F6000.0
G01 X61.11 Y134.98 F6000.0
G01 X60.28 Y135.0 F6000.0
G01 X59.88 Y135.09 F6000.0
G01 X59.82 Y135.51 F6000.0
G01 Y135.58 F6000.0
G01 Y136.58 F6000.0
G01 Y137.65 F6000.0
G01 X59.36 Y137.29 F6000.0
G01 X59.34 Y137.32 F6000.0
M5
G00 X59.44 Y139.18 F6000.0
M3 F6000.0
G01 X59.46 Y139.22 F6000.0
G01 X60.05 Y140.08 F6000.0
G01 X60.09 Y140.06 F6000.0
G01 X60.06 Y140.02 F6000.0
G01 X59.47 Y139.16 F6000.0
G01 X59.44 Y139.18 F6000.0
M5
G00 X60.7 Y140.04 F6000.0
M3 F6000.0
G01 X60.74 Y140.05 F6000.0
G01 X60.9 Y139.15 F6000.0
G01 X60.86 F6000.0
G01 X60.7 Y140.04 F6000.0
G01 F6000.0
M5
G00 X61.53 Y140.06 F6000.0
M3 F6000.0
G01 X61.57 Y140.07 F6000.0
G01 X61.95 Y139.18 F6000.0
G01 X61.91 Y139.17 F6000.0
G01 X61.53 Y140.06 F6000.0
M5
G00 X62.36 Y140.08 F6000.0
M3 F6000.0
G01 X62.39 Y140.1 F6000.0
G01 X62.42 Y140.07 F6000.0
G01 X63.01 Y139.2 F6000.0
G01 X62.97 Y139.18 F6000.0
G01 X62.94 Y139.22 F6000.0
G01 X62.36 Y140.08 F6000.0
G01 F6000.0
M5
G00 X61.67 Y141.42 F6000.0
M3 F6000.0
G01 Y141.41 F6000.0
G01 Y140.4 F6000.0
G01 X62.43 F6000.0
G01 Y140.41 F6000.0
G01 Y141.42 F6000.0
G01 X61.67 F6000.0
M5
G00 X61.67 Y141.46 F6000.0
M3 F6000.0
G01 X62.43 F6000.0
G01 Y142.43 F6000.0
G01 X61.67 F6000.0
G01 Y141.46 F6000.0
M5
G00 X60.82 Y141.46 F6000.0
M3 F6000.0
G01 X61.62 F6000.0
G01 Y142.43 F6000.0
G01 X60.82 F6000.0
G01 Y141.46 F6000.0
M5
G00 X60.82 Y141.42 F6000.0
M3 F6000.0
G01 Y141.41 F6000.0
G01 Y140.4 F6000.0
G01 X61.62 F6000.0
G01 Y140.41 F6000.0
G01 Y141.42 F6000.0
G01 X60.82 F6000.0
M5
G00 X60.77 Y141.42 F6000.0
M3 F6000.0
G01 X60.01 F6000.0
G01 Y141.41 F6000.0
G01 Y140.4 F6000.0
G01 X60.77 F6000.0
G01 Y140.41 F6000.0
G01 Y141.42 F6000.0
M5
G00 X60.01 Y142.43 F6000.0
M3 F6000.0
G01 Y141.46 F6000.0
G01 X60.77 F6000.0
G01 Y142.43 F6000.0
G01 X60.01 F6000.0
M5
G00 X59.44 Y141.72 F6000.0
M3 F6000.0
G01 X59.88 Y142.3 F6000.0
G01 X60.18 Y142.95 F6000.0
G01 X60.22 Y142.94 F6000.0
G01 X60.02 Y142.47 F6000.0
G01 X60.45 F6000.0
G01 X61.45 F6000.0
G01 X62.89 F6000.0
G01 Y142.43 F6000.0
G01 X62.47 F6000.0
G01 Y141.46 F6000.0
G01 X63.06 F6000.0
G01 Y141.42 F6000.0
G01 X62.47 F6000.0
G01 Y141.41 F6000.0
G01 Y140.4 F6000.0
G01 X62.98 F6000.0
G01 Y140.36 F6000.0
G01 X62.72 F6000.0
G01 X60.72 F6000.0
G01 X59.46 F6000.0
G01 Y140.4 F6000.0
G01 X59.97 F6000.0
G01 Y140.41 F6000.0
G01 Y141.42 F6000.0
G01 X59.38 F6000.0
G01 Y141.46 F6000.0
G01 X59.97 F6000.0
G01 Y142.38 F6000.0
G01 X59.47 Y141.69 F6000.0
G01 X59.44 Y141.72 F6000.0
M5
G00 X61.32 Y137.67 F6000.0
M3 F6000.0
G01 X61.85 Y138.31 F6000.0
G01 X61.61 F6000.0
G01 X60.37 F6000.0
G01 X59.84 Y137.67 F6000.0
G01 X60.08 F6000.0
G01 X61.32 F6000.0
M5
G00 X61.35 Y137.63 F6000.0
M3 F6000.0
G01 Y137.59 F6000.0
G01 Y136.55 F6000.0
G01 X61.52 F6000.0
G01 X62.7 F6000.0
G01 Y136.59 F6000.0
G01 Y137.63 F6000.0
G01 X62.52 F6000.0
G01 X61.35 F6000.0
M5
G00 X64.75 Y134.05 F6000.0
M3 F6000.0
G01 Y134.09 F6000.0
G01 X65.01 F6000.0
G01 X67.01 F6000.0
G01 X68.27 F6000.0
G01 Y134.05 F6000.0
G01 X68.07 F6000.0
G01 X66.86 F6000.0
G01 X66.53 Y133.51 F6000.0
G01 Y133.11 F6000.0
G01 Y132.11 F6000.0
G01 Y130.7 F6000.0
G01 X66.49 F6000.0
G01 Y131.07 F6000.0
G01 Y132.07 F6000.0
G01 Y133.45 F6000.0
G01 X66.42 Y133.37 F6000.0
G01 X65.7 Y132.55 F6000.0
G01 X65.57 Y132.44 F6000.0
G01 X64.68 Y131.7 F6000.0
G01 X64.65 Y131.73 F6000.0
G01 X64.92 Y131.96 F6000.0
G01 X65.93 Y132.85 F6000.0
G01 X66.08 Y133.04 F6000.0
G01 X66.81 Y134.05 F6000.0
G01 X66.78 F6000.0
G01 X65.78 F6000.0
G01 X64.75 F6000.0
M5
G00 X66.57 Y135.11 F6000.0
M3 F6000.0
G01 X66.92 F6000.0
G01 X68.27 F6000.0
G01 Y135.07 F6000.0
G01 X68.01 F6000.0
G01 X66.01 F6000.0
G01 X64.75 F6000.0
G01 Y135.11 F6000.0
G01 X65.14 F6000.0
G01 X66.53 F6000.0
G01 Y135.34 F6000.0
G01 Y136.57 F6000.0
G01 X66.38 F6000.0
G01 X65.22 F6000.0
G01 Y136.61 F6000.0
G01 X65.38 F6000.0
G01 X66.53 F6000.0
G01 Y136.69 F6000.0
G01 Y137.78 F6000.0
G01 X66.38 F6000.0
G01 X65.22 F6000.0
G01 X65.21 Y137.75 F6000.0
G01 X64.76 Y136.81 F6000.0
G01 X64.73 Y136.83 F6000.0
G01 X65.12 Y137.59 F6000.0
G01 X65.39 Y138.48 F6000.0
G01 X65.43 Y138.47 F6000.0
G01 X65.24 Y137.82 F6000.0
G01 X65.39 F6000.0
G01 X66.53 F6000.0
G01 Y138.58 F6000.0
G01 X66.57 F6000.0
G01 Y137.82 F6000.0
G01 X66.84 F6000.0
G01 X68.1 F6000.0
G01 Y137.78 F6000.0
G01 X67.84 F6000.0
G01 X66.57 F6000.0
G01 Y137.69 F6000.0
G01 Y136.61 F6000.0
G01 X66.73 F6000.0
G01 X67.89 F6000.0
G01 Y136.57 F6000.0
G01 X67.73 F6000.0
G01 X66.57 F6000.0
G01 Y136.34 F6000.0
G01 Y135.11 F6000.0
M5
G00 X66.86 Y133.07 F6000.0
M3 F6000.0
G01 X66.88 Y133.1 F6000.0
G01 X66.89 Y133.09 F6000.0
G01 X67.63 Y132.42 F6000.0
G01 X68.38 Y131.73 F6000.0
G01 X68.34 Y131.7 F6000.0
G01 X68.33 Y131.71 F6000.0
G01 X67.6 Y132.38 F6000.0
G01 X66.86 Y133.07 F6000.0
G01 F6000.0
M5
G00 X67.38 Y130.2 F6000.0
M3 F6000.0
G01 X67.42 F6000.0
G01 X67.43 Y129.67 F6000.0
G01 X68.36 F6000.0
G01 Y129.63 F6000.0
G01 X67.43 F6000.0
G01 X67.5 Y129.15 F6000.0
G01 X67.69 Y127.68 F6000.0
G01 X67.77 Y127.89 F6000.0
G01 X68.2 Y129.04 F6000.0
G01 X68.24 Y129.03 F6000.0
G01 X68.15 Y128.79 F6000.0
G01 X67.71 Y127.62 F6000.0
G01 X67.87 Y127.03 F6000.0
G01 X68.04 Y126.66 F6000.0
G01 X68.16 Y126.54 F6000.0
G01 X68.3 Y126.77 F6000.0
G01 X68.4 Y127.47 F6000.0
G01 X68.44 F6000.0
G01 X68.33 Y126.74 F6000.0
G01 X68.16 Y126.5 F6000.0
G01 X67.93 Y126.77 F6000.0
G01 X67.67 Y127.57 F6000.0
G01 X67.11 Y126.92 F6000.0
G01 X66.45 Y126.5 F6000.0
G01 X66.44 Y126.54 F6000.0
G01 X67.11 Y126.97 F6000.0
G01 X67.65 Y127.62 F6000.0
G01 Y127.63 F6000.0
G01 X67.52 Y128.62 F6000.0
G01 X67.39 Y129.63 F6000.0
G01 X67.06 F6000.0
G01 X65.73 F6000.0
G01 Y128.65 F6000.0
G01 X65.72 Y128.56 F6000.0
G01 X65.65 Y127.48 F6000.0
G01 F6000.0
G01 X65.39 Y126.51 F6000.0
G01 X65.35 Y126.53 F6000.0
G01 X65.6 Y127.48 F6000.0
G01 X65.61 Y127.57 F6000.0
G01 X65.69 Y128.65 F6000.0
G01 Y128.66 F6000.0
G01 Y129.67 F6000.0
G01 X66.04 F6000.0
G01 X67.39 F6000.0
G01 X67.38 Y130.2 F6000.0
M5
G00 X67.62 Y130.21 F6000.0
M3 F6000.0
G01 X67.64 Y130.25 F6000.0
G01 X68.28 Y129.85 F6000.0
G01 X68.26 Y129.81 F6000.0
G01 X67.62 Y130.21 F6000.0
G01 F6000.0
M5
G00 X66.49 Y129.03 F6000.0
M3 F6000.0
G01 X66.53 F6000.0
G01 Y128.17 F6000.0
G01 X66.52 Y127.86 F6000.0
G01 X67.13 Y127.2 F6000.0
G01 X67.09 Y127.17 F6000.0
G01 X66.51 Y127.81 F6000.0
G01 X66.26 Y127.11 F6000.0
G01 X65.82 Y126.64 F6000.0
G01 X65.8 Y126.67 F6000.0
G01 X66.3 Y127.28 F6000.0
G01 X66.49 Y128.17 F6000.0
G01 Y129.03 F6000.0
M5
G00 X66.11 Y128.78 F6000.0
M3 F6000.0
G01 X66.15 F6000.0
G01 X65.97 Y127.88 F6000.0
G01 X65.93 Y127.9 F6000.0
G01 X66.11 Y128.78 F6000.0
G01 F6000.0
M5
G00 X65.98 Y129.2 F6000.0
M3 F6000.0
G01 Y129.25 F6000.0
G01 X66.08 F6000.0
G01 X67.17 F6000.0
G01 Y129.2 F6000.0
G01 X67.08 F6000.0
G01 X65.98 F6000.0
M5
G00 X66.74 Y128.03 F6000.0
M3 F6000.0
G01 X67.14 Y128.83 F6000.0
G01 X67.19 Y128.82 F6000.0
G01 X66.78 Y128.0 F6000.0
G01 X66.74 Y128.03 F6000.0
M5
G00 X64.59 Y129.05 F6000.0
M3 F6000.0
G01 X64.61 Y129.08 F6000.0
G01 X65.26 Y128.47 F6000.0
G01 X65.23 Y128.44 F6000.0
G01 X64.59 Y129.05 F6000.0
G01 F6000.0
M5
G00 X64.78 Y129.98 F6000.0
M3 F6000.0
G01 X64.8 Y130.01 F6000.0
G01 X65.39 Y129.44 F6000.0
G01 X65.36 Y129.41 F6000.0
G01 X64.78 Y129.98 F6000.0
G01 F6000.0
M5
G00 X64.72 Y126.53 F6000.0
M3 F6000.0
G01 X64.79 Y126.69 F6000.0
G01 X65.23 Y127.77 F6000.0
G01 X65.28 Y127.76 F6000.0
G01 X65.21 Y127.59 F6000.0
G01 X64.76 Y126.5 F6000.0
G01 X64.72 Y126.53 F6000.0
M5
G00 X61.22 Y125.08 F6000.0
M3 F6000.0
G01 X61.56 F6000.0
G01 X62.91 F6000.0
G01 Y125.69 F6000.0
G01 X62.56 F6000.0
G01 X61.22 F6000.0
G01 Y125.08 F6000.0
M5
G00 X61.22 Y125.03 F6000.0
M3 F6000.0
G01 Y124.4 F6000.0
G01 X61.56 F6000.0
G01 X62.91 F6000.0
G01 Y125.03 F6000.0
G01 X62.56 F6000.0
G01 X61.22 F6000.0
M5
G00 X60.99 Y125.31 F6000.0
M3 F6000.0
G01 Y125.27 F6000.0
G01 X60.29 F6000.0
G01 X60.35 Y125.2 F6000.0
G01 X61.01 Y124.34 F6000.0
G01 X60.98 Y124.32 F6000.0
G01 X60.93 Y124.38 F6000.0
G01 X60.27 Y125.23 F6000.0
G01 Y124.92 F6000.0
G01 Y123.61 F6000.0
G01 X60.22 F6000.0
G01 Y123.91 F6000.0
G01 Y125.21 F6000.0
G01 X60.06 Y124.99 F6000.0
G01 X59.3 Y123.97 F6000.0
G01 X59.27 Y124.01 F6000.0
G01 X59.81 Y124.61 F6000.0
G01 X60.19 Y125.27 F6000.0
G01 X59.42 F6000.0
G01 Y125.31 F6000.0
G01 X60.22 F6000.0
G01 Y125.86 F6000.0
G01 X60.27 F6000.0
G01 Y125.31 F6000.0
G01 X60.99 F6000.0
M5
G00 X61.22 Y124.36 F6000.0
M3 F6000.0
G01 Y123.7 F6000.0
G01 X61.56 F6000.0
G01 X62.91 F6000.0
G01 Y124.36 F6000.0
G01 X62.56 F6000.0
G01 X61.22 F6000.0
M5
G00 X61.24 Y123.66 F6000.0
M3 F6000.0
G01 X61.18 F6000.0
G01 Y123.69 F6000.0
G01 Y124.69 F6000.0
G01 Y125.73 F6000.0
G01 X61.57 F6000.0
G01 X62.96 F6000.0
G01 Y125.69 F6000.0
G01 Y124.69 F6000.0
G01 Y123.66 F6000.0
G01 X62.6 F6000.0
G01 X61.24 F6000.0
M5
G00 X60.93 Y123.46 F6000.0
M3 F6000.0
G01 X60.95 Y123.5 F6000.0
G01 X61.77 Y122.92 F6000.0
G01 X61.74 Y122.89 F6000.0
G01 X60.93 Y123.46 F6000.0
G01 F6000.0
M5
G00 X60.46 Y123.38 F6000.0
M3 F6000.0
G01 X60.5 F6000.0
G01 Y122.77 F6000.0
G01 Y122.59 F6000.0
G01 X60.51 Y122.47 F6000.0
G01 X60.53 Y122.38 F6000.0
G01 X60.59 Y122.34 F6000.0
G01 X60.67 Y122.32 F6000.0
G01 X60.78 Y122.3 F6000.0
G01 X61.3 Y122.28 F6000.0
G01 X61.83 Y122.3 F6000.0
G01 X62.03 Y122.32 F6000.0
G01 X62.16 Y122.36 F6000.0
G01 X62.25 Y122.42 F6000.0
G01 X62.3 Y122.54 F6000.0
G01 X62.34 Y122.7 F6000.0
G01 X62.36 Y122.94 F6000.0
G01 X62.41 F6000.0
G01 X62.38 Y122.69 F6000.0
G01 X62.34 Y122.5 F6000.0
G01 X62.28 Y122.38 F6000.0
G01 X62.19 Y122.33 F6000.0
G01 X62.05 Y122.28 F6000.0
G01 X61.84 Y122.26 F6000.0
G01 X61.3 Y122.24 F6000.0
G01 X60.77 Y122.26 F6000.0
G01 X60.5 Y122.36 F6000.0
G01 X60.46 Y122.77 F6000.0
G01 Y123.38 F6000.0
M5
G00 X59.34 Y122.38 F6000.0
M3 F6000.0
G01 X59.35 Y122.4 F6000.0
G01 X59.9 Y123.27 F6000.0
G01 X59.94 Y123.25 F6000.0
G01 X59.92 Y123.22 F6000.0
G01 X59.36 Y122.35 F6000.0
G01 X59.34 Y122.38 F6000.0
M5
G00 X59.32 Y120.7 F6000.0
M3 F6000.0
G01 X59.93 Y121.14 F6000.0
G01 X60.37 Y121.64 F6000.0
G01 X60.4 Y121.62 F6000.0
G01 X59.96 Y121.1 F6000.0
G01 X59.34 Y120.66 F6000.0
G01 X59.32 Y120.7 F6000.0
M5
G00 X59.89 Y120.05 F6000.0
M3 F6000.0
G01 Y120.0 F6000.0
G01 Y119.0 F6000.0
G01 Y117.94 F6000.0
G01 X59.84 F6000.0
G01 Y117.98 F6000.0
G01 Y118.98 F6000.0
G01 Y120.01 F6000.0
G01 X59.3 Y119.57 F6000.0
G01 X59.28 Y119.61 F6000.0
G01 X59.89 Y120.11 F6000.0
G01 X60.32 Y120.71 F6000.0
G01 X60.36 Y120.69 F6000.0
G01 X59.89 Y120.05 F6000.0
G01 F6000.0
M5
G00 X60.77 Y121.41 F6000.0
M3 F6000.0
G01 Y121.46 F6000.0
G01 X60.83 F6000.0
G01 X61.83 F6000.0
G01 X62.89 F6000.0
G01 Y121.41 F6000.0
G01 X62.83 F6000.0
G01 X61.83 F6000.0
G01 X60.77 F6000.0
M5
G00 X63.1 Y120.36 F6000.0
M3 F6000.0
G01 Y120.32 F6000.0
G01 X62.34 F6000.0
G01 Y119.84 F6000.0
G01 Y118.37 F6000.0
G01 X62.28 Y118.07 F6000.0
G01 X62.0 Y118.0 F6000.0
G01 X61.41 Y118.03 F6000.0
G01 Y118.07 F6000.0
G01 X62.0 Y118.05 F6000.0
G01 X62.25 Y118.1 F6000.0
G01 X62.3 Y118.37 F6000.0
G01 Y118.84 F6000.0
G01 Y120.32 F6000.0
G01 X61.93 F6000.0
G01 X60.56 F6000.0
G01 Y120.36 F6000.0
G01 X60.83 F6000.0
G01 X61.83 F6000.0
G01 X63.1 F6000.0
M5
G00 X64.75 Y121.35 F6000.0
M3 F6000.0
G01 Y121.39 F6000.0
G01 X65.01 F6000.0
G01 X67.01 F6000.0
G01 X68.27 F6000.0
G01 Y121.35 F6000.0
G01 X68.07 F6000.0
G01 X66.86 F6000.0
G01 X66.53 Y120.81 F6000.0
G01 Y120.41 F6000.0
G01 Y119.41 F6000.0
G01 Y118.0 F6000.0
G01 X66.49 F6000.0
G01 Y118.38 F6000.0
G01 Y119.38 F6000.0
G01 Y120.75 F6000.0
G01 X66.42 Y120.67 F6000.0
G01 X65.7 Y119.85 F6000.0
G01 X65.57 Y119.74 F6000.0
G01 X64.68 Y119.0 F6000.0
G01 X64.65 Y119.03 F6000.0
G01 X64.92 Y119.26 F6000.0
G01 X65.93 Y120.15 F6000.0
G01 X66.08 Y120.34 F6000.0
G01 X66.81 Y121.35 F6000.0
G01 X66.78 F6000.0
G01 X65.78 F6000.0
G01 X64.75 F6000.0
M5
G00 X66.86 Y120.37 F6000.0
M3 F6000.0
G01 X66.88 Y120.4 F6000.0
G01 X66.89 Y120.39 F6000.0
G01 X67.63 Y119.72 F6000.0
G01 X68.38 Y119.03 F6000.0
G01 X68.34 Y119.0 F6000.0
G01 X68.33 Y119.01 F6000.0
G01 X67.6 Y119.69 F6000.0
G01 X66.86 Y120.37 F6000.0
G01 F6000.0
M5
G00 X69.98 Y118.9 F6000.0
M3 F6000.0
G01 X70.35 Y119.64 F6000.0
G01 X70.59 Y120.49 F6000.0
G01 X70.64 Y120.48 F6000.0
G01 X70.39 Y119.62 F6000.0
G01 X70.01 Y118.88 F6000.0
G01 X69.98 Y118.9 F6000.0
M5
G00 X69.91 Y116.51 F6000.0
M3 F6000.0
G01 X70.46 Y116.94 F6000.0
G01 X70.86 Y117.45 F6000.0
G01 X70.9 Y117.43 F6000.0
G01 X70.5 Y116.92 F6000.0
G01 X69.93 Y116.48 F6000.0
G01 X69.91 Y116.51 F6000.0
M5
G00 X70.47 Y115.96 F6000.0
M3 F6000.0
G01 Y115.83 F6000.0
G01 Y114.83 F6000.0
G01 Y113.71 F6000.0
G01 X70.43 F6000.0
G01 Y113.81 F6000.0
G01 Y114.81 F6000.0
G01 Y115.91 F6000.0
G01 X69.89 Y115.42 F6000.0
G01 X69.86 Y115.45 F6000.0
G01 X70.42 Y115.96 F6000.0
G01 X70.82 Y116.56 F6000.0
G01 X70.86 Y116.54 F6000.0
G01 X70.47 Y115.96 F6000.0
G01 F6000.0
M5
G00 X70.89 Y116.22 F6000.0
M3 F6000.0
G01 X71.31 Y116.8 F6000.0
G01 X71.61 Y117.49 F6000.0
G01 X71.65 Y117.48 F6000.0
G01 X71.5 Y117.1 F6000.0
G01 X71.57 F6000.0
G01 X72.57 F6000.0
G01 X73.65 F6000.0
G01 Y117.05 F6000.0
G01 X73.57 F6000.0
G01 X72.57 F6000.0
G01 X71.48 F6000.0
G01 X71.47 Y117.04 F6000.0
G01 X70.92 Y116.19 F6000.0
G01 X70.89 Y116.22 F6000.0
M5
G00 X71.4 Y116.1 F6000.0
M3 F6000.0
G01 X71.42 F6000.0
G01 X72.42 F6000.0
G01 X73.43 F6000.0
G01 Y116.63 F6000.0
G01 X73.42 F6000.0
G01 X72.42 F6000.0
G01 X71.4 F6000.0
G01 Y116.1 F6000.0
M5
G00 X71.4 Y116.06 F6000.0
M3 F6000.0
G01 Y115.49 F6000.0
G01 X71.42 F6000.0
G01 X72.42 F6000.0
G01 X73.43 F6000.0
G01 Y116.06 F6000.0
G01 X73.42 F6000.0
G01 X72.42 F6000.0
G01 X71.4 F6000.0
M5
G00 X72.49 Y114.33 F6000.0
M3 F6000.0
G01 X72.53 Y114.37 F6000.0
G01 X73.33 Y115.06 F6000.0
G01 X72.99 F6000.0
G01 X71.66 F6000.0
G01 X71.63 Y115.03 F6000.0
G01 X71.67 Y115.0 F6000.0
G01 X72.49 Y114.33 F6000.0
G01 F6000.0
M5
G00 X72.53 Y114.31 F6000.0
M3 F6000.0
G01 X72.65 Y114.25 F6000.0
G01 X73.7 Y113.8 F6000.0
G01 X73.68 Y113.75 F6000.0
G01 X73.54 Y113.82 F6000.0
G01 X72.48 Y114.28 F6000.0
G01 X72.17 Y114.17 F6000.0
G01 X70.9 Y113.75 F6000.0
G01 X70.89 Y113.8 F6000.0
G01 X71.19 Y113.9 F6000.0
G01 X72.44 Y114.31 F6000.0
G01 X72.41 Y114.34 F6000.0
G01 X71.6 Y115.0 F6000.0
G01 X70.98 Y114.57 F6000.0
G01 X70.97 Y114.61 F6000.0
G01 X71.5 Y114.97 F6000.0
G01 X71.92 Y115.45 F6000.0
G01 X71.42 F6000.0
G01 X71.36 F6000.0
G01 Y115.56 F6000.0
G01 Y116.67 F6000.0
G01 X71.42 F6000.0
G01 X72.42 F6000.0
G01 X73.48 F6000.0
G01 Y116.56 F6000.0
G01 Y115.45 F6000.0
G01 X73.22 F6000.0
G01 X71.96 F6000.0
G01 X71.71 Y115.11 F6000.0
G01 X72.04 F6000.0
G01 X73.37 F6000.0
G01 Y115.05 F6000.0
G01 X73.32 Y115.01 F6000.0
G01 X72.53 Y114.31 F6000.0
G01 F6000.0
M5
G00 X75.47 Y115.51 F6000.0
M3 F6000.0
G01 X75.7 F6000.0
G01 X76.92 F6000.0
G01 Y116.36 F6000.0
G01 X76.7 F6000.0
G01 X75.47 F6000.0
G01 Y115.51 F6000.0
M5
G00 X75.47 Y116.4 F6000.0
M3 F6000.0
G01 X75.7 F6000.0
G01 X76.92 F6000.0
G01 Y117.18 F6000.0
G01 X76.7 F6000.0
G01 X75.47 F6000.0
G01 Y116.4 F6000.0
M5
G00 X76.35 Y115.12 F6000.0
M3 F6000.0
G01 X76.38 Y115.15 F6000.0
G01 X76.5 Y114.98 F6000.0
G01 X77.17 Y114.0 F6000.0
G01 X77.13 Y113.97 F6000.0
G01 X76.83 Y114.44 F6000.0
G01 X76.47 Y114.34 F6000.0
G01 X75.15 Y113.94 F6000.0
G01 X75.14 Y113.99 F6000.0
G01 X75.42 Y114.05 F6000.0
G01 Y114.14 F6000.0
G01 Y116.14 F6000.0
G01 Y117.22 F6000.0
G01 X75.69 F6000.0
G01 X76.97 F6000.0
G01 Y116.84 F6000.0
G01 Y115.47 F6000.0
G01 X76.72 F6000.0
G01 X75.47 F6000.0
G01 Y115.26 F6000.0
G01 Y114.06 F6000.0
G01 X75.66 Y114.12 F6000.0
G01 X76.81 Y114.49 F6000.0
G01 X76.35 Y115.12 F6000.0
G01 F6000.0
M5
G00 X77.43 Y117.18 F6000.0
M3 F6000.0
G01 Y116.96 F6000.0
G01 Y114.96 F6000.0
G01 Y113.73 F6000.0
G01 X77.39 F6000.0
G01 Y113.98 F6000.0
G01 Y115.98 F6000.0
G01 Y117.22 F6000.0
G01 X77.6 F6000.0
G01 X78.81 F6000.0
G01 Y116.94 F6000.0
G01 Y115.94 F6000.0
G01 Y114.66 F6000.0
G01 X78.77 Y114.36 F6000.0
G01 X78.53 Y114.3 F6000.0
G01 X77.83 Y114.33 F6000.0
G01 Y114.37 F6000.0
G01 X78.53 Y114.35 F6000.0
G01 X78.74 Y114.39 F6000.0
G01 X78.77 Y114.66 F6000.0
G01 Y114.92 F6000.0
G01 Y115.92 F6000.0
G01 Y117.18 F6000.0
G01 X78.6 F6000.0
G01 X77.43 F6000.0
M5
G00 X75.74 Y119.62 F6000.0
M3 F6000.0
G01 X75.96 F6000.0
G01 X77.18 F6000.0
G01 Y119.66 F6000.0
G01 Y120.7 F6000.0
G01 X76.96 F6000.0
G01 X75.74 F6000.0
G01 Y120.66 F6000.0
G01 Y119.62 F6000.0
M5
G00 X75.21 Y120.39 F6000.0
M3 F6000.0
G01 X75.92 Y121.01 F6000.0
G01 X76.41 Y121.74 F6000.0
G01 X76.45 Y121.73 F6000.0
G01 X76.28 Y121.41 F6000.0
G01 X76.53 F6000.0
G01 X77.77 F6000.0
G01 Y121.36 F6000.0
G01 X77.25 Y120.74 F6000.0
G01 X77.44 F6000.0
G01 X78.62 F6000.0
G01 Y120.55 F6000.0
G01 Y119.36 F6000.0
G01 X78.58 F6000.0
G01 Y119.57 F6000.0
G01 X78.16 F6000.0
G01 X77.16 F6000.0
G01 X75.74 F6000.0
G01 Y118.58 F6000.0
G01 Y118.39 F6000.0
G01 X75.76 Y118.27 F6000.0
G01 X75.8 Y118.19 F6000.0
G01 X75.88 Y118.15 F6000.0
G01 X75.99 Y118.12 F6000.0
G01 X76.17 Y118.11 F6000.0
G01 X76.99 Y118.09 F6000.0
G01 X77.88 Y118.11 F6000.0
G01 X78.14 Y118.12 F6000.0
G01 X78.33 Y118.15 F6000.0
G01 X78.48 Y118.18 F6000.0
G01 X78.59 Y118.26 F6000.0
G01 X78.67 Y118.36 F6000.0
G01 X78.71 Y118.53 F6000.0
G01 X78.75 Y118.74 F6000.0
G01 X78.78 Y119.0 F6000.0
G01 X78.83 F6000.0
G01 X78.79 Y118.72 F6000.0
G01 X78.74 Y118.5 F6000.0
G01 X78.69 Y118.33 F6000.0
G01 X78.62 Y118.22 F6000.0
G01 X78.51 Y118.15 F6000.0
G01 X78.36 Y118.11 F6000.0
G01 X78.15 Y118.08 F6000.0
G01 X77.88 Y118.07 F6000.0
G01 X76.99 Y118.05 F6000.0
G01 X76.16 Y118.07 F6000.0
G01 X75.76 Y118.16 F6000.0
G01 X75.7 Y118.58 F6000.0
G01 Y118.65 F6000.0
G01 Y119.65 F6000.0
G01 Y120.72 F6000.0
G01 X75.24 Y120.35 F6000.0
G01 X75.21 Y120.39 F6000.0
M5
G00 X77.19 Y120.74 F6000.0
M3 F6000.0
G01 X77.73 Y121.37 F6000.0
G01 X77.49 F6000.0
G01 X76.25 F6000.0
G01 X75.71 Y120.74 F6000.0
G01 X75.95 F6000.0
G01 X77.19 F6000.0
M5
G00 X77.22 Y120.7 F6000.0
M3 F6000.0
G01 Y120.66 F6000.0
G01 Y119.62 F6000.0
G01 X77.4 F6000.0
G01 X78.58 F6000.0
G01 Y119.66 F6000.0
G01 Y120.7 F6000.0
G01 X78.4 F6000.0
G01 X77.22 F6000.0
M5
G00 X81.08 Y122.41 F6000.0
M3 F6000.0
G01 Y122.2 F6000.0
G01 X81.03 F6000.0
G01 Y122.59 F6000.0
G01 Y123.98 F6000.0
G01 X81.09 F6000.0
G01 X82.15 F6000.0
G01 X82.36 Y124.35 F6000.0
G01 X82.39 Y124.33 F6000.0
G01 X82.2 Y123.98 F6000.0
G01 X82.49 F6000.0
G01 X83.78 F6000.0
G01 Y123.59 F6000.0
G01 Y122.2 F6000.0
G01 X83.74 F6000.0
G01 Y122.41 F6000.0
G01 X83.41 F6000.0
G01 X82.41 F6000.0
G01 X81.08 F6000.0
M5
G00 X81.08 Y123.23 F6000.0
M3 F6000.0
G01 X81.41 F6000.0
G01 X82.41 F6000.0
G01 X83.74 F6000.0
G01 Y123.93 F6000.0
G01 X83.41 F6000.0
G01 X82.41 F6000.0
G01 X81.08 F6000.0
G01 Y123.23 F6000.0
M5
G00 X82.26 Y125.27 F6000.0
M3 F6000.0
G01 Y125.22 F6000.0
G01 X82.14 F6000.0
G01 X81.03 F6000.0
G01 Y124.35 F6000.0
G01 X81.19 Y124.38 F6000.0
G01 X82.34 Y124.61 F6000.0
G01 X82.35 Y124.57 F6000.0
G01 X81.9 Y124.49 F6000.0
G01 X80.46 Y124.23 F6000.0
G01 Y124.28 F6000.0
G01 X80.99 Y124.35 F6000.0
G01 Y124.57 F6000.0
G01 Y125.8 F6000.0
G01 X81.03 F6000.0
G01 Y125.27 F6000.0
G01 X81.14 F6000.0
G01 X82.26 F6000.0
M5
G00 X82.64 Y125.8 F6000.0
M3 F6000.0
G01 X82.68 F6000.0
G01 Y125.16 F6000.0
G01 X82.92 Y125.24 F6000.0
G01 X84.11 Y125.62 F6000.0
G01 X84.13 Y125.58 F6000.0
G01 X83.89 Y125.5 F6000.0
G01 X82.68 Y125.12 F6000.0
G01 Y124.55 F6000.0
G01 X82.72 Y124.4 F6000.0
G01 X82.92 Y124.37 F6000.0
G01 X83.32 Y124.36 F6000.0
G01 X83.72 Y124.37 F6000.0
G01 X83.87 F6000.0
G01 X83.98 Y124.41 F6000.0
G01 X84.05 Y124.47 F6000.0
G01 X84.1 Y124.59 F6000.0
G01 X84.14 Y124.78 F6000.0
G01 X84.16 Y125.04 F6000.0
G01 X84.2 Y125.03 F6000.0
G01 X84.18 Y124.83 F6000.0
G01 X84.15 Y124.66 F6000.0
G01 X84.12 Y124.53 F6000.0
G01 X84.08 Y124.45 F6000.0
G01 X84.04 Y124.39 F6000.0
G01 X83.96 Y124.36 F6000.0
G01 X83.86 Y124.33 F6000.0
G01 X83.72 Y124.32 F6000.0
G01 X83.32 Y124.31 F6000.0
G01 X82.92 Y124.32 F6000.0
G01 X82.68 Y124.36 F6000.0
G01 X82.64 Y124.55 F6000.0
G01 Y124.67 F6000.0
G01 Y125.8 F6000.0
M5
G00 X82.72 Y126.58 F6000.0
M3 F6000.0
G01 Y126.62 F6000.0
G01 Y127.66 F6000.0
G01 X82.13 F6000.0
G01 Y127.62 F6000.0
G01 Y126.58 F6000.0
G01 X82.72 F6000.0
M5
G00 X83.36 Y126.58 F6000.0
M3 F6000.0
G01 Y126.62 F6000.0
G01 Y127.66 F6000.0
G01 X82.77 F6000.0
G01 Y127.62 F6000.0
G01 Y126.58 F6000.0
G01 X83.36 F6000.0
M5
G00 X83.4 Y126.58 F6000.0
M3 F6000.0
G01 X84.0 F6000.0
G01 Y126.62 F6000.0
G01 Y127.66 F6000.0
G01 X83.4 F6000.0
G01 Y127.62 F6000.0
G01 Y126.58 F6000.0
M5
G00 X84.04 Y126.58 F6000.0
M3 F6000.0
G01 X84.27 F6000.0
G01 Y126.54 F6000.0
G01 X84.03 F6000.0
G01 X83.03 F6000.0
G01 X81.8 F6000.0
G01 Y126.58 F6000.0
G01 X82.09 F6000.0
G01 Y126.64 F6000.0
G01 Y127.7 F6000.0
G01 X82.56 F6000.0
G01 X84.04 F6000.0
G01 Y127.64 F6000.0
G01 Y126.58 F6000.0
M5
G00 X81.83 Y126.83 F6000.0
M3 F6000.0
G01 X81.63 Y127.59 F6000.0
G01 X81.67 Y127.6 F6000.0
G01 X81.87 Y126.84 F6000.0
G01 X81.83 Y126.83 F6000.0
M5
G00 X81.85 Y127.94 F6000.0
M3 F6000.0
G01 X81.31 Y127.89 F6000.0
G01 Y127.65 F6000.0
G01 Y126.41 F6000.0
G01 X81.27 F6000.0
G01 Y126.64 F6000.0
G01 Y127.88 F6000.0
G01 X80.55 Y127.83 F6000.0
G01 X80.54 Y127.87 F6000.0
G01 X80.77 Y127.89 F6000.0
G01 X81.07 Y128.25 F6000.0
G01 X80.61 Y129.01 F6000.0
G01 X80.64 Y129.03 F6000.0
G01 X80.8 Y128.78 F6000.0
G01 X81.26 Y129.47 F6000.0
G01 X81.3 Y129.45 F6000.0
G01 X80.82 Y128.74 F6000.0
G01 X81.11 Y128.29 F6000.0
