
;Inkscape Lasertools G-code
;https://github.com/ChrisWag91/Inkscape-Lasertools-Plugin

G90	;Absolute programming
G21	;Programming in millimeters (mm)
M5
M03 S1 ;Activate laser and set power to 0 (CUSTOM)

; START perimeter strategy
G01 F3000.0
M5
G00 X7.34 Y9.26 F3000.0
M3 F3000.0
G01 X7.37 Y9.31 F3000.0
G01 X7.91 Y10.23 F3000.0
G01 X8.28 Y10.14 F3000.0
G01 X8.24 Y10.01 F3000.0
G01 X8.15 Y9.83 F3000.0
G01 X8.59 F3000.0
G01 Y10.25 F3000.0
G01 X8.46 F3000.0
G01 X7.34 F3000.0
G01 Y9.26 F3000.0
M5
G00 X8. Y9.48 F3000.0
M3 F3000.0
G01 X7.82 Y9.22 F3000.0
G01 X8.59 F3000.0
G01 Y9.48 F3000.0
G01 X8.0 F3000.0
M5
G00 X8.53 Y10.87 F3000.0
M3 F3000.0
G01 X8.5 Y10.86 F3000.0
G01 X7.51 Y10.6 F3000.0
G01 X7.89 F3000.0
G01 X9.28 F3000.0
G01 X8.53 Y10.87 F3000.0
G01 F3000.0
M5
G00 X7.67 Y11.44 F3000.0
M3 F3000.0
G01 X8.51 Y11.22 F3000.0
G01 X8.88 Y11.44 F3000.0
G01 X8.77 F3000.0
G01 X7.67 F3000.0
M5
G00 X6.81 Y11.73 F3000.0
M3 F3000.0
G01 X6.79 Y11.55 F3000.0
G01 X6.74 Y11.45 F3000.0
G01 X6.34 Y10.41 F3000.0
G01 X6.36 Y10.38 F3000.0
G01 X6.79 Y9.44 F3000.0
G01 X6.26 Y8.69 F3000.0
G01 X6.04 F3000.0
G01 X5.88 Y9.1 F3000.0
G01 X6.12 F3000.0
G01 X6.34 Y9.48 F3000.0
G01 F3000.0
G01 X5.9 Y10.38 F3000.0
G01 X5.93 Y10.47 F3000.0
G01 X6.32 Y11.49 F3000.0
G01 X5.75 F3000.0
G01 Y11.27 F3000.0
G01 Y9.27 F3000.0
G01 Y8.05 F3000.0
G01 X5.37 F3000.0
G01 Y8.44 F3000.0
G01 Y10.44 F3000.0
G01 Y11.84 F3000.0
G01 X5.44 F3000.0
G01 X6.5 F3000.0
G01 X6.56 Y11.91 F3000.0
G01 X6.81 Y11.73 F3000.0
M5
G00 X7.05 Y13.14 F3000.0
M3 F3000.0
G01 X7.07 Y13.01 F3000.0
G01 Y12.66 F3000.0
G01 X7.14 F3000.0
G01 X8.22 F3000.0
G01 Y13.14 F3000.0
G01 X8.64 F3000.0
G01 X8.66 Y13.01 F3000.0
G01 Y12.66 F3000.0
G01 X8.88 F3000.0
G01 X10.09 F3000.0
G01 Y12.3 F3000.0
G01 X9.88 F3000.0
G01 X8.66 F3000.0
G01 Y12.13 F3000.0
G01 X8.57 F3000.0
G01 Y11.71 F3000.0
G01 X8.79 F3000.0
G01 X10.0 F3000.0
G01 Y11.44 F3000.0
G01 X9.28 F3000.0
G01 X9.25 Y11.29 F3000.0
G01 X8.9 Y11.09 F3000.0
G01 X9.76 Y10.8 F3000.0
G01 X9.47 Y10.6 F3000.0
G01 X10.14 F3000.0
G01 Y10.25 F3000.0
G01 X10.04 F3000.0
G01 X8.95 F3000.0
G01 X8.97 Y10.12 F3000.0
G01 Y9.83 F3000.0
G01 X8.99 F3000.0
G01 X10.0 F3000.0
G01 Y9.48 F3000.0
G01 X9.99 F3000.0
G01 X8.97 F3000.0
G01 Y9.22 F3000.0
G01 X9.89 F3000.0
G01 Y8.86 F3000.0
G01 X8.97 F3000.0
G01 Y8.49 F3000.0
G01 X9.09 F3000.0
G01 X10.2 F3000.0
G01 Y8.13 F3000.0
G01 X9.74 F3000.0
G01 X8.74 F3000.0
G01 X7.27 F3000.0
G01 Y8.49 F3000.0
G01 X7.43 F3000.0
G01 X8.59 F3000.0
G01 Y8.86 F3000.0
G01 X7.8 F3000.0
G01 Y9.17 F3000.0
G01 X7.62 Y8.97 F3000.0
G01 X7.34 Y9.17 F3000.0
G01 X7.26 Y9.03 F3000.0
G01 X6.7 Y8.03 F3000.0
G01 X6.34 Y8.31 F3000.0
G01 X6.42 Y8.46 F3000.0
G01 X6.96 Y9.5 F3000.0
G01 Y9.55 F3000.0
G01 Y10.6 F3000.0
G01 X7.23 F3000.0
G01 X7.0 Y10.82 F3000.0
G01 X7.03 Y10.83 F3000.0
G01 X8.04 Y11.0 F3000.0
G01 X7.23 Y11.18 F3000.0
G01 X7.47 Y11.44 F3000.0
G01 X6.94 F3000.0
G01 Y11.71 F3000.0
G01 X7.03 F3000.0
G01 X8.13 F3000.0
G01 Y12.13 F3000.0
G01 X8.22 F3000.0
G01 Y12.3 F3000.0
G01 X8.14 F3000.0
G01 X7.07 F3000.0
G01 Y11.97 F3000.0
G01 X6.63 F3000.0
G01 Y12.3 F3000.0
G01 X6.44 F3000.0
G01 X5.24 F3000.0
G01 Y12.66 F3000.0
G01 X5.44 F3000.0
G01 X6.63 F3000.0
G01 Y13.14 F3000.0
G01 X7.05 F3000.0
M5
G00 X6.17 Y15.75 F3000.0
M3 F3000.0
G01 X5.66 F3000.0
G01 Y15.94 F3000.0
G01 Y18.94 F3000.0
G01 Y20.14 F3000.0
G01 X5.67 F3000.0
G01 X8.67 F3000.0
G01 X9.67 F3000.0
G01 Y19.99 F3000.0
G01 Y16.99 F3000.0
G01 Y15.84 F3000.0
G01 X9.17 F3000.0
G01 Y16.1 F3000.0
G01 X8.67 F3000.0
G01 X7.67 F3000.0
G01 X6.17 F3000.0
G01 Y15.75 F3000.0
M5
G00 X9.17 Y16.59 F3000.0
M3 F3000.0
G01 Y16.62 F3000.0
G01 Y18.62 F3000.0
G01 Y19.65 F3000.0
G01 X8.67 F3000.0
G01 X7.67 F3000.0
G01 X6.17 F3000.0
G01 Y19.54 F3000.0
G01 Y18.42 F3000.0
G01 X6.49 F3000.0
G01 X7.49 F3000.0
G01 X8.81 F3000.0
G01 Y17.93 F3000.0
G01 X8.49 F3000.0
G01 X7.49 F3000.0
G01 X6.17 F3000.0
G01 Y17.76 F3000.0
G01 Y16.59 F3000.0
G01 X6.67 F3000.0
G01 X7.67 F3000.0
G01 X9.17 F3000.0
M5
G00 X11.5 Y19.65 F3000.0
M3 F3000.0
G01 X11.15 Y20.34 F3000.0
G01 X11.5 Y20.49 F3000.0
G01 X11.86 Y19.83 F3000.0
G01 X11.5 Y19.65 F3000.0
M5
G00 X13.6 Y19.63 F3000.0
M3 F3000.0
G01 X13.86 F3000.0
G01 X15.12 F3000.0
G01 Y20.01 F3000.0
G01 X14.86 F3000.0
G01 X13.6 F3000.0
G01 Y19.63 F3000.0
M5
G00 X13.6 Y18.86 F3000.0
M3 F3000.0
G01 X13.86 F3000.0
G01 X15.12 F3000.0
G01 Y19.28 F3000.0
G01 X14.86 F3000.0
G01 X13.6 F3000.0
G01 Y18.86 F3000.0
M5
G00 X13.02 Y17.49 F3000.0
M3 F3000.0
G01 X12.19 Y17.25 F3000.0
G01 Y16.94 F3000.0
G01 X11.98 Y16.61 F3000.0
G01 X11.26 Y15.42 F3000.0
G01 X11.04 Y15.77 F3000.0
G01 X11.16 Y15.96 F3000.0
G01 X11.81 Y16.99 F3000.0
G01 Y17.14 F3000.0
G01 X11.04 Y16.94 F3000.0
G01 X10.86 Y16.96 F3000.0
G01 X10.8 Y17.32 F3000.0
G01 X10.81 F3000.0
G01 X11.81 Y17.51 F3000.0
G01 Y18.13 F3000.0
G01 X11.0 F3000.0
G01 Y18.55 F3000.0
G01 X11.81 F3000.0
G01 Y19.1 F3000.0
G01 X10.86 F3000.0
G01 Y19.52 F3000.0
G01 X11.01 F3000.0
G01 X12.16 F3000.0
G01 X12.17 Y19.53 F3000.0
G01 X12.43 Y20.51 F3000.0
G01 X12.78 Y20.45 F3000.0
G01 Y20.29 F3000.0
G01 X12.49 Y19.52 F3000.0
G01 X13.02 F3000.0
G01 Y19.1 F3000.0
G01 X12.19 F3000.0
G01 Y18.55 F3000.0
G01 X12.89 F3000.0
G01 Y18.13 F3000.0
G01 X12.19 F3000.0
G01 Y17.6 F3000.0
G01 X13.02 Y17.82 F3000.0
G01 Y17.49 F3000.0
M5
G00 X13.24 Y17.14 F3000.0
M3 F3000.0
G01 X12.74 Y16.72 F3000.0
G01 X12.54 Y17.05 F3000.0
G01 X12.84 Y17.4 F3000.0
G01 X13.8 Y18.51 F3000.0
G01 X13.22 F3000.0
G01 Y18.93 F3000.0
G01 Y20.36 F3000.0
G01 X13.36 F3000.0
G01 X14.36 F3000.0
G01 X15.49 F3000.0
G01 Y19.93 F3000.0
G01 Y18.51 F3000.0
G01 X15.35 F3000.0
G01 X14.21 F3000.0
G01 X13.97 Y18.11 F3000.0
G01 X14.41 F3000.0
G01 X15.85 F3000.0
G01 Y18.09 F3000.0
G01 X15.8 Y17.09 F3000.0
G01 X15.76 Y16.06 F3000.0
G01 X15.34 Y15.51 F3000.0
G01 X14.88 F3000.0
G01 X14.81 Y15.86 F3000.0
G01 X15.21 F3000.0
G01 X15.43 Y16.1 F3000.0
G01 X15.44 Y16.43 F3000.0
G01 X15.47 Y17.76 F3000.0
G01 X14.57 F3000.0
G01 X14.52 Y17.41 F3000.0
G01 X15.14 Y16.96 F3000.0
G01 X14.92 Y16.63 F3000.0
G01 X14.44 Y17.1 F3000.0
G01 X13.91 Y16.54 F3000.0
G01 X13.75 Y16.88 F3000.0
G01 F3000.0
G01 X14.24 Y17.76 F3000.0
G01 X13.8 F3000.0
G01 X13.62 Y17.54 F3000.0
G01 Y17.49 F3000.0
G01 Y16.44 F3000.0
G01 X13.88 F3000.0
G01 X15.14 F3000.0
G01 Y16.08 F3000.0
G01 X14.88 F3000.0
G01 X13.62 F3000.0
G01 Y15.8 F3000.0
G01 X13.24 F3000.0
G01 Y15.97 F3000.0
G01 Y17.14 F3000.0
M5
G00 X16.73 Y18.02 F3000.0
M3 F3000.0
G01 X16.91 F3000.0
G01 X18.1 F3000.0
G01 Y17.6 F3000.0
G01 X17.91 F3000.0
G01 X16.73 F3000.0
G01 Y18.02 F3000.0
M5
G00 X16.73 Y18.79 F3000.0
M3 F3000.0
G01 X16.91 F3000.0
G01 X18.1 F3000.0
G01 Y18.38 F3000.0
G01 X17.91 F3000.0
G01 X16.73 F3000.0
G01 Y18.79 F3000.0
M5
G00 X16.44 Y19.61 F3000.0
M3 F3000.0
G01 X16.85 F3000.0
G01 X18.25 F3000.0
G01 Y19.19 F3000.0
G01 X17.85 F3000.0
G01 X16.44 F3000.0
G01 Y19.61 F3000.0
M5
G00 X16.73 Y20.38 F3000.0
M3 F3000.0
G01 X16.91 F3000.0
G01 X18.1 F3000.0
G01 Y19.96 F3000.0
G01 X17.91 F3000.0
G01 X16.73 F3000.0
G01 Y20.38 F3000.0
M5
G00 X18.34 Y18.77 F3000.0
M3 F3000.0
G01 X19.18 F3000.0
G01 X18.96 Y19.41 F3000.0
G01 X18.43 F3000.0
G01 Y19.83 F3000.0
G01 X18.52 F3000.0
G01 X19.62 F3000.0
G01 Y20.56 F3000.0
G01 X20.1 F3000.0
G01 X20.12 Y20.38 F3000.0
G01 Y19.83 F3000.0
G01 X20.26 F3000.0
G01 X21.4 F3000.0
G01 Y19.41 F3000.0
G01 X20.83 F3000.0
G01 X20.5 Y18.77 F3000.0
G01 X20.51 F3000.0
G01 X21.51 F3000.0
G01 Y17.91 F3000.0
G01 X21.07 F3000.0
G01 Y18.35 F3000.0
G01 X20.93 F3000.0
G01 X19.93 F3000.0
G01 X18.78 F3000.0
G01 Y17.89 F3000.0
G01 X18.34 F3000.0
G01 Y18.77 F3000.0
M5
G00 X20.12 Y17.76 F3000.0
M3 F3000.0
G01 X20.18 F3000.0
G01 X21.23 F3000.0
G01 Y17.46 F3000.0
G01 Y16.17 F3000.0
G01 X20.92 Y15.86 F3000.0
G01 X20.52 F3000.0
G01 X20.43 Y16.28 F3000.0
G01 X20.7 F3000.0
G01 X20.79 Y16.37 F3000.0
G01 Y17.34 F3000.0
G01 X20.12 F3000.0
G01 Y16.9 F3000.0
G01 Y15.47 F3000.0
G01 X19.68 F3000.0
G01 Y15.9 F3000.0
G01 Y17.34 F3000.0
G01 X19.07 F3000.0
G01 Y17.11 F3000.0
G01 Y15.88 F3000.0
G01 X18.62 F3000.0
G01 Y16.32 F3000.0
G01 Y17.76 F3000.0
G01 X18.65 F3000.0
G01 X19.68 F3000.0
G01 Y18.24 F3000.0
G01 X20.1 F3000.0
G01 X20.12 Y18.11 F3000.0
G01 Y17.76 F3000.0
M5
G00 X20.34 Y19.41 F3000.0
M3 F3000.0
G01 X19.4 F3000.0
G01 X19.59 Y18.77 F3000.0
G01 X20.08 F3000.0
G01 X20.34 Y19.41 F3000.0
M5
G00 X22.79 Y19.65 F3000.0
M3 F3000.0
G01 X22.44 Y20.34 F3000.0
G01 X22.79 Y20.49 F3000.0
G01 X23.14 Y19.83 F3000.0
G01 X22.79 Y19.65 F3000.0
M5
G00 X24.89 Y19.63 F3000.0
M3 F3000.0
G01 X25.15 F3000.0
G01 X26.41 F3000.0
G01 Y20.01 F3000.0
G01 X26.15 F3000.0
G01 X24.89 F3000.0
G01 Y19.63 F3000.0
M5
G00 X24.89 Y18.86 F3000.0
M3 F3000.0
G01 X25.15 F3000.0
G01 X26.41 F3000.0
G01 Y19.28 F3000.0
G01 X26.15 F3000.0
G01 X24.89 F3000.0
G01 Y18.86 F3000.0
M5
G00 X24.31 Y17.49 F3000.0
M3 F3000.0
G01 X23.48 Y17.25 F3000.0
G01 Y16.94 F3000.0
G01 X23.27 Y16.61 F3000.0
G01 X22.55 Y15.42 F3000.0
G01 X22.33 Y15.77 F3000.0
G01 X22.45 Y15.96 F3000.0
G01 X23.1 Y16.99 F3000.0
G01 Y17.14 F3000.0
G01 X22.33 Y16.94 F3000.0
G01 X22.15 Y16.96 F3000.0
G01 X22.09 Y17.32 F3000.0
G01 X22.1 F3000.0
G01 X23.1 Y17.51 F3000.0
G01 Y18.13 F3000.0
G01 X22.29 F3000.0
G01 Y18.55 F3000.0
G01 X23.1 F3000.0
G01 Y19.1 F3000.0
G01 X22.15 F3000.0
G01 Y19.52 F3000.0
G01 X22.3 F3000.0
G01 X23.45 F3000.0
G01 X23.46 Y19.53 F3000.0
G01 X23.72 Y20.51 F3000.0
G01 X24.07 Y20.45 F3000.0
G01 Y20.29 F3000.0
G01 X23.78 Y19.52 F3000.0
G01 X24.31 F3000.0
G01 Y19.1 F3000.0
G01 X23.48 F3000.0
G01 Y18.55 F3000.0
G01 X24.18 F3000.0
G01 Y18.13 F3000.0
G01 X23.48 F3000.0
G01 Y17.6 F3000.0
G01 X24.31 Y17.82 F3000.0
G01 Y17.49 F3000.0
M5
G00 X24.53 Y17.14 F3000.0
M3 F3000.0
G01 X24.03 Y16.72 F3000.0
G01 X23.83 Y17.05 F3000.0
G01 X24.13 Y17.4 F3000.0
G01 X25.09 Y18.51 F3000.0
G01 X24.51 F3000.0
G01 Y18.93 F3000.0
G01 Y20.36 F3000.0
G01 X24.65 F3000.0
G01 X25.65 F3000.0
G01 X26.78 F3000.0
G01 Y19.93 F3000.0
G01 Y18.51 F3000.0
G01 X26.64 F3000.0
G01 X25.5 F3000.0
G01 X25.26 Y18.11 F3000.0
G01 X25.7 F3000.0
G01 X27.14 F3000.0
G01 X27.13 Y18.09 F3000.0
G01 X27.09 Y17.09 F3000.0
G01 X27.05 Y16.06 F3000.0
G01 X26.63 Y15.51 F3000.0
G01 X26.17 F3000.0
G01 X26.1 Y15.86 F3000.0
G01 X26.5 F3000.0
G01 X26.72 Y16.1 F3000.0
G01 X26.73 Y16.43 F3000.0
G01 X26.76 Y17.76 F3000.0
G01 X25.86 F3000.0
G01 X25.81 Y17.41 F3000.0
G01 X26.43 Y16.96 F3000.0
G01 X26.21 Y16.63 F3000.0
G01 X25.72 Y17.1 F3000.0
G01 X25.2 Y16.54 F3000.0
G01 X25.04 Y16.88 F3000.0
G01 F3000.0
G01 X25.53 Y17.76 F3000.0
G01 X25.09 F3000.0
G01 X24.91 Y17.54 F3000.0
G01 Y17.49 F3000.0
G01 Y16.44 F3000.0
G01 X25.17 F3000.0
G01 X26.43 F3000.0
G01 Y16.08 F3000.0
G01 X26.17 F3000.0
G01 X24.91 F3000.0
G01 Y15.8 F3000.0
G01 X24.53 F3000.0
G01 Y15.97 F3000.0
G01 Y17.14 F3000.0
M5
G00 X28.02 Y18.02 F3000.0
M3 F3000.0
G01 X28.2 F3000.0
G01 X29.39 F3000.0
G01 Y17.6 F3000.0
G01 X29.2 F3000.0
G01 X28.02 F3000.0
G01 Y18.02 F3000.0
M5
G00 X28.02 Y18.79 F3000.0
M3 F3000.0
G01 X28.2 F3000.0
G01 X29.39 F3000.0
G01 Y18.38 F3000.0
G01 X29.2 F3000.0
G01 X28.02 F3000.0
G01 Y18.79 F3000.0
M5
G00 X27.73 Y19.61 F3000.0
M3 F3000.0
G01 X28.14 F3000.0
G01 X29.54 F3000.0
G01 Y19.19 F3000.0
G01 X29.14 F3000.0
G01 X27.73 F3000.0
G01 Y19.61 F3000.0
M5
G00 X28.02 Y20.38 F3000.0
M3 F3000.0
G01 X28.2 F3000.0
G01 X29.39 F3000.0
G01 Y19.96 F3000.0
G01 X29.2 F3000.0
G01 X28.02 F3000.0
G01 Y20.38 F3000.0
M5
G00 X29.63 Y18.77 F3000.0
M3 F3000.0
G01 X30.46 F3000.0
G01 X30.24 Y19.41 F3000.0
G01 X29.71 F3000.0
G01 Y19.83 F3000.0
G01 X29.81 F3000.0
G01 X30.91 F3000.0
G01 Y20.56 F3000.0
G01 X31.39 F3000.0
G01 X31.41 Y20.38 F3000.0
G01 Y19.83 F3000.0
G01 X31.55 F3000.0
G01 X32.69 F3000.0
G01 Y19.41 F3000.0
G01 X32.12 F3000.0
G01 X31.79 Y18.77 F3000.0
G01 X31.8 F3000.0
G01 X32.8 F3000.0
G01 Y17.91 F3000.0
G01 X32.36 F3000.0
G01 Y18.35 F3000.0
G01 X32.22 F3000.0
G01 X31.21 F3000.0
G01 X30.07 F3000.0
G01 Y17.89 F3000.0
G01 X29.63 F3000.0
G01 Y18.77 F3000.0
M5
G00 X31.41 Y17.76 F3000.0
M3 F3000.0
G01 X31.46 F3000.0
G01 X32.52 F3000.0
G01 Y17.46 F3000.0
G01 Y16.17 F3000.0
G01 X32.21 Y15.86 F3000.0
G01 X31.81 F3000.0
G01 X31.72 Y16.28 F3000.0
G01 X31.99 F3000.0
G01 X32.08 Y16.37 F3000.0
G01 Y17.34 F3000.0
G01 X31.41 F3000.0
G01 Y16.9 F3000.0
G01 Y15.47 F3000.0
G01 X30.97 F3000.0
G01 Y15.9 F3000.0
G01 Y17.34 F3000.0
G01 X30.36 F3000.0
G01 Y17.11 F3000.0
G01 Y15.88 F3000.0
G01 X29.91 F3000.0
G01 Y16.32 F3000.0
G01 Y17.76 F3000.0
G01 X29.94 F3000.0
G01 X30.97 F3000.0
G01 Y18.24 F3000.0
G01 X31.39 F3000.0
G01 X31.41 Y18.11 F3000.0
G01 Y17.76 F3000.0
M5
G00 X31.63 Y19.41 F3000.0
M3 F3000.0
G01 X30.68 F3000.0
G01 X30.88 Y18.77 F3000.0
G01 X31.37 F3000.0
G01 X31.63 Y19.41 F3000.0
M5
G00 X33.84 Y18.97 F3000.0
M3 F3000.0
G01 X34.54 Y18.35 F3000.0
G01 X34.21 Y17.98 F3000.0
G01 X33.53 Y18.6 F3000.0
G01 X33.84 Y18.97 F3000.0
M5
G00 X34.46 Y19.3 F3000.0
M3 F3000.0
G01 X33.79 Y19.92 F3000.0
G01 X34.12 Y20.29 F3000.0
G01 X34.81 Y19.7 F3000.0
G01 X34.46 Y19.3 F3000.0
M5
G00 X35.49 Y18.42 F3000.0
M3 F3000.0
G01 X36.42 F3000.0
G01 Y19.34 F3000.0
G01 X35.49 F3000.0
G01 Y18.42 F3000.0
M5
G00 X36.24 Y18. F3000.0
M3 F3000.0
G01 X36.27 Y17.94 F3000.0
G01 X36.81 Y17.03 F3000.0
G01 X36.84 Y17.08 F3000.0
G01 X37.37 Y18.0 F3000.0
G01 X37.3 F3000.0
G01 X36.24 F3000.0
M5
G00 X35.34 Y16.04 F3000.0
M3 F3000.0
G01 X35.48 Y16.12 F3000.0
G01 X36.48 Y16.72 F3000.0
G01 X36.38 Y16.92 F3000.0
G01 X35.8 Y18.0 F3000.0
G01 X35.49 F3000.0
G01 Y17.29 F3000.0
G01 X35.34 Y16.87 F3000.0
G01 X34.83 Y15.51 F3000.0
G01 X34.52 Y15.95 F3000.0
G01 X34.6 Y16.16 F3000.0
G01 X35.05 Y17.29 F3000.0
G01 Y17.53 F3000.0
G01 Y18.53 F3000.0
G01 Y19.76 F3000.0
G01 X35.23 F3000.0
G01 X36.42 F3000.0
G01 Y20.49 F3000.0
G01 X36.86 F3000.0
G01 Y20.32 F3000.0
G01 Y19.76 F3000.0
G01 X36.9 F3000.0
G01 X37.94 F3000.0
G01 X37.98 Y19.85 F3000.0
G01 X38.45 Y19.59 F3000.0
G01 X38.36 Y19.46 F3000.0
G01 X38.01 Y18.68 F3000.0
G01 X37.59 Y18.9 F3000.0
G01 X37.76 Y19.34 F3000.0
G01 X36.86 F3000.0
G01 Y18.42 F3000.0
G01 X37.54 F3000.0
G01 X37.59 Y18.53 F3000.0
G01 X37.98 Y18.29 F3000.0
G01 X37.92 Y18.16 F3000.0
G01 X37.77 Y17.88 F3000.0
G01 X37.12 Y16.74 F3000.0
G01 X37.33 Y16.63 F3000.0
G01 X38.4 Y16.04 F3000.0
G01 X38.23 Y15.53 F3000.0
G01 X37.95 Y15.7 F3000.0
G01 X36.81 Y16.39 F3000.0
G01 X36.59 Y16.25 F3000.0
G01 X35.54 Y15.55 F3000.0
G01 X35.34 Y16.04 F3000.0
M5
G00 X33.46 Y15.97 F3000.0
M3 F3000.0
G01 X33.62 Y16.26 F3000.0
G01 X34.26 Y17.43 F3000.0
G01 X34.65 Y17.19 F3000.0
G01 X34.51 Y16.89 F3000.0
G01 X33.95 Y15.69 F3000.0
G01 X33.86 Y15.57 F3000.0
G01 X33.46 Y15.97 F3000.0
M5
G00 X35.38 Y12.99 F3000.0
M3 F3000.0
G01 X35.57 Y12.85 F3000.0
G01 X36.55 Y12.1 F3000.0
G01 X36.22 Y11.66 F3000.0
G01 X36.03 Y11.81 F3000.0
G01 X35.07 Y12.59 F3000.0
G01 X35.38 Y12.99 F3000.0
M5
G00 X34.81 Y11.95 F3000.0
M3 F3000.0
G01 X35.29 F3000.0
G01 X35.32 Y11.77 F3000.0
G01 Y11.32 F3000.0
G01 Y10.32 F3000.0
G01 Y8.86 F3000.0
G01 X35.47 Y8.69 F3000.0
G01 X35.56 F3000.0
G01 X36.66 F3000.0
G01 X36.84 Y8.82 F3000.0
G01 X37.01 Y9.63 F3000.0
G01 X37.54 Y9.48 F3000.0
G01 X37.34 Y8.64 F3000.0
G01 X36.9 Y8.2 F3000.0
G01 X36.55 F3000.0
G01 X35.2 F3000.0
G01 X34.81 Y8.58 F3000.0
G01 Y8.76 F3000.0
G01 Y10.76 F3000.0
G01 Y11.95 F3000.0
M5
G00 X34.37 Y11.27 F3000.0
M3 F3000.0
G01 X34.3 Y11.16 F3000.0
G01 X34.29 Y11.07 F3000.0
G01 X34.11 Y10.09 F3000.0
G01 X33.93 Y9.02 F3000.0
G01 X33.44 Y9.19 F3000.0
G01 X33.46 Y9.31 F3000.0
G01 X33.63 Y10.3 F3000.0
G01 X33.82 Y11.4 F3000.0
G01 X34.37 Y11.27 F3000.0
M5
G00 X37.39 Y11.53 F3000.0
M3 F3000.0
G01 X37.42 Y11.47 F3000.0
G01 X37.88 Y10.58 F3000.0
G01 X38.38 Y9.63 F3000.0
G01 X37.9 Y9.37 F3000.0
G01 X37.88 Y9.4 F3000.0
G01 X37.45 Y10.31 F3000.0
G01 X37.01 Y11.24 F3000.0
G01 X37.39 Y11.53 F3000.0
M5
G00 X39.33 Y12.19 F3000.0
M3 F3000.0
G01 X39.51 Y12.06 F3000.0
G01 X39.55 Y12.15 F3000.0
G01 X40.08 Y13.12 F3000.0
G01 X40.5 Y12.88 F3000.0
G01 X40.43 Y12.76 F3000.0
G01 X40.4 Y12.71 F3000.0
G01 X39.81 Y11.82 F3000.0
G01 X40.12 Y11.55 F3000.0
G01 X40.15 Y11.59 F3000.0
G01 X40.74 Y12.46 F3000.0
G01 X41.11 Y12.21 F3000.0
G01 X41.07 Y12.1 F3000.0
G01 X40.86 Y11.84 F3000.0
G01 X40.01 Y10.8 F3000.0
G01 X40.74 Y10.85 F3000.0
G01 X40.54 Y11.2 F3000.0
G01 X40.92 Y11.35 F3000.0
G01 X40.95 Y11.29 F3000.0
G01 X41.42 Y10.34 F3000.0
G01 X40.98 Y10.16 F3000.0
G01 X40.87 Y10.49 F3000.0
G01 X40.39 Y10.45 F3000.0
G01 Y10.24 F3000.0
G01 Y9.24 F3000.0
G01 Y8.03 F3000.0
G01 X39.95 F3000.0
G01 Y8.22 F3000.0
G01 Y9.22 F3000.0
G01 Y10.41 F3000.0
G01 X39.2 Y10.38 F3000.0
G01 X39.09 Y10.32 F3000.0
G01 X38.98 Y10.8 F3000.0
G01 X39.51 F3000.0
G01 X39.86 Y11.2 F3000.0
G01 F3000.0
G01 X39.06 Y11.82 F3000.0
G01 X39.33 Y12.19 F3000.0
M5
G00 X41.31 Y10.87 F3000.0
M3 F3000.0
G01 X41.35 Y10.89 F3000.0
G01 X42.28 Y11.35 F3000.0
G01 X42.23 Y11.44 F3000.0
G01 X41.64 Y12.37 F3000.0
G01 X41.34 F3000.0
G01 Y12.79 F3000.0
G01 F3000.0
G01 X42.34 F3000.0
G01 X43.34 F3000.0
G01 X43.41 Y12.85 F3000.0
G01 X43.76 Y12.57 F3000.0
G01 X43.65 Y12.48 F3000.0
G01 X43.57 Y12.35 F3000.0
G01 X42.94 Y11.38 F3000.0
G01 X43.08 Y11.33 F3000.0
G01 X44.16 Y10.94 F3000.0
G01 X44.0 Y10.45 F3000.0
G01 X43.77 Y10.56 F3000.0
G01 X42.64 Y11.09 F3000.0
G01 X42.51 Y11.02 F3000.0
G01 X41.51 Y10.45 F3000.0
G01 X41.31 Y10.87 F3000.0
M5
G00 X40.96 Y10.01 F3000.0
M3 F3000.0
G01 X40.97 Y9.98 F3000.0
G01 X41.27 Y9.0 F3000.0
G01 X40.83 Y8.88 F3000.0
G01 X40.82 Y8.91 F3000.0
G01 X40.56 Y9.9 F3000.0
G01 X40.96 Y10.01 F3000.0
M5
G00 X39.68 Y9.77 F3000.0
M3 F3000.0
G01 X39.66 Y9.63 F3000.0
G01 X39.46 Y8.51 F3000.0
G01 X39.02 Y8.66 F3000.0
G01 X39.05 Y8.83 F3000.0
G01 X39.24 Y9.99 F3000.0
G01 X39.73 Y9.88 F3000.0
G01 X39.68 Y9.77 F3000.0
G01 F3000.0
M5
G00 X41.16 Y8.2 F3000.0
M3 F3000.0
G01 Y8.62 F3000.0
G01 X41.27 F3000.0
G01 X42.37 F3000.0
G01 Y9.57 F3000.0
G01 X41.47 F3000.0
G01 Y9.99 F3000.0
G01 X42.37 F3000.0
G01 Y10.6 F3000.0
G01 X42.79 F3000.0
G01 X42.81 Y10.47 F3000.0
G01 Y9.99 F3000.0
G01 X43.78 F3000.0
G01 Y9.57 F3000.0
G01 X42.81 F3000.0
G01 Y8.62 F3000.0
G01 X42.9 F3000.0
G01 X43.98 F3000.0
G01 Y8.2 F3000.0
G01 X43.57 F3000.0
G01 X42.57 F3000.0
G01 X41.16 F3000.0
M5
G00 X42.09 Y12.37 F3000.0
M3 F3000.0
G01 X42.61 Y11.62 F3000.0
G01 X43.12 Y12.37 F3000.0
G01 X43.1 F3000.0
G01 X42.09 F3000.0
M5
G00 X42. Y16.02 F3000.0
M3 F3000.0
G01 X42.61 F3000.0
G01 Y16.5 F3000.0
G01 X42.0 F3000.0
G01 Y16.02 F3000.0
M5
G00 X42. Y16.85 F3000.0
M3 F3000.0
G01 X42.61 F3000.0
G01 Y17.34 F3000.0
G01 X42.0 F3000.0
G01 Y16.85 F3000.0
M5
G00 X42. Y17.69 F3000.0
M3 F3000.0
G01 X42.61 F3000.0
G01 Y18.16 F3000.0
G01 X42.0 F3000.0
G01 Y17.69 F3000.0
M5
G00 X40.94 Y16.99 F3000.0
M3 F3000.0
G01 Y16.98 F3000.0
G01 X41.25 Y16.02 F3000.0
G01 X40.83 Y15.91 F3000.0
G01 F3000.0
G01 X40.54 Y16.88 F3000.0
G01 X40.94 Y16.99 F3000.0
M5
G00 X39.59 Y18.64 F3000.0
M3 F3000.0
G01 X40.12 Y19.3 F3000.0
G01 X40.45 Y19.08 F3000.0
G01 X40.39 Y18.99 F3000.0
G01 X39.88 Y18.44 F3000.0
G01 X40.17 Y18.24 F3000.0
G01 X40.76 Y18.93 F3000.0
G01 X41.07 Y18.68 F3000.0
G01 X41.03 Y18.6 F3000.0
G01 X40.88 Y18.45 F3000.0
G01 X40.03 Y17.6 F3000.0
G01 X40.74 Y17.67 F3000.0
G01 X40.52 Y17.91 F3000.0
G01 X40.78 Y18.11 F3000.0
G01 X41.38 Y17.41 F3000.0
G01 X41.07 Y17.19 F3000.0
G01 X40.94 Y17.38 F3000.0
G01 X40.34 Y17.32 F3000.0
G01 Y16.88 F3000.0
G01 Y15.44 F3000.0
G01 X39.97 F3000.0
G01 Y15.86 F3000.0
G01 Y17.27 F3000.0
G01 X39.17 Y17.21 F3000.0
G01 X39.09 Y17.14 F3000.0
G01 X39.02 Y17.58 F3000.0
G01 X39.53 Y17.6 F3000.0
G01 X39.88 Y17.93 F3000.0
G01 X39.15 Y18.46 F3000.0
G01 X39.4 Y18.77 F3000.0
G01 X39.59 Y18.64 F3000.0
M5
G00 X39.86 Y19.61 F3000.0
M3 F3000.0
G01 X40.74 F3000.0
G01 Y20.16 F3000.0
G01 X39.86 F3000.0
G01 Y19.61 F3000.0
M5
G00 X41.11 Y19.61 F3000.0
M3 F3000.0
G01 X42.0 F3000.0
G01 Y20.16 F3000.0
G01 X41.11 F3000.0
G01 Y19.61 F3000.0
M5
G00 X42.37 Y19.61 F3000.0
M3 F3000.0
G01 X43.25 F3000.0
G01 Y20.16 F3000.0
G01 X42.37 F3000.0
G01 Y19.61 F3000.0
M5
G00 X43.69 Y20.43 F3000.0
M3 F3000.0
G01 Y20.39 F3000.0
G01 Y19.34 F3000.0
G01 X43.55 F3000.0
G01 X40.55 F3000.0
G01 X39.42 F3000.0
G01 Y19.39 F3000.0
G01 Y20.43 F3000.0
G01 X39.55 F3000.0
G01 X42.55 F3000.0
G01 X43.69 F3000.0
M5
G00 X45.37 Y19.65 F3000.0
M3 F3000.0
G01 X45.02 Y20.34 F3000.0
G01 X45.37 Y20.49 F3000.0
G01 X45.72 Y19.83 F3000.0
G01 X45.37 Y19.65 F3000.0
M5
G00 X43.94 Y18.51 F3000.0
M3 F3000.0
G01 Y18.16 F3000.0
G01 X42.99 F3000.0
G01 Y17.69 F3000.0
G01 X43.72 F3000.0
G01 Y17.34 F3000.0
G01 X42.99 F3000.0
G01 Y16.85 F3000.0
G01 X43.72 F3000.0
G01 Y16.5 F3000.0
G01 X42.99 F3000.0
G01 Y16.02 F3000.0
G01 X43.04 F3000.0
G01 X44.09 F3000.0
G01 Y15.66 F3000.0
G01 X44.04 F3000.0
G01 X43.04 F3000.0
G01 X42.0 F3000.0
G01 Y15.44 F3000.0
G01 X41.62 F3000.0
G01 Y15.67 F3000.0
G01 Y16.67 F3000.0
G01 Y17.89 F3000.0
G01 X41.42 Y17.63 F3000.0
G01 X41.18 Y17.96 F3000.0
G01 X41.29 Y18.15 F3000.0
G01 X41.89 Y19.21 F3000.0
G01 X42.26 Y19.08 F3000.0
G01 X42.2 Y18.97 F3000.0
G01 X41.97 Y18.51 F3000.0
G01 X42.53 F3000.0
G01 X42.92 Y19.26 F3000.0
G01 X43.3 Y19.08 F3000.0
G01 X43.23 Y18.97 F3000.0
G01 X42.9 Y18.51 F3000.0
G01 X42.92 F3000.0
G01 X43.94 F3000.0
M5
G00 X46.89 Y17.49 F3000.0
M3 F3000.0
G01 X46.05 Y17.25 F3000.0
G01 Y16.94 F3000.0
G01 X45.85 Y16.61 F3000.0
G01 X45.13 Y15.42 F3000.0
G01 X44.91 Y15.77 F3000.0
G01 X45.02 Y15.96 F3000.0
G01 X45.68 Y16.99 F3000.0
G01 Y17.14 F3000.0
G01 X44.91 Y16.94 F3000.0
G01 X44.73 Y16.96 F3000.0
G01 X44.66 Y17.32 F3000.0
G01 X44.68 F3000.0
G01 X45.68 Y17.51 F3000.0
G01 Y18.13 F3000.0
G01 X44.86 F3000.0
G01 Y18.55 F3000.0
G01 X45.68 F3000.0
G01 Y19.1 F3000.0
G01 X44.73 F3000.0
G01 Y19.52 F3000.0
G01 X44.88 F3000.0
G01 X46.03 F3000.0
G01 Y19.53 F3000.0
G01 X46.3 Y20.51 F3000.0
G01 X46.65 Y20.45 F3000.0
G01 Y20.29 F3000.0
G01 X46.36 Y19.52 F3000.0
G01 X46.89 F3000.0
G01 Y19.1 F3000.0
G01 X46.05 F3000.0
G01 Y18.55 F3000.0
G01 X46.76 F3000.0
G01 Y18.13 F3000.0
G01 X46.05 F3000.0
G01 Y17.6 F3000.0
G01 X46.89 Y17.82 F3000.0
G01 Y17.49 F3000.0
M5
G00 X47.11 Y17.14 F3000.0
M3 F3000.0
G01 X46.6 Y16.72 F3000.0
G01 X46.41 Y17.05 F3000.0
G01 X46.71 Y17.4 F3000.0
G01 X47.66 Y18.51 F3000.0
G01 X47.09 F3000.0
G01 Y18.93 F3000.0
G01 Y20.36 F3000.0
G01 X47.23 F3000.0
G01 X48.23 F3000.0
G01 X49.36 F3000.0
G01 Y19.93 F3000.0
G01 Y18.51 F3000.0
G01 X49.22 F3000.0
G01 X48.08 F3000.0
G01 X47.84 Y18.11 F3000.0
G01 X48.28 F3000.0
G01 X49.71 F3000.0
G01 Y18.09 F3000.0
G01 X49.67 Y17.09 F3000.0
G01 X49.62 Y16.06 F3000.0
G01 X49.21 Y15.51 F3000.0
G01 X48.74 F3000.0
G01 X48.68 Y15.86 F3000.0
G01 X49.07 F3000.0
G01 X49.29 Y16.1 F3000.0
G01 X49.3 Y16.43 F3000.0
G01 X49.34 Y17.76 F3000.0
G01 X48.44 F3000.0
G01 X48.39 Y17.41 F3000.0
G01 X49.01 Y16.96 F3000.0
G01 X48.79 Y16.63 F3000.0
G01 X48.3 Y17.1 F3000.0
G01 X47.77 Y16.54 F3000.0
G01 X47.62 Y16.88 F3000.0
G01 F3000.0
G01 X48.1 Y17.76 F3000.0
G01 X47.66 F3000.0
G01 X47.49 Y17.54 F3000.0
G01 Y17.49 F3000.0
G01 Y16.44 F3000.0
G01 X47.75 F3000.0
G01 X49.01 F3000.0
G01 Y16.08 F3000.0
G01 X48.75 F3000.0
G01 X47.49 F3000.0
G01 Y15.79 F3000.0
G01 X47.11 F3000.0
G01 Y15.97 F3000.0
G01 Y17.14 F3000.0
M5
G00 X47.46 Y18.86 F3000.0
M3 F3000.0
G01 X47.73 F3000.0
G01 X48.99 F3000.0
G01 Y19.28 F3000.0
G01 X48.73 F3000.0
G01 X47.46 F3000.0
G01 Y18.86 F3000.0
M5
G00 X47.46 Y19.63 F3000.0
M3 F3000.0
G01 X47.73 F3000.0
G01 X48.99 F3000.0
G01 Y20.01 F3000.0
G01 X48.73 F3000.0
G01 X47.46 F3000.0
G01 Y19.63 F3000.0
M5
G00 X50.31 Y19.61 F3000.0
M3 F3000.0
G01 X50.71 F3000.0
G01 X52.12 F3000.0
G01 Y19.19 F3000.0
G01 X51.71 F3000.0
G01 X50.31 F3000.0
G01 Y19.61 F3000.0
M5
G00 X50.59 Y20.38 F3000.0
M3 F3000.0
G01 X50.78 F3000.0
G01 X51.96 F3000.0
G01 Y19.96 F3000.0
G01 X51.78 F3000.0
G01 X50.59 F3000.0
G01 Y20.38 F3000.0
M5
G00 X50.59 Y18.79 F3000.0
M3 F3000.0
G01 X50.78 F3000.0
G01 X51.96 F3000.0
G01 Y18.38 F3000.0
G01 X51.78 F3000.0
G01 X50.59 F3000.0
G01 Y18.79 F3000.0
M5
G00 X50.59 Y18.02 F3000.0
M3 F3000.0
G01 X50.78 F3000.0
G01 X51.96 F3000.0
G01 Y17.6 F3000.0
G01 X51.78 F3000.0
G01 X50.59 F3000.0
G01 Y18.02 F3000.0
M5
G00 X50.88 Y16.9 F3000.0
M3 F3000.0
G01 Y16.06 F3000.0
G01 X51.65 F3000.0
G01 Y16.9 F3000.0
G01 X50.88 F3000.0
M5
G00 X51.65 Y15.71 F3000.0
M3 F3000.0
G01 X50.88 F3000.0
G01 Y15.51 F3000.0
G01 X50.51 F3000.0
G01 Y15.88 F3000.0
G01 Y17.25 F3000.0
G01 X50.77 F3000.0
G01 X52.03 F3000.0
G01 Y16.9 F3000.0
G01 Y15.55 F3000.0
G01 X51.65 F3000.0
G01 Y15.71 F3000.0
M5
G00 X53.99 Y17.76 F3000.0
M3 F3000.0
G01 X54.04 F3000.0
G01 X55.09 F3000.0
G01 Y17.46 F3000.0
G01 Y16.17 F3000.0
G01 X54.78 Y15.86 F3000.0
G01 X54.39 F3000.0
G01 X54.3 Y16.28 F3000.0
G01 X54.56 F3000.0
G01 X54.65 Y16.37 F3000.0
G01 Y17.34 F3000.0
G01 X53.99 F3000.0
G01 Y16.9 F3000.0
G01 Y15.47 F3000.0
G01 X53.55 F3000.0
G01 Y15.9 F3000.0
G01 Y17.34 F3000.0
G01 X52.93 F3000.0
G01 Y17.11 F3000.0
G01 Y15.88 F3000.0
G01 X52.49 F3000.0
G01 Y16.32 F3000.0
G01 Y17.76 F3000.0
G01 X52.52 F3000.0
G01 X53.55 F3000.0
G01 Y18.24 F3000.0
G01 X53.97 F3000.0
G01 X53.99 Y18.11 F3000.0
G01 Y17.76 F3000.0
M5
G00 X54.21 Y19.41 F3000.0
M3 F3000.0
G01 X53.26 F3000.0
G01 X53.46 Y18.77 F3000.0
G01 X53.95 F3000.0
G01 X54.21 Y19.41 F3000.0
M5
G00 X52.2 Y18.77 F3000.0
M3 F3000.0
G01 X53.04 F3000.0
G01 X52.82 Y19.41 F3000.0
G01 X52.29 F3000.0
G01 Y19.83 F3000.0
G01 X52.39 F3000.0
G01 X53.48 F3000.0
G01 Y20.56 F3000.0
G01 X53.97 F3000.0
G01 X53.99 Y20.38 F3000.0
G01 Y19.83 F3000.0
G01 X54.13 F3000.0
G01 X55.27 F3000.0
G01 Y19.41 F3000.0
G01 X54.7 F3000.0
G01 X54.37 Y18.77 F3000.0
G01 F3000.0
G01 X55.38 F3000.0
G01 Y17.91 F3000.0
G01 X54.94 F3000.0
G01 Y18.35 F3000.0
G01 X54.79 F3000.0
G01 X53.79 F3000.0
G01 X52.65 F3000.0
G01 Y17.89 F3000.0
G01 X52.2 F3000.0
G01 Y18.77 F3000.0
M5
G00 X56.42 Y18.97 F3000.0
M3 F3000.0
G01 X57.12 Y18.35 F3000.0
G01 X56.79 Y17.98 F3000.0
G01 X56.11 Y18.6 F3000.0
G01 X56.42 Y18.97 F3000.0
M5
G00 X57.03 Y19.3 F3000.0
M3 F3000.0
G01 X56.37 Y19.92 F3000.0
G01 X56.7 Y20.29 F3000.0
G01 X57.39 Y19.7 F3000.0
G01 X57.03 Y19.3 F3000.0
M5
G00 X58.07 Y18.42 F3000.0
M3 F3000.0
G01 X59.0 F3000.0
G01 Y19.34 F3000.0
G01 X58.07 F3000.0
G01 Y18.42 F3000.0
M5
G00 X58.82 Y18. F3000.0
M3 F3000.0
G01 X58.85 Y17.94 F3000.0
G01 X59.39 Y17.03 F3000.0
G01 X59.42 Y17.08 F3000.0
G01 X59.94 Y18.0 F3000.0
G01 X59.88 F3000.0
G01 X58.82 F3000.0
M5
G00 X57.91 Y16.04 F3000.0
M3 F3000.0
G01 X58.06 Y16.12 F3000.0
G01 X59.06 Y16.72 F3000.0
G01 X58.96 Y16.92 F3000.0
G01 X58.38 Y18.0 F3000.0
G01 X58.07 F3000.0
G01 Y17.29 F3000.0
G01 X57.91 Y16.87 F3000.0
G01 X57.41 Y15.51 F3000.0
G01 X57.1 Y15.95 F3000.0
G01 X57.18 Y16.16 F3000.0
G01 X57.63 Y17.29 F3000.0
G01 Y17.53 F3000.0
G01 Y18.53 F3000.0
G01 Y19.76 F3000.0
G01 X57.81 F3000.0
G01 X59.0 F3000.0
G01 Y20.49 F3000.0
G01 X59.44 F3000.0
G01 Y20.31 F3000.0
G01 Y19.76 F3000.0
G01 X59.48 F3000.0
G01 X60.52 F3000.0
G01 X60.56 Y19.85 F3000.0
G01 X61.02 Y19.59 F3000.0
G01 X60.94 Y19.46 F3000.0
G01 X60.58 Y18.68 F3000.0
G01 X60.16 Y18.9 F3000.0
G01 X60.34 Y19.34 F3000.0
G01 X59.44 F3000.0
G01 Y18.42 F3000.0
G01 X60.12 F3000.0
G01 X60.16 Y18.53 F3000.0
G01 X60.56 Y18.29 F3000.0
G01 X60.49 Y18.16 F3000.0
G01 X60.34 Y17.88 F3000.0
G01 X59.7 Y16.74 F3000.0
G01 X59.9 Y16.63 F3000.0
G01 X60.98 Y16.04 F3000.0
G01 X60.8 Y15.53 F3000.0
G01 X60.52 Y15.7 F3000.0
G01 X59.39 Y16.39 F3000.0
G01 X59.17 Y16.25 F3000.0
G01 X58.11 Y15.55 F3000.0
G01 X57.91 Y16.04 F3000.0
M5
G00 X56.04 Y15.97 F3000.0
M3 F3000.0
G01 X56.2 Y16.26 F3000.0
G01 X56.84 Y17.43 F3000.0
G01 X57.23 Y17.19 F3000.0
G01 X57.09 Y16.89 F3000.0
G01 X56.53 Y15.69 F3000.0
G01 X56.44 Y15.57 F3000.0
G01 X56.04 Y15.97 F3000.0
M5
G00 X61.69 Y15.82 F3000.0
M3 F3000.0
G01 X61.7 Y15.88 F3000.0
G01 X61.91 Y16.92 F3000.0
G01 X62.3 Y16.85 F3000.0
G01 Y16.74 F3000.0
G01 Y16.72 F3000.0
G01 X62.08 Y15.73 F3000.0
G01 X61.69 Y15.82 F3000.0
M5
G00 X63.52 Y16.99 F3000.0
M3 F3000.0
G01 Y16.98 F3000.0
G01 X63.83 Y16.02 F3000.0
G01 X63.41 Y15.91 F3000.0
G01 X63.4 F3000.0
G01 X63.12 Y16.88 F3000.0
G01 X63.52 Y16.99 F3000.0
M5
G00 X64.57 Y16.85 F3000.0
M3 F3000.0
G01 X65.19 F3000.0
G01 Y17.34 F3000.0
G01 X64.57 F3000.0
G01 Y16.85 F3000.0
M5
G00 X64.57 Y17.69 F3000.0
M3 F3000.0
G01 X65.19 F3000.0
G01 Y18.16 F3000.0
G01 X64.57 F3000.0
G01 Y17.69 F3000.0
M5
G00 X64.57 Y16.02 F3000.0
M3 F3000.0
G01 X65.19 F3000.0
G01 Y16.5 F3000.0
G01 X64.57 F3000.0
G01 Y16.02 F3000.0
M5
G00 X66.51 Y18.51 F3000.0
M3 F3000.0
G01 Y18.16 F3000.0
G01 X65.57 F3000.0
G01 Y17.69 F3000.0
G01 X66.29 F3000.0
G01 Y17.34 F3000.0
G01 X65.57 F3000.0
G01 Y16.85 F3000.0
G01 X66.29 F3000.0
G01 Y16.5 F3000.0
G01 X65.57 F3000.0
G01 Y16.02 F3000.0
G01 X65.62 F3000.0
G01 X66.67 F3000.0
G01 Y15.66 F3000.0
G01 X66.62 F3000.0
G01 X65.62 F3000.0
G01 X64.57 F3000.0
G01 Y15.44 F3000.0
G01 X64.2 F3000.0
G01 Y15.67 F3000.0
G01 Y16.67 F3000.0
G01 Y17.89 F3000.0
G01 X64.0 Y17.62 F3000.0
G01 X63.76 Y17.96 F3000.0
G01 X63.87 Y18.15 F3000.0
G01 X64.46 Y19.21 F3000.0
G01 X64.84 Y19.08 F3000.0
G01 X64.77 Y18.97 F3000.0
G01 X64.55 Y18.51 F3000.0
G01 X65.1 F3000.0
G01 X65.5 Y19.26 F3000.0
G01 X65.88 Y19.08 F3000.0
G01 X65.81 Y18.97 F3000.0
G01 X65.48 Y18.51 F3000.0
G01 X65.5 F3000.0
G01 X66.51 F3000.0
M5
G00 X67.13 Y18.16 F3000.0
M3 F3000.0
G01 X67.25 Y18.42 F3000.0
G01 X67.67 Y19.32 F3000.0
G01 X68.21 Y20.49 F3000.0
G01 X68.61 Y20.38 F3000.0
G01 X68.59 Y20.27 F3000.0
G01 X68.55 Y20.13 F3000.0
G01 X68.21 Y19.04 F3000.0
G01 X68.28 Y19.01 F3000.0
G01 X68.23 Y18.88 F3000.0
G01 Y18.67 F3000.0
G01 Y16.67 F3000.0
G01 Y15.47 F3000.0
G01 X67.79 F3000.0
G01 Y15.87 F3000.0
G01 Y16.87 F3000.0
G01 Y18.26 F3000.0
G01 X67.37 Y17.71 F3000.0
G01 X67.13 Y18.16 F3000.0
M5
G00 X69.16 Y18.24 F3000.0
M3 F3000.0
G01 X69.18 F3000.0
G01 X70.2 F3000.0
G01 Y18.71 F3000.0
G01 X70.18 F3000.0
G01 X69.16 F3000.0
G01 Y18.24 F3000.0
M5
G00 X69.16 Y19.06 F3000.0
M3 F3000.0
G01 X69.18 F3000.0
G01 X70.2 F3000.0
G01 Y19.46 F3000.0
G01 X70.18 F3000.0
G01 X69.16 F3000.0
G01 Y19.06 F3000.0
M5
G00 X70.64 Y19.46 F3000.0
M3 F3000.0
G01 Y19.06 F3000.0
G01 X70.66 F3000.0
G01 X71.67 F3000.0
G01 Y19.46 F3000.0
G01 X71.66 F3000.0
G01 X70.64 F3000.0
M5
G00 X70.64 Y18.24 F3000.0
M3 F3000.0
G01 X70.66 F3000.0
G01 X71.67 F3000.0
G01 Y18.71 F3000.0
G01 X71.66 F3000.0
G01 X70.64 F3000.0
G01 Y18.24 F3000.0
M5
G00 X69.49 Y17.23 F3000.0
M3 F3000.0
G01 Y16.79 F3000.0
G01 X69.93 F3000.0
G01 X71.36 F3000.0
G01 Y17.23 F3000.0
G01 X70.93 F3000.0
G01 X69.49 F3000.0
M5
G00 X69.49 Y16.44 F3000.0
M3 F3000.0
G01 Y15.99 F3000.0
G01 X69.93 F3000.0
G01 X71.36 F3000.0
G01 Y16.44 F3000.0
G01 X70.93 F3000.0
G01 X69.49 F3000.0
M5
G00 X71.36 Y15.49 F3000.0
M3 F3000.0
G01 Y15.64 F3000.0
G01 X70.93 F3000.0
G01 X69.49 F3000.0
G01 Y15.44 F3000.0
G01 X69.05 F3000.0
G01 Y15.51 F3000.0
G01 Y16.51 F3000.0
G01 Y17.58 F3000.0
G01 X69.43 F3000.0
G01 X70.43 F3000.0
G01 X71.81 F3000.0
G01 Y17.53 F3000.0
G01 Y16.53 F3000.0
G01 Y15.49 F3000.0
G01 X71.36 F3000.0
M5
G00 X75.11 Y17.49 F3000.0
M3 F3000.0
G01 X74.28 Y17.25 F3000.0
G01 Y16.94 F3000.0
G01 X74.07 Y16.61 F3000.0
G01 X73.35 Y15.42 F3000.0
G01 X73.13 Y15.77 F3000.0
G01 X73.25 Y15.96 F3000.0
G01 X73.9 Y16.99 F3000.0
G01 Y17.14 F3000.0
G01 X73.13 Y16.94 F3000.0
G01 X72.95 Y16.96 F3000.0
G01 X72.89 Y17.32 F3000.0
G01 X72.9 F3000.0
G01 X73.9 Y17.51 F3000.0
G01 Y18.13 F3000.0
G01 X73.08 F3000.0
G01 Y18.55 F3000.0
G01 X73.9 F3000.0
G01 Y19.1 F3000.0
G01 X72.95 F3000.0
G01 Y19.52 F3000.0
G01 X73.1 F3000.0
G01 X74.25 F3000.0
G01 X74.26 Y19.53 F3000.0
G01 X74.52 Y20.51 F3000.0
G01 X74.87 Y20.45 F3000.0
G01 Y20.29 F3000.0
G01 X74.58 Y19.52 F3000.0
G01 X75.11 F3000.0
G01 Y19.1 F3000.0
G01 X74.28 F3000.0
G01 Y18.55 F3000.0
G01 X74.98 F3000.0
G01 Y18.13 F3000.0
G01 X74.28 F3000.0
G01 Y17.6 F3000.0
G01 X75.11 Y17.82 F3000.0
G01 Y17.49 F3000.0
M5
G00 X75.33 Y17.14 F3000.0
M3 F3000.0
G01 X74.83 Y16.72 F3000.0
G01 X74.63 Y17.05 F3000.0
G01 X74.93 Y17.4 F3000.0
G01 X75.89 Y18.51 F3000.0
G01 X75.31 F3000.0
G01 Y18.93 F3000.0
G01 Y20.36 F3000.0
G01 X75.45 F3000.0
G01 X76.45 F3000.0
G01 X77.58 F3000.0
G01 Y19.93 F3000.0
G01 Y18.51 F3000.0
G01 X77.44 F3000.0
G01 X76.3 F3000.0
G01 X76.06 Y18.11 F3000.0
G01 X76.5 F3000.0
G01 X77.94 F3000.0
G01 X77.93 Y18.09 F3000.0
G01 X77.89 Y17.09 F3000.0
G01 X77.85 Y16.06 F3000.0
G01 X77.43 Y15.51 F3000.0
G01 X76.97 F3000.0
G01 X76.9 Y15.86 F3000.0
G01 X77.3 F3000.0
G01 X77.52 Y16.1 F3000.0
G01 X77.53 Y16.43 F3000.0
G01 X77.56 Y17.76 F3000.0
G01 X76.66 F3000.0
G01 X76.61 Y17.41 F3000.0
G01 X77.23 Y16.96 F3000.0
G01 X77.01 Y16.63 F3000.0
G01 X76.53 Y17.1 F3000.0
G01 X76.0 Y16.54 F3000.0
G01 X75.84 Y16.88 F3000.0
G01 F3000.0
G01 X76.33 Y17.76 F3000.0
G01 X75.89 F3000.0
G01 X75.71 Y17.54 F3000.0
G01 Y17.49 F3000.0
G01 Y16.44 F3000.0
G01 X75.97 F3000.0
G01 X77.23 F3000.0
G01 Y16.08 F3000.0
G01 X76.97 F3000.0
G01 X75.71 F3000.0
G01 Y15.79 F3000.0
G01 X75.33 F3000.0
G01 Y15.97 F3000.0
G01 Y17.14 F3000.0
M5
G00 X75.69 Y18.86 F3000.0
M3 F3000.0
G01 X75.95 F3000.0
G01 X77.21 F3000.0
G01 Y19.28 F3000.0
G01 X76.95 F3000.0
G01 X75.69 F3000.0
G01 Y18.86 F3000.0
M5
G00 X75.69 Y19.63 F3000.0
M3 F3000.0
G01 X75.95 F3000.0
G01 X77.21 F3000.0
G01 Y20.01 F3000.0
G01 X76.95 F3000.0
G01 X75.69 F3000.0
G01 Y19.63 F3000.0
M5
G00 X73.59 Y19.65 F3000.0
M3 F3000.0
G01 X73.24 Y20.34 F3000.0
G01 X73.59 Y20.49 F3000.0
G01 X73.94 Y19.83 F3000.0
G01 X73.59 Y19.65 F3000.0
M5
G00 X69.62 Y20.54 F3000.0
M3 F3000.0
G01 X70.04 Y20.03 F3000.0
G01 X69.73 Y19.81 F3000.0
G01 X69.75 F3000.0
G01 X70.77 F3000.0
G01 X70.66 Y19.87 F3000.0
G01 X71.01 Y20.58 F3000.0
G01 X71.43 Y20.38 F3000.0
G01 X71.36 Y20.27 F3000.0
G01 X71.1 Y19.81 F3000.0
G01 X71.11 F3000.0
G01 X72.11 F3000.0
G01 Y19.35 F3000.0
G01 Y17.89 F3000.0
G01 X71.92 F3000.0
G01 X69.92 F3000.0
G01 X68.72 F3000.0
G01 Y18.35 F3000.0
G01 Y19.81 F3000.0
G01 X69.6 F3000.0
G01 X69.23 Y20.29 F3000.0
G01 X69.62 Y20.54 F3000.0
M5
G00 X66.27 Y20.43 F3000.0
M3 F3000.0
G01 Y20.39 F3000.0
G01 Y19.34 F3000.0
G01 X66.13 F3000.0
G01 X63.13 F3000.0
G01 X61.99 F3000.0
G01 Y19.39 F3000.0
G01 Y20.43 F3000.0
G01 X62.13 F3000.0
G01 X65.13 F3000.0
G01 X66.27 F3000.0
M5
G00 X64.95 Y19.61 F3000.0
M3 F3000.0
G01 X65.83 F3000.0
G01 Y20.16 F3000.0
G01 X64.95 F3000.0
G01 Y19.61 F3000.0
M5
G00 X63.69 Y19.61 F3000.0
M3 F3000.0
G01 X64.57 F3000.0
G01 Y20.16 F3000.0
G01 X63.69 F3000.0
G01 Y19.61 F3000.0
M5
G00 X62.44 Y19.61 F3000.0
M3 F3000.0
G01 X63.32 F3000.0
G01 Y20.16 F3000.0
G01 X62.44 F3000.0
G01 Y19.61 F3000.0
M5
G00 X62.17 Y18.64 F3000.0
M3 F3000.0
G01 X62.7 Y19.3 F3000.0
G01 X63.03 Y19.08 F3000.0
G01 X62.97 Y18.99 F3000.0
G01 X62.46 Y18.44 F3000.0
G01 X62.74 Y18.24 F3000.0
G01 X63.34 Y18.93 F3000.0
G01 X63.65 Y18.68 F3000.0
G01 X63.6 Y18.6 F3000.0
G01 X63.46 Y18.45 F3000.0
G01 X62.61 Y17.6 F3000.0
G01 X63.32 Y17.67 F3000.0
G01 X63.1 Y17.91 F3000.0
G01 X63.36 Y18.11 F3000.0
G01 X63.96 Y17.41 F3000.0
G01 X63.65 Y17.18 F3000.0
G01 X63.52 Y17.38 F3000.0
G01 X62.92 Y17.32 F3000.0
G01 Y16.88 F3000.0
G01 Y15.44 F3000.0
G01 X62.55 F3000.0
G01 Y15.86 F3000.0
G01 Y17.27 F3000.0
G01 X61.75 Y17.21 F3000.0
G01 X61.66 Y17.14 F3000.0
G01 X61.6 Y17.58 F3000.0
G01 X62.1 Y17.6 F3000.0
G01 X62.46 Y17.93 F3000.0
G01 X61.73 Y18.46 F3000.0
G01 X61.97 Y18.77 F3000.0
G01 X62.17 Y18.64 F3000.0
M5
G00 X64.38 Y23.92 F3000.0
M3 F3000.0
G01 Y23.5 F3000.0
G01 X64.43 F3000.0
G01 X65.48 Y23.52 F3000.0
G01 X65.1 Y23.81 F3000.0
G01 X65.26 Y23.92 F3000.0
G01 X64.38 F3000.0
M5
G00 X63.94 Y24.27 F3000.0
M3 F3000.0
G01 Y24.67 F3000.0
G01 X63.88 F3000.0
G01 X62.83 F3000.0
G01 Y24.27 F3000.0
G01 X62.88 F3000.0
G01 X63.94 F3000.0
M5
G00 X63.49 Y25.33 F3000.0
M3 F3000.0
G01 X63.25 Y25.48 F3000.0
G01 X63.02 Y25.41 F3000.0
G01 X61.84 Y25.04 F3000.0
G01 X61.71 Y25.44 F3000.0
G01 X61.98 Y25.52 F3000.0
G01 X63.21 Y25.88 F3000.0
G01 Y26.78 F3000.0
G01 X63.56 F3000.0
G01 X63.58 Y26.65 F3000.0
G01 Y26.04 F3000.0
G01 X64.0 Y26.27 F3000.0
G01 X65.28 Y27.01 F3000.0
G01 X65.57 Y26.72 F3000.0
G01 X65.41 Y26.63 F3000.0
G01 F3000.0
G01 X64.53 Y26.16 F3000.0
G01 X63.65 Y25.68 F3000.0
G01 X63.81 F3000.0
G01 X64.97 F3000.0
G01 X65.1 Y25.84 F3000.0
G01 X65.15 Y26.04 F3000.0
G01 X65.54 Y25.97 F3000.0
G01 X65.46 Y25.64 F3000.0
G01 X65.1 Y25.33 F3000.0
G01 X64.38 F3000.0
G01 Y25.02 F3000.0
G01 X64.67 F3000.0
G01 X65.96 F3000.0
G01 Y24.97 F3000.0
G01 Y23.92 F3000.0
G01 X65.57 F3000.0
G01 X65.63 Y23.87 F3000.0
G01 X66.49 Y23.24 F3000.0
G01 X66.18 Y22.93 F3000.0
G01 X65.81 Y23.24 F3000.0
G01 X65.49 Y23.22 F3000.0
G01 X64.49 Y23.16 F3000.0
G01 X63.49 Y23.11 F3000.0
G01 X62.17 Y23.04 F3000.0
G01 X62.06 Y22.97 F3000.0
G01 X61.97 Y23.46 F3000.0
G01 X62.45 Y23.47 F3000.0
G01 X63.94 Y23.5 F3000.0
G01 Y23.92 F3000.0
G01 X63.88 F3000.0
G01 X62.83 F3000.0
G01 Y23.74 F3000.0
G01 X62.39 F3000.0
G01 Y23.88 F3000.0
G01 Y25.02 F3000.0
G01 X62.66 F3000.0
G01 X63.94 F3000.0
G01 Y25.33 F3000.0
G01 X63.49 F3000.0
M5
G00 X62.97 Y26.52 F3000.0
M3 F3000.0
G01 X62.88 Y26.43 F3000.0
G01 X62.87 Y26.42 F3000.0
G01 X62.15 Y25.7 F3000.0
G01 X61.88 Y26.04 F3000.0
G01 X61.9 Y26.05 F3000.0
G01 X62.59 Y26.81 F3000.0
G01 X62.97 Y26.52 F3000.0
M5
G00 X63.98 Y27.2 F3000.0
M3 F3000.0
G01 X64.42 Y26.76 F3000.0
G01 X64.09 Y26.5 F3000.0
G01 X63.69 Y26.96 F3000.0
G01 X63.98 Y27.2 F3000.0
M5
G00 X66.45 Y26.7 F3000.0
M3 F3000.0
G01 X66.07 F3000.0
G01 Y27.25 F3000.0
G01 X65.66 F3000.0
G01 X63.66 F3000.0
G01 X62.24 F3000.0
G01 Y26.63 F3000.0
G01 X61.86 F3000.0
G01 Y27.6 F3000.0
G01 X61.89 F3000.0
G01 X62.89 F3000.0
G01 X63.91 F3000.0
G01 Y28.02 F3000.0
G01 X64.33 F3000.0
G01 X64.35 Y27.89 F3000.0
G01 Y27.6 F3000.0
G01 X64.4 F3000.0
G01 X65.4 F3000.0
G01 X66.45 F3000.0
G01 Y26.7 F3000.0
M5
G00 X66.25 Y25.59 F3000.0
M3 F3000.0
G01 X66.24 Y25.61 F3000.0
G01 X65.52 Y26.32 F3000.0
G01 X65.79 Y26.65 F3000.0
G01 X65.81 Y26.64 F3000.0
G01 X66.58 Y25.97 F3000.0
G01 X66.25 Y25.59 F3000.0
M5
G00 X67.64 Y25.46 F3000.0
M3 F3000.0
G01 X67.99 Y25.58 F3000.0
G01 X69.29 Y26.01 F3000.0
G01 X68.67 Y26.54 F3000.0
G01 X67.88 Y26.15 F3000.0
G01 X67.66 Y26.56 F3000.0
G01 X67.74 Y26.63 F3000.0
G01 X68.5 Y27.28 F3000.0
G01 X69.34 Y28.0 F3000.0
G01 X69.78 Y27.87 F3000.0
G01 X69.71 Y27.76 F3000.0
G01 X69.58 Y27.56 F3000.0
G01 X69.77 F3000.0
G01 X70.97 F3000.0
G01 X71.01 Y27.67 F3000.0
G01 X71.36 Y27.4 F3000.0
G01 Y27.25 F3000.0
G01 X71.01 Y26.9 F3000.0
G01 X69.94 Y25.85 F3000.0
G01 X69.83 Y25.81 F3000.0
G01 X68.9 Y25.44 F3000.0
G01 X67.86 Y25.02 F3000.0
G01 X67.64 Y25.46 F3000.0
M5
G00 X68.04 Y24.56 F3000.0
M3 F3000.0
G01 X68.32 Y24.74 F3000.0
G01 X69.16 Y25.29 F3000.0
G01 X70.28 Y26.01 F3000.0
G01 X70.77 Y25.9 F3000.0
G01 X70.7 Y25.79 F3000.0
G01 X70.5 Y25.53 F3000.0
G01 X70.58 F3000.0
G01 X71.65 F3000.0
G01 X71.7 Y25.62 F3000.0
G01 X72.05 Y25.35 F3000.0
G01 Y25.2 F3000.0
G01 X71.95 Y25.1 F3000.0
G01 X71.22 Y24.42 F3000.0
G01 X70.39 Y23.64 F3000.0
G01 X70.1 Y23.56 F3000.0
G01 X69.14 Y23.28 F3000.0
G01 X67.88 Y22.93 F3000.0
G01 X67.75 Y23.41 F3000.0
G01 X67.84 Y23.44 F3000.0
G01 X68.82 Y23.67 F3000.0
G01 X69.89 Y23.92 F3000.0
G01 X69.25 Y24.51 F3000.0
G01 X69.22 Y24.5 F3000.0
G01 X68.26 Y24.12 F3000.0
G01 X68.04 Y24.56 F3000.0
M5
G00 X69.67 Y24.76 F3000.0
M3 F3000.0
G01 X70.37 Y24.18 F3000.0
G01 X70.51 Y24.31 F3000.0
G01 X71.39 Y25.11 F3000.0
G01 X71.26 F3000.0
G01 X70.13 F3000.0
G01 X69.67 Y24.76 F3000.0
G01 F3000.0
M5
G00 X69.73 Y26.28 F3000.0
M3 F3000.0
G01 X69.84 Y26.38 F3000.0
G01 X70.7 Y27.14 F3000.0
G01 X70.51 F3000.0
G01 X69.31 F3000.0
G01 X69.01 Y26.83 F3000.0
G01 X69.73 Y26.28 F3000.0
G01 F3000.0
M5
G00 X73.55 Y26.96 F3000.0
M3 F3000.0
G01 Y26.89 F3000.0
G01 Y25.89 F3000.0
G01 Y24.82 F3000.0
G01 X74.12 F3000.0
G01 Y24.89 F3000.0
G01 Y25.89 F3000.0
G01 Y26.96 F3000.0
G01 X73.55 F3000.0
M5
G00 X75.53 Y25.59 F3000.0
M3 F3000.0
G01 X75.25 F3000.0
G01 X74.98 F3000.0
G01 Y25.67 F3000.0
G01 Y26.67 F3000.0
G01 Y27.73 F3000.0
G01 X75.24 F3000.0
G01 X76.24 F3000.0
G01 X77.5 F3000.0
G01 Y27.67 F3000.0
G01 Y26.67 F3000.0
G01 Y25.59 F3000.0
G01 X76.88 F3000.0
G01 Y25.14 F3000.0
G01 Y23.68 F3000.0
G01 X77.01 Y23.52 F3000.0
G01 X77.36 F3000.0
G01 X77.5 Y23.7 F3000.0
G01 X77.52 Y24.21 F3000.0
G01 X77.96 Y24.05 F3000.0
G01 X77.94 Y23.54 F3000.0
G01 X77.52 Y23.1 F3000.0
G01 X76.86 F3000.0
G01 X76.44 Y23.52 F3000.0
G01 Y23.56 F3000.0
G01 Y24.56 F3000.0
G01 Y25.59 F3000.0
G01 X75.97 F3000.0
G01 Y25.18 F3000.0
G01 X75.89 Y24.93 F3000.0
G01 X75.48 Y23.73 F3000.0
G01 X75.18 Y23.56 F3000.0
G01 X74.01 Y22.88 F3000.0
G01 X73.86 Y23.32 F3000.0
G01 X74.05 Y23.43 F3000.0
G01 X75.11 Y24.0 F3000.0
G01 X75.17 Y24.17 F3000.0
G01 X75.53 Y25.29 F3000.0
G01 Y25.59 F3000.0
M5
G00 X74.56 Y24.25 F3000.0
M3 F3000.0
G01 X74.12 F3000.0
G01 Y24.47 F3000.0
G01 X73.55 F3000.0
G01 Y23.94 F3000.0
G01 X73.11 F3000.0
G01 Y24.13 F3000.0
G01 Y26.13 F3000.0
G01 Y27.31 F3000.0
G01 X73.33 F3000.0
G01 X74.56 F3000.0
G01 Y27.28 F3000.0
G01 Y25.28 F3000.0
G01 Y24.25 F3000.0
M5
G00 X77.05 Y27.31 F3000.0
M3 F3000.0
G01 X76.74 F3000.0
G01 X75.42 F3000.0
G01 Y27.17 F3000.0
G01 Y26.01 F3000.0
G01 X75.74 F3000.0
G01 X77.05 F3000.0
G01 Y26.17 F3000.0
G01 Y27.31 F3000.0
M5
G00 X80.58 Y27.27 F3000.0
M3 F3000.0
G01 X80.49 F3000.0
G01 X79.39 F3000.0
G01 Y26.63 F3000.0
G01 X79.49 F3000.0
G01 X80.58 F3000.0
G01 Y27.27 F3000.0
M5
G00 X80.58 Y26.21 F3000.0
M3 F3000.0
G01 X80.49 F3000.0
G01 X79.39 F3000.0
G01 Y25.57 F3000.0
G01 X79.49 F3000.0
G01 X80.58 F3000.0
G01 Y26.21 F3000.0
M5
G00 X80.49 Y24.98 F3000.0
M3 F3000.0
G01 X80.65 Y24.77 F3000.0
G01 X81.42 Y23.77 F3000.0
G01 X80.98 Y23.46 F3000.0
G01 X80.71 Y23.9 F3000.0
G01 X80.27 Y23.78 F3000.0
G01 X78.86 Y23.41 F3000.0
G01 X78.75 Y23.32 F3000.0
G01 X78.53 Y23.88 F3000.0
G01 X78.95 Y23.94 F3000.0
G01 Y24.31 F3000.0
G01 Y26.31 F3000.0
G01 Y27.69 F3000.0
G01 X78.99 F3000.0
G01 X79.99 F3000.0
G01 X81.02 F3000.0
G01 Y27.42 F3000.0
G01 Y26.42 F3000.0
G01 Y25.15 F3000.0
G01 X80.71 F3000.0
G01 X79.39 F3000.0
G01 Y25.08 F3000.0
G01 Y24.01 F3000.0
G01 X79.45 Y24.02 F3000.0
G01 X80.49 Y24.25 F3000.0
G01 X80.12 Y24.71 F3000.0
G01 X80.49 Y24.98 F3000.0
M5
G00 X81.99 Y27.27 F3000.0
M3 F3000.0
G01 Y27.13 F3000.0
G01 Y24.13 F3000.0
G01 Y22.99 F3000.0
G01 X81.55 F3000.0
G01 Y23.34 F3000.0
G01 Y26.34 F3000.0
G01 Y27.69 F3000.0
G01 X81.97 F3000.0
G01 X83.38 F3000.0
G01 Y27.4 F3000.0
G01 Y25.4 F3000.0
G01 Y24.12 F3000.0
G01 X83.03 Y23.77 F3000.0
G01 X82.48 F3000.0
G01 X82.37 Y24.18 F3000.0
G01 X82.85 F3000.0
G01 X82.94 Y24.27 F3000.0
G01 Y24.77 F3000.0
G01 Y25.77 F3000.0
G01 Y27.27 F3000.0
G01 X81.99 F3000.0
M5
G00 X84.2 Y27.09 F3000.0
M3 F3000.0
G01 X84.67 F3000.0
G01 X86.14 F3000.0
G01 Y26.67 F3000.0
G01 X85.67 F3000.0
G01 X84.2 F3000.0
G01 Y27.09 F3000.0
M5
G00 X85.87 Y27.45 F3000.0
M3 F3000.0
G01 X85.68 F3000.0
G01 X84.48 F3000.0
G01 Y27.87 F3000.0
G01 X84.68 F3000.0
G01 X85.87 F3000.0
G01 Y27.45 F3000.0
M5
G00 X86.93 Y27.93 F3000.0
M3 F3000.0
G01 X87.42 Y27.23 F3000.0
G01 X87.0 Y26.98 F3000.0
G01 X86.53 Y27.69 F3000.0
G01 X86.93 Y27.93 F3000.0
M5
G00 X87.83 Y27.12 F3000.0
M3 F3000.0
G01 X88.25 Y28.0 F3000.0
G01 X88.72 Y27.78 F3000.0
G01 X88.65 Y27.67 F3000.0
G01 X88.23 Y26.9 F3000.0
G01 X87.83 Y27.12 F3000.0
M5
G00 X86.89 Y26.41 F3000.0
M3 F3000.0
G01 Y25.51 F3000.0
G01 X87.21 F3000.0
G01 X88.54 F3000.0
G01 Y26.41 F3000.0
G01 X88.21 F3000.0
G01 X86.89 F3000.0
M5
G00 X85.87 Y25.9 F3000.0
M3 F3000.0
G01 X85.68 F3000.0
G01 X84.48 F3000.0
G01 Y26.32 F3000.0
G01 X84.68 F3000.0
G01 X85.87 F3000.0
G01 Y25.9 F3000.0
M5
G00 X87. Y25.09 F3000.0
M3 F3000.0
G01 X86.71 F3000.0
G01 X86.45 F3000.0
G01 Y25.46 F3000.0
G01 Y26.83 F3000.0
G01 X86.71 F3000.0
G01 X87.71 F3000.0
G01 X88.98 F3000.0
G01 Y26.46 F3000.0
G01 Y25.09 F3000.0
G01 X88.3 F3000.0
G01 Y24.9 F3000.0
G01 Y23.72 F3000.0
G01 X88.45 Y23.54 F3000.0
G01 X88.65 F3000.0
G01 X88.87 Y24.12 F3000.0
G01 X89.33 Y23.98 F3000.0
G01 X88.83 Y23.12 F3000.0
G01 X88.25 F3000.0
G01 X87.86 Y23.5 F3000.0
G01 Y23.79 F3000.0
G01 Y25.09 F3000.0
G01 X87.44 F3000.0
G01 Y24.56 F3000.0
G01 X87.17 Y24.17 F3000.0
G01 X86.34 Y22.95 F3000.0
G01 X86.09 Y23.37 F3000.0
G01 X86.26 Y23.6 F3000.0
G01 X87.0 Y24.65 F3000.0
G01 Y25.09 F3000.0
M5
G00 X84.77 Y24.36 F3000.0
M3 F3000.0
G01 Y23.54 F3000.0
G01 X85.63 F3000.0
G01 Y24.36 F3000.0
G01 X84.77 F3000.0
M5
G00 X84.48 Y25.11 F3000.0
M3 F3000.0
G01 Y25.53 F3000.0
G01 X84.68 F3000.0
G01 X85.87 F3000.0
G01 Y25.11 F3000.0
G01 X85.68 F3000.0
G01 X84.48 F3000.0
M5
G00 X84.77 Y23.19 F3000.0
M3 F3000.0
G01 Y22.95 F3000.0
G01 X84.4 F3000.0
G01 Y23.33 F3000.0
G01 Y24.71 F3000.0
G01 X84.7 F3000.0
G01 X86.0 F3000.0
G01 Y24.39 F3000.0
G01 Y23.06 F3000.0
G01 X85.63 F3000.0
G01 Y23.19 F3000.0
G01 X84.77 F3000.0
M5
G00 X86.05 Y20.51 F3000.0
M3 F3000.0
G01 X86.07 Y20.38 F3000.0
G01 Y20.05 F3000.0
G01 X86.2 F3000.0
G01 X87.33 F3000.0
G01 Y20.51 F3000.0
G01 X87.75 F3000.0
G01 X87.77 Y20.38 F3000.0
G01 Y20.05 F3000.0
G01 X87.92 F3000.0
G01 X89.07 F3000.0
G01 Y19.63 F3000.0
G01 X88.92 F3000.0
G01 X87.77 F3000.0
G01 Y19.26 F3000.0
G01 X87.33 F3000.0
G01 Y19.63 F3000.0
G01 X87.2 F3000.0
G01 X86.07 F3000.0
G01 Y19.26 F3000.0
G01 X85.63 F3000.0
G01 Y19.63 F3000.0
G01 X85.48 F3000.0
G01 X84.33 F3000.0
G01 Y20.05 F3000.0
G01 X84.48 F3000.0
G01 X85.63 F3000.0
G01 Y20.51 F3000.0
G01 X86.05 F3000.0
M5
G00 X86.03 Y18.62 F3000.0
M3 F3000.0
G01 X86.29 Y17.98 F3000.0
G01 X87.13 F3000.0
G01 X87.39 Y18.62 F3000.0
G01 X87.21 F3000.0
G01 X86.03 F3000.0
M5
G00 X84.22 Y17.98 F3000.0
M3 F3000.0
G01 X84.5 F3000.0
G01 X85.78 F3000.0
G01 X85.52 Y18.62 F3000.0
G01 X84.66 F3000.0
G01 Y18.97 F3000.0
G01 X85.08 F3000.0
G01 X86.49 F3000.0
G01 Y19.41 F3000.0
G01 X86.91 F3000.0
G01 X86.93 Y19.28 F3000.0
G01 Y18.97 F3000.0
G01 X87.33 F3000.0
G01 X88.74 F3000.0
G01 Y18.62 F3000.0
G01 X87.88 F3000.0
G01 X87.61 Y17.98 F3000.0
G01 X87.92 F3000.0
G01 X89.22 F3000.0
G01 Y17.62 F3000.0
G01 F3000.0
G01 X85.22 F3000.0
G01 X84.22 F3000.0
G01 Y17.98 F3000.0
M5
G00 X82.21 Y17.76 F3000.0
M3 F3000.0
G01 X82.26 F3000.0
G01 X83.31 F3000.0
G01 Y17.46 F3000.0
G01 Y16.17 F3000.0
G01 X83.01 Y15.86 F3000.0
G01 X82.61 F3000.0
G01 X82.52 Y16.28 F3000.0
G01 X82.79 F3000.0
G01 X82.87 Y16.37 F3000.0
G01 Y17.34 F3000.0
G01 X82.21 F3000.0
G01 Y16.9 F3000.0
G01 Y15.47 F3000.0
G01 X81.77 F3000.0
G01 Y15.9 F3000.0
G01 Y17.34 F3000.0
G01 X81.16 F3000.0
G01 Y17.11 F3000.0
G01 Y15.88 F3000.0
G01 X80.71 F3000.0
G01 Y16.32 F3000.0
G01 Y17.76 F3000.0
G01 X80.74 F3000.0
G01 X81.77 F3000.0
G01 Y18.24 F3000.0
G01 X82.19 F3000.0
G01 X82.21 Y18.11 F3000.0
G01 Y17.76 F3000.0
M5
G00 X82.43 Y19.41 F3000.0
M3 F3000.0
G01 X81.48 F3000.0
G01 X81.68 Y18.77 F3000.0
G01 X82.17 F3000.0
G01 X82.43 Y19.41 F3000.0
M5
G00 X80.43 Y18.77 F3000.0
M3 F3000.0
G01 X81.27 F3000.0
G01 X81.04 Y19.41 F3000.0
G01 X80.52 F3000.0
G01 Y19.83 F3000.0
G01 X80.61 F3000.0
G01 X81.71 F3000.0
G01 Y20.56 F3000.0
G01 X82.19 F3000.0
G01 X82.21 Y20.38 F3000.0
G01 Y19.83 F3000.0
G01 X82.35 F3000.0
G01 X83.49 F3000.0
G01 Y19.41 F3000.0
G01 X82.92 F3000.0
G01 X82.59 Y18.77 F3000.0
G01 F3000.0
G01 X83.6 F3000.0
G01 Y17.91 F3000.0
G01 X83.16 F3000.0
G01 Y18.35 F3000.0
G01 X83.02 F3000.0
G01 X82.02 F3000.0
G01 X80.87 F3000.0
G01 Y17.89 F3000.0
G01 X80.43 F3000.0
G01 Y18.77 F3000.0
M5
G00 X78.82 Y18.79 F3000.0
M3 F3000.0
G01 X79.0 F3000.0
G01 X80.18 F3000.0
G01 Y18.38 F3000.0
G01 X80.0 F3000.0
G01 X78.82 F3000.0
G01 Y18.79 F3000.0
M5
G00 X78.82 Y18.02 F3000.0
M3 F3000.0
G01 X79.0 F3000.0
G01 X80.18 F3000.0
G01 Y17.6 F3000.0
G01 X80.0 F3000.0
G01 X78.82 F3000.0
G01 Y18.02 F3000.0
M5
G00 X79.1 Y16.9 F3000.0
M3 F3000.0
G01 Y16.06 F3000.0
G01 X79.88 F3000.0
G01 Y16.9 F3000.0
G01 X79.1 F3000.0
M5
G00 X79.88 Y15.71 F3000.0
M3 F3000.0
G01 X79.1 F3000.0
G01 Y15.51 F3000.0
G01 X78.73 F3000.0
G01 Y15.88 F3000.0
G01 Y17.25 F3000.0
G01 X78.99 F3000.0
G01 X80.25 F3000.0
G01 Y16.9 F3000.0
G01 Y15.55 F3000.0
G01 X79.88 F3000.0
G01 Y15.71 F3000.0
M5
G00 X78.53 Y19.61 F3000.0
M3 F3000.0
G01 X78.94 F3000.0
G01 X80.34 F3000.0
G01 Y19.19 F3000.0
G01 X79.94 F3000.0
G01 X78.53 F3000.0
G01 Y19.61 F3000.0
M5
G00 X78.82 Y20.38 F3000.0
M3 F3000.0
G01 X79.0 F3000.0
G01 X80.18 F3000.0
G01 Y19.96 F3000.0
G01 X80.0 F3000.0
G01 X78.82 F3000.0
G01 Y20.38 F3000.0
M5
G00 X87.92 Y16.13 F3000.0
M3 F3000.0
G01 Y16.81 F3000.0
G01 X87.73 F3000.0
G01 X86.73 F3000.0
G01 X85.54 F3000.0
G01 Y16.13 F3000.0
G01 X85.73 F3000.0
G01 X86.73 F3000.0
G01 X87.92 F3000.0
M5
G00 X87.92 Y15.6 F3000.0
M3 F3000.0
G01 Y15.71 F3000.0
G01 X87.73 F3000.0
G01 X86.73 F3000.0
G01 X85.54 F3000.0
G01 Y15.49 F3000.0
G01 X85.1 F3000.0
G01 Y15.86 F3000.0
G01 Y17.23 F3000.0
G01 X85.23 F3000.0
G01 X87.23 F3000.0
G01 X88.36 F3000.0
G01 Y16.91 F3000.0
G01 Y15.6 F3000.0
G01 X87.92 F3000.0
M5
G00 X90.97 Y18. F3000.0
M3 F3000.0
G01 X91.41 Y18.16 F3000.0
G01 X91.5 Y17.78 F3000.0
G01 X90.97 Y17.56 F3000.0
G01 Y17.22 F3000.0
G01 Y15.88 F3000.0
G01 X90.61 Y15.53 F3000.0
G01 X90.17 F3000.0
G01 X90.11 Y15.95 F3000.0
G01 X90.44 F3000.0
G01 X90.53 Y16.04 F3000.0
G01 Y16.22 F3000.0
G01 Y17.41 F3000.0
G01 X90.02 Y17.21 F3000.0
G01 X89.93 Y17.14 F3000.0
G01 X89.8 Y17.65 F3000.0
G01 X90.53 Y17.87 F3000.0
G01 Y18.02 F3000.0
G01 Y19.17 F3000.0
G01 X89.91 F3000.0
G01 Y19.59 F3000.0
G01 X90.53 F3000.0
G01 Y20.54 F3000.0
G01 X90.94 F3000.0
G01 X90.97 Y20.4 F3000.0
G01 Y19.59 F3000.0
G01 X91.61 F3000.0
G01 Y19.17 F3000.0
G01 X90.97 F3000.0
G01 Y19.08 F3000.0
G01 Y18.0 F3000.0
M5
G00 X92.36 Y19.24 F3000.0
M3 F3000.0
G01 Y18.84 F3000.0
G01 X92.7 F3000.0
G01 X94.05 F3000.0
G01 Y19.24 F3000.0
G01 X93.7 F3000.0
G01 X92.36 F3000.0
M5
G00 X92.36 Y19.99 F3000.0
M3 F3000.0
G01 Y19.59 F3000.0
G01 X92.7 F3000.0
G01 X94.05 F3000.0
G01 Y19.99 F3000.0
G01 X93.7 F3000.0
G01 X92.36 F3000.0
M5
G00 X91.98 Y20.34 F3000.0
M3 F3000.0
G01 X92.2 F3000.0
G01 X93.2 F3000.0
G01 X94.43 F3000.0
G01 Y19.91 F3000.0
G01 Y18.49 F3000.0
G01 X94.2 F3000.0
G01 X93.2 F3000.0
G01 X91.98 F3000.0
G01 Y18.91 F3000.0
G01 Y20.34 F3000.0
M5
G00 X92.42 Y16.72 F3000.0
M3 F3000.0
G01 X93.04 Y16.19 F3000.0
G01 Y16.44 F3000.0
G01 Y17.69 F3000.0
G01 X92.84 F3000.0
G01 X91.65 F3000.0
G01 Y18.11 F3000.0
G01 X91.75 F3000.0
G01 X93.75 F3000.0
G01 X94.85 F3000.0
G01 Y17.69 F3000.0
G01 X94.66 F3000.0
G01 X93.48 F3000.0
G01 Y17.21 F3000.0
G01 X93.5 F3000.0
G01 X94.52 F3000.0
G01 Y16.79 F3000.0
G01 X94.5 F3000.0
G01 X93.48 F3000.0
G01 Y16.04 F3000.0
G01 X93.99 Y15.99 F3000.0
G01 X94.89 F3000.0
G01 X94.83 Y15.57 F3000.0
G01 X93.94 F3000.0
G01 X93.56 Y15.74 F3000.0
G01 X92.27 Y16.3 F3000.0
G01 X92.22 Y16.26 F3000.0
G01 X91.5 Y15.49 F3000.0
G01 X91.21 Y15.84 F3000.0
G01 X91.42 Y16.21 F3000.0
G01 X92.14 Y17.45 F3000.0
G01 X92.6 Y17.34 F3000.0
G01 X92.55 Y17.21 F3000.0
G01 X92.42 Y16.72 F3000.0
M5
G00 X91.5 Y24.25 F3000.0
M3 F3000.0
G01 X91.06 F3000.0
G01 Y24.47 F3000.0
G01 X90.48 F3000.0
G01 Y23.94 F3000.0
G01 X90.04 F3000.0
G01 Y24.13 F3000.0
G01 Y26.13 F3000.0
G01 Y27.31 F3000.0
G01 X90.27 F3000.0
G01 X91.5 F3000.0
G01 Y27.28 F3000.0
G01 Y25.28 F3000.0
G01 Y24.25 F3000.0
M5
G00 X92.47 Y25.59 F3000.0
M3 F3000.0
G01 X92.18 F3000.0
G01 X91.91 F3000.0
G01 Y25.67 F3000.0
G01 Y26.67 F3000.0
G01 Y27.73 F3000.0
G01 X92.17 F3000.0
G01 X93.17 F3000.0
G01 X94.43 F3000.0
G01 Y27.67 F3000.0
G01 Y26.67 F3000.0
G01 Y25.59 F3000.0
G01 X93.81 F3000.0
G01 Y25.14 F3000.0
G01 Y23.68 F3000.0
G01 X93.94 Y23.52 F3000.0
G01 X94.3 F3000.0
G01 X94.43 Y23.7 F3000.0
G01 X94.45 Y24.21 F3000.0
G01 X94.89 Y24.05 F3000.0
G01 X94.87 Y23.54 F3000.0
G01 X94.45 Y23.1 F3000.0
G01 X93.79 F3000.0
G01 X93.37 Y23.52 F3000.0
G01 Y23.56 F3000.0
G01 Y24.56 F3000.0
G01 Y25.59 F3000.0
G01 X92.91 F3000.0
G01 Y25.18 F3000.0
G01 X92.82 Y24.93 F3000.0
G01 X92.42 Y23.73 F3000.0
G01 X92.11 Y23.56 F3000.0
G01 X90.94 Y22.88 F3000.0
G01 X90.79 Y23.32 F3000.0
G01 X90.98 Y23.43 F3000.0
G01 X92.05 Y24.0 F3000.0
G01 X92.1 Y24.17 F3000.0
G01 X92.47 Y25.29 F3000.0
G01 Y25.59 F3000.0
M5
G00 X93.99 Y27.31 F3000.0
M3 F3000.0
G01 X93.67 F3000.0
G01 X92.36 F3000.0
G01 Y27.17 F3000.0
G01 Y26.01 F3000.0
G01 X92.67 F3000.0
G01 X93.99 F3000.0
G01 Y26.17 F3000.0
G01 Y27.31 F3000.0
M5
G00 X94.05 Y30.48 F3000.0
M3 F3000.0
G01 X93.61 F3000.0
G01 Y30.68 F3000.0
G01 X93.38 F3000.0
G01 X92.38 F3000.0
G01 X91.14 F3000.0
G01 Y30.43 F3000.0
G01 X90.7 F3000.0
G01 Y30.92 F3000.0
G01 Y32.42 F3000.0
G01 X90.92 F3000.0
G01 X92.14 F3000.0
G01 Y33.03 F3000.0
G01 X92.04 F3000.0
G01 X91.04 F3000.0
G01 X89.95 F3000.0
G01 Y33.45 F3000.0
G01 X90.04 F3000.0
G01 X91.04 F3000.0
G01 X92.14 F3000.0
G01 Y34.07 F3000.0
G01 X92.55 F3000.0
G01 X92.58 Y33.94 F3000.0
G01 Y33.45 F3000.0
G01 X92.68 F3000.0
G01 X93.68 F3000.0
G01 X94.78 F3000.0
G01 Y33.03 F3000.0
G01 X94.68 F3000.0
G01 X93.68 F3000.0
G01 X92.58 F3000.0
G01 Y32.42 F3000.0
G01 X92.81 F3000.0
G01 X94.05 F3000.0
G01 Y31.95 F3000.0
G01 Y30.48 F3000.0
M5
G00 X91.14 Y32. F3000.0
M3 F3000.0
G01 Y31.09 F3000.0
G01 X91.38 F3000.0
G01 X92.38 F3000.0
G01 X93.61 F3000.0
G01 Y32.0 F3000.0
G01 X93.38 F3000.0
G01 X92.38 F3000.0
G01 X91.14 F3000.0
M5
G00 X88.39 Y31.47 F3000.0
M3 F3000.0
G01 Y31.48 F3000.0
G01 X88.42 Y32.48 F3000.0
G01 X88.46 Y33.48 F3000.0
G01 X88.5 Y34.49 F3000.0
G01 X87.66 F3000.0
G01 X87.62 Y34.16 F3000.0
G01 X87.5 Y33.17 F3000.0
G01 X87.35 Y31.84 F3000.0
G01 X87.27 Y31.78 F3000.0
G01 X86.49 Y31.16 F3000.0
G01 X85.63 Y30.48 F3000.0
G01 X85.41 Y30.96 F3000.0
G01 X85.79 Y31.25 F3000.0
G01 X86.95 Y32.15 F3000.0
G01 X86.97 Y32.33 F3000.0
G01 X87.08 Y33.32 F3000.0
G01 X87.2 Y34.49 F3000.0
G01 X86.34 F3000.0
G01 Y34.97 F3000.0
G01 X86.66 F3000.0
G01 X87.66 F3000.0
G01 X88.98 F3000.0
G01 X88.97 Y34.62 F3000.0
G01 X88.93 Y33.62 F3000.0
G01 X88.9 Y32.62 F3000.0
G01 X88.85 Y31.27 F3000.0
G01 X88.19 Y30.54 F3000.0
G01 X87.59 F3000.0
G01 X87.55 Y31.03 F3000.0
G01 X88.08 F3000.0
G01 X88.39 Y31.47 F3000.0
G01 F3000.0
M5
G00 X85.28 Y33.45 F3000.0
M3 F3000.0
G01 Y33.33 F3000.0
G01 Y32.2 F3000.0
G01 X85.43 Y32.02 F3000.0
G01 X85.81 F3000.0
G01 X86.23 Y32.7 F3000.0
G01 X86.67 Y32.53 F3000.0
G01 X86.62 Y32.46 F3000.0
G01 X85.96 Y31.6 F3000.0
G01 X85.21 F3000.0
G01 X84.84 Y31.98 F3000.0
G01 Y32.17 F3000.0
G01 Y33.37 F3000.0
G01 X84.26 Y33.23 F3000.0
G01 X84.17 Y33.72 F3000.0
G01 X84.84 Y33.85 F3000.0
G01 Y34.08 F3000.0
G01 Y35.31 F3000.0
G01 X85.26 F3000.0
G01 X85.28 Y35.13 F3000.0
G01 Y35.03 F3000.0
G01 Y33.94 F3000.0
G01 X85.37 Y33.96 F3000.0
G01 X86.42 Y34.23 F3000.0
G01 X86.53 Y33.76 F3000.0
G01 X86.39 Y33.73 F3000.0
G01 X85.28 Y33.45 F3000.0
M5
G00 X83.34 Y33.32 F3000.0
M3 F3000.0
G01 Y32.84 F3000.0
G01 X83.01 F3000.0
G01 X80.01 F3000.0
G01 X78.69 F3000.0
G01 Y33.32 F3000.0
G01 X79.01 F3000.0
G01 X82.01 F3000.0
G01 X83.34 F3000.0
M5
G00 X84.22 Y38.31 F3000.0
M3 F3000.0
G01 X84.5 Y38.69 F3000.0
G01 X85.39 Y39.86 F3000.0
G01 X85.87 Y39.73 F3000.0
G01 X85.81 Y39.61 F3000.0
G01 X85.65 Y39.22 F3000.0
G01 X85.7 Y39.19 F3000.0
G01 X86.56 Y38.58 F3000.0
G01 Y38.83 F3000.0
G01 Y40.08 F3000.0
G01 X86.48 F3000.0
G01 X85.48 F3000.0
G01 X84.4 F3000.0
G01 Y40.5 F3000.0
G01 X84.78 F3000.0
G01 X87.78 F3000.0
G01 X89.16 F3000.0
G01 Y40.08 F3000.0
G01 X89.08 F3000.0
G01 X88.08 F3000.0
G01 X87.0 F3000.0
G01 Y39.57 F3000.0
G01 X87.29 F3000.0
G01 X88.58 F3000.0
G01 Y39.15 F3000.0
G01 X88.29 F3000.0
G01 X87.0 F3000.0
G01 Y38.45 F3000.0
G01 X87.09 F3000.0
G01 X88.09 F3000.0
G01 X89.18 F3000.0
G01 X89.07 Y38.03 F3000.0
G01 X88.69 F3000.0
G01 X87.31 F3000.0
G01 F3000.0
G01 X86.39 Y38.44 F3000.0
G01 X85.48 Y38.84 F3000.0
G01 X85.34 Y38.72 F3000.0
G01 X84.48 Y37.9 F3000.0
G01 X84.22 Y38.31 F3000.0
M5
G00 X81.18 Y40.52 F3000.0
M3 F3000.0
G01 X80.89 F3000.0
G01 X80.63 F3000.0
G01 Y40.59 F3000.0
G01 Y41.59 F3000.0
G01 Y42.66 F3000.0
G01 X80.88 F3000.0
G01 X81.88 F3000.0
G01 X83.14 F3000.0
G01 Y42.59 F3000.0
G01 Y41.59 F3000.0
G01 Y40.52 F3000.0
G01 X82.52 F3000.0
G01 Y40.06 F3000.0
G01 Y38.6 F3000.0
G01 X82.65 Y38.45 F3000.0
G01 X83.01 F3000.0
G01 X83.14 Y38.62 F3000.0
G01 X83.16 Y39.13 F3000.0
G01 X83.6 Y38.98 F3000.0
G01 X83.58 Y38.47 F3000.0
G01 X83.16 Y38.03 F3000.0
G01 X82.5 F3000.0
G01 X82.08 Y38.45 F3000.0
G01 Y38.48 F3000.0
G01 Y39.48 F3000.0
G01 Y40.52 F3000.0
G01 X81.62 F3000.0
G01 Y40.1 F3000.0
G01 X81.53 Y39.85 F3000.0
G01 X81.13 Y38.66 F3000.0
G01 X80.82 Y38.48 F3000.0
G01 X79.66 Y37.81 F3000.0
G01 X79.5 Y38.25 F3000.0
G01 X79.69 Y38.35 F3000.0
G01 X80.76 Y38.93 F3000.0
G01 X80.81 Y39.09 F3000.0
G01 X81.18 Y40.21 F3000.0
G01 Y40.52 F3000.0
M5
G00 X80.21 Y39.17 F3000.0
M3 F3000.0
G01 X79.77 F3000.0
G01 Y39.39 F3000.0
G01 X79.19 F3000.0
G01 Y38.87 F3000.0
G01 X78.75 F3000.0
G01 Y39.05 F3000.0
G01 Y41.05 F3000.0
G01 Y42.24 F3000.0
G01 X78.98 F3000.0
G01 X80.21 F3000.0
G01 Y42.21 F3000.0
G01 Y40.21 F3000.0
G01 Y39.17 F3000.0
M5
G00 X79.19 Y41.89 F3000.0
M3 F3000.0
G01 Y41.82 F3000.0
G01 Y40.82 F3000.0
G01 Y39.75 F3000.0
G01 X79.77 F3000.0
G01 Y39.82 F3000.0
G01 Y40.82 F3000.0
G01 Y41.89 F3000.0
G01 X79.19 F3000.0
M5
G00 X77.34 Y40.87 F3000.0
M3 F3000.0
G01 Y41.58 F3000.0
G01 X76.72 F3000.0
G01 Y40.87 F3000.0
G01 X77.34 F3000.0
M5
G00 X76.28 Y40.87 F3000.0
M3 F3000.0
G01 Y41.58 F3000.0
G01 X75.67 F3000.0
G01 Y40.87 F3000.0
G01 X76.28 F3000.0
M5
G00 X76.28 Y40.45 F3000.0
M3 F3000.0
G01 X75.67 F3000.0
G01 Y39.73 F3000.0
G01 X76.28 F3000.0
G01 Y40.45 F3000.0
M5
G00 X77.34 Y39.73 F3000.0
M3 F3000.0
G01 Y40.45 F3000.0
G01 X76.72 F3000.0
G01 Y39.73 F3000.0
G01 X77.34 F3000.0
M5
G00 X76.28 Y42.86 F3000.0
M3 F3000.0
G01 X76.7 F3000.0
G01 X76.72 Y42.72 F3000.0
G01 Y42.0 F3000.0
G01 X76.75 F3000.0
G01 X77.78 F3000.0
G01 Y41.58 F3000.0
G01 Y40.58 F3000.0
G01 Y39.15 F3000.0
G01 X77.34 F3000.0
G01 Y39.31 F3000.0
G01 X76.72 F3000.0
G01 Y39.08 F3000.0
G01 Y37.85 F3000.0
G01 X76.28 F3000.0
G01 Y38.08 F3000.0
G01 Y39.31 F3000.0
G01 X75.67 F3000.0
G01 Y39.11 F3000.0
G01 X75.22 F3000.0
G01 Y39.55 F3000.0
G01 Y40.55 F3000.0
G01 Y42.0 F3000.0
G01 X75.25 F3000.0
G01 X76.28 F3000.0
G01 Y42.86 F3000.0
M5
G00 X75.86 Y45.86 F3000.0
M3 F3000.0
G01 X76.48 F3000.0
G01 Y46.35 F3000.0
G01 X75.86 F3000.0
G01 Y45.86 F3000.0
M5
G00 X75.86 Y46.7 F3000.0
M3 F3000.0
G01 X76.48 F3000.0
G01 Y47.19 F3000.0
G01 X75.86 F3000.0
G01 Y46.7 F3000.0
M5
G00 X75.86 Y47.54 F3000.0
M3 F3000.0
G01 X76.48 F3000.0
G01 Y48.0 F3000.0
G01 X75.86 F3000.0
G01 Y47.54 F3000.0
M5
G00 X74.81 Y46.83 F3000.0
M3 F3000.0
G01 F3000.0
G01 X75.11 Y45.86 F3000.0
G01 X74.69 Y45.75 F3000.0
G01 Y45.76 F3000.0
G01 X74.41 Y46.72 F3000.0
G01 X74.81 Y46.83 F3000.0
M5
G00 X73.46 Y48.49 F3000.0
M3 F3000.0
G01 X73.99 Y49.15 F3000.0
G01 X74.32 Y48.93 F3000.0
G01 X74.25 Y48.84 F3000.0
G01 X73.75 Y48.29 F3000.0
G01 X74.03 Y48.09 F3000.0
G01 X74.63 Y48.78 F3000.0
G01 X74.94 Y48.53 F3000.0
G01 X74.89 Y48.44 F3000.0
G01 X74.75 Y48.3 F3000.0
G01 X73.9 Y47.45 F3000.0
G01 X74.61 Y47.52 F3000.0
G01 X74.39 Y47.76 F3000.0
G01 X74.65 Y47.96 F3000.0
G01 X75.25 Y47.25 F3000.0
G01 X74.94 Y47.03 F3000.0
G01 X74.81 Y47.23 F3000.0
G01 X74.21 Y47.17 F3000.0
G01 Y46.73 F3000.0
G01 Y45.29 F3000.0
G01 X73.83 F3000.0
G01 Y45.71 F3000.0
G01 Y47.12 F3000.0
G01 X73.04 Y47.06 F3000.0
G01 X72.95 Y46.99 F3000.0
G01 X72.89 Y47.43 F3000.0
G01 X73.39 Y47.45 F3000.0
G01 X73.75 Y47.78 F3000.0
G01 X73.02 Y48.31 F3000.0
G01 X73.26 Y48.62 F3000.0
G01 X73.46 Y48.49 F3000.0
M5
G00 X73.72 Y49.46 F3000.0
M3 F3000.0
G01 X74.61 F3000.0
G01 Y50.01 F3000.0
G01 X73.72 F3000.0
G01 Y49.46 F3000.0
M5
G00 X74.98 Y49.46 F3000.0
M3 F3000.0
G01 X75.86 F3000.0
G01 Y50.01 F3000.0
G01 X74.98 F3000.0
G01 Y49.46 F3000.0
M5
G00 X76.24 Y49.46 F3000.0
M3 F3000.0
G01 X77.12 F3000.0
G01 Y50.01 F3000.0
G01 X76.24 F3000.0
G01 Y49.46 F3000.0
M5
G00 X77.56 Y50.28 F3000.0
M3 F3000.0
G01 Y50.23 F3000.0
G01 Y49.19 F3000.0
G01 X77.42 F3000.0
G01 X74.42 F3000.0
G01 X73.28 F3000.0
G01 Y49.23 F3000.0
G01 Y50.28 F3000.0
G01 X73.42 F3000.0
G01 X76.42 F3000.0
G01 X77.56 F3000.0
M5
G00 X77.8 Y48.36 F3000.0
M3 F3000.0
G01 Y48.0 F3000.0
G01 X76.86 F3000.0
G01 Y47.54 F3000.0
G01 X77.58 F3000.0
G01 Y47.19 F3000.0
G01 X76.86 F3000.0
G01 Y46.7 F3000.0
G01 X77.58 F3000.0
G01 Y46.35 F3000.0
G01 X76.86 F3000.0
G01 Y45.86 F3000.0
G01 X76.91 F3000.0
G01 X77.96 F3000.0
G01 Y45.51 F3000.0
G01 X77.91 F3000.0
G01 X76.91 F3000.0
G01 X75.86 F3000.0
G01 Y45.29 F3000.0
G01 X75.49 F3000.0
G01 Y45.52 F3000.0
G01 Y46.52 F3000.0
G01 Y47.74 F3000.0
G01 X75.29 Y47.47 F3000.0
G01 X75.05 Y47.81 F3000.0
G01 X75.16 Y48.0 F3000.0
G01 X75.75 Y49.06 F3000.0
G01 X76.13 Y48.93 F3000.0
G01 X76.06 Y48.82 F3000.0
G01 X75.84 Y48.36 F3000.0
G01 X76.39 F3000.0
G01 X76.79 Y49.11 F3000.0
G01 X77.16 Y48.93 F3000.0
G01 X77.1 Y48.82 F3000.0
G01 X76.77 Y48.36 F3000.0
G01 X76.78 F3000.0
G01 X77.8 F3000.0
M5
G00 X78.69 Y46.35 F3000.0
M3 F3000.0
G01 X79.07 F3000.0
G01 X82.07 F3000.0
G01 X83.45 F3000.0
G01 Y45.86 F3000.0
G01 X83.07 F3000.0
G01 X80.07 F3000.0
G01 X78.69 F3000.0
G01 Y46.35 F3000.0
M5
G00 X82.74 Y47.65 F3000.0
M3 F3000.0
G01 X82.57 F3000.0
G01 X80.57 F3000.0
G01 X79.39 F3000.0
G01 Y48.14 F3000.0
G01 X79.57 F3000.0
G01 X81.57 F3000.0
G01 X82.74 F3000.0
G01 Y47.65 F3000.0
M5
G00 X83.05 Y49.81 F3000.0
M3 F3000.0
G01 Y49.33 F3000.0
G01 X82.58 F3000.0
G01 X80.58 F3000.0
G01 X79.1 F3000.0
G01 Y49.81 F3000.0
G01 X79.58 F3000.0
G01 X81.58 F3000.0
G01 X83.05 F3000.0
M5
G00 X85.1 Y47.98 F3000.0
M3 F3000.0
G01 X85.52 Y48.18 F3000.0
G01 X85.26 Y48.58 F3000.0
G01 X85.63 Y48.75 F3000.0
G01 X85.87 Y48.38 F3000.0
G01 X86.25 Y48.64 F3000.0
G01 X86.45 Y48.36 F3000.0
G01 X86.34 Y48.27 F3000.0
G01 X85.7 Y47.85 F3000.0
G01 X85.77 Y47.67 F3000.0
G01 X86.2 Y46.57 F3000.0
G01 X86.1 Y46.39 F3000.0
G01 X85.48 Y45.36 F3000.0
G01 X85.14 F3000.0
G01 X84.97 Y45.78 F3000.0
G01 X85.32 F3000.0
G01 X85.81 Y46.44 F3000.0
G01 X85.78 Y46.75 F3000.0
G01 X85.5 Y46.55 F3000.0
G01 X84.4 Y45.78 F3000.0
G01 X84.22 Y46.15 F3000.0
G01 X84.55 Y46.36 F3000.0
G01 X85.72 Y47.1 F3000.0
G01 X85.63 Y47.32 F3000.0
G01 X85.49 Y47.23 F3000.0
G01 X84.48 Y46.64 F3000.0
G01 X84.26 Y46.94 F3000.0
G01 X84.44 Y47.03 F3000.0
G01 X85.52 Y47.56 F3000.0
G01 X85.41 Y47.72 F3000.0
G01 X85.33 Y47.69 F3000.0
G01 X84.31 Y47.3 F3000.0
G01 X84.13 Y47.65 F3000.0
G01 X84.75 Y47.83 F3000.0
G01 X84.46 Y48.33 F3000.0
G01 X84.84 Y48.42 F3000.0
G01 X85.1 Y47.98 F3000.0
G01 F3000.0
M5
G00 X86.2 Y49.08 F3000.0
M3 F3000.0
G01 X85.77 Y48.96 F3000.0
G01 X84.37 Y48.56 F3000.0
G01 X84.22 Y48.93 F3000.0
G01 X84.45 Y48.99 F3000.0
G01 X85.65 Y49.28 F3000.0
G01 Y49.66 F3000.0
G01 X85.48 F3000.0
G01 X84.31 F3000.0
G01 Y50.01 F3000.0
G01 X84.48 F3000.0
G01 X85.65 F3000.0
G01 Y50.36 F3000.0
G01 X86.07 F3000.0
G01 X86.09 Y50.23 F3000.0
G01 Y50.01 F3000.0
G01 X86.18 F3000.0
G01 X87.26 F3000.0
G01 Y50.36 F3000.0
G01 X87.68 F3000.0
G01 X87.7 Y50.23 F3000.0
G01 Y50.01 F3000.0
G01 X87.9 F3000.0
G01 X89.09 F3000.0
G01 Y49.66 F3000.0
G01 X88.9 F3000.0
G01 X87.7 F3000.0
G01 Y49.33 F3000.0
G01 X87.95 Y49.26 F3000.0
G01 X87.88 Y49.15 F3000.0
G01 X87.66 Y48.86 F3000.0
G01 X87.83 F3000.0
G01 X89.0 F3000.0
G01 Y48.44 F3000.0
G01 Y47.01 F3000.0
G01 X88.36 F3000.0
G01 Y47.0 F3000.0
G01 Y46.0 F3000.0
G01 X88.56 Y45.84 F3000.0
G01 X88.74 F3000.0
G01 X88.92 Y46.08 F3000.0
G01 Y46.48 F3000.0
G01 X89.33 Y46.26 F3000.0
G01 X89.31 Y45.91 F3000.0
G01 X88.89 Y45.42 F3000.0
G01 X88.34 F3000.0
G01 X87.92 Y45.84 F3000.0
G01 Y45.93 F3000.0
G01 Y47.01 F3000.0
G01 X87.57 F3000.0
G01 Y46.86 F3000.0
G01 X87.31 Y46.5 F3000.0
G01 X86.45 Y45.34 F3000.0
G01 X86.27 Y45.75 F3000.0
G01 X86.38 Y45.88 F3000.0
G01 X87.13 Y46.77 F3000.0
G01 Y47.01 F3000.0
G01 X86.86 F3000.0
G01 X86.6 F3000.0
G01 Y47.44 F3000.0
G01 Y48.86 F3000.0
G01 X87.2 F3000.0
G01 X87.57 Y49.33 F3000.0
G01 X87.26 F3000.0
G01 Y49.66 F3000.0
G01 X87.18 F3000.0
G01 X86.09 F3000.0
G01 Y49.39 F3000.0
G01 X86.31 Y49.17 F3000.0
G01 X86.2 Y49.08 F3000.0
G01 F3000.0
M5
G00 X88.56 Y48.51 F3000.0
M3 F3000.0
G01 X88.3 F3000.0
G01 X87.04 F3000.0
G01 Y48.14 F3000.0
G01 X87.3 F3000.0
G01 X88.56 F3000.0
G01 Y48.51 F3000.0
M5
G00 X88.56 Y47.78 F3000.0
M3 F3000.0
G01 X88.3 F3000.0
G01 X87.04 F3000.0
G01 Y47.36 F3000.0
G01 X87.3 F3000.0
G01 X88.56 F3000.0
G01 Y47.78 F3000.0
M5
G00 X89.97 Y46.35 F3000.0
M3 F3000.0
G01 X90.36 F3000.0
G01 X93.36 F3000.0
G01 X94.74 F3000.0
G01 Y45.86 F3000.0
G01 X94.36 F3000.0
G01 X91.36 F3000.0
G01 X89.97 F3000.0
G01 Y46.35 F3000.0
M5
G00 X94.03 Y47.65 F3000.0
M3 F3000.0
G01 X93.86 F3000.0
G01 X91.86 F3000.0
G01 X90.68 F3000.0
G01 Y48.14 F3000.0
G01 X90.86 F3000.0
G01 X92.86 F3000.0
G01 X94.03 F3000.0
G01 Y47.65 F3000.0
M5
G00 X94.34 Y49.81 F3000.0
M3 F3000.0
G01 Y49.33 F3000.0
G01 X93.87 F3000.0
G01 X91.87 F3000.0
G01 X90.39 F3000.0
G01 Y49.81 F3000.0
G01 X90.87 F3000.0
G01 X92.87 F3000.0
G01 X94.34 F3000.0
M5
G00 X94.34 Y53. F3000.0
M3 F3000.0
G01 X94.14 Y53.57 F3000.0
G01 X93.9 Y53.54 F3000.0
G01 X92.91 Y53.42 F3000.0
G01 X91.67 Y53.26 F3000.0
G01 X91.56 Y53.17 F3000.0
G01 X91.34 Y53.77 F3000.0
G01 X91.94 Y53.79 F3000.0
G01 X92.02 Y54.24 F3000.0
G01 X92.22 Y55.22 F3000.0
G01 X92.41 Y56.2 F3000.0
G01 X92.69 Y57.63 F3000.0
G01 X93.24 Y57.45 F3000.0
G01 X93.22 Y57.32 F3000.0
G01 X93.15 Y57.03 F3000.0
G01 X92.68 Y55.09 F3000.0
G01 X92.38 Y53.83 F3000.0
G01 X92.68 Y53.86 F3000.0
G01 X93.99 Y53.99 F3000.0
G01 X93.86 Y54.23 F3000.0
G01 X93.28 Y55.36 F3000.0
G01 X93.68 Y55.55 F3000.0
G01 X93.81 Y55.28 F3000.0
G01 X94.25 Y54.39 F3000.0
G01 X94.83 Y53.22 F3000.0
G01 X94.34 Y53.0 F3000.0
M5
G00 X91.12 Y52.82 F3000.0
M3 F3000.0
G01 X90.68 F3000.0
G01 Y53.24 F3000.0
G01 Y54.24 F3000.0
G01 Y55.66 F3000.0
G01 X90.08 Y54.92 F3000.0
G01 X89.82 Y55.36 F3000.0
G01 X90.0 Y55.69 F3000.0
G01 X90.48 Y56.57 F3000.0
G01 X91.14 Y57.78 F3000.0
G01 X91.58 Y57.63 F3000.0
G01 X91.54 Y57.52 F3000.0
G01 X91.49 Y57.39 F3000.0
G01 X91.08 Y56.33 F3000.0
G01 X91.17 Y56.28 F3000.0
G01 X91.12 Y56.15 F3000.0
G01 Y55.98 F3000.0
G01 Y53.98 F3000.0
G01 Y52.82 F3000.0
M5
G00 X88.45 Y54.06 F3000.0
M3 F3000.0
G01 X88.36 F3000.0
G01 X87.26 F3000.0
G01 Y53.44 F3000.0
G01 X87.36 F3000.0
G01 X88.45 F3000.0
G01 Y54.06 F3000.0
M5
G00 X88.45 Y55. F3000.0
M3 F3000.0
G01 X88.36 F3000.0
G01 X87.26 F3000.0
G01 Y54.47 F3000.0
G01 X87.36 F3000.0
G01 X88.45 F3000.0
G01 Y55.0 F3000.0
M5
G00 X87.86 Y56.28 F3000.0
M3 F3000.0
G01 X88.28 Y56.77 F3000.0
G01 X87.7 F3000.0
G01 Y56.28 F3000.0
G01 X87.86 F3000.0
M5
G00 X86.27 Y56.55 F3000.0
M3 F3000.0
G01 X86.25 F3000.0
G01 X85.25 F3000.0
G01 X84.22 F3000.0
G01 Y56.97 F3000.0
G01 X84.25 F3000.0
G01 X85.25 F3000.0
G01 X86.27 F3000.0
G01 Y56.55 F3000.0
M5
G00 X85.96 Y57.3 F3000.0
M3 F3000.0
G01 X85.73 F3000.0
G01 X84.51 F3000.0
G01 Y57.72 F3000.0
G01 X84.73 F3000.0
G01 X85.96 F3000.0
G01 Y57.3 F3000.0
M5
G00 X85.96 Y55.75 F3000.0
M3 F3000.0
G01 X85.73 F3000.0
G01 X84.51 F3000.0
G01 Y56.17 F3000.0
G01 X84.73 F3000.0
G01 X85.96 F3000.0
G01 Y55.75 F3000.0
M5
G00 X85.96 Y54.96 F3000.0
M3 F3000.0
G01 X85.73 F3000.0
G01 X84.51 F3000.0
G01 Y55.38 F3000.0
G01 X84.73 F3000.0
G01 X85.96 F3000.0
G01 Y54.96 F3000.0
M5
G00 X86.03 Y54.92 F3000.0
M3 F3000.0
G01 X86.34 Y55.12 F3000.0
G01 X87.5 Y55.86 F3000.0
G01 X87.35 F3000.0
G01 X86.2 F3000.0
G01 Y56.28 F3000.0
G01 X86.23 F3000.0
G01 X87.26 F3000.0
G01 Y56.77 F3000.0
G01 X86.49 F3000.0
G01 Y57.19 F3000.0
G01 X87.26 F3000.0
G01 Y57.87 F3000.0
G01 X87.68 F3000.0
G01 X87.7 Y57.74 F3000.0
G01 Y57.19 F3000.0
G01 X88.3 F3000.0
G01 Y56.81 F3000.0
G01 X88.76 Y57.61 F3000.0
G01 X89.14 Y57.36 F3000.0
G01 X89.09 Y57.25 F3000.0
G01 X89.03 Y57.17 F3000.0
G01 X88.39 Y56.28 F3000.0
G01 X89.29 F3000.0
G01 Y55.86 F3000.0
G01 X89.18 F3000.0
G01 X88.08 F3000.0
G01 X87.57 Y55.42 F3000.0
G01 X87.73 F3000.0
G01 X88.89 F3000.0
G01 Y55.13 F3000.0
G01 Y54.13 F3000.0
G01 Y52.84 F3000.0
G01 X88.45 F3000.0
G01 Y53.02 F3000.0
G01 X88.36 F3000.0
G01 X87.26 F3000.0
G01 Y52.78 F3000.0
G01 X86.82 F3000.0
G01 Y52.82 F3000.0
G01 Y53.82 F3000.0
G01 Y54.87 F3000.0
G01 X86.2 Y54.54 F3000.0
G01 X86.03 Y54.92 F3000.0
M5
G00 X85.65 Y54.21 F3000.0
M3 F3000.0
G01 X84.79 F3000.0
G01 Y53.44 F3000.0
G01 X85.65 F3000.0
G01 Y54.21 F3000.0
M5
G00 X85.65 Y52.84 F3000.0
M3 F3000.0
G01 Y53.02 F3000.0
G01 X84.79 F3000.0
G01 Y52.78 F3000.0
G01 X84.42 F3000.0
G01 Y53.2 F3000.0
G01 Y54.63 F3000.0
G01 X84.72 F3000.0
G01 X86.03 F3000.0
G01 Y54.23 F3000.0
G01 Y52.84 F3000.0
G01 X85.65 F3000.0
M5
G00 X83.29 Y53.7 F3000.0
M3 F3000.0
G01 Y53.22 F3000.0
G01 X83.05 F3000.0
G01 X81.05 F3000.0
G01 X79.81 F3000.0
G01 Y52.84 F3000.0
G01 X79.37 F3000.0
G01 Y52.87 F3000.0
G01 Y54.87 F3000.0
G01 Y55.91 F3000.0
G01 X78.55 F3000.0
G01 Y56.39 F3000.0
G01 X79.37 F3000.0
G01 Y56.51 F3000.0
G01 Y57.63 F3000.0
G01 X79.79 F3000.0
G01 X79.81 Y57.49 F3000.0
G01 Y57.44 F3000.0
G01 Y56.39 F3000.0
G01 X80.76 F3000.0
G01 Y56.58 F3000.0
G01 Y57.76 F3000.0
G01 X81.18 F3000.0
G01 X81.2 Y57.63 F3000.0
G01 Y57.51 F3000.0
G01 Y56.39 F3000.0
G01 X81.24 F3000.0
G01 X82.28 F3000.0
G01 Y56.53 F3000.0
G01 Y57.67 F3000.0
G01 X82.7 F3000.0
G01 X82.72 Y57.54 F3000.0
G01 Y57.47 F3000.0
G01 Y56.39 F3000.0
G01 X83.54 F3000.0
G01 Y55.91 F3000.0
G01 X82.72 F3000.0
G01 Y55.58 F3000.0
G01 Y54.25 F3000.0
G01 X82.28 F3000.0
G01 Y54.52 F3000.0
G01 X82.24 F3000.0
G01 X81.2 F3000.0
G01 Y54.14 F3000.0
G01 X80.76 F3000.0
G01 Y54.53 F3000.0
G01 Y55.91 F3000.0
G01 X79.81 F3000.0
G01 Y55.8 F3000.0
G01 Y54.8 F3000.0
G01 Y53.7 F3000.0
G01 X80.05 F3000.0
G01 X82.05 F3000.0
G01 X83.29 F3000.0
M5
G00 X82.28 Y54.94 F3000.0
M3 F3000.0
G01 Y55.91 F3000.0
G01 X82.24 F3000.0
G01 X81.2 F3000.0
G01 Y54.94 F3000.0
G01 X81.24 F3000.0
G01 X82.28 F3000.0
M5
G00 X77.1 Y55.11 F3000.0
M3 F3000.0
G01 X76.92 F3000.0
G01 X74.92 F3000.0
G01 X73.75 F3000.0
G01 Y55.6 F3000.0
G01 X73.92 F3000.0
G01 X75.92 F3000.0
G01 X77.1 F3000.0
G01 Y55.11 F3000.0
M5
G00 X77.41 Y57.27 F3000.0
M3 F3000.0
G01 Y56.79 F3000.0
G01 X76.93 F3000.0
G01 X74.93 F3000.0
G01 X73.46 F3000.0
G01 Y57.27 F3000.0
G01 X73.93 F3000.0
G01 X75.93 F3000.0
G01 X77.41 F3000.0
M5
G00 X77.41 Y60.44 F3000.0
M3 F3000.0
G01 X77.31 Y60.55 F3000.0
G01 X76.59 Y61.45 F3000.0
G01 X76.94 Y61.69 F3000.0
G01 X77.04 Y61.59 F3000.0
G01 X77.8 Y60.75 F3000.0
G01 X77.41 Y60.44 F3000.0
M5
G00 X75.95 Y60.44 F3000.0
M3 F3000.0
G01 X75.93 Y60.52 F3000.0
G01 X75.62 Y61.56 F3000.0
G01 X76.06 Y61.69 F3000.0
G01 X76.09 Y61.61 F3000.0
G01 X76.44 Y60.59 F3000.0
G01 X75.95 Y60.44 F3000.0
M5
G00 X75.07 Y61.65 F3000.0
M3 F3000.0
G01 X75.08 Y61.52 F3000.0
G01 X75.18 Y60.39 F3000.0
G01 X74.69 Y60.35 F3000.0
G01 Y60.49 F3000.0
G01 X74.61 Y61.63 F3000.0
G01 X75.07 Y61.65 F3000.0
M5
G00 X74.23 Y61.5 F3000.0
M3 F3000.0
G01 X74.17 Y61.39 F3000.0
G01 X74.09 Y61.28 F3000.0
G01 X73.44 Y60.35 F3000.0
G01 X73.08 Y60.66 F3000.0
G01 X73.17 Y60.77 F3000.0
G01 X73.81 Y61.72 F3000.0
G01 X74.23 Y61.5 F3000.0
M5
G00 X74.36 Y63.06 F3000.0
M3 F3000.0
G01 Y62.29 F3000.0
G01 X74.83 F3000.0
G01 Y63.06 F3000.0
G01 X74.36 F3000.0
M5
G00 X74.36 Y63.48 F3000.0
M3 F3000.0
G01 X74.83 F3000.0
G01 Y64.25 F3000.0
G01 X74.36 F3000.0
G01 Y63.48 F3000.0
M5
G00 X75.27 Y63.06 F3000.0
M3 F3000.0
G01 Y62.29 F3000.0
G01 X75.75 F3000.0
G01 Y63.06 F3000.0
G01 X75.27 F3000.0
M5
G00 X75.27 Y64.25 F3000.0
M3 F3000.0
G01 Y63.48 F3000.0
G01 X75.75 F3000.0
G01 Y64.25 F3000.0
G01 X75.27 F3000.0
M5
G00 X76.19 Y64.25 F3000.0
M3 F3000.0
G01 Y63.48 F3000.0
G01 X76.66 F3000.0
G01 Y64.25 F3000.0
G01 X76.19 F3000.0
M5
G00 X76.19 Y62.29 F3000.0
M3 F3000.0
G01 X76.66 F3000.0
G01 Y63.06 F3000.0
G01 X76.19 F3000.0
G01 Y62.29 F3000.0
M5
G00 X78.55 Y62.25 F3000.0
M3 F3000.0
G01 X78.72 Y62.44 F3000.0
G01 X79.39 Y63.18 F3000.0
G01 X80.23 Y64.12 F3000.0
G01 X79.99 F3000.0
G01 X78.75 F3000.0
G01 Y64.54 F3000.0
G01 X79.05 F3000.0
G01 X80.34 F3000.0
G01 X80.45 Y65.33 F3000.0
G01 X81.02 Y65.22 F3000.0
G01 X80.96 Y65.11 F3000.0
G01 X80.85 Y64.54 F3000.0
G01 X81.17 F3000.0
G01 X82.17 F3000.0
G01 X83.49 F3000.0
G01 Y64.12 F3000.0
G01 X83.12 F3000.0
G01 X82.12 F3000.0
G01 X80.76 F3000.0
G01 X80.56 Y63.61 F3000.0
G01 X80.65 F3000.0
G01 X81.65 F3000.0
G01 X82.74 F3000.0
G01 Y63.14 F3000.0
G01 Y62.14 F3000.0
G01 Y60.68 F3000.0
G01 X82.39 Y60.33 F3000.0
G01 X81.88 F3000.0
G01 X81.77 Y60.75 F3000.0
G01 X82.21 F3000.0
G01 X82.3 Y60.83 F3000.0
G01 Y61.43 F3000.0
G01 X81.84 F3000.0
G01 X80.38 F3000.0
G01 Y61.34 F3000.0
G01 Y60.26 F3000.0
G01 X79.94 F3000.0
G01 Y60.47 F3000.0
G01 Y61.47 F3000.0
G01 Y62.69 F3000.0
G01 X79.77 Y62.55 F3000.0
G01 X78.82 Y61.78 F3000.0
G01 X78.55 Y62.25 F3000.0
M5
G00 X80.38 Y62.33 F3000.0
M3 F3000.0
G01 Y61.85 F3000.0
G01 X80.84 F3000.0
G01 X82.3 F3000.0
G01 Y62.33 F3000.0
G01 X81.84 F3000.0
G01 X80.38 F3000.0
M5
G00 X82.3 Y62.75 F3000.0
M3 F3000.0
G01 Y63.19 F3000.0
G01 X81.84 F3000.0
G01 X80.38 F3000.0
G01 Y62.75 F3000.0
G01 X80.84 F3000.0
G01 X82.3 F3000.0
M5
G00 X84.24 Y63.19 F3000.0
M3 F3000.0
G01 X85.1 Y63.44 F3000.0
G01 Y63.49 F3000.0
G01 Y64.54 F3000.0
G01 X84.37 F3000.0
G01 Y64.96 F3000.0
G01 X84.82 F3000.0
G01 X86.27 F3000.0
G01 Y64.54 F3000.0
G01 X85.54 F3000.0
G01 Y63.57 F3000.0
G01 X86.27 Y63.83 F3000.0
G01 X86.4 Y63.44 F3000.0
G01 X85.96 Y63.27 F3000.0
G01 X84.57 Y62.77 F3000.0
G01 X84.44 Y62.71 F3000.0
G01 X84.24 Y63.19 F3000.0
M5
G00 X85.94 Y62.11 F3000.0
M3 F3000.0
G01 X85.96 Y62.0 F3000.0
G01 Y61.97 F3000.0
G01 Y60.94 F3000.0
G01 X86.16 Y60.79 F3000.0
G01 X86.3 F3000.0
G01 X87.44 F3000.0
G01 X87.64 Y60.94 F3000.0
G01 X87.75 Y61.34 F3000.0
G01 X88.21 Y61.23 F3000.0
G01 X88.06 Y60.7 F3000.0
G01 X87.5 Y60.37 F3000.0
G01 X87.22 F3000.0
G01 X85.94 F3000.0
G01 X85.52 Y60.79 F3000.0
G01 Y60.95 F3000.0
G01 Y62.11 F3000.0
G01 X85.94 F3000.0
M5
G00 X86.71 Y62.38 F3000.0
M3 F3000.0
G01 X87.26 Y61.56 F3000.0
G01 X86.8 Y61.3 F3000.0
G01 X86.34 Y62.11 F3000.0
G01 X86.71 Y62.38 F3000.0
M5
G00 X88.34 Y62.11 F3000.0
M3 F3000.0
G01 X88.48 Y61.92 F3000.0
G01 X89.2 Y60.92 F3000.0
G01 X88.78 Y60.61 F3000.0
G01 X88.66 Y60.81 F3000.0
G01 X87.99 Y61.85 F3000.0
G01 X88.34 Y62.11 F3000.0
M5
G00 X88.85 Y63.59 F3000.0
M3 F3000.0
G01 X89.29 Y63.41 F3000.0
G01 X89.22 Y62.95 F3000.0
G01 X88.74 Y62.51 F3000.0
G01 X88.39 F3000.0
G01 X87.97 Y62.88 F3000.0
G01 Y63.44 F3000.0
G01 X87.64 Y63.1 F3000.0
G01 X87.04 Y63.83 F3000.0
G01 Y63.7 F3000.0
G01 X86.82 Y63.4 F3000.0
G01 X86.0 Y62.29 F3000.0
G01 X85.7 Y62.69 F3000.0
G01 X85.84 Y62.87 F3000.0
G01 X86.6 Y63.83 F3000.0
G01 Y63.98 F3000.0
G01 Y65.13 F3000.0
G01 X87.0 F3000.0
G01 X88.41 F3000.0
G01 Y65.11 F3000.0
G01 Y64.11 F3000.0
G01 Y63.08 F3000.0
G01 X88.5 Y62.99 F3000.0
G01 X88.63 F3000.0
G01 X88.78 Y63.15 F3000.0
G01 X88.85 Y63.59 F3000.0
M5
G00 X89.82 Y62.66 F3000.0
M3 F3000.0
G01 X89.85 Y62.93 F3000.0
G01 X89.97 Y64.19 F3000.0
G01 X90.42 Y64.1 F3000.0
G01 Y63.99 F3000.0
G01 X90.39 Y63.77 F3000.0
G01 X90.26 Y62.55 F3000.0
G01 X89.82 Y62.66 F3000.0
M5
G00 X91.39 Y63.33 F3000.0
M3 F3000.0
G01 X90.99 Y63.92 F3000.0
G01 Y63.57 F3000.0
G01 Y61.57 F3000.0
G01 Y60.22 F3000.0
G01 X90.55 F3000.0
G01 Y60.24 F3000.0
G01 Y64.24 F3000.0
G01 Y65.27 F3000.0
G01 X90.97 F3000.0
G01 X90.99 Y65.13 F3000.0
G01 Y65.08 F3000.0
G01 Y64.03 F3000.0
G01 X91.3 Y64.27 F3000.0
G01 X91.76 Y63.63 F3000.0
G01 X91.39 Y63.33 F3000.0
M5
G00 X92.93 Y64.49 F3000.0
M3 F3000.0
G01 X93.42 F3000.0
G01 X94.91 F3000.0
G01 Y64.08 F3000.0
G01 X94.87 F3000.0
G01 X93.87 F3000.0
G01 X92.82 F3000.0
G01 X92.47 Y63.19 F3000.0
G01 X93.08 F3000.0
G01 Y63.94 F3000.0
G01 X93.5 F3000.0
G01 X93.52 Y63.81 F3000.0
G01 Y63.19 F3000.0
G01 X93.59 F3000.0
G01 X94.65 F3000.0
G01 Y63.12 F3000.0
G01 Y62.12 F3000.0
G01 Y61.05 F3000.0
G01 X94.3 Y60.7 F3000.0
G01 X93.88 F3000.0
G01 X93.83 Y61.12 F3000.0
G01 X94.12 F3000.0
G01 X94.21 Y61.21 F3000.0
G01 Y61.49 F3000.0
G01 Y62.77 F3000.0
G01 X93.52 F3000.0
G01 Y62.52 F3000.0
G01 Y61.52 F3000.0
G01 Y60.26 F3000.0
G01 X93.08 F3000.0
G01 Y60.52 F3000.0
G01 Y61.52 F3000.0
G01 Y62.77 F3000.0
G01 X92.49 F3000.0
G01 Y62.72 F3000.0
G01 Y61.72 F3000.0
G01 Y60.66 F3000.0
G01 X92.05 F3000.0
G01 Y61.11 F3000.0
G01 Y62.55 F3000.0
G01 X91.47 Y61.96 F3000.0
G01 X91.23 Y62.38 F3000.0
G01 X91.25 Y62.4 F3000.0
G01 X91.8 Y63.23 F3000.0
G01 X92.38 Y64.08 F3000.0
G01 X91.56 F3000.0
G01 Y64.49 F3000.0
G01 X92.51 F3000.0
G01 X92.66 Y65.31 F3000.0
G01 X93.13 Y65.27 F3000.0
G01 X93.06 Y65.16 F3000.0
G01 X92.93 Y64.49 F3000.0
M5
G00 X90.94 Y68.58 F3000.0
M3 F3000.0
G01 Y68.69 F3000.0
G01 Y69.8 F3000.0
G01 X91.32 F3000.0
G01 Y69.69 F3000.0
G01 Y69.63 F3000.0
G01 Y68.58 F3000.0
G01 X90.94 F3000.0
M5
G00 X90.66 Y69.11 F3000.0
M3 F3000.0
G01 X90.6 Y68.89 F3000.0
G01 X90.31 Y67.7 F3000.0
G01 X89.93 Y67.94 F3000.0
G01 X89.98 Y68.15 F3000.0
G01 X90.28 Y69.33 F3000.0
G01 Y69.91 F3000.0
G01 X90.02 Y69.86 F3000.0
G01 X89.91 Y69.8 F3000.0
G01 X89.82 Y70.28 F3000.0
G01 X90.28 Y70.3 F3000.0
G01 Y70.73 F3000.0
G01 Y72.15 F3000.0
G01 X90.79 F3000.0
G01 X90.94 Y72.84 F3000.0
G01 X91.41 Y72.73 F3000.0
G01 X91.34 Y72.62 F3000.0
G01 X91.14 Y72.15 F3000.0
G01 X91.96 F3000.0
G01 Y71.83 F3000.0
G01 Y70.5 F3000.0
G01 X92.16 Y70.52 F3000.0
G01 Y70.21 F3000.0
G01 X91.96 Y70.17 F3000.0
G01 F3000.0
G01 Y69.17 F3000.0
G01 Y68.16 F3000.0
G01 X91.69 Y67.81 F3000.0
G01 X91.28 F3000.0
G01 X91.17 Y68.16 F3000.0
G01 X91.5 F3000.0
G01 X91.58 Y68.25 F3000.0
G01 Y68.68 F3000.0
G01 Y70.1 F3000.0
G01 X90.66 Y69.97 F3000.0
G01 Y69.11 F3000.0
M5
G00 X92.29 Y69.86 F3000.0
M3 F3000.0
G01 Y70.21 F3000.0
G01 X92.74 F3000.0
G01 X94.19 F3000.0
G01 X94.25 Y70.28 F3000.0
G01 X94.58 Y69.99 F3000.0
G01 X94.52 Y69.84 F3000.0
G01 X94.43 Y69.72 F3000.0
G01 X93.77 Y68.78 F3000.0
G01 X93.86 Y68.74 F3000.0
G01 X94.87 Y68.3 F3000.0
G01 X94.69 Y67.86 F3000.0
G01 X94.52 Y67.94 F3000.0
G01 X93.46 Y68.47 F3000.0
G01 X93.29 Y68.39 F3000.0
G01 X92.22 Y67.88 F3000.0
G01 X92.09 Y68.3 F3000.0
G01 X92.15 Y68.32 F3000.0
G01 X93.13 Y68.76 F3000.0
G01 X93.06 Y68.87 F3000.0
G01 X92.51 Y69.86 F3000.0
G01 X92.29 F3000.0
M5
G00 X92.91 Y69.86 F3000.0
M3 F3000.0
G01 X93.46 Y69.05 F3000.0
G01 X93.47 F3000.0
G01 X94.08 Y69.86 F3000.0
G01 X93.99 F3000.0
G01 X92.91 F3000.0
M5
G00 X92.95 Y72.09 F3000.0
M3 F3000.0
G01 Y71.43 F3000.0
G01 X92.94 Y71.38 F3000.0
G01 X92.64 Y70.37 F3000.0
G01 X92.31 Y70.57 F3000.0
G01 X92.58 Y71.4 F3000.0
G01 Y71.42 F3000.0
G01 Y72.44 F3000.0
G01 X92.83 F3000.0
G01 X94.08 F3000.0
G01 Y72.19 F3000.0
G01 Y70.94 F3000.0
G01 X94.14 Y70.85 F3000.0
G01 X94.27 F3000.0
G01 X94.43 Y71.1 F3000.0
G01 X94.47 Y71.38 F3000.0
G01 X94.87 Y71.27 F3000.0
G01 X94.8 Y70.9 F3000.0
G01 X94.43 Y70.5 F3000.0
G01 X94.03 F3000.0
G01 X93.7 Y70.88 F3000.0
G01 Y70.98 F3000.0
G01 Y72.09 F3000.0
G01 X92.95 F3000.0
M5
G00 X91.14 Y71.62 F3000.0
M3 F3000.0
G01 X91.39 Y70.7 F3000.0
G01 X91.03 Y70.59 F3000.0
G01 X90.79 Y71.52 F3000.0
G01 X91.14 Y71.62 F3000.0
M5
G00 X90.66 Y71.8 F3000.0
M3 F3000.0
G01 Y71.57 F3000.0
G01 Y70.35 F3000.0
G01 X91.58 Y70.46 F3000.0
G01 Y70.63 F3000.0
G01 Y71.8 F3000.0
G01 X90.66 F3000.0
M5
G00 X87.22 Y71.03 F3000.0
M3 F3000.0
G01 X86.8 Y70.26 F3000.0
G01 Y69.92 F3000.0
G01 Y68.58 F3000.0
G01 X86.82 Y68.59 F3000.0
G01 X87.79 Y68.91 F3000.0
G01 X87.9 Y68.47 F3000.0
G01 X87.88 F3000.0
G01 X86.92 Y68.17 F3000.0
G01 X85.94 Y67.88 F3000.0
G01 X85.83 Y67.83 F3000.0
G01 X85.67 Y68.36 F3000.0
G01 X86.36 Y68.47 F3000.0
G01 Y68.63 F3000.0
G01 Y69.8 F3000.0
G01 X86.31 Y69.75 F3000.0
G01 X85.48 Y69.09 F3000.0
G01 X85.32 Y69.6 F3000.0
G01 X85.45 Y69.74 F3000.0
G01 X86.13 Y70.48 F3000.0
G01 X86.93 Y71.36 F3000.0
G01 X86.7 F3000.0
G01 X85.48 F3000.0
G01 Y71.78 F3000.0
G01 X85.73 F3000.0
G01 X86.97 F3000.0
G01 Y72.75 F3000.0
G01 X87.39 F3000.0
G01 X87.42 Y72.62 F3000.0
G01 Y71.78 F3000.0
G01 X87.75 F3000.0
G01 X89.09 F3000.0
G01 Y71.36 F3000.0
G01 X88.83 F3000.0
G01 X87.57 F3000.0
G01 X87.6 Y71.23 F3000.0
G01 X87.86 Y70.13 F3000.0
G01 X87.9 Y70.17 F3000.0
G01 X88.65 Y70.92 F3000.0
G01 X88.98 Y70.59 F3000.0
G01 X88.92 Y70.46 F3000.0
G01 X88.86 Y70.41 F3000.0
G01 X88.06 Y69.71 F3000.0
G01 X88.34 Y69.41 F3000.0
G01 X89.33 Y68.41 F3000.0
G01 X89.0 Y67.9 F3000.0
G01 X88.85 Y68.16 F3000.0
G01 X88.36 Y69.03 F3000.0
G01 X87.86 Y69.9 F3000.0
G01 X87.22 Y71.03 F3000.0
G01 F3000.0
M5
G00 X85.17 Y67.74 F3000.0
M3 F3000.0
G01 X84.73 F3000.0
G01 Y68.14 F3000.0
G01 Y69.14 F3000.0
G01 Y70.54 F3000.0
G01 X84.31 Y69.95 F3000.0
G01 X84.02 Y70.37 F3000.0
G01 X84.13 Y70.63 F3000.0
G01 X84.53 Y71.55 F3000.0
G01 X85.03 Y72.73 F3000.0
G01 X85.48 Y72.62 F3000.0
G01 Y72.48 F3000.0
G01 X85.44 Y72.37 F3000.0
G01 X85.1 Y71.29 F3000.0
G01 X85.17 Y71.12 F3000.0
G01 Y70.93 F3000.0
G01 Y68.93 F3000.0
G01 Y67.74 F3000.0
M5
G00 X81.38 Y69.18 F3000.0
M3 F3000.0
G01 X81.2 Y68.91 F3000.0
G01 X81.97 F3000.0
G01 Y69.18 F3000.0
G01 X81.38 F3000.0
M5
G00 X80.71 Y68.96 F3000.0
M3 F3000.0
G01 X80.75 Y69.01 F3000.0
G01 X81.29 Y69.93 F3000.0
G01 X81.66 Y69.84 F3000.0
G01 X81.62 Y69.71 F3000.0
G01 X81.53 Y69.53 F3000.0
G01 X81.97 F3000.0
G01 Y69.95 F3000.0
G01 X81.84 F3000.0
G01 X80.71 F3000.0
G01 Y68.96 F3000.0
M5
G00 X81.9 Y70.57 F3000.0
M3 F3000.0
G01 X81.88 Y70.56 F3000.0
G01 X80.89 Y70.3 F3000.0
G01 X81.27 F3000.0
G01 X82.65 F3000.0
G01 X81.9 Y70.57 F3000.0
G01 F3000.0
M5
G00 X81.04 Y71.14 F3000.0
M3 F3000.0
G01 X81.88 Y70.92 F3000.0
G01 X82.26 Y71.14 F3000.0
G01 X82.15 F3000.0
G01 X81.04 F3000.0
M5
G00 X80.18 Y71.43 F3000.0
M3 F3000.0
G01 X80.16 Y71.25 F3000.0
G01 X80.12 Y71.14 F3000.0
G01 X79.72 Y70.1 F3000.0
G01 X79.73 Y70.07 F3000.0
G01 X80.16 Y69.13 F3000.0
G01 X79.63 Y68.38 F3000.0
G01 X79.41 F3000.0
G01 X79.26 Y68.8 F3000.0
G01 X79.5 F3000.0
G01 X79.72 Y69.18 F3000.0
G01 X79.28 Y70.08 F3000.0
G01 X79.31 Y70.17 F3000.0
G01 X79.7 Y71.18 F3000.0
G01 X79.13 F3000.0
G01 Y70.96 F3000.0
G01 Y68.96 F3000.0
G01 Y67.74 F3000.0
G01 X78.75 F3000.0
G01 Y68.14 F3000.0
G01 Y70.14 F3000.0
G01 Y71.54 F3000.0
G01 X78.81 F3000.0
G01 X79.88 F3000.0
G01 X79.94 Y71.6 F3000.0
G01 X80.18 Y71.43 F3000.0
M5
G00 X80.43 Y72.84 F3000.0
M3 F3000.0
G01 X80.45 Y72.7 F3000.0
G01 Y72.35 F3000.0
G01 X80.52 F3000.0
G01 X81.6 F3000.0
G01 Y72.84 F3000.0
G01 X82.02 F3000.0
G01 X82.04 Y72.7 F3000.0
G01 Y72.35 F3000.0
G01 X82.25 F3000.0
G01 X83.47 F3000.0
G01 Y72.0 F3000.0
G01 X83.25 F3000.0
G01 X82.04 F3000.0
G01 Y71.82 F3000.0
G01 X81.95 F3000.0
G01 Y71.4 F3000.0
G01 X82.17 F3000.0
G01 X83.38 F3000.0
G01 Y71.14 F3000.0
G01 X82.65 F3000.0
G01 X82.63 Y70.99 F3000.0
G01 X82.28 Y70.79 F3000.0
G01 X83.14 Y70.5 F3000.0
G01 X82.85 Y70.3 F3000.0
G01 X83.51 F3000.0
G01 Y69.95 F3000.0
G01 X83.42 F3000.0
G01 X82.32 F3000.0
G01 X82.34 Y69.82 F3000.0
G01 Y69.53 F3000.0
G01 X82.36 F3000.0
G01 X83.38 F3000.0
G01 Y69.18 F3000.0
G01 X83.36 F3000.0
G01 X82.34 F3000.0
G01 Y68.91 F3000.0
G01 X83.27 F3000.0
G01 Y68.56 F3000.0
G01 X82.34 F3000.0
G01 Y68.19 F3000.0
G01 X82.46 F3000.0
G01 X83.58 F3000.0
G01 Y67.83 F3000.0
G01 X83.11 F3000.0
G01 X82.11 F3000.0
G01 X80.65 F3000.0
G01 Y68.19 F3000.0
G01 X80.81 F3000.0
G01 X81.97 F3000.0
G01 Y68.56 F3000.0
G01 X81.18 F3000.0
G01 Y68.87 F3000.0
G01 X81.0 Y68.67 F3000.0
G01 X80.71 Y68.87 F3000.0
G01 X80.64 Y68.73 F3000.0
G01 X80.07 Y67.72 F3000.0
G01 X79.72 Y68.01 F3000.0
G01 X79.8 Y68.16 F3000.0
G01 X80.34 Y69.2 F3000.0
G01 Y69.25 F3000.0
G01 Y70.3 F3000.0
G01 X80.6 F3000.0
G01 X80.38 Y70.52 F3000.0
G01 X80.41 Y70.53 F3000.0
G01 X81.42 Y70.7 F3000.0
G01 X80.6 Y70.88 F3000.0
G01 X80.85 Y71.14 F3000.0
G01 X80.32 F3000.0
G01 Y71.4 F3000.0
G01 X80.41 F3000.0
G01 X81.51 F3000.0
G01 Y71.82 F3000.0
G01 X81.6 F3000.0
G01 Y72.0 F3000.0
G01 X81.52 F3000.0
G01 X80.45 F3000.0
G01 Y71.67 F3000.0
G01 X80.01 F3000.0
G01 Y72.0 F3000.0
G01 X79.81 F3000.0
G01 X78.62 F3000.0
G01 Y72.35 F3000.0
G01 X78.81 F3000.0
G01 X80.01 F3000.0
G01 Y72.84 F3000.0
G01 X80.43 F3000.0
M5
G00 X82.76 Y75.25 F3000.0
M3 F3000.0
G01 X82.32 F3000.0
G01 Y75.45 F3000.0
G01 X82.09 F3000.0
G01 X81.09 F3000.0
G01 X79.85 F3000.0
G01 Y75.21 F3000.0
G01 X79.41 F3000.0
G01 Y75.7 F3000.0
G01 Y77.19 F3000.0
G01 X79.63 F3000.0
G01 X80.85 F3000.0
G01 Y77.81 F3000.0
G01 X80.75 F3000.0
G01 X79.75 F3000.0
G01 X78.66 F3000.0
G01 Y78.23 F3000.0
G01 X78.75 F3000.0
G01 X79.75 F3000.0
G01 X80.85 F3000.0
G01 Y78.84 F3000.0
G01 X81.27 F3000.0
G01 X81.29 Y78.71 F3000.0
G01 Y78.23 F3000.0
G01 X81.39 F3000.0
G01 X82.39 F3000.0
G01 X83.49 F3000.0
G01 Y77.81 F3000.0
G01 X83.39 F3000.0
G01 X82.39 F3000.0
G01 X81.29 F3000.0
G01 Y77.19 F3000.0
G01 X81.53 F3000.0
G01 X82.76 F3000.0
G01 Y76.72 F3000.0
G01 Y75.25 F3000.0
M5
G00 X79.85 Y76.77 F3000.0
M3 F3000.0
G01 Y75.87 F3000.0
G01 X80.09 F3000.0
G01 X81.09 F3000.0
G01 X82.32 F3000.0
G01 Y76.77 F3000.0
G01 X82.09 F3000.0
G01 X81.09 F3000.0
G01 X79.85 F3000.0
M5
G00 X77.41 Y75.36 F3000.0
M3 F3000.0
G01 X77.31 Y75.48 F3000.0
G01 X76.59 Y76.38 F3000.0
G01 X76.94 Y76.62 F3000.0
G01 X77.04 Y76.51 F3000.0
G01 X77.8 Y75.67 F3000.0
G01 X77.41 Y75.36 F3000.0
M5
G00 X75.95 Y75.36 F3000.0
M3 F3000.0
G01 X75.93 Y75.44 F3000.0
G01 X75.62 Y76.48 F3000.0
G01 X76.06 Y76.62 F3000.0
G01 X76.09 Y76.54 F3000.0
G01 X76.44 Y75.52 F3000.0
G01 X75.95 Y75.36 F3000.0
M5
G00 X75.07 Y76.57 F3000.0
M3 F3000.0
G01 X75.08 Y76.44 F3000.0
G01 X75.18 Y75.32 F3000.0
G01 X74.69 Y75.27 F3000.0
G01 Y75.41 F3000.0
G01 X74.61 Y76.55 F3000.0
G01 X75.07 Y76.57 F3000.0
M5
G00 X74.23 Y76.42 F3000.0
M3 F3000.0
G01 X74.17 Y76.31 F3000.0
G01 X74.09 Y76.2 F3000.0
G01 X73.44 Y75.27 F3000.0
G01 X73.08 Y75.58 F3000.0
G01 X73.17 Y75.7 F3000.0
G01 X73.81 Y76.64 F3000.0
G01 X74.23 Y76.42 F3000.0
M5
G00 X74.36 Y77.98 F3000.0
M3 F3000.0
G01 Y77.21 F3000.0
G01 X74.83 F3000.0
G01 Y77.98 F3000.0
G01 X74.36 F3000.0
M5
G00 X74.36 Y78.4 F3000.0
M3 F3000.0
G01 X74.83 F3000.0
G01 Y79.17 F3000.0
G01 X74.36 F3000.0
G01 Y78.4 F3000.0
M5
G00 X75.27 Y77.98 F3000.0
M3 F3000.0
G01 Y77.21 F3000.0
G01 X75.75 F3000.0
G01 Y77.98 F3000.0
G01 X75.27 F3000.0
M5
G00 X75.27 Y79.17 F3000.0
M3 F3000.0
G01 Y78.4 F3000.0
G01 X75.75 F3000.0
G01 Y79.17 F3000.0
G01 X75.27 F3000.0
M5
G00 X76.19 Y79.17 F3000.0
M3 F3000.0
G01 Y78.4 F3000.0
G01 X76.66 F3000.0
G01 Y79.17 F3000.0
G01 X76.19 F3000.0
M5
G00 X76.19 Y77.21 F3000.0
M3 F3000.0
G01 X76.66 F3000.0
G01 Y77.98 F3000.0
G01 X76.19 F3000.0
G01 Y77.21 F3000.0
M5
G00 X74.19 Y79.59 F3000.0
M3 F3000.0
G01 X74.37 F3000.0
G01 X76.37 F3000.0
G01 X77.56 F3000.0
G01 Y79.17 F3000.0
G01 X77.1 F3000.0
G01 Y78.4 F3000.0
G01 X77.87 F3000.0
G01 Y77.98 F3000.0
G01 X77.1 F3000.0
G01 Y77.21 F3000.0
G01 X77.8 F3000.0
G01 Y76.79 F3000.0
G01 X77.43 F3000.0
G01 X74.43 F3000.0
G01 X73.06 F3000.0
G01 Y77.21 F3000.0
G01 X73.92 F3000.0
G01 Y77.98 F3000.0
G01 X73.0 F3000.0
G01 Y78.4 F3000.0
G01 X73.92 F3000.0
G01 Y79.15 F3000.0
G01 X73.33 Y78.54 F3000.0
G01 X73.06 Y78.91 F3000.0
G01 X73.25 Y79.17 F3000.0
G01 X74.01 Y80.23 F3000.0
G01 X74.45 Y80.1 F3000.0
G01 X74.39 Y79.99 F3000.0
G01 X74.19 Y79.59 F3000.0
M5
G00 X71.76 Y82.82 F3000.0
M3 F3000.0
G01 X71.67 Y82.94 F3000.0
G01 X70.95 Y83.84 F3000.0
G01 X71.3 Y84.08 F3000.0
G01 X71.39 Y83.98 F3000.0
G01 X72.16 Y83.13 F3000.0
G01 X71.76 Y82.82 F3000.0
M5
G00 X70.31 Y82.82 F3000.0
M3 F3000.0
G01 X70.28 Y82.91 F3000.0
G01 X69.98 Y83.95 F3000.0
G01 X70.42 Y84.08 F3000.0
G01 X70.44 Y84.0 F3000.0
G01 X70.79 Y82.98 F3000.0
G01 X70.31 Y82.82 F3000.0
M5
G00 X69.42 Y84.04 F3000.0
M3 F3000.0
G01 X69.44 Y83.91 F3000.0
G01 X69.53 Y82.78 F3000.0
G01 X69.05 Y82.73 F3000.0
G01 X69.04 Y82.88 F3000.0
G01 X68.96 Y84.01 F3000.0
G01 X69.42 Y84.04 F3000.0
M5
G00 X68.59 Y83.88 F3000.0
M3 F3000.0
G01 X68.52 Y83.77 F3000.0
G01 X68.44 Y83.66 F3000.0
G01 X67.79 Y82.73 F3000.0
G01 X67.44 Y83.04 F3000.0
G01 X67.52 Y83.16 F3000.0
G01 X68.17 Y84.1 F3000.0
G01 X68.59 Y83.88 F3000.0
M5
G00 X68.72 Y85.45 F3000.0
M3 F3000.0
G01 Y84.67 F3000.0
G01 X69.18 F3000.0
G01 Y85.45 F3000.0
G01 X68.72 F3000.0
M5
G00 X68.72 Y85.87 F3000.0
M3 F3000.0
G01 X69.18 F3000.0
G01 Y86.64 F3000.0
G01 X68.72 F3000.0
G01 Y85.87 F3000.0
M5
G00 X69.62 Y85.45 F3000.0
M3 F3000.0
G01 Y84.67 F3000.0
G01 X70.11 F3000.0
G01 Y85.45 F3000.0
G01 X69.62 F3000.0
M5
G00 X69.62 Y86.64 F3000.0
M3 F3000.0
G01 Y85.87 F3000.0
G01 X70.11 F3000.0
G01 Y86.64 F3000.0
G01 X69.62 F3000.0
M5
G00 X70.55 Y86.64 F3000.0
M3 F3000.0
G01 Y85.87 F3000.0
G01 X71.01 F3000.0
G01 Y86.64 F3000.0
G01 X70.55 F3000.0
M5
G00 X70.55 Y84.67 F3000.0
M3 F3000.0
G01 X71.01 F3000.0
G01 Y85.45 F3000.0
G01 X70.55 F3000.0
G01 Y84.67 F3000.0
M5
G00 X73.61 Y84.41 F3000.0
M3 F3000.0
G01 X74.58 F3000.0
G01 Y84.46 F3000.0
G01 Y85.51 F3000.0
G01 X73.61 F3000.0
G01 Y85.46 F3000.0
G01 Y84.41 F3000.0
M5
G00 X73.61 Y83.99 F3000.0
M3 F3000.0
G01 Y83.62 F3000.0
G01 X73.17 F3000.0
G01 Y83.96 F3000.0
G01 Y85.96 F3000.0
G01 Y87.3 F3000.0
G01 X73.6 F3000.0
G01 X75.03 F3000.0
G01 Y87.15 F3000.0
G01 Y85.15 F3000.0
G01 Y83.99 F3000.0
G01 X74.82 F3000.0
G01 X73.61 F3000.0
M5
G00 X73.61 Y85.93 F3000.0
M3 F3000.0
G01 X74.58 F3000.0
G01 Y86.88 F3000.0
G01 X73.61 F3000.0
G01 Y85.93 F3000.0
M5
G00 X75.97 Y86.15 F3000.0
M3 F3000.0
G01 X76.1 F3000.0
G01 X77.23 F3000.0
G01 Y87.01 F3000.0
G01 X77.1 F3000.0
G01 X75.97 F3000.0
G01 Y86.15 F3000.0
M5
G00 X77.23 Y85.73 F3000.0
M3 F3000.0
G01 X77.1 F3000.0
G01 X75.97 F3000.0
G01 Y84.85 F3000.0
G01 X76.1 F3000.0
G01 X77.23 F3000.0
G01 Y85.73 F3000.0
M5
G00 X78.69 Y84.08 F3000.0
M3 F3000.0
G01 X78.87 Y84.54 F3000.0
G01 X79.41 Y85.93 F3000.0
G01 X79.94 Y85.78 F3000.0
G01 X79.88 Y85.67 F3000.0
G01 Y85.66 F3000.0
G01 X79.49 Y84.74 F3000.0
G01 X79.1 Y83.81 F3000.0
G01 X78.69 Y84.08 F3000.0
M5
G00 X79.92 Y80.19 F3000.0
M3 F3000.0
G01 X80.34 F3000.0
G01 X80.36 Y80.06 F3000.0
G01 Y79.55 F3000.0
G01 X80.57 F3000.0
G01 X81.77 F3000.0
G01 Y80.19 F3000.0
G01 X82.19 F3000.0
G01 X82.21 Y80.06 F3000.0
G01 Y79.55 F3000.0
G01 X82.33 F3000.0
G01 X83.45 F3000.0
G01 Y79.13 F3000.0
G01 X83.33 F3000.0
G01 X82.21 F3000.0
G01 Y78.58 F3000.0
G01 X81.77 F3000.0
G01 Y79.13 F3000.0
G01 X81.57 F3000.0
G01 X80.36 F3000.0
G01 Y78.54 F3000.0
G01 X79.92 F3000.0
G01 Y79.13 F3000.0
G01 X79.83 F3000.0
G01 X78.73 F3000.0
G01 Y79.55 F3000.0
G01 X78.83 F3000.0
G01 X79.92 F3000.0
G01 Y80.19 F3000.0
M5
G00 X83.01 Y83.7 F3000.0
M3 F3000.0
G01 X82.97 Y83.78 F3000.0
G01 X82.58 Y84.7 F3000.0
G01 X82.15 Y85.69 F3000.0
G01 X82.57 Y85.89 F3000.0
G01 X82.6 Y85.81 F3000.0
G01 X83.03 Y84.91 F3000.0
G01 X83.49 Y83.92 F3000.0
G01 X83.01 Y83.7 F3000.0
M5
G00 X85.52 Y83.88 F3000.0
M3 F3000.0
G01 X85.45 Y83.77 F3000.0
G01 X85.38 Y83.66 F3000.0
G01 X84.73 Y82.73 F3000.0
G01 X84.37 Y83.04 F3000.0
G01 X84.45 Y83.16 F3000.0
G01 X85.1 Y84.1 F3000.0
G01 X85.52 Y83.88 F3000.0
M5
G00 X86.36 Y84.04 F3000.0
M3 F3000.0
G01 X86.37 Y83.91 F3000.0
G01 X86.47 Y82.78 F3000.0
G01 X85.98 Y82.73 F3000.0
G01 X85.97 Y82.88 F3000.0
G01 X85.89 Y84.01 F3000.0
G01 X86.36 Y84.04 F3000.0
M5
G00 X87.48 Y84.67 F3000.0
M3 F3000.0
G01 X87.95 F3000.0
G01 Y85.45 F3000.0
G01 X87.48 F3000.0
G01 Y84.67 F3000.0
M5
G00 X86.56 Y85.45 F3000.0
M3 F3000.0
G01 Y84.67 F3000.0
G01 X87.04 F3000.0
G01 Y85.45 F3000.0
G01 X86.56 F3000.0
M5
G00 X85.65 Y85.45 F3000.0
M3 F3000.0
G01 Y84.67 F3000.0
G01 X86.12 F3000.0
G01 Y85.45 F3000.0
G01 X85.65 F3000.0
M5
G00 X85.65 Y85.87 F3000.0
M3 F3000.0
G01 X86.12 F3000.0
G01 Y86.64 F3000.0
G01 X85.65 F3000.0
G01 Y85.87 F3000.0
M5
G00 X86.56 Y86.64 F3000.0
M3 F3000.0
G01 Y85.87 F3000.0
G01 X87.04 F3000.0
G01 Y86.64 F3000.0
G01 X86.56 F3000.0
M5
G00 X87.48 Y86.64 F3000.0
M3 F3000.0
G01 Y85.87 F3000.0
G01 X87.95 F3000.0
G01 Y86.64 F3000.0
G01 X87.48 F3000.0
M5
G00 X85.48 Y87.06 F3000.0
M3 F3000.0
G01 X85.66 F3000.0
G01 X87.66 F3000.0
G01 X88.85 F3000.0
G01 Y86.64 F3000.0
G01 X88.39 F3000.0
G01 Y85.87 F3000.0
G01 X89.16 F3000.0
G01 Y85.45 F3000.0
G01 X88.39 F3000.0
G01 Y84.67 F3000.0
G01 X89.09 F3000.0
G01 Y84.26 F3000.0
G01 X88.72 F3000.0
G01 X85.72 F3000.0
G01 X84.35 F3000.0
G01 Y84.67 F3000.0
G01 X85.21 F3000.0
G01 Y85.45 F3000.0
G01 X84.29 F3000.0
G01 Y85.87 F3000.0
G01 X85.21 F3000.0
G01 Y86.62 F3000.0
G01 X84.62 Y86.0 F3000.0
G01 X84.35 Y86.37 F3000.0
G01 X84.53 Y86.63 F3000.0
G01 X85.3 Y87.7 F3000.0
G01 X85.74 Y87.56 F3000.0
G01 X85.67 Y87.45 F3000.0
G01 X85.48 Y87.06 F3000.0
M5
G00 X83.45 Y86.37 F3000.0
M3 F3000.0
G01 X83.17 F3000.0
G01 X81.88 F3000.0
G01 Y86.24 F3000.0
G01 Y84.24 F3000.0
G01 Y83.11 F3000.0
G01 X81.53 Y82.76 F3000.0
G01 X81.04 F3000.0
G01 X80.98 Y83.18 F3000.0
G01 X81.35 F3000.0
G01 X81.44 Y83.26 F3000.0
G01 Y83.32 F3000.0
G01 Y85.32 F3000.0
G01 Y86.37 F3000.0
G01 X80.76 F3000.0
G01 Y86.07 F3000.0
G01 Y84.76 F3000.0
G01 X80.7 Y84.58 F3000.0
G01 X80.34 Y83.45 F3000.0
G01 X80.14 Y83.33 F3000.0
G01 X79.08 Y82.69 F3000.0
G01 X78.88 Y83.13 F3000.0
G01 X78.99 Y83.19 F3000.0
G01 X79.96 Y83.74 F3000.0
G01 X79.97 Y83.79 F3000.0
G01 X80.32 Y84.78 F3000.0
G01 Y85.08 F3000.0
G01 Y86.37 F3000.0
G01 X80.01 F3000.0
G01 X78.71 F3000.0
G01 Y86.79 F3000.0
G01 X78.77 F3000.0
G01 X79.77 F3000.0
G01 X80.82 F3000.0
G01 Y87.65 F3000.0
G01 X81.24 F3000.0
G01 X81.27 Y87.47 F3000.0
G01 Y86.79 F3000.0
G01 X81.36 F3000.0
G01 X82.36 F3000.0
G01 X83.45 F3000.0
G01 Y86.37 F3000.0
M5
G00 X82.19 Y90.31 F3000.0
M3 F3000.0
G01 X82.09 F3000.0
G01 X81.09 F3000.0
G01 X79.99 F3000.0
G01 Y90.11 F3000.0
G01 X79.55 F3000.0
G01 Y90.22 F3000.0
G01 Y91.22 F3000.0
G01 Y92.34 F3000.0
G01 X79.59 F3000.0
G01 X81.59 F3000.0
G01 X82.63 F3000.0
G01 Y92.25 F3000.0
G01 Y91.25 F3000.0
G01 Y90.17 F3000.0
G01 X82.19 F3000.0
G01 Y90.31 F3000.0
M5
G00 X82.19 Y90.73 F3000.0
M3 F3000.0
G01 Y91.12 F3000.0
G01 X82.09 F3000.0
G01 X81.09 F3000.0
G01 X79.99 F3000.0
G01 Y90.73 F3000.0
G01 X80.09 F3000.0
G01 X81.09 F3000.0
G01 X82.19 F3000.0
M5
G00 X82.19 Y91.54 F3000.0
M3 F3000.0
G01 Y91.92 F3000.0
G01 X82.09 F3000.0
G01 X81.09 F3000.0
G01 X79.99 F3000.0
G01 Y91.54 F3000.0
G01 X80.09 F3000.0
G01 X81.09 F3000.0
G01 X82.19 F3000.0
M5
G00 X81.29 Y92.53 F3000.0
M3 F3000.0
G01 X80.85 F3000.0
G01 Y93.31 F3000.0
G01 X80.66 Y93.2 F3000.0
G01 X79.78 Y92.73 F3000.0
G01 X78.71 Y92.16 F3000.0
G01 X78.53 Y92.62 F3000.0
G01 X78.71 Y92.71 F3000.0
G01 X79.61 Y93.15 F3000.0
G01 X80.69 Y93.68 F3000.0
G01 X80.25 F3000.0
G01 X78.82 F3000.0
G01 Y94.1 F3000.0
G01 X78.83 F3000.0
G01 X79.83 F3000.0
G01 X80.85 F3000.0
G01 Y94.61 F3000.0
G01 X80.51 Y94.59 F3000.0
G01 X79.17 Y94.54 F3000.0
G01 X79.13 Y94.92 F3000.0
G01 X79.34 Y94.93 F3000.0
G01 X80.34 Y95.0 F3000.0
G01 X81.33 Y95.07 F3000.0
G01 X82.54 Y95.16 F3000.0
G01 X82.81 Y94.78 F3000.0
G01 X82.61 Y94.69 F3000.0
G01 X82.45 F3000.0
G01 X81.29 Y94.63 F3000.0
G01 Y94.1 F3000.0
G01 X81.3 F3000.0
G01 X82.3 F3000.0
G01 X83.31 F3000.0
G01 Y93.68 F3000.0
G01 X82.91 F3000.0
G01 X81.51 F3000.0
G01 X81.64 Y93.62 F3000.0
G01 X82.53 Y93.17 F3000.0
G01 X83.56 Y92.67 F3000.0
G01 X83.38 Y92.2 F3000.0
G01 X83.21 Y92.3 F3000.0
G01 X82.33 Y92.79 F3000.0
G01 X81.29 Y93.37 F3000.0
G01 Y92.53 F3000.0
M5
G00 X77.89 Y94.61 F3000.0
M3 F3000.0
G01 Y94.19 F3000.0
G01 X77.76 F3000.0
G01 X76.76 F3000.0
G01 X75.62 F3000.0
G01 Y93.77 F3000.0
G01 X76.04 F3000.0
G01 X77.45 F3000.0
G01 Y93.35 F3000.0
G01 X77.42 F3000.0
G01 X74.42 F3000.0
G01 X73.39 F3000.0
G01 Y93.77 F3000.0
G01 X73.79 F3000.0
G01 X75.18 F3000.0
G01 Y94.19 F3000.0
G01 X75.08 F3000.0
G01 X74.08 F3000.0
G01 X72.97 F3000.0
G01 Y94.61 F3000.0
G01 X73.08 F3000.0
G01 X74.08 F3000.0
G01 X75.18 F3000.0
G01 Y95.18 F3000.0
G01 X75.6 F3000.0
G01 X75.62 Y95.05 F3000.0
G01 Y94.61 F3000.0
G01 X75.76 F3000.0
G01 X76.76 F3000.0
G01 X77.89 F3000.0
M5
G00 X76.94 Y92.6 F3000.0
M3 F3000.0
G01 X76.8 F3000.0
G01 X75.67 F3000.0
G01 Y92.0 F3000.0
G01 X75.8 F3000.0
G01 X76.94 F3000.0
G01 Y92.6 F3000.0
M5
G00 X75.22 Y92.6 F3000.0
M3 F3000.0
G01 X75.12 F3000.0
G01 X74.01 F3000.0
G01 Y92.0 F3000.0
G01 X74.12 F3000.0
G01 X75.22 F3000.0
G01 Y92.6 F3000.0
M5
G00 X73.57 Y93.02 F3000.0
M3 F3000.0
G01 X73.98 F3000.0
G01 X75.98 F3000.0
G01 X77.38 F3000.0
G01 Y92.7 F3000.0
G01 Y91.39 F3000.0
G01 X76.94 F3000.0
G01 Y91.59 F3000.0
G01 X76.48 F3000.0
G01 X75.48 F3000.0
G01 X74.01 F3000.0
G01 X73.87 Y91.27 F3000.0
G01 X73.31 Y90.04 F3000.0
G01 X72.95 Y90.4 F3000.0
G01 X73.02 Y90.53 F3000.0
G01 X73.57 Y91.54 F3000.0
G01 Y91.78 F3000.0
G01 Y93.02 F3000.0
M5
G00 X71.12 Y93.28 F3000.0
M3 F3000.0
G01 X71.07 F3000.0
G01 X70.02 F3000.0
G01 Y92.36 F3000.0
G01 X70.07 F3000.0
G01 X71.12 F3000.0
G01 Y93.28 F3000.0
M5
G00 X69.8 Y93.7 F3000.0
M3 F3000.0
G01 X70.26 Y94.32 F3000.0
G01 X70.06 F3000.0
G01 X68.85 F3000.0
G01 X68.5 Y93.7 F3000.0
G01 X68.65 F3000.0
G01 X69.8 F3000.0
M5
G00 X69.58 Y93.28 F3000.0
M3 F3000.0
G01 X69.54 F3000.0
G01 X68.5 F3000.0
G01 Y92.36 F3000.0
G01 X68.54 F3000.0
G01 X69.58 F3000.0
G01 Y93.28 F3000.0
M5
G00 X67.22 Y93.11 F3000.0
M3 F3000.0
G01 X67.35 Y93.3 F3000.0
G01 X67.92 Y94.12 F3000.0
G01 X68.61 Y95.14 F3000.0
G01 X69.14 Y95.03 F3000.0
G01 X69.07 Y94.92 F3000.0
G01 X69.01 Y94.74 F3000.0
G01 X69.27 F3000.0
G01 X70.53 F3000.0
G01 X70.64 Y94.85 F3000.0
G01 X70.92 Y94.56 F3000.0
G01 X70.86 Y94.41 F3000.0
G01 X70.33 Y93.7 F3000.0
G01 X70.45 F3000.0
G01 X71.56 F3000.0
G01 Y93.25 F3000.0
G01 Y91.81 F3000.0
G01 X71.12 F3000.0
G01 Y91.94 F3000.0
G01 X70.81 F3000.0
G01 X69.81 F3000.0
G01 X68.5 F3000.0
G01 Y91.88 F3000.0
G01 Y90.81 F3000.0
G01 X68.7 Y90.66 F3000.0
G01 X69.02 F3000.0
G01 X70.02 F3000.0
G01 X71.34 F3000.0
G01 X71.56 Y90.81 F3000.0
G01 X71.74 Y91.37 F3000.0
G01 X72.22 Y91.23 F3000.0
G01 X71.94 Y90.42 F3000.0
G01 X71.54 Y90.24 F3000.0
G01 X71.51 F3000.0
G01 X69.51 F3000.0
G01 X68.48 F3000.0
G01 X68.06 Y90.66 F3000.0
G01 Y90.92 F3000.0
G01 Y91.92 F3000.0
G01 Y93.17 F3000.0
G01 X67.51 Y92.69 F3000.0
G01 X67.22 Y93.11 F3000.0
M5
G00 X64.91 Y92.14 F3000.0
M3 F3000.0
G01 X65.37 F3000.0
G01 Y92.91 F3000.0
G01 X64.91 F3000.0
G01 Y92.14 F3000.0
M5
G00 X63.98 Y92.91 F3000.0
M3 F3000.0
G01 Y92.14 F3000.0
G01 X64.46 F3000.0
G01 Y92.91 F3000.0
G01 X63.98 F3000.0
M5
G00 X63.08 Y92.91 F3000.0
M3 F3000.0
G01 Y92.14 F3000.0
G01 X63.54 F3000.0
G01 Y92.91 F3000.0
G01 X63.08 F3000.0
M5
G00 X63.08 Y93.33 F3000.0
M3 F3000.0
G01 X63.54 F3000.0
G01 Y94.1 F3000.0
G01 X63.08 F3000.0
G01 Y93.33 F3000.0
M5
G00 X63.98 Y94.1 F3000.0
M3 F3000.0
G01 Y93.33 F3000.0
G01 X64.46 F3000.0
G01 Y94.1 F3000.0
G01 X63.98 F3000.0
M5
G00 X64.91 Y94.1 F3000.0
M3 F3000.0
G01 Y93.33 F3000.0
G01 X65.37 F3000.0
G01 Y94.1 F3000.0
G01 X64.91 F3000.0
M5
G00 X62.9 Y94.52 F3000.0
M3 F3000.0
G01 X63.09 F3000.0
G01 X65.08 F3000.0
G01 X66.27 F3000.0
G01 Y94.1 F3000.0
G01 X65.81 F3000.0
G01 Y93.33 F3000.0
G01 X66.58 F3000.0
G01 Y92.91 F3000.0
G01 X65.81 F3000.0
G01 Y92.14 F3000.0
G01 X66.51 F3000.0
G01 Y91.72 F3000.0
G01 X66.14 F3000.0
G01 X63.14 F3000.0
G01 X61.77 F3000.0
G01 Y92.14 F3000.0
G01 X62.63 F3000.0
G01 Y92.91 F3000.0
G01 X61.71 F3000.0
G01 Y93.33 F3000.0
G01 X62.63 F3000.0
G01 Y94.08 F3000.0
G01 X62.04 Y93.46 F3000.0
G01 X61.77 Y93.84 F3000.0
G01 X61.96 Y94.09 F3000.0
G01 X62.72 Y95.16 F3000.0
G01 X63.16 Y95.03 F3000.0
G01 X63.1 Y94.92 F3000.0
G01 X62.9 Y94.52 F3000.0
M5
G00 X63.78 Y91.5 F3000.0
M3 F3000.0
G01 X63.79 Y91.37 F3000.0
G01 X63.89 Y90.24 F3000.0
G01 X63.41 Y90.2 F3000.0
G01 X63.4 Y90.34 F3000.0
G01 X63.32 Y91.48 F3000.0
G01 X63.78 Y91.5 F3000.0
M5
G00 X62.94 Y91.34 F3000.0
M3 F3000.0
G01 X62.88 Y91.23 F3000.0
G01 X62.8 Y91.12 F3000.0
G01 X62.15 Y90.2 F3000.0
G01 X61.8 Y90.51 F3000.0
G01 X61.88 Y90.62 F3000.0
G01 X62.52 Y91.56 F3000.0
G01 X62.94 Y91.34 F3000.0
M5
G00 X64.66 Y90.28 F3000.0
M3 F3000.0
G01 X64.64 Y90.37 F3000.0
G01 X64.33 Y91.41 F3000.0
G01 X64.77 Y91.54 F3000.0
G01 X64.8 Y91.46 F3000.0
G01 X65.15 Y90.44 F3000.0
G01 X64.66 Y90.28 F3000.0
M5
G00 X66.12 Y90.28 F3000.0
M3 F3000.0
G01 X66.02 Y90.4 F3000.0
G01 X65.3 Y91.3 F3000.0
G01 X65.65 Y91.54 F3000.0
G01 X65.75 Y91.44 F3000.0
G01 X66.51 Y90.59 F3000.0
G01 X66.12 Y90.28 F3000.0
M5
G00 X64.91 Y86.64 F3000.0
M3 F3000.0
G01 Y85.87 F3000.0
G01 X65.37 F3000.0
G01 Y86.64 F3000.0
G01 X64.91 F3000.0
M5
G00 X63.98 Y86.64 F3000.0
M3 F3000.0
G01 Y85.87 F3000.0
G01 X64.46 F3000.0
G01 Y86.64 F3000.0
G01 X63.98 F3000.0
M5
G00 X62.9 Y87.06 F3000.0
M3 F3000.0
G01 X63.09 F3000.0
G01 X65.08 F3000.0
G01 X66.27 F3000.0
G01 Y86.64 F3000.0
G01 X65.81 F3000.0
G01 Y85.87 F3000.0
G01 X66.58 F3000.0
G01 Y85.45 F3000.0
G01 X65.81 F3000.0
G01 Y84.67 F3000.0
G01 X66.51 F3000.0
G01 Y84.26 F3000.0
G01 X66.14 F3000.0
G01 X63.14 F3000.0
G01 X61.77 F3000.0
G01 Y84.67 F3000.0
G01 X62.63 F3000.0
G01 Y85.45 F3000.0
G01 X61.71 F3000.0
G01 Y85.87 F3000.0
G01 X62.63 F3000.0
G01 Y86.62 F3000.0
G01 X62.04 Y86.0 F3000.0
G01 X61.77 Y86.37 F3000.0
G01 X61.96 Y86.63 F3000.0
G01 X62.72 Y87.7 F3000.0
G01 X63.16 Y87.56 F3000.0
G01 X63.1 Y87.45 F3000.0
G01 X62.9 Y87.06 F3000.0
M5
G00 X63.08 Y85.87 F3000.0
M3 F3000.0
G01 X63.54 F3000.0
G01 Y86.64 F3000.0
G01 X63.08 F3000.0
G01 Y85.87 F3000.0
M5
G00 X63.08 Y85.45 F3000.0
M3 F3000.0
G01 Y84.67 F3000.0
G01 X63.54 F3000.0
G01 Y85.45 F3000.0
G01 X63.08 F3000.0
M5
G00 X63.98 Y85.45 F3000.0
M3 F3000.0
G01 Y84.67 F3000.0
G01 X64.46 F3000.0
G01 Y85.45 F3000.0
G01 X63.98 F3000.0
M5
G00 X64.91 Y84.67 F3000.0
M3 F3000.0
G01 X65.37 F3000.0
G01 Y85.45 F3000.0
G01 X64.91 F3000.0
G01 Y84.67 F3000.0
M5
G00 X63.78 Y84.04 F3000.0
M3 F3000.0
G01 X63.79 Y83.91 F3000.0
G01 X63.89 Y82.78 F3000.0
G01 X63.41 Y82.73 F3000.0
G01 X63.4 Y82.88 F3000.0
G01 X63.32 Y84.01 F3000.0
G01 X63.78 Y84.04 F3000.0
M5
G00 X62.94 Y83.88 F3000.0
M3 F3000.0
G01 X62.88 Y83.77 F3000.0
G01 X62.8 Y83.66 F3000.0
G01 X62.15 Y82.73 F3000.0
G01 X61.8 Y83.04 F3000.0
G01 X61.88 Y83.16 F3000.0
G01 X62.52 Y84.1 F3000.0
G01 X62.94 Y83.88 F3000.0
M5
G00 X64.66 Y82.82 F3000.0
M3 F3000.0
G01 X64.64 Y82.91 F3000.0
G01 X64.33 Y83.95 F3000.0
G01 X64.77 Y84.08 F3000.0
G01 X64.8 Y84.0 F3000.0
G01 X65.15 Y82.98 F3000.0
G01 X64.66 Y82.82 F3000.0
M5
G00 X66.12 Y82.82 F3000.0
M3 F3000.0
G01 X66.02 Y82.94 F3000.0
G01 X65.3 Y83.84 F3000.0
G01 X65.65 Y84.08 F3000.0
G01 X65.75 Y83.98 F3000.0
G01 X66.51 Y83.13 F3000.0
G01 X66.12 Y82.82 F3000.0
M5
G00 X68.48 Y79.51 F3000.0
M3 F3000.0
G01 Y78.76 F3000.0
G01 X68.82 F3000.0
G01 X69.82 F3000.0
G01 X71.17 F3000.0
G01 Y79.51 F3000.0
G01 X70.82 F3000.0
G01 X69.82 F3000.0
G01 X68.48 F3000.0
M5
G00 X68.48 Y77.87 F3000.0
M3 F3000.0
