
;Inkscape Lasertools G-code
;https://github.com/ChrisWag91/Inkscape-Lasertools-Plugin

G90	;Absolute programming
G21	;Programming in millimeters (mm)
M5
M03 S1 ;Activate laser and set power to 0 (CUSTOM)

; START perimeter strategy
G01 F3000.0
M5
G00 X88.08 Y15.13 F3000.0
M3 F3000.0
G01 X88.1 F3000.0
G01 X90.1 F3000.0
G01 X91.12 F3000.0
M5
G00 X91.12 Y15.13 F3000.0
M3 F3000.0
G01 X90.94 Y14.81 F3000.0
G01 X90.45 Y13.94 F3000.0
G01 X89.77 Y12.76 F3000.0
M5
G00 X89.77 Y12.76 F3000.0
M3 F3000.0
G01 Y12.38 F3000.0
G01 Y8.38 F3000.0
G01 Y7.0 F3000.0
G01 X89.43 Y6.66 F3000.0
M5
G00 X89.43 Y6.66 F3000.0
M3 F3000.0
G01 X88.75 F3000.0
M5
G00 X87.06 Y9.37 F3000.0
M3 F3000.0
G01 X87.27 F3000.0
G01 X91.27 F3000.0
G01 X92.48 F3000.0
M5
G00 X92.48 Y9.03 F3000.0
M3 F3000.0
G01 Y9.39 F3000.0
G01 Y11.39 F3000.0
G01 Y12.76 F3000.0
M5
G00 X92.48 Y12.76 F3000.0
M3 F3000.0
G01 X92.27 F3000.0
G01 X88.27 F3000.0
G01 X87.06 F3000.0
M5
G00 X87.4 Y14.45 F3000.0
M3 F3000.0
G01 X87.25 Y14.3 F3000.0
G01 X86.38 Y13.43 F3000.0
M5
G00 X85.71 Y14.45 F3000.0
M3 F3000.0
G01 X85.65 Y14.52 F3000.0
G01 X85.03 Y15.3 F3000.0
G01 X84.35 Y16.14 F3000.0
M5
G00 X88.42 Y16.14 F3000.0
M3 F3000.0
G01 X88.17 Y15.73 F3000.0
G01 X87.4 Y14.45 F3000.0
M5
G00 X85.37 Y12.08 F3000.0
M3 F3000.0
G01 X85.04 Y12.4 F3000.0
G01 X84.01 Y13.43 F3000.0
M5
G00 X86.38 Y11.06 F3000.0
M3 F3000.0
G01 X86.44 F3000.0
G01 X92.44 F3000.0
G01 X93.5 F3000.0
M5
G00 X84.69 Y7.68 F3000.0
M3 F3000.0
G01 X84.72 Y7.78 F3000.0
G01 X85.04 Y8.73 F3000.0
G01 X85.36 Y9.68 F3000.0
G01 X85.71 Y10.72 F3000.0
M5
G00 X81.87 Y10.39 F3000.0
M3 F3000.0
G01 X81.81 Y10.48 F3000.0
G01 X81.19 Y11.4 F3000.0
M5
G00 X81.19 Y11.4 F3000.0
M3 F3000.0
G01 X81.04 Y11.56 F3000.0
G01 X80.17 Y12.42 F3000.0
M5
G00 X80.17 Y12.42 F3000.0
M3 F3000.0
G01 X79.9 Y12.63 F3000.0
G01 X78.82 Y13.43 F3000.0
M5
G00 X77.47 Y13.77 F3000.0
M3 F3000.0
G01 Y13.72 F3000.0
G01 Y7.72 F3000.0
G01 Y6.66 F3000.0
M5
G00 X74.76 Y11.4 F3000.0
M3 F3000.0
G01 X74.82 Y11.46 F3000.0
G01 X75.6 Y12.08 F3000.0
G01 X76.45 Y12.76 F3000.0
M5
G00 X76.45 Y12.76 F3000.0
M3 F3000.0
G01 X76.56 Y12.91 F3000.0
G01 X77.17 Y13.71 F3000.0
G01 X77.77 Y14.51 F3000.0
G01 X78.48 Y15.47 F3000.0
M5
G00 X73.06 Y15.47 F3000.0
M3 F3000.0
G01 X73.47 F3000.0
G01 X80.47 F3000.0
G01 X81.87 F3000.0
M5
G00 X84.01 Y23.14 F3000.0
M3 F3000.0
G01 X84.07 Y23.23 F3000.0
G01 X84.69 Y24.16 F3000.0
M5
G00 X84.69 Y24.16 F3000.0
M3 F3000.0
G01 X84.81 Y24.46 F3000.0
G01 X85.18 Y25.39 F3000.0
G01 X85.55 Y26.32 F3000.0
G01 X86.05 Y27.55 F3000.0
M5
G00 X86.38 Y26.19 F3000.0
M3 F3000.0
G01 X86.71 Y25.87 F3000.0
G01 X87.74 Y24.84 F3000.0
M5
G00 X88.75 Y24.5 F3000.0
M3 F3000.0
G01 X89.12 F3000.0
G01 X91.12 F3000.0
G01 X92.48 F3000.0
M5
G00 X92.48 Y26.87 F3000.0
M3 F3000.0
G01 X92.12 F3000.0
G01 X90.12 F3000.0
G01 X88.75 F3000.0
M5
G00 X87.74 Y27.88 F3000.0
M3 F3000.0
G01 X87.38 F3000.0
G01 X85.38 F3000.0
G01 X84.01 F3000.0
M5
G00 X82.21 Y28.9 F3000.0
M3 F3000.0
G01 Y28.72 F3000.0
G01 Y27.55 F3000.0
M5
G00 X81.19 Y26.19 F3000.0
M3 F3000.0
G01 Y26.87 F3000.0
M5
G00 X80.51 Y25.51 F3000.0
M3 F3000.0
G01 X81.19 Y26.19 F3000.0
M5
G00 X80.85 Y24.16 F3000.0
M3 F3000.0
G01 X80.47 F3000.0
G01 X75.47 F3000.0
G01 X74.08 F3000.0
M5
G00 X74.76 Y25.51 F3000.0
M3 F3000.0
G01 X74.56 Y25.47 F3000.0
G01 X73.4 Y25.17 F3000.0
M5
G00 X72.72 Y27.55 F3000.0
M3 F3000.0
G01 Y27.72 F3000.0
G01 Y28.9 F3000.0
M5
G00 X72.72 Y28.9 F3000.0
M3 F3000.0
G01 X72.97 F3000.0
G01 X80.97 F3000.0
G01 X82.21 F3000.0
M5
G00 X86.05 Y30.25 F3000.0
M3 F3000.0
G01 Y30.01 F3000.0
G01 Y22.01 F3000.0
G01 Y20.77 F3000.0
M5
G00 X88.75 Y20.77 F3000.0
M3 F3000.0
G01 Y21.17 F3000.0
G01 Y28.17 F3000.0
G01 Y29.58 F3000.0
M5
G00 X88.75 Y29.58 F3000.0
M3 F3000.0
G01 X89.12 F3000.0
G01 X91.12 F3000.0
G01 X92.48 F3000.0
M5
G00 X92.48 Y29.58 F3000.0
M3 F3000.0
G01 Y29.17 F3000.0
G01 Y22.17 F3000.0
G01 Y20.77 F3000.0
M5
G00 X92.48 Y21.45 F3000.0
M3 F3000.0
G01 X92.12 F3000.0
G01 X90.12 F3000.0
G01 X88.75 F3000.0
M5
G00 X78.82 Y25.51 F3000.0
M3 F3000.0
G01 X79.17 F3000.0
G01 X80.51 F3000.0
M5
G00 X78.14 Y26.19 F3000.0
M3 F3000.0
G01 X78.82 Y25.51 F3000.0
M5
G00 X77.47 Y24.16 F3000.0
M3 F3000.0
G01 Y24.14 F3000.0
G01 Y22.14 F3000.0
G01 Y21.11 F3000.0
M5
G00 X73.06 Y21.11 F3000.0
M3 F3000.0
G01 X73.47 F3000.0
G01 X80.47 F3000.0
G01 X81.87 F3000.0
M5
G00 X75.77 Y26.19 F3000.0
M3 F3000.0
G01 X75.68 Y26.13 F3000.0
G01 X74.76 Y25.51 F3000.0
M5
G00 X76.11 Y26.87 F3000.0
M3 F3000.0
G01 X75.77 Y26.19 F3000.0
M5
G00 X76.45 Y28.22 F3000.0
M3 F3000.0
G01 X76.4 Y28.03 F3000.0
G01 X76.11 Y26.87 F3000.0
M5
G00 X78.14 Y28.22 F3000.0
M3 F3000.0
G01 Y28.21 F3000.0
G01 Y27.21 F3000.0
G01 Y26.19 F3000.0
M5
G00 X77.47 Y30.25 F3000.0
M3 F3000.0
G01 Y30.08 F3000.0
G01 Y28.9 F3000.0
M5
G00 X77.13 Y35.22 F3000.0
M3 F3000.0
G01 X76.88 Y35.64 F3000.0
G01 X76.11 Y36.92 F3000.0
M5
G00 X76.11 Y36.92 F3000.0
M3 F3000.0
G01 X76.05 Y36.97 F3000.0
G01 X75.26 Y37.59 F3000.0
G01 X74.42 Y38.27 F3000.0
M5
G00 X74.42 Y38.27 F3000.0
M3 F3000.0
G01 X74.38 Y38.28 F3000.0
G01 X73.4 Y38.61 F3000.0
M5
G00 X73.4 Y38.61 F3000.0
M3 F3000.0
G01 X73.56 Y39.03 F3000.0
G01 X73.91 Y39.96 F3000.0
G01 X74.42 Y41.32 F3000.0
M5
G00 X74.42 Y41.32 F3000.0
M3 F3000.0
G01 X74.43 Y41.38 F3000.0
G01 X74.86 Y43.33 F3000.0
G01 X75.09 Y44.37 F3000.0
M5
G00 X76.79 Y41.66 F3000.0
M3 F3000.0
G01 X76.72 Y41.3 F3000.0
G01 X76.45 Y39.96 F3000.0
M5
G00 X76.45 Y39.96 F3000.0
M3 F3000.0
G01 X76.3 Y39.58 F3000.0
G01 X75.77 Y38.27 F3000.0
M5
G00 X75.77 Y38.27 F3000.0
M3 F3000.0
G01 X75.72 Y38.2 F3000.0
G01 X75.09 Y37.42 F3000.0
G01 X74.42 Y36.58 F3000.0
M5
G00 X74.42 Y36.58 F3000.0
M3 F3000.0
G01 X74.35 Y36.53 F3000.0
G01 X73.57 Y35.9 F3000.0
G01 X72.72 Y35.22 F3000.0
M5
G00 X68.89 Y35.56 F3000.0
M3 F3000.0
G01 X68.95 Y35.54 F3000.0
G01 X69.9 Y35.22 F3000.0
G01 X70.92 Y34.88 F3000.0
M5
G00 X69.22 Y37.59 F3000.0
M3 F3000.0
G01 X69.29 Y37.69 F3000.0
G01 X69.9 Y38.61 F3000.0
M5
G00 X69.9 Y38.61 F3000.0
M3 F3000.0
G01 X69.71 F3000.0
G01 X67.71 F3000.0
G01 X66.52 F3000.0
M5
G00 X66.52 Y38.27 F3000.0
M3 F3000.0
G01 X66.77 Y37.85 F3000.0
G01 X67.53 Y36.58 F3000.0
M5
G00 X67.53 Y36.58 F3000.0
M3 F3000.0
G01 X67.81 Y36.37 F3000.0
G01 X68.89 Y35.56 F3000.0
M5
G00 X68.21 Y36.58 F3000.0
M3 F3000.0
G01 X68.36 Y36.73 F3000.0
G01 X69.22 Y37.59 F3000.0
M5
G00 X69.9 Y39.62 F3000.0
M3 F3000.0
G01 X69.87 F3000.0
G01 X66.87 F3000.0
G01 X65.84 F3000.0
M5
G00 X65.84 Y39.62 F3000.0
M3 F3000.0
G01 Y39.98 F3000.0
G01 Y40.98 F3000.0
G01 Y42.33 F3000.0
M5
G00 X65.84 Y42.33 F3000.0
M3 F3000.0
G01 X65.87 F3000.0
G01 X68.87 F3000.0
G01 X69.9 F3000.0
M5
G00 X69.9 Y42.33 F3000.0
M3 F3000.0
G01 Y41.98 F3000.0
G01 Y40.98 F3000.0
G01 Y39.62 F3000.0
M5
G00 X67.19 Y39.62 F3000.0
M3 F3000.0
G01 X66.93 Y39.25 F3000.0
G01 X66.35 Y38.44 F3000.0
G01 X65.5 Y37.25 F3000.0
M5
G00 X65.5 Y37.25 F3000.0
M3 F3000.0
G01 X65.41 Y37.19 F3000.0
G01 X64.48 Y36.58 F3000.0
M5
G00 X64.14 Y34.88 F3000.0
M3 F3000.0
G01 X64.37 Y34.95 F3000.0
G01 X65.33 Y35.22 F3000.0
G01 X66.52 Y35.56 F3000.0
M5
G00 X66.52 Y35.56 F3000.0
M3 F3000.0
G01 X66.93 Y35.81 F3000.0
G01 X68.21 Y36.58 F3000.0
M5
G00 X65.84 Y40.98 F3000.0
M3 F3000.0
G01 X65.87 F3000.0
G01 X68.87 F3000.0
G01 X69.9 F3000.0
M5
G00 X70.92 Y43.35 F3000.0
M3 F3000.0
G01 X70.88 F3000.0
G01 X66.88 F3000.0
G01 X65.84 F3000.0
M5
G00 X65.16 Y42.67 F3000.0
M3 F3000.0
G01 X65.41 Y43.09 F3000.0
G01 X66.18 Y44.37 F3000.0
M5
G00 X63.47 Y44.37 F3000.0
M3 F3000.0
G01 X63.22 Y43.95 F3000.0
G01 X62.45 Y42.67 F3000.0
M5
G00 X62.45 Y42.67 F3000.0
M3 F3000.0
G01 X62.3 Y42.52 F3000.0
G01 X61.44 Y41.66 F3000.0
M5
G00 X62.45 Y40.3 F3000.0
M3 F3000.0
G01 X62.57 Y40.49 F3000.0
G01 X63.13 Y41.32 F3000.0
G01 X63.81 Y42.33 F3000.0
M5
G00 X64.48 Y42. F3000.0
M3 F3000.0
G01 X65.16 Y42.67 F3000.0
M5
G00 X62.79 Y40.3 F3000.0
M3 F3000.0
G01 Y40.09 F3000.0
G01 Y36.09 F3000.0
G01 Y34.88 F3000.0
M5
G00 X61.44 Y39.29 F3000.0
M3 F3000.0
G01 X61.59 Y39.44 F3000.0
G01 X62.45 Y40.3 F3000.0
M5
G00 X58.61 Y38.95 F3000.0
M3 F3000.0
G01 X58.73 Y38.72 F3000.0
G01 X59.29 Y37.59 F3000.0
M5
G00 X57.6 Y39.96 F3000.0
M3 F3000.0
G01 X57.75 Y39.81 F3000.0
G01 X58.61 Y38.95 F3000.0
M5
G00 X56.24 Y35.22 F3000.0
M3 F3000.0
G01 X55.9 Y34.88 F3000.0
M5
G00 X55.9 Y34.88 F3000.0
M3 F3000.0
G01 F3000.0
G01 X54.89 F3000.0
M5
G00 X52.18 Y36.24 F3000.0
M3 F3000.0
G01 X52.02 Y36.08 F3000.0
G01 X51.16 Y35.22 F3000.0
M5
G00 X51.16 Y35.22 F3000.0
M3 F3000.0
G01 X50.48 Y34.88 F3000.0
M5
G00 X48.34 Y34.88 F3000.0
M3 F3000.0
G01 X47.66 Y35.22 F3000.0
M5
G00 X47.66 Y35.22 F3000.0
M3 F3000.0
G01 X47.6 Y35.31 F3000.0
G01 X46.98 Y36.24 F3000.0
M5
G00 X46.98 Y36.24 F3000.0
M3 F3000.0
G01 X46.94 Y36.46 F3000.0
G01 X46.74 Y37.44 F3000.0
G01 X46.55 Y38.42 F3000.0
G01 X46.31 Y39.62 F3000.0
M5
G00 X46.31 Y39.62 F3000.0
M3 F3000.0
G01 Y40.0 F3000.0
G01 Y43.0 F3000.0
G01 Y44.37 F3000.0
M5
G00 X47.32 Y43.35 F3000.0
M3 F3000.0
G01 X47.38 Y43.26 F3000.0
G01 X48.0 Y42.33 F3000.0
M5
G00 X50.15 Y42.67 F3000.0
M3 F3000.0
G01 X50.22 F3000.0
G01 X58.22 F3000.0
G01 X59.29 F3000.0
M5
G00 X56.24 Y42.67 F3000.0
M3 F3000.0
G01 Y42.45 F3000.0
G01 Y36.45 F3000.0
G01 Y35.22 F3000.0
M5
G00 X52.85 Y37.59 F3000.0
M3 F3000.0
G01 X52.74 Y37.36 F3000.0
G01 X52.18 Y36.24 F3000.0
M5
G00 X50.48 Y37.59 F3000.0
M3 F3000.0
G01 X50.55 Y37.69 F3000.0
G01 X51.16 Y38.61 F3000.0
M5
G00 X51.16 Y38.61 F3000.0
M3 F3000.0
G01 X51.21 Y38.8 F3000.0
G01 X51.5 Y39.96 F3000.0
M5
G00 X53.53 Y40.64 F3000.0
M3 F3000.0
G01 X53.52 Y40.58 F3000.0
G01 X53.3 Y39.61 F3000.0
G01 X53.09 Y38.63 F3000.0
G01 X52.85 Y37.59 F3000.0
M5
G00 X48.34 Y36.24 F3000.0
M3 F3000.0
G01 Y36.06 F3000.0
G01 Y34.88 F3000.0
M5
G00 X46.98 Y36.92 F3000.0
M3 F3000.0
G01 X46.66 Y36.59 F3000.0
G01 X45.63 Y35.56 F3000.0
M5
G00 X45.63 Y35.56 F3000.0
M3 F3000.0
G01 X45.4 Y35.45 F3000.0
G01 X44.28 Y34.88 F3000.0
M5
G00 X44.95 Y36.24 F3000.0
M3 F3000.0
G01 X44.94 F3000.0
G01 X43.94 F3000.0
G01 X42.92 F3000.0
M5
G00 X42.92 Y35.9 F3000.0
M3 F3000.0
G01 Y36.26 F3000.0
G01 Y38.26 F3000.0
G01 Y39.62 F3000.0
M5
G00 X42.92 Y39.62 F3000.0
M3 F3000.0
G01 X42.94 F3000.0
G01 X43.94 F3000.0
G01 X44.95 F3000.0
M5
G00 X44.95 Y39.62 F3000.0
M3 F3000.0
G01 Y39.43 F3000.0
G01 Y37.43 F3000.0
G01 Y36.24 F3000.0
M5
G00 X42.92 Y37.93 F3000.0
M3 F3000.0
G01 X42.94 F3000.0
G01 X43.94 F3000.0
G01 X44.95 F3000.0
M5
G00 X47.66 Y37.93 F3000.0
M3 F3000.0
G01 X47.6 Y37.84 F3000.0
G01 X46.98 Y36.92 F3000.0
M5
G00 X48. Y39.29 F3000.0
M3 F3000.0
G01 X47.95 Y39.09 F3000.0
G01 X47.66 Y37.93 F3000.0
M5
G00 X43.26 Y40.98 F3000.0
M3 F3000.0
G01 X43.19 Y41.34 F3000.0
G01 X42.92 Y42.67 F3000.0
M5
G00 X42.58 Y43.01 F3000.0
M3 F3000.0
G01 X42.94 F3000.0
G01 X43.94 F3000.0
G01 X45.29 F3000.0
M5
G00 X44.95 Y43.01 F3000.0
M3 F3000.0
G01 Y42.98 F3000.0
G01 X44.78 Y42.0 F3000.0
G01 X44.61 Y40.98 F3000.0
M5
G00 X42.24 Y40.98 F3000.0
M3 F3000.0
G01 X42.29 F3000.0
G01 X47.29 F3000.0
G01 X48.34 F3000.0
M5
G00 X53.53 Y42.67 F3000.0
M3 F3000.0
G01 Y42.66 F3000.0
G01 Y41.66 F3000.0
G01 Y40.64 F3000.0
M5
G00 X54.89 Y44.37 F3000.0
M3 F3000.0
G01 Y44.02 F3000.0
G01 Y42.67 F3000.0
M5
G00 X50.48 Y49.33 F3000.0
M3 F3000.0
G01 X50.89 F3000.0
G01 X57.89 F3000.0
G01 X59.29 F3000.0
M5
G00 X61.44 Y49.67 F3000.0
M3 F3000.0
G01 X61.85 Y49.78 F3000.0
G01 X62.81 Y50.05 F3000.0
G01 X63.78 Y50.31 F3000.0
G01 X65.16 Y50.69 F3000.0
M5
G00 X64.48 Y52.04 F3000.0
M3 F3000.0
G01 X64.75 Y51.67 F3000.0
G01 X65.33 Y50.86 F3000.0
G01 X66.18 Y49.67 F3000.0
M5
G00 X67.19 Y49. F3000.0
M3 F3000.0
G01 Y49.07 F3000.0
G01 Y57.07 F3000.0
G01 Y58.14 F3000.0
M5
G00 X67.19 Y58.14 F3000.0
M3 F3000.0
G01 X67.22 F3000.0
G01 X69.22 F3000.0
G01 X70.24 F3000.0
M5
G00 X70.24 Y58.14 F3000.0
M3 F3000.0
G01 Y57.92 F3000.0
G01 Y52.92 F3000.0
G01 Y51.7 F3000.0
M5
G00 X70.24 Y51.7 F3000.0
M3 F3000.0
G01 X69.56 Y51.03 F3000.0
M5
G00 X69.56 Y51.03 F3000.0
M3 F3000.0
G01 X69.39 F3000.0
G01 X68.21 F3000.0
M5
G00 X65.5 Y53.4 F3000.0
M3 F3000.0
G01 Y53.77 F3000.0
G01 Y56.77 F3000.0
G01 Y58.14 F3000.0
M5
G00 X65.5 Y58.14 F3000.0
M3 F3000.0
G01 X65.31 F3000.0
G01 X63.31 F3000.0
G01 X62.11 F3000.0
M5
G00 X62.11 Y58.14 F3000.0
M3 F3000.0
G01 Y58.08 F3000.0
G01 Y51.08 F3000.0
G01 Y50.01 F3000.0
M5
G00 X62.11 Y53.4 F3000.0
M3 F3000.0
G01 X62.31 F3000.0
G01 X64.31 F3000.0
G01 X65.5 F3000.0
M5
G00 X65.16 Y55.77 F3000.0
M3 F3000.0
G01 X65.14 F3000.0
G01 X63.14 F3000.0
G01 X62.11 F3000.0
M5
G00 X59.63 Y57.12 F3000.0
M3 F3000.0
G01 Y56.94 F3000.0
G01 Y55.77 F3000.0
M5
G00 X58.61 Y54.41 F3000.0
M3 F3000.0
G01 Y55.09 F3000.0
M5
G00 X57.94 Y53.74 F3000.0
M3 F3000.0
G01 X58.61 Y54.41 F3000.0
M5
G00 X58.27 Y52.38 F3000.0
M3 F3000.0
G01 X57.89 F3000.0
G01 X52.89 F3000.0
G01 X51.5 F3000.0
M5
G00 X52.18 Y53.74 F3000.0
M3 F3000.0
G01 X51.99 Y53.69 F3000.0
G01 X50.82 Y53.4 F3000.0
M5
G00 X50.15 Y55.77 F3000.0
M3 F3000.0
G01 Y55.94 F3000.0
G01 Y57.12 F3000.0
M5
G00 X50.15 Y57.12 F3000.0
M3 F3000.0
G01 X50.39 F3000.0
G01 X58.39 F3000.0
G01 X59.63 F3000.0
M5
G00 X55.56 Y56.44 F3000.0
M3 F3000.0
G01 Y56.43 F3000.0
G01 Y55.43 F3000.0
G01 Y54.41 F3000.0
M5
G00 X55.56 Y54.41 F3000.0
M3 F3000.0
G01 X56.24 Y53.74 F3000.0
M5
G00 X56.24 Y53.74 F3000.0
M3 F3000.0
G01 X56.59 F3000.0
G01 X57.94 F3000.0
M5
G00 X54.89 Y52.38 F3000.0
M3 F3000.0
G01 Y52.36 F3000.0
G01 Y50.36 F3000.0
G01 Y49.33 F3000.0
M5
G00 X53.19 Y54.41 F3000.0
M3 F3000.0
G01 X53.1 Y54.35 F3000.0
G01 X52.18 Y53.74 F3000.0
M5
G00 X53.53 Y55.09 F3000.0
M3 F3000.0
G01 X53.19 Y54.41 F3000.0
M5
G00 X53.87 Y56.44 F3000.0
M3 F3000.0
G01 X53.82 Y56.25 F3000.0
G01 X53.53 Y55.09 F3000.0
M5
G00 X54.89 Y58.48 F3000.0
M3 F3000.0
G01 Y58.3 F3000.0
G01 Y57.12 F3000.0
M5
G00 X48.34 Y57.12 F3000.0
M3 F3000.0
G01 Y56.94 F3000.0
G01 Y55.77 F3000.0
M5
G00 X47.32 Y54.41 F3000.0
M3 F3000.0
G01 Y55.09 F3000.0
M5
G00 X46.65 Y53.74 F3000.0
M3 F3000.0
G01 X47.32 Y54.41 F3000.0
M5
G00 X46.98 Y52.38 F3000.0
M3 F3000.0
G01 X46.6 F3000.0
G01 X41.6 F3000.0
G01 X40.21 F3000.0
M5
G00 X40.89 Y53.74 F3000.0
M3 F3000.0
G01 X40.7 Y53.69 F3000.0
G01 X39.53 Y53.4 F3000.0
M5
G00 X38.86 Y55.77 F3000.0
M3 F3000.0
G01 Y55.94 F3000.0
G01 Y57.12 F3000.0
M5
G00 X38.86 Y57.12 F3000.0
M3 F3000.0
G01 X39.1 F3000.0
G01 X47.1 F3000.0
G01 X48.34 F3000.0
M5
G00 X44.28 Y56.44 F3000.0
M3 F3000.0
G01 Y56.43 F3000.0
G01 Y55.43 F3000.0
G01 Y54.41 F3000.0
M5
G00 X44.28 Y54.41 F3000.0
M3 F3000.0
G01 X44.95 Y53.74 F3000.0
M5
G00 X44.95 Y53.74 F3000.0
M3 F3000.0
G01 X45.3 F3000.0
G01 X46.65 F3000.0
M5
G00 X43.6 Y52.38 F3000.0
M3 F3000.0
G01 Y52.36 F3000.0
G01 Y50.36 F3000.0
G01 Y49.33 F3000.0
M5
G00 X39.2 Y49.33 F3000.0
M3 F3000.0
G01 X39.6 F3000.0
G01 X46.6 F3000.0
G01 X48.0 F3000.0
M5
G00 X43.94 Y44.37 F3000.0
M3 F3000.0
G01 Y44.19 F3000.0
G01 Y43.01 F3000.0
M5
G00 X41.23 Y40.3 F3000.0
M3 F3000.0
G01 X40.88 F3000.0
G01 X39.53 F3000.0
M5
G00 X39.53 Y38.95 F3000.0
M3 F3000.0
G01 X39.88 F3000.0
G01 X41.23 F3000.0
M5
G00 X41.57 Y37.25 F3000.0
M3 F3000.0
G01 Y37.07 F3000.0
G01 Y36.07 F3000.0
G01 Y34.88 F3000.0
M5
G00 X41.57 Y35.22 F3000.0
M3 F3000.0
G01 X41.38 F3000.0
G01 X40.38 F3000.0
G01 X39.2 F3000.0
M5
G00 X39.2 Y34.88 F3000.0
M3 F3000.0
G01 Y35.07 F3000.0
G01 Y36.07 F3000.0
G01 Y37.25 F3000.0
M5
G00 X39.2 Y37.25 F3000.0
M3 F3000.0
G01 X39.38 F3000.0
G01 X40.38 F3000.0
G01 X41.57 F3000.0
M5
G00 X38.86 Y42. F3000.0
M3 F3000.0
G01 X38.88 F3000.0
G01 X40.88 F3000.0
G01 X41.91 F3000.0
M5
G00 X39.53 Y43.69 F3000.0
M3 F3000.0
G01 X39.88 F3000.0
G01 X41.23 F3000.0
M5
G00 X37.05 Y40.98 F3000.0
M3 F3000.0
G01 X36.67 F3000.0
G01 X32.67 F3000.0
G01 X31.29 F3000.0
M5
G00 X29.6 Y40.98 F3000.0
M3 F3000.0
G01 X29.81 Y41.26 F3000.0
G01 X30.62 Y42.33 F3000.0
M5
G00 X29.26 Y43.01 F3000.0
M3 F3000.0
G01 X29.2 Y42.96 F3000.0
G01 X28.41 Y42.33 F3000.0
G01 X27.57 Y41.66 F3000.0
M5
G00 X29.26 Y40.3 F3000.0
M3 F3000.0
G01 Y40.09 F3000.0
G01 Y36.09 F3000.0
G01 Y34.88 F3000.0
M5
G00 X25.76 Y35.56 F3000.0
M3 F3000.0
G01 X25.42 Y36.24 F3000.0
M5
G00 X25.42 Y36.24 F3000.0
M3 F3000.0
G01 X25.15 Y36.45 F3000.0
G01 X24.07 Y37.25 F3000.0
M5
G00 X23.39 Y35.9 F3000.0
M3 F3000.0
G01 Y36.58 F3000.0
M5
G00 X23.05 Y35.22 F3000.0
M3 F3000.0
G01 X23.39 Y35.9 F3000.0
M5
G00 X22.04 Y36.92 F3000.0
M3 F3000.0
G01 X21.76 Y37.12 F3000.0
G01 X20.68 Y37.93 F3000.0
M5
G00 X19.33 Y37.93 F3000.0
M3 F3000.0
G01 Y37.75 F3000.0
G01 Y36.75 F3000.0
G01 Y35.56 F3000.0
M5
G00 X19.33 Y35.56 F3000.0
M3 F3000.0
G01 X20.0 Y34.88 F3000.0
M5
G00 X20. Y34.88 F3000.0
M3 F3000.0
G01 X20.02 F3000.0
G01 X21.02 F3000.0
G01 X22.04 F3000.0
M5
G00 X22.04 Y34.88 F3000.0
M3 F3000.0
G01 X22.07 Y34.89 F3000.0
G01 X23.05 Y35.22 F3000.0
M5
G00 X21.7 Y38.95 F3000.0
M3 F3000.0
G01 Y38.99 F3000.0
G01 Y42.99 F3000.0
G01 Y44.03 F3000.0
M5
G00 X21.7 Y44.03 F3000.0
M3 F3000.0
G01 X21.72 F3000.0
G01 X23.72 F3000.0
G01 X24.75 F3000.0
M5
G00 X24.75 Y44.03 F3000.0
M3 F3000.0
G01 Y43.99 F3000.0
G01 Y39.99 F3000.0
G01 Y38.95 F3000.0
M5
G00 X24.75 Y39.29 F3000.0
M3 F3000.0
G01 X24.72 F3000.0
G01 X22.72 F3000.0
G01 X21.7 F3000.0
M5
G00 X20.68 Y40.3 F3000.0
M3 F3000.0
G01 X20.36 Y40.63 F3000.0
G01 X19.33 Y41.66 F3000.0
M5
G00 X17.3 Y40.3 F3000.0
M3 F3000.0
G01 X17.48 Y40.62 F3000.0
G01 X17.97 Y41.49 F3000.0
G01 X18.65 Y42.67 F3000.0
M5
G00 X18.65 Y44.37 F3000.0
M3 F3000.0
G01 Y43.99 F3000.0
G01 Y39.99 F3000.0
G01 Y38.61 F3000.0
M5
G00 X17.63 Y37.25 F3000.0
M3 F3000.0
G01 X17.51 Y37.07 F3000.0
G01 X16.96 Y36.24 F3000.0
G01 X16.28 Y35.22 F3000.0
M5
G00 X14.13 Y34.88 F3000.0
M3 F3000.0
G01 X13.72 Y35.04 F3000.0
G01 X12.78 Y35.39 F3000.0
G01 X11.43 Y35.9 F3000.0
M5
G00 X11.43 Y35.9 F3000.0
M3 F3000.0
G01 X11.01 Y36.15 F3000.0
G01 X9.73 Y36.92 F3000.0
M5
G00 X9.73 Y36.92 F3000.0
M3 F3000.0
G01 X9.64 Y36.98 F3000.0
G01 X8.72 Y37.59 F3000.0
M5
G00 X8.72 Y37.59 F3000.0
M3 F3000.0
G01 X8.56 Y37.75 F3000.0
G01 X7.7 Y38.61 F3000.0
M5
G00 X7.7 Y38.61 F3000.0
M3 F3000.0
G01 X7.64 Y38.7 F3000.0
G01 X7.02 Y39.62 F3000.0
M5
G00 X6.68 Y40.3 F3000.0
M3 F3000.0
G01 X6.73 F3000.0
G01 X11.73 F3000.0
G01 X12.78 F3000.0
M5
G00 X12.78 Y40.3 F3000.0
M3 F3000.0
G01 X12.53 Y39.89 F3000.0
G01 X11.76 Y38.61 F3000.0
M5
G00 X11.76 Y38.61 F3000.0
M3 F3000.0
G01 X11.44 Y38.28 F3000.0
G01 X10.41 Y37.25 F3000.0
M5
G00 X10.41 Y37.25 F3000.0
M3 F3000.0
G01 X10.09 Y37.07 F3000.0
G01 X9.22 Y36.58 F3000.0
G01 X8.04 Y35.9 F3000.0
M5
G00 X8.04 Y35.9 F3000.0
M3 F3000.0
G01 X7.62 Y35.74 F3000.0
G01 X6.68 Y35.39 F3000.0
G01 X5.33 Y34.88 F3000.0
M5
G00 X4.99 Y40.64 F3000.0
M3 F3000.0
G01 Y40.82 F3000.0
G01 Y42.0 F3000.0
M5
G00 X4.99 Y42. F3000.0
M3 F3000.0
G01 X5.23 F3000.0
G01 X13.23 F3000.0
G01 X14.47 F3000.0
M5
G00 X14.47 Y42. F3000.0
M3 F3000.0
G01 Y41.82 F3000.0
G01 Y40.64 F3000.0
M5
G00 X16.28 Y39.29 F3000.0
M3 F3000.0
G01 X16.43 Y39.44 F3000.0
G01 X17.3 Y40.3 F3000.0
M5
G00 X16.28 Y43.01 F3000.0
M3 F3000.0
G01 X16.48 F3000.0
G01 X19.48 F3000.0
G01 X20.68 F3000.0
M5
G00 X21.7 Y40.98 F3000.0
M3 F3000.0
G01 X21.72 F3000.0
G01 X23.72 F3000.0
G01 X24.75 F3000.0
M5
G00 X24.75 Y42.33 F3000.0
M3 F3000.0
G01 X24.72 F3000.0
G01 X22.72 F3000.0
G01 X21.7 F3000.0
M5
G00 X22.04 Y49. F3000.0
M3 F3000.0
G01 Y49.07 F3000.0
G01 Y57.07 F3000.0
G01 Y58.14 F3000.0
M5
G00 X22.04 Y58.14 F3000.0
M3 F3000.0
G01 X22.06 F3000.0
G01 X24.06 F3000.0
G01 X25.09 F3000.0
M5
G00 X25.09 Y58.14 F3000.0
M3 F3000.0
G01 Y57.92 F3000.0
G01 Y52.92 F3000.0
G01 Y51.7 F3000.0
M5
G00 X25.09 Y51.7 F3000.0
M3 F3000.0
G01 X24.41 Y51.03 F3000.0
M5
G00 X24.41 Y51.03 F3000.0
M3 F3000.0
G01 X24.23 F3000.0
G01 X23.05 F3000.0
M5
G00 X20.34 Y53.4 F3000.0
M3 F3000.0
G01 Y53.77 F3000.0
G01 Y56.77 F3000.0
G01 Y58.14 F3000.0
M5
G00 X20.34 Y58.14 F3000.0
M3 F3000.0
G01 X20.15 F3000.0
G01 X18.15 F3000.0
G01 X16.96 F3000.0
M5
G00 X16.96 Y58.14 F3000.0
M3 F3000.0
G01 Y58.08 F3000.0
G01 Y51.08 F3000.0
G01 Y50.01 F3000.0
M5
G00 X16.28 Y49.67 F3000.0
M3 F3000.0
G01 X16.7 Y49.78 F3000.0
G01 X17.66 Y50.05 F3000.0
G01 X18.62 Y50.31 F3000.0
G01 X20.0 Y50.69 F3000.0
M5
G00 X19.33 Y52.04 F3000.0
M3 F3000.0
G01 X19.59 Y51.67 F3000.0
G01 X20.17 Y50.86 F3000.0
G01 X21.02 Y49.67 F3000.0
M5
G00 X16.96 Y53.4 F3000.0
M3 F3000.0
G01 X17.15 F3000.0
G01 X19.15 F3000.0
G01 X20.34 F3000.0
M5
G00 X20. Y55.77 F3000.0
M3 F3000.0
G01 X19.98 F3000.0
G01 X17.98 F3000.0
G01 X16.96 F3000.0
M5
G00 X13.12 Y55.77 F3000.0
M3 F3000.0
G01 X12.9 F3000.0
G01 X7.9 F3000.0
G01 X6.68 F3000.0
M5
G00 X6.68 Y55.77 F3000.0
M3 F3000.0
G01 Y55.56 F3000.0
G01 Y51.56 F3000.0
G01 Y50.35 F3000.0
M5
G00 X6.68 Y50.35 F3000.0
M3 F3000.0
G01 X7.02 Y49.67 F3000.0
M5
G00 X7.02 Y49.67 F3000.0
M3 F3000.0
G01 X7.7 Y49.33 F3000.0
M5
G00 X7.7 Y49.33 F3000.0
M3 F3000.0
G01 X8.08 F3000.0
G01 X12.08 F3000.0
G01 X13.46 F3000.0
M5
G00 X13.46 Y49.33 F3000.0
M3 F3000.0
G01 X14.13 Y49.67 F3000.0
M5
G00 X14.13 Y49.67 F3000.0
M3 F3000.0
G01 X14.47 Y50.35 F3000.0
M5
G00 X14.47 Y50.35 F3000.0
M3 F3000.0
G01 Y51.03 F3000.0
M5
G00 X13.12 Y53.4 F3000.0
M3 F3000.0
G01 Y53.58 F3000.0
G01 Y54.58 F3000.0
G01 Y55.77 F3000.0
M5
G00 X11.43 Y57.46 F3000.0
M3 F3000.0
G01 X11.37 Y57.4 F3000.0
G01 X10.75 Y56.61 F3000.0
G01 X10.07 Y55.77 F3000.0
M5
G00 X10.07 Y55.77 F3000.0
M3 F3000.0
G01 Y55.58 F3000.0
G01 Y54.58 F3000.0
G01 Y53.4 F3000.0
M5
G00 X6.68 Y53.4 F3000.0
M3 F3000.0
G01 X6.9 F3000.0
G01 X11.9 F3000.0
G01 X13.12 F3000.0
M5
G00 X7.36 Y57.46 F3000.0
M3 F3000.0
G01 X7.39 F3000.0
G01 X10.39 F3000.0
G01 X11.43 F3000.0
M5
G00 X6.01 Y56.11 F3000.0
M3 F3000.0
G01 X6.27 Y56.48 F3000.0
G01 X6.85 Y57.29 F3000.0
G01 X7.7 Y58.48 F3000.0
M5
G00 X4.99 Y55.09 F3000.0
M3 F3000.0
G01 X5.14 Y55.25 F3000.0
G01 X6.01 Y56.11 F3000.0
M5
G00 X7.7 Y63.44 F3000.0
M3 F3000.0
G01 X8.08 F3000.0
G01 X12.08 F3000.0
G01 X13.46 F3000.0
M5
G00 X13.46 Y63.44 F3000.0
M3 F3000.0
G01 X14.13 Y63.78 F3000.0
M5
G00 X14.13 Y63.78 F3000.0
M3 F3000.0
G01 X14.47 Y64.46 F3000.0
M5
G00 X14.47 Y64.46 F3000.0
M3 F3000.0
G01 Y65.14 F3000.0
M5
G00 X16.28 Y66.83 F3000.0
M3 F3000.0
G01 X16.4 Y66.89 F3000.0
G01 X17.3 Y67.34 F3000.0
G01 X18.31 Y67.85 F3000.0
M5
G00 X18.31 Y67.85 F3000.0
M3 F3000.0
G01 X18.38 Y67.9 F3000.0
G01 X19.16 Y68.53 F3000.0
G01 X20.0 Y69.2 F3000.0
M5
G00 X20. Y69.2 F3000.0
M3 F3000.0
G01 X20.12 Y69.36 F3000.0
G01 X21.32 Y70.96 F3000.0
G01 X22.04 Y71.91 F3000.0
M5
G00 X21.02 Y70.22 F3000.0
M3 F3000.0
G01 Y70.16 F3000.0
G01 Y64.16 F3000.0
G01 Y63.11 F3000.0
M5
G00 X25.42 Y66.83 F3000.0
M3 F3000.0
G01 X25.36 Y66.92 F3000.0
G01 X24.75 Y67.85 F3000.0
M5
G00 X24.75 Y67.85 F3000.0
M3 F3000.0
G01 X24.59 Y68.0 F3000.0
G01 X23.73 Y68.86 F3000.0
M5
G00 X23.73 Y68.86 F3000.0
M3 F3000.0
G01 X23.45 Y69.07 F3000.0
G01 X22.38 Y69.88 F3000.0
M5
G00 X16.62 Y71.91 F3000.0
M3 F3000.0
G01 X17.02 F3000.0
G01 X24.02 F3000.0
G01 X25.42 F3000.0
M5
G00 X28.92 Y72.25 F3000.0
M3 F3000.0
G01 X29.31 F3000.0
G01 X34.31 F3000.0
G01 X35.7 F3000.0
M5
G00 X35.7 Y72.25 F3000.0
M3 F3000.0
G01 Y72.06 F3000.0
G01 Y70.06 F3000.0
G01 Y68.86 F3000.0
M5
G00 X35.7 Y68.86 F3000.0
M3 F3000.0
G01 X35.31 F3000.0
G01 X30.31 F3000.0
G01 X28.92 F3000.0
M5
G00 X28.92 Y68.86 F3000.0
M3 F3000.0
G01 Y69.06 F3000.0
G01 Y71.06 F3000.0
G01 Y72.25 F3000.0
M5
G00 X28.92 Y70.56 F3000.0
M3 F3000.0
G01 X29.31 F3000.0
G01 X34.31 F3000.0
G01 X35.7 F3000.0
M5
G00 X34. Y68.53 F3000.0
M3 F3000.0
G01 Y68.5 F3000.0
G01 Y66.5 F3000.0
G01 Y65.48 F3000.0
M5
G00 X34. Y64.8 F3000.0
M3 F3000.0
G01 X34.16 Y64.64 F3000.0
G01 X35.02 Y63.78 F3000.0
M5
G00 X35.02 Y63.78 F3000.0
M3 F3000.0
G01 X35.25 Y63.67 F3000.0
G01 X36.37 Y63.11 F3000.0
M5
G00 X39.2 Y63.44 F3000.0
M3 F3000.0
G01 X39.6 F3000.0
G01 X46.6 F3000.0
G01 X48.0 F3000.0
M5
G00 X50.48 Y63.44 F3000.0
M3 F3000.0
G01 X50.89 F3000.0
G01 X57.89 F3000.0
G01 X59.29 F3000.0
M5
G00 X58.27 Y66.49 F3000.0
M3 F3000.0
G01 X57.89 F3000.0
G01 X52.89 F3000.0
G01 X51.5 F3000.0
M5
G00 X52.18 Y67.85 F3000.0
M3 F3000.0
G01 X51.99 Y67.8 F3000.0
G01 X50.82 Y67.51 F3000.0
M5
G00 X50.15 Y69.88 F3000.0
M3 F3000.0
G01 Y70.06 F3000.0
G01 Y71.23 F3000.0
M5
G00 X50.15 Y71.23 F3000.0
M3 F3000.0
G01 X50.39 F3000.0
G01 X58.39 F3000.0
G01 X59.63 F3000.0
M5
G00 X59.63 Y71.23 F3000.0
M3 F3000.0
G01 Y71.06 F3000.0
G01 Y69.88 F3000.0
M5
G00 X58.61 Y68.53 F3000.0
M3 F3000.0
G01 Y69.2 F3000.0
M5
G00 X57.94 Y67.85 F3000.0
M3 F3000.0
G01 X58.61 Y68.53 F3000.0
M5
G00 X56.24 Y67.85 F3000.0
M3 F3000.0
G01 X56.59 F3000.0
G01 X57.94 F3000.0
M5
G00 X55.56 Y68.53 F3000.0
M3 F3000.0
G01 X56.24 Y67.85 F3000.0
M5
G00 X54.89 Y66.49 F3000.0
M3 F3000.0
G01 Y66.47 F3000.0
G01 Y64.47 F3000.0
G01 Y63.44 F3000.0
M5
G00 X53.19 Y68.53 F3000.0
M3 F3000.0
G01 X53.1 Y68.46 F3000.0
G01 X52.18 Y67.85 F3000.0
M5
G00 X53.53 Y69.2 F3000.0
M3 F3000.0
G01 X53.19 Y68.53 F3000.0
M5
G00 X53.87 Y70.56 F3000.0
M3 F3000.0
G01 X53.82 Y70.36 F3000.0
G01 X53.53 Y69.2 F3000.0
M5
G00 X55.56 Y70.56 F3000.0
M3 F3000.0
G01 Y70.54 F3000.0
G01 Y69.54 F3000.0
G01 Y68.53 F3000.0
M5
G00 X54.89 Y72.59 F3000.0
M3 F3000.0
G01 Y72.41 F3000.0
G01 Y71.23 F3000.0
M5
G00 X54.21 Y77.56 F3000.0
M3 F3000.0
G01 X54.41 F3000.0
G01 X57.41 F3000.0
G01 X58.61 F3000.0
M5
G00 X58.61 Y77.56 F3000.0
M3 F3000.0
G01 X59.29 Y78.23 F3000.0
M5
G00 X59.29 Y78.23 F3000.0
M3 F3000.0
G01 Y78.91 F3000.0
M5
G00 X57.6 Y81.28 F3000.0
M3 F3000.0
G01 Y81.64 F3000.0
G01 Y82.64 F3000.0
G01 Y83.99 F3000.0
M5
G00 X57.6 Y83.99 F3000.0
M3 F3000.0
G01 X57.56 F3000.0
G01 X54.56 F3000.0
G01 X53.53 F3000.0
M5
G00 X53.53 Y83.99 F3000.0
M3 F3000.0
G01 Y83.61 F3000.0
G01 Y79.61 F3000.0
G01 Y78.23 F3000.0
M5
G00 X53.53 Y78.23 F3000.0
M3 F3000.0
G01 X54.21 Y77.56 F3000.0
M5
G00 X55.9 Y80.6 F3000.0
M3 F3000.0
G01 X55.91 F3000.0
G01 X56.92 F3000.0
M5
G00 X56.92 Y80.6 F3000.0
M3 F3000.0
G01 X57.6 Y81.28 F3000.0
M5
G00 X61.77 Y81.62 F3000.0
M3 F3000.0
G01 X62.18 F3000.0
G01 X69.18 F3000.0
G01 X70.58 F3000.0
M5
G00 X68.89 Y80.27 F3000.0
M3 F3000.0
G01 X68.68 F3000.0
G01 X64.68 F3000.0
G01 X63.47 F3000.0
M5
G00 X63.47 Y80.27 F3000.0
M3 F3000.0
G01 Y80.24 F3000.0
G01 Y78.24 F3000.0
G01 Y77.22 F3000.0
M5
G00 X63.47 Y77.89 F3000.0
M3 F3000.0
G01 X63.68 F3000.0
G01 X67.68 F3000.0
G01 X68.89 F3000.0
M5
G00 X68.89 Y77.22 F3000.0
M3 F3000.0
G01 Y77.24 F3000.0
G01 Y79.24 F3000.0
G01 Y80.27 F3000.0
M5
G00 X68.89 Y83.31 F3000.0
M3 F3000.0
G01 X68.68 F3000.0
G01 X64.68 F3000.0
G01 X63.47 F3000.0
M5
G00 X63.13 Y83.99 F3000.0
M3 F3000.0
G01 X63.41 Y84.2 F3000.0
G01 X64.48 Y85.01 F3000.0
M5
G00 X64.48 Y85.01 F3000.0
M3 F3000.0
G01 X64.62 Y85.15 F3000.0
G01 X65.33 Y85.85 F3000.0
G01 X66.18 Y86.7 F3000.0
M5
G00 X66.18 Y86.7 F3000.0
M3 F3000.0
G01 X66.32 Y86.56 F3000.0
G01 X67.02 Y85.85 F3000.0
G01 X67.87 Y85.01 F3000.0
M5
G00 X67.87 Y85.01 F3000.0
M3 F3000.0
G01 X68.15 Y84.8 F3000.0
G01 X69.22 Y83.99 F3000.0
M5
G00 X69.22 Y83.99 F3000.0
M3 F3000.0
G01 X69.64 Y83.74 F3000.0
G01 X70.92 Y82.97 F3000.0
M5
G00 X74.08 Y80.6 F3000.0
M3 F3000.0
G01 Y80.62 F3000.0
G01 X74.53 Y81.51 F3000.0
G01 X74.98 Y82.41 F3000.0
G01 X75.43 Y83.31 F3000.0
M5
G00 X76.11 Y82.3 F3000.0
M3 F3000.0
G01 X76.23 Y82.11 F3000.0
G01 X76.79 Y81.28 F3000.0
G01 X77.47 Y80.27 F3000.0
M5
G00 X77.8 Y83.31 F3000.0
M3 F3000.0
G01 X77.76 F3000.0
G01 X73.76 F3000.0
G01 X72.72 F3000.0
M5
G00 X75.43 Y86.02 F3000.0
M3 F3000.0
G01 Y85.62 F3000.0
G01 Y78.62 F3000.0
G01 Y77.22 F3000.0
M5
G00 X72.72 Y78.91 F3000.0
M3 F3000.0
G01 X72.78 Y78.98 F3000.0
G01 X73.4 Y79.76 F3000.0
G01 X74.08 Y80.6 F3000.0
M5
G00 X79.84 Y77.22 F3000.0
M3 F3000.0
G01 F3000.0
G01 X80.85 F3000.0
M5
G00 X80.85 Y77.22 F3000.0
M3 F3000.0
G01 X81.53 Y77.56 F3000.0
M5
G00 X81.53 Y77.56 F3000.0
M3 F3000.0
G01 Y77.63 F3000.0
G01 Y85.63 F3000.0
G01 Y86.7 F3000.0
M5
G00 X78.82 Y85.68 F3000.0
M3 F3000.0
G01 Y85.64 F3000.0
G01 Y80.64 F3000.0
G01 Y79.59 F3000.0
M5
G00 X84.01 Y81.96 F3000.0
M3 F3000.0
G01 X84.08 F3000.0
G01 X92.08 F3000.0
G01 X93.16 F3000.0
M5
G00 X91.46 Y86.02 F3000.0
M3 F3000.0
G01 X91.24 Y85.83 F3000.0
G01 X90.48 Y85.17 F3000.0
G01 X89.73 Y84.51 F3000.0
G01 X88.75 Y83.65 F3000.0
M5
G00 X88.75 Y83.99 F3000.0
M3 F3000.0
G01 Y83.94 F3000.0
G01 Y78.94 F3000.0
G01 Y77.89 F3000.0
M5
G00 X88.75 Y77.89 F3000.0
M3 F3000.0
G01 X88.08 Y77.22 F3000.0
M5
G00 X88.08 Y77.22 F3000.0
M3 F3000.0
G01 X88.07 F3000.0
G01 X87.06 F3000.0
M5
G00 X86.38 Y71.57 F3000.0
M3 F3000.0
G01 X86.42 F3000.0
G01 X89.42 F3000.0
G01 X90.45 F3000.0
M5
G00 X90.45 Y71.57 F3000.0
M3 F3000.0
G01 X90.39 Y71.51 F3000.0
G01 X89.77 Y70.73 F3000.0
G01 X89.09 Y69.88 F3000.0
M5
G00 X89.09 Y69.88 F3000.0
M3 F3000.0
G01 Y69.69 F3000.0
G01 Y68.69 F3000.0
G01 Y67.51 F3000.0
M5
G00 X92.14 Y67.51 F3000.0
M3 F3000.0
G01 Y67.69 F3000.0
G01 Y68.69 F3000.0
G01 Y69.88 F3000.0
M5
G00 X92.14 Y69.88 F3000.0
M3 F3000.0
G01 X91.92 F3000.0
G01 X86.92 F3000.0
G01 X85.71 F3000.0
M5
G00 X85.71 Y69.88 F3000.0
M3 F3000.0
G01 Y69.67 F3000.0
G01 Y65.67 F3000.0
G01 Y64.46 F3000.0
M5
G00 X85.71 Y64.46 F3000.0
M3 F3000.0
G01 X86.05 Y63.78 F3000.0
M5
G00 X86.05 Y63.78 F3000.0
M3 F3000.0
G01 X86.72 Y63.44 F3000.0
M5
G00 X86.72 Y63.44 F3000.0
M3 F3000.0
G01 X87.1 F3000.0
G01 X91.1 F3000.0
G01 X92.48 F3000.0
M5
G00 X92.48 Y63.44 F3000.0
M3 F3000.0
G01 X93.16 Y63.78 F3000.0
M5
G00 X93.16 Y63.78 F3000.0
M3 F3000.0
G01 X93.5 Y64.46 F3000.0
M5
G00 X93.5 Y64.46 F3000.0
M3 F3000.0
G01 Y65.14 F3000.0
M5
G00 X85.71 Y67.51 F3000.0
M3 F3000.0
G01 X85.92 F3000.0
G01 X90.92 F3000.0
G01 X92.14 F3000.0
M5
G00 X85.03 Y70.22 F3000.0
M3 F3000.0
G01 X85.29 Y70.59 F3000.0
G01 X85.88 Y71.4 F3000.0
G01 X86.72 Y72.59 F3000.0
M5
G00 X84.01 Y69.2 F3000.0
M3 F3000.0
G01 X84.17 Y69.36 F3000.0
G01 X85.03 Y70.22 F3000.0
M5
G00 X80.85 Y68.86 F3000.0
M3 F3000.0
G01 X80.47 F3000.0
G01 X75.47 F3000.0
G01 X74.08 F3000.0
M5
G00 X74.08 Y68.86 F3000.0
M3 F3000.0
G01 Y69.06 F3000.0
G01 Y71.06 F3000.0
G01 Y72.25 F3000.0
M5
G00 X74.08 Y72.25 F3000.0
M3 F3000.0
G01 X74.47 F3000.0
G01 X79.47 F3000.0
G01 X80.85 F3000.0
M5
G00 X80.85 Y72.25 F3000.0
M3 F3000.0
G01 Y72.06 F3000.0
G01 Y70.06 F3000.0
G01 Y68.86 F3000.0
M5
G00 X79.16 Y68.53 F3000.0
M3 F3000.0
G01 Y68.5 F3000.0
G01 Y66.5 F3000.0
G01 Y65.48 F3000.0
M5
G00 X79.16 Y64.8 F3000.0
M3 F3000.0
G01 X79.31 Y64.64 F3000.0
G01 X80.17 Y63.78 F3000.0
M5
G00 X80.17 Y63.78 F3000.0
M3 F3000.0
G01 X80.41 Y63.67 F3000.0
G01 X81.53 Y63.11 F3000.0
M5
G00 X81.53 Y67.17 F3000.0
M3 F3000.0
G01 X81.47 F3000.0
G01 X74.47 F3000.0
G01 X73.4 F3000.0
M5
G00 X72.72 Y65.48 F3000.0
M3 F3000.0
G01 X72.97 F3000.0
G01 X80.97 F3000.0
G01 X82.21 F3000.0
M5
G00 X75.77 Y65.48 F3000.0
M3 F3000.0
G01 Y65.5 F3000.0
G01 Y67.5 F3000.0
G01 Y68.53 F3000.0
M5
G00 X74.08 Y70.56 F3000.0
M3 F3000.0
G01 X74.47 F3000.0
G01 X79.47 F3000.0
G01 X80.85 F3000.0
M5
G00 X77.47 Y72.25 F3000.0
M3 F3000.0
G01 Y72.06 F3000.0
G01 Y70.06 F3000.0
G01 Y68.86 F3000.0
M5
G00 X74.76 Y63.78 F3000.0
M3 F3000.0
G01 X74.91 Y63.94 F3000.0
G01 X75.77 Y64.8 F3000.0
M5
G00 X73.4 Y63.11 F3000.0
M3 F3000.0
G01 X73.63 Y63.22 F3000.0
G01 X74.76 Y63.78 F3000.0
M5
G00 X70.58 Y66.83 F3000.0
M3 F3000.0
G01 X70.52 Y66.92 F3000.0
G01 X69.9 Y67.85 F3000.0
M5
G00 X69.9 Y67.85 F3000.0
M3 F3000.0
G01 X69.75 Y68.0 F3000.0
G01 X68.89 Y68.86 F3000.0
M5
G00 X68.89 Y68.86 F3000.0
M3 F3000.0
G01 X68.61 Y69.07 F3000.0
G01 X67.53 Y69.88 F3000.0
M5
G00 X66.18 Y70.22 F3000.0
M3 F3000.0
G01 Y70.16 F3000.0
G01 Y64.16 F3000.0
G01 Y63.11 F3000.0
M5
G00 X63.47 Y67.85 F3000.0
M3 F3000.0
G01 X63.53 Y67.9 F3000.0
G01 X64.31 Y68.53 F3000.0
G01 X65.16 Y69.2 F3000.0
M5
G00 X65.16 Y69.2 F3000.0
M3 F3000.0
G01 X65.28 Y69.36 F3000.0
G01 X66.48 Y70.96 F3000.0
G01 X67.19 Y71.91 F3000.0
M5
G00 X61.77 Y71.91 F3000.0
M3 F3000.0
G01 X62.18 F3000.0
G01 X69.18 F3000.0
G01 X70.58 F3000.0
M5
G00 X61.44 Y66.83 F3000.0
M3 F3000.0
G01 X61.56 Y66.89 F3000.0
G01 X62.45 Y67.34 F3000.0
G01 X63.47 Y67.85 F3000.0
M5
G00 X74.76 Y58.14 F3000.0
M3 F3000.0
G01 Y57.78 F3000.0
G01 Y55.78 F3000.0
G01 Y54.41 F3000.0
M5
G00 X74.76 Y54.75 F3000.0
M3 F3000.0
G01 X74.97 F3000.0
G01 X78.97 F3000.0
G01 X80.17 F3000.0
M5
G00 X80.17 Y54.41 F3000.0
M3 F3000.0
G01 Y54.78 F3000.0
G01 Y56.78 F3000.0
G01 Y58.14 F3000.0
M5
G00 X80.17 Y58.14 F3000.0
M3 F3000.0
G01 X79.97 F3000.0
G01 X75.97 F3000.0
G01 X74.76 F3000.0
M5
G00 X75.09 Y56.44 F3000.0
M3 F3000.0
G01 X75.14 F3000.0
G01 X79.14 F3000.0
G01 X80.17 F3000.0
M5
G00 X84.01 Y55.09 F3000.0
M3 F3000.0
G01 X84.17 Y55.25 F3000.0
G01 X85.03 Y56.11 F3000.0
M5
G00 X85.03 Y56.11 F3000.0
M3 F3000.0
G01 X85.29 Y56.48 F3000.0
G01 X85.88 Y57.29 F3000.0
G01 X86.72 Y58.48 F3000.0
M5
G00 X86.38 Y57.46 F3000.0
M3 F3000.0
G01 X86.42 F3000.0
G01 X89.42 F3000.0
G01 X90.45 F3000.0
M5
G00 X90.45 Y57.46 F3000.0
M3 F3000.0
G01 X90.39 Y57.4 F3000.0
G01 X89.77 Y56.61 F3000.0
G01 X89.09 Y55.77 F3000.0
M5
G00 X89.09 Y55.77 F3000.0
M3 F3000.0
G01 Y55.58 F3000.0
G01 Y54.58 F3000.0
G01 Y53.4 F3000.0
M5
G00 X92.14 Y53.4 F3000.0
M3 F3000.0
G01 Y53.58 F3000.0
G01 Y54.58 F3000.0
G01 Y55.77 F3000.0
M5
G00 X92.14 Y55.77 F3000.0
M3 F3000.0
G01 X91.92 F3000.0
G01 X86.92 F3000.0
G01 X85.71 F3000.0
M5
G00 X85.71 Y55.77 F3000.0
M3 F3000.0
G01 Y55.56 F3000.0
G01 Y51.56 F3000.0
G01 Y50.35 F3000.0
M5
G00 X85.71 Y50.35 F3000.0
M3 F3000.0
G01 X86.05 Y49.67 F3000.0
M5
G00 X86.05 Y49.67 F3000.0
M3 F3000.0
G01 X86.72 Y49.33 F3000.0
M5
G00 X86.72 Y49.33 F3000.0
M3 F3000.0
G01 X87.1 F3000.0
G01 X91.1 F3000.0
G01 X92.48 F3000.0
M5
G00 X92.48 Y49.33 F3000.0
M3 F3000.0
G01 X93.16 Y49.67 F3000.0
M5
G00 X93.16 Y49.67 F3000.0
M3 F3000.0
G01 X93.5 Y50.35 F3000.0
M5
G00 X93.5 Y50.35 F3000.0
M3 F3000.0
G01 Y51.03 F3000.0
M5
G00 X91.46 Y44.03 F3000.0
M3 F3000.0
G01 X91.25 F3000.0
G01 X87.25 F3000.0
G01 X86.05 F3000.0
M5
G00 X86.05 Y44.03 F3000.0
M3 F3000.0
G01 Y43.67 F3000.0
G01 Y41.67 F3000.0
G01 Y40.3 F3000.0
M5
G00 X86.05 Y40.64 F3000.0
M3 F3000.0
G01 X86.25 F3000.0
G01 X90.25 F3000.0
G01 X91.46 F3000.0
M5
G00 X91.46 Y40.3 F3000.0
M3 F3000.0
G01 Y40.67 F3000.0
G01 Y42.67 F3000.0
G01 Y44.03 F3000.0
M5
G00 X86.38 Y42.33 F3000.0
M3 F3000.0
G01 X86.42 F3000.0
G01 X90.42 F3000.0
G01 X91.46 F3000.0
M5
G00 X92.14 Y37.59 F3000.0
M3 F3000.0
G01 X91.95 F3000.0
G01 X89.95 F3000.0
G01 X88.75 F3000.0
M5
G00 X88.75 Y35.56 F3000.0
M3 F3000.0
G01 Y35.92 F3000.0
G01 Y37.92 F3000.0
G01 Y39.29 F3000.0
M5
G00 X87.06 Y35.9 F3000.0
M3 F3000.0
G01 X86.91 Y36.05 F3000.0
G01 X86.05 Y36.92 F3000.0
M5
G00 X85.37 Y35.9 F3000.0
M3 F3000.0
G01 X85.48 Y36.17 F3000.0
G01 X85.88 Y37.08 F3000.0
G01 X86.38 Y38.27 F3000.0
M5
G00 X84.01 Y39.29 F3000.0
M3 F3000.0
G01 X84.25 F3000.0
G01 X92.25 F3000.0
G01 X93.5 F3000.0
M5
G00 X93.5 Y35.22 F3000.0
M3 F3000.0
G01 X93.46 F3000.0
G01 X90.46 F3000.0
G01 X89.43 F3000.0
M5
G00 X89.43 Y35.22 F3000.0
M3 F3000.0
G01 X89.21 Y35.29 F3000.0
G01 X88.25 Y35.56 F3000.0
G01 X87.06 Y35.9 F3000.0
M5
G00 X84.35 Y34.88 F3000.0
M3 F3000.0
G01 X84.51 Y35.04 F3000.0
G01 X85.37 Y35.9 F3000.0
M5
G00 X81.53 Y35.9 F3000.0
M3 F3000.0
G01 X81.34 F3000.0
G01 X79.34 F3000.0
G01 X78.14 F3000.0
M5
G00 X78.14 Y35.22 F3000.0
M3 F3000.0
G01 Y35.45 F3000.0
G01 Y41.45 F3000.0
G01 Y42.67 F3000.0
M5
G00 X78.14 Y42.67 F3000.0
M3 F3000.0
G01 X78.34 F3000.0
G01 X80.34 F3000.0
G01 X81.53 F3000.0
M5
G00 X81.53 Y42.67 F3000.0
M3 F3000.0
G01 Y42.45 F3000.0
G01 Y36.45 F3000.0
G01 Y35.22 F3000.0
M5
G00 X72.72 Y41.66 F3000.0
M3 F3000.0
G01 X73.09 F3000.0
G01 X76.09 F3000.0
G01 X77.47 F3000.0
M5
G00 X78.14 Y49.33 F3000.0
M3 F3000.0
G01 X77.92 Y49.4 F3000.0
G01 X76.96 Y49.67 F3000.0
G01 X75.77 Y50.01 F3000.0
M5
G00 X75.77 Y50.01 F3000.0
M3 F3000.0
G01 X75.62 Y50.17 F3000.0
G01 X74.76 Y51.03 F3000.0
M5
G00 X74.08 Y50.01 F3000.0
M3 F3000.0
G01 X74.19 Y50.28 F3000.0
G01 X74.59 Y51.2 F3000.0
G01 X75.09 Y52.38 F3000.0
M5
G00 X72.72 Y53.4 F3000.0
M3 F3000.0
G01 X72.97 F3000.0
G01 X80.97 F3000.0
G01 X82.21 F3000.0
M5
G00 X80.85 Y51.7 F3000.0
M3 F3000.0
G01 X80.66 F3000.0
G01 X78.66 F3000.0
G01 X77.47 F3000.0
M5
G00 X77.47 Y49.67 F3000.0
M3 F3000.0
G01 Y50.03 F3000.0
G01 Y52.03 F3000.0
G01 Y53.4 F3000.0
M5
G00 X73.06 Y49. F3000.0
M3 F3000.0
G01 X73.22 Y49.15 F3000.0
G01 X74.08 Y50.01 F3000.0
M5
G00 X82.21 Y49.33 F3000.0
M3 F3000.0
G01 X82.17 F3000.0
G01 X79.17 F3000.0
G01 X78.14 F3000.0
M5
G00 X85.71 Y53.4 F3000.0
M3 F3000.0
G01 X85.92 F3000.0
G01 X90.92 F3000.0
G01 X92.14 F3000.0
M5
G00 X85.71 Y86.02 F3000.0
M3 F3000.0
G01 X86.08 F3000.0
G01 X90.08 F3000.0
G01 X91.46 F3000.0
M5
G00 X92.14 Y94.72 F3000.0
M3 F3000.0
G01 X91.75 F3000.0
G01 X86.75 F3000.0
G01 X85.37 F3000.0
M5
G00 X86.05 Y96.07 F3000.0
M3 F3000.0
G01 X85.85 Y96.02 F3000.0
G01 X84.69 Y95.73 F3000.0
M5
G00 X84.01 Y98.1 F3000.0
M3 F3000.0
G01 Y98.28 F3000.0
G01 Y99.46 F3000.0
M5
G00 X84.01 Y99.46 F3000.0
M3 F3000.0
G01 X84.25 F3000.0
G01 X92.25 F3000.0
G01 X93.5 F3000.0
M5
G00 X93.5 Y99.46 F3000.0
M3 F3000.0
G01 Y99.28 F3000.0
G01 Y98.1 F3000.0
M5
G00 X92.48 Y96.75 F3000.0
M3 F3000.0
G01 Y97.42 F3000.0
M5
G00 X91.8 Y96.07 F3000.0
M3 F3000.0
G01 X92.48 Y96.75 F3000.0
M5
G00 X90.11 Y96.07 F3000.0
M3 F3000.0
G01 X90.45 F3000.0
G01 X91.8 F3000.0
M5
G00 X89.43 Y96.75 F3000.0
M3 F3000.0
G01 X90.11 Y96.07 F3000.0
M5
G00 X88.75 Y94.72 F3000.0
M3 F3000.0
G01 Y94.69 F3000.0
G01 Y92.69 F3000.0
G01 Y91.67 F3000.0
M5
G00 X84.35 Y91.67 F3000.0
M3 F3000.0
G01 X84.75 F3000.0
G01 X91.75 F3000.0
G01 X93.16 F3000.0
M5
G00 X87.06 Y96.75 F3000.0
M3 F3000.0
G01 X86.97 Y96.69 F3000.0
G01 X86.05 Y96.07 F3000.0
M5
G00 X87.4 Y97.42 F3000.0
M3 F3000.0
G01 X87.06 Y96.75 F3000.0
M5
G00 X87.74 Y98.78 F3000.0
M3 F3000.0
G01 X87.69 Y98.59 F3000.0
G01 X87.4 Y97.42 F3000.0
M5
G00 X89.43 Y98.78 F3000.0
M3 F3000.0
G01 Y98.76 F3000.0
G01 Y97.76 F3000.0
G01 Y96.75 F3000.0
M5
G00 X88.75 Y100.81 F3000.0
M3 F3000.0
G01 Y100.63 F3000.0
G01 Y99.46 F3000.0
M5
G00 X86.05 Y105.44 F3000.0
M3 F3000.0
G01 X86.11 Y105.45 F3000.0
G01 X89.08 Y105.84 F3000.0
G01 X90.07 Y105.98 F3000.0
G01 X91.12 Y106.12 F3000.0
M5
G00 X90.79 Y106.45 F3000.0
M3 F3000.0
G01 X91.2 Y106.2 F3000.0
G01 X92.48 Y105.44 F3000.0
M5
G00 X91.8 Y107.13 F3000.0
M3 F3000.0
G01 Y107.31 F3000.0
G01 Y108.49 F3000.0
M5
G00 X91.8 Y108.49 F3000.0
M3 F3000.0
G01 X91.75 F3000.0
G01 X86.75 F3000.0
G01 X85.71 F3000.0
M5
G00 X85.71 Y108.49 F3000.0
M3 F3000.0
G01 Y108.14 F3000.0
G01 Y106.79 F3000.0
M5
G00 X85.71 Y107.13 F3000.0
M3 F3000.0
G01 X85.75 F3000.0
G01 X90.75 F3000.0
G01 X91.8 F3000.0
M5
G00 X91.12 Y110.18 F3000.0
M3 F3000.0
G01 X91.14 Y110.21 F3000.0
G01 X91.46 Y111.2 F3000.0
M5
G00 X92.48 Y111.87 F3000.0
M3 F3000.0
G01 X92.54 Y111.78 F3000.0
G01 X93.16 Y110.86 F3000.0
M5
G00 X91.46 Y112.55 F3000.0
M3 F3000.0
G01 X91.56 Y112.49 F3000.0
G01 X92.48 Y111.87 F3000.0
M5
G00 X90.45 Y112.55 F3000.0
M3 F3000.0
G01 X90.12 Y112.23 F3000.0
G01 X89.09 Y111.2 F3000.0
M5
G00 X89.09 Y111.2 F3000.0
M3 F3000.0
G01 X88.78 Y111.02 F3000.0
G01 X87.91 Y110.52 F3000.0
G01 X86.72 Y109.84 F3000.0
M5
G00 X86.72 Y109.84 F3000.0
M3 F3000.0
G01 X86.5 Y109.78 F3000.0
G01 X85.54 Y109.5 F3000.0
G01 X84.35 Y109.16 F3000.0
M5
G00 X84.35 Y110.18 F3000.0
M3 F3000.0
G01 X84.51 Y110.34 F3000.0
G01 X85.37 Y111.2 F3000.0
M5
G00 X85.37 Y111.2 F3000.0
M3 F3000.0
G01 X85.38 Y111.23 F3000.0
G01 X85.71 Y112.21 F3000.0
M5
G00 X86.72 Y112.89 F3000.0
M3 F3000.0
G01 Y112.7 F3000.0
G01 Y111.7 F3000.0
G01 Y110.52 F3000.0
M5
G00 X86.72 Y110.52 F3000.0
M3 F3000.0
G01 X86.81 Y110.46 F3000.0
G01 X87.74 Y109.84 F3000.0
M5
G00 X87.74 Y109.84 F3000.0
M3 F3000.0
G01 X87.92 F3000.0
G01 X88.92 F3000.0
G01 X90.11 F3000.0
M5
G00 X90.11 Y109.84 F3000.0
M3 F3000.0
G01 X90.14 Y109.85 F3000.0
G01 X91.12 Y110.18 F3000.0
M5
G00 X88.75 Y112.21 F3000.0
M3 F3000.0
G01 X88.6 Y112.37 F3000.0
G01 X87.74 Y113.23 F3000.0
M5
G00 X88.75 Y114.92 F3000.0
M3 F3000.0
G01 Y114.91 F3000.0
G01 Y113.91 F3000.0
M5
G00 X84.01 Y113.91 F3000.0
M3 F3000.0
G01 X84.25 F3000.0
G01 X92.25 F3000.0
G01 X93.5 F3000.0
M5
G00 X93.5 Y113.91 F3000.0
M3 F3000.0
G01 Y113.73 F3000.0
G01 Y112.55 F3000.0
M5
G00 X91.8 Y119.89 F3000.0
M3 F3000.0
G01 X91.75 F3000.0
G01 X86.75 F3000.0
G01 X85.71 F3000.0
M5
G00 X85.71 Y119.55 F3000.0
M3 F3000.0
G01 Y119.57 F3000.0
G01 Y121.57 F3000.0
G01 Y122.6 F3000.0
M5
G00 X85.71 Y122.6 F3000.0
M3 F3000.0
G01 X85.75 F3000.0
G01 X90.75 F3000.0
G01 X91.8 F3000.0
M5
G00 X91.8 Y122.6 F3000.0
M3 F3000.0
G01 Y122.57 F3000.0
G01 Y120.57 F3000.0
G01 Y119.55 F3000.0
M5
G00 X87.4 Y123.95 F3000.0
M3 F3000.0
G01 X87.38 Y124.02 F3000.0
G01 X87.06 Y124.97 F3000.0
G01 X86.72 Y125.98 F3000.0
M5
G00 X85.03 Y125.98 F3000.0
M3 F3000.0
G01 X85.25 F3000.0
G01 X91.25 F3000.0
G01 X92.48 F3000.0
M5
G00 X90.79 Y125.98 F3000.0
M3 F3000.0
G01 X90.76 Y125.92 F3000.0
G01 X90.45 Y124.97 F3000.0
G01 X90.11 Y123.95 F3000.0
M5
G00 X90.45 Y127.34 F3000.0
M3 F3000.0
G01 Y127.69 F3000.0
G01 Y129.03 F3000.0
M5
G00 X88.75 Y127.34 F3000.0
M3 F3000.0
G01 Y127.16 F3000.0
G01 Y125.98 F3000.0
M5
G00 X87.06 Y129.03 F3000.0
M3 F3000.0
G01 Y128.69 F3000.0
G01 Y127.34 F3000.0
M5
G00 X84.01 Y128.36 F3000.0
M3 F3000.0
G01 X84.25 F3000.0
G01 X92.25 F3000.0
G01 X93.5 F3000.0
M5
G00 X93.16 Y134. F3000.0
M3 F3000.0
G01 X92.79 F3000.0
G01 X89.79 F3000.0
G01 X88.42 F3000.0
M5
G00 X88.42 Y133.66 F3000.0
M3 F3000.0
G01 Y133.87 F3000.0
G01 Y137.87 F3000.0
G01 Y139.08 F3000.0
M5
G00 X88.42 Y139.08 F3000.0
M3 F3000.0
G01 X88.79 F3000.0
G01 X91.79 F3000.0
G01 X93.16 F3000.0
M5
G00 X92.82 Y137.39 F3000.0
M3 F3000.0
G01 X92.62 F3000.0
G01 X89.62 F3000.0
G01 X88.42 F3000.0
M5
G00 X88.42 Y136.03 F3000.0
M3 F3000.0
G01 X88.62 F3000.0
G01 X91.62 F3000.0
G01 X92.82 F3000.0
M5
G00 X90.79 Y139.08 F3000.0
M3 F3000.0
G01 Y139.04 F3000.0
G01 Y135.04 F3000.0
G01 Y134.0 F3000.0
M5
G00 X87.06 Y137.05 F3000.0
M3 F3000.0
G01 X87.04 F3000.0
G01 X85.04 F3000.0
G01 X84.01 F3000.0
M5
G00 X84.69 Y137.05 F3000.0
M3 F3000.0
G01 X84.73 Y137.09 F3000.0
G01 X85.38 Y137.85 F3000.0
G01 X86.03 Y138.61 F3000.0
G01 X86.72 Y139.42 F3000.0
M5
G00 X87.4 Y138.4 F3000.0
M3 F3000.0
G01 X87.55 Y138.56 F3000.0
G01 X88.42 Y139.42 F3000.0
M5
G00 X88.42 Y139.42 F3000.0
M3 F3000.0
G01 X88.53 Y139.65 F3000.0
G01 X89.09 Y140.77 F3000.0
M5
G00 X89.77 Y141.45 F3000.0
M3 F3000.0
G01 Y141.63 F3000.0
G01 Y142.81 F3000.0
M5
G00 X87.4 Y142.81 F3000.0
M3 F3000.0
G01 Y142.63 F3000.0
G01 Y141.45 F3000.0
M5
G00 X86.05 Y140.77 F3000.0
M3 F3000.0
G01 X85.99 Y140.71 F3000.0
G01 X85.37 Y139.93 F3000.0
G01 X84.69 Y139.08 F3000.0
G01 X84.78 Y139.02 F3000.0
G01 X85.71 Y138.4 F3000.0
M5
G00 X86.72 Y138.06 F3000.0
M3 F3000.0
G01 X86.88 Y137.68 F3000.0
G01 X87.4 Y136.37 F3000.0
M5
G00 X86.38 Y136.37 F3000.0
M3 F3000.0
G01 X86.54 Y135.99 F3000.0
G01 X87.06 Y134.68 F3000.0
M5
G00 X85.71 Y137.05 F3000.0
M3 F3000.0
G01 Y136.85 F3000.0
G01 Y134.85 F3000.0
G01 Y133.66 F3000.0
M5
G00 X84.01 Y134.34 F3000.0
M3 F3000.0
G01 X84.07 Y134.46 F3000.0
G01 X84.52 Y135.35 F3000.0
G01 X85.03 Y136.37 F3000.0
M5
G00 X81.19 Y137.73 F3000.0
M3 F3000.0
G01 X81.24 Y137.92 F3000.0
G01 X81.53 Y139.08 F3000.0
M5
G00 X81.53 Y139.08 F3000.0
M3 F3000.0
G01 X81.33 F3000.0
G01 X78.33 F3000.0
G01 X77.13 F3000.0
M5
G00 X77.47 Y138.06 F3000.0
M3 F3000.0
G01 X77.48 Y138.03 F3000.0
G01 X77.8 Y137.05 F3000.0
M5
G00 X77.8 Y137.05 F3000.0
M3 F3000.0
G01 X78.01 Y136.77 F3000.0
G01 X78.82 Y135.69 F3000.0
M5
G00 X78.82 Y135.69 F3000.0
M3 F3000.0
G01 X79.1 Y135.49 F3000.0
G01 X80.17 Y134.68 F3000.0
M5
G00 X80.17 Y134.68 F3000.0
M3 F3000.0
G01 X80.3 Y134.62 F3000.0
G01 X81.19 Y134.17 F3000.0
G01 X82.21 Y133.66 F3000.0
M5
G00 X80.17 Y136.03 F3000.0
M3 F3000.0
G01 X80.42 Y136.45 F3000.0
G01 X81.19 Y137.73 F3000.0
M5
G00 X80.85 Y140.1 F3000.0
M3 F3000.0
G01 X81.06 Y140.37 F3000.0
G01 X81.87 Y141.45 F3000.0
M5
G00 X81.87 Y141.45 F3000.0
M3 F3000.0
G01 X81.49 F3000.0
G01 X77.49 F3000.0
G01 X76.11 F3000.0
M5
G00 X76.11 Y141.45 F3000.0
M3 F3000.0
G01 Y141.25 F3000.0
G01 Y138.25 F3000.0
G01 Y137.05 F3000.0
M5
G00 X76.11 Y137.05 F3000.0
M3 F3000.0
G01 X76.04 Y136.69 F3000.0
G01 X75.77 Y135.35 F3000.0
M5
G00 X75.77 Y135.35 F3000.0
M3 F3000.0
G01 X75.66 Y135.12 F3000.0
G01 X75.09 Y134.0 F3000.0
M5
G00 X76.11 Y133.66 F3000.0
M3 F3000.0
G01 X76.38 Y133.78 F3000.0
G01 X77.3 Y134.17 F3000.0
G01 X78.48 Y134.68 F3000.0
M5
G00 X78.48 Y134.68 F3000.0
M3 F3000.0
G01 X78.55 Y134.73 F3000.0
G01 X79.33 Y135.35 F3000.0
G01 X80.17 Y136.03 F3000.0
M5
G00 X79.16 Y139.08 F3000.0
M3 F3000.0
G01 Y139.11 F3000.0
G01 Y142.11 F3000.0
G01 Y143.14 F3000.0
M5
G00 X84.69 Y142.81 F3000.0
M3 F3000.0
G01 Y142.63 F3000.0
G01 Y141.45 F3000.0
M5
G00 X84.69 Y141.45 F3000.0
M3 F3000.0
G01 X85.08 F3000.0
G01 X91.08 F3000.0
G01 X92.48 F3000.0
M5
G00 X92.48 Y141.45 F3000.0
M3 F3000.0
G01 Y141.63 F3000.0
G01 Y142.81 F3000.0
M5
G00 X92.48 Y142.81 F3000.0
M3 F3000.0
G01 X92.08 F3000.0
G01 X86.08 F3000.0
G01 X84.69 F3000.0
M5
G00 X91.46 Y140.77 F3000.0
M3 F3000.0
G01 X91.31 Y140.39 F3000.0
G01 X90.79 Y139.08 F3000.0
M5
G00 X82.21 Y127. F3000.0
M3 F3000.0
G01 X81.97 F3000.0
G01 X73.97 F3000.0
G01 X72.72 F3000.0
M5
G00 X75.77 Y125.98 F3000.0
M3 F3000.0
G01 X75.81 Y126.09 F3000.0
G01 X76.12 Y127.03 F3000.0
G01 X76.44 Y127.98 F3000.0
G01 X76.79 Y129.03 F3000.0
M5
G00 X79.16 Y125.65 F3000.0
M3 F3000.0
G01 Y125.44 F3000.0
G01 Y121.44 F3000.0
G01 Y120.23 F3000.0
M5
G00 X76.11 Y120.23 F3000.0
M3 F3000.0
G01 X76.16 F3000.0
G01 X81.16 F3000.0
G01 X82.21 F3000.0
M5
G00 X84.35 Y123.95 F3000.0
M3 F3000.0
G01 X84.75 F3000.0
G01 X91.75 F3000.0
G01 X93.16 F3000.0
M5
G00 X84.01 Y112.55 F3000.0
M3 F3000.0
G01 Y112.73 F3000.0
G01 Y113.91 F3000.0
M5
G00 X81.19 Y114.58 F3000.0
M3 F3000.0
G01 X80.8 F3000.0
G01 X74.8 F3000.0
G01 X73.4 F3000.0
M5
G00 X73.4 Y114.58 F3000.0
M3 F3000.0
G01 Y114.41 F3000.0
G01 Y113.23 F3000.0
M5
G00 X73.4 Y113.23 F3000.0
M3 F3000.0
G01 X73.8 F3000.0
G01 X79.8 F3000.0
G01 X81.19 F3000.0
M5
G00 X81.19 Y113.23 F3000.0
M3 F3000.0
G01 Y113.41 F3000.0
G01 Y114.58 F3000.0
M5
G00 X80.17 Y112.55 F3000.0
M3 F3000.0
G01 X80.02 Y112.17 F3000.0
G01 X79.5 Y110.86 F3000.0
M5
G00 X79.5 Y110.86 F3000.0
M3 F3000.0
G01 Y110.82 F3000.0
G01 Y106.82 F3000.0
G01 Y105.78 F3000.0
M5
G00 X81.87 Y105.78 F3000.0
M3 F3000.0
G01 X81.5 F3000.0
G01 X78.5 F3000.0
G01 X77.13 F3000.0
M5
G00 X77.13 Y105.44 F3000.0
M3 F3000.0
G01 Y105.65 F3000.0
G01 Y109.65 F3000.0
G01 Y110.86 F3000.0
M5
G00 X77.13 Y110.86 F3000.0
M3 F3000.0
G01 X77.5 F3000.0
G01 X80.5 F3000.0
G01 X81.87 F3000.0
M5
G00 X81.53 Y109.16 F3000.0
M3 F3000.0
G01 X81.33 F3000.0
G01 X78.33 F3000.0
G01 X77.13 F3000.0
M5
G00 X77.13 Y107.81 F3000.0
M3 F3000.0
G01 X77.33 F3000.0
G01 X80.33 F3000.0
G01 X81.53 F3000.0
M5
G00 X84.69 Y105.44 F3000.0
M3 F3000.0
G01 X84.87 F3000.0
G01 X86.05 F3000.0
M5
G00 X88.75 Y106.12 F3000.0
M3 F3000.0
G01 Y106.31 F3000.0
G01 Y108.31 F3000.0
G01 Y109.5 F3000.0
M5
G00 X78.48 Y113.23 F3000.0
M3 F3000.0
G01 Y113.41 F3000.0
G01 Y114.58 F3000.0
M5
G00 X76.11 Y114.58 F3000.0
M3 F3000.0
G01 Y114.41 F3000.0
G01 Y113.23 F3000.0
M5
G00 X74.76 Y112.55 F3000.0
M3 F3000.0
G01 X74.7 Y112.48 F3000.0
G01 X74.08 Y111.7 F3000.0
G01 X73.4 Y110.86 F3000.0
M5
G00 X73.4 Y110.86 F3000.0
M3 F3000.0
G01 X73.49 Y110.8 F3000.0
G01 X74.42 Y110.18 F3000.0
M5
G00 X75.43 Y109.84 F3000.0
M3 F3000.0
G01 X75.59 Y109.46 F3000.0
G01 X76.11 Y108.15 F3000.0
M5
G00 X75.77 Y108.83 F3000.0
M3 F3000.0
G01 X75.75 F3000.0
G01 X73.75 F3000.0
G01 X72.72 F3000.0
M5
G00 X73.4 Y108.83 F3000.0
M3 F3000.0
G01 X73.44 Y108.87 F3000.0
G01 X74.09 Y109.63 F3000.0
G01 X74.74 Y110.39 F3000.0
G01 X75.43 Y111.2 F3000.0
M5
G00 X76.11 Y110.18 F3000.0
M3 F3000.0
G01 X76.27 Y110.34 F3000.0
G01 X77.13 Y111.2 F3000.0
M5
G00 X77.13 Y111.2 F3000.0
M3 F3000.0
G01 X77.24 Y111.43 F3000.0
G01 X77.8 Y112.55 F3000.0
M5
G00 X74.42 Y108.83 F3000.0
M3 F3000.0
G01 Y108.63 F3000.0
G01 Y106.63 F3000.0
G01 Y105.44 F3000.0
M5
G00 X72.72 Y106.12 F3000.0
M3 F3000.0
G01 X72.78 Y106.24 F3000.0
G01 X73.23 Y107.13 F3000.0
G01 X73.74 Y108.15 F3000.0
M5
G00 X75.09 Y108.15 F3000.0
M3 F3000.0
G01 X75.25 Y107.77 F3000.0
G01 X75.77 Y106.45 F3000.0
M5
G00 X74.42 Y100.81 F3000.0
M3 F3000.0
G01 Y100.45 F3000.0
G01 Y98.45 F3000.0
G01 Y97.09 F3000.0
M5
G00 X74.76 Y97.09 F3000.0
M3 F3000.0
G01 X74.73 Y97.08 F3000.0
G01 X73.74 Y96.92 F3000.0
G01 X72.72 Y96.75 F3000.0
M5
G00 X74.08 Y95.73 F3000.0
M3 F3000.0
G01 X74.47 F3000.0
G01 X79.47 F3000.0
G01 X80.85 F3000.0
M5
G00 X80.85 Y95.73 F3000.0
M3 F3000.0
G01 Y95.53 F3000.0
G01 Y92.53 F3000.0
G01 Y91.33 F3000.0
M5
G00 X80.85 Y91.67 F3000.0
M3 F3000.0
G01 X80.47 F3000.0
G01 X75.47 F3000.0
G01 X74.08 F3000.0
M5
G00 X74.08 Y91.33 F3000.0
M3 F3000.0
G01 Y91.53 F3000.0
G01 Y94.53 F3000.0
G01 Y95.73 F3000.0
M5
G00 X74.08 Y93.7 F3000.0
M3 F3000.0
G01 X74.47 F3000.0
G01 X79.47 F3000.0
G01 X80.85 F3000.0
M5
G00 X81.53 Y97.09 F3000.0
M3 F3000.0
G01 X82.21 Y97.76 F3000.0
M5
G00 X82.21 Y97.76 F3000.0
M3 F3000.0
G01 Y98.44 F3000.0
M5
G00 X81.53 Y100.13 F3000.0
M3 F3000.0
G01 X81.27 Y100.06 F3000.0
G01 X79.36 Y99.48 F3000.0
G01 X78.14 Y99.12 F3000.0
M5
G00 X78.14 Y97.76 F3000.0
M3 F3000.0
G01 X78.82 Y97.09 F3000.0
M5
G00 X78.82 Y97.09 F3000.0
M3 F3000.0
G01 X79.17 F3000.0
G01 X80.17 F3000.0
G01 X81.53 F3000.0
M5
G00 X77.47 Y97.09 F3000.0
M3 F3000.0
G01 X77.35 Y96.85 F3000.0
G01 X76.79 Y95.73 F3000.0
M5
G00 X76.79 Y97.76 F3000.0
M3 F3000.0
G01 X76.72 Y97.74 F3000.0
G01 X75.77 Y97.42 F3000.0
G01 X74.76 Y97.09 F3000.0
M5
G00 X74.42 Y99.46 F3000.0
M3 F3000.0
G01 X74.6 F3000.0
G01 X75.6 F3000.0
G01 X76.79 F3000.0
M5
G00 X78.14 Y100.81 F3000.0
M3 F3000.0
G01 Y100.79 F3000.0
G01 Y98.79 F3000.0
G01 Y97.76 F3000.0
M5
G00 X69.56 Y98.44 F3000.0
M3 F3000.0
G01 X69.37 F3000.0
G01 X67.37 F3000.0
G01 X66.18 F3000.0
M5
G00 X66.18 Y98.44 F3000.0
M3 F3000.0
G01 Y98.42 F3000.0
G01 Y96.42 F3000.0
G01 Y95.39 F3000.0
M5
G00 X66.18 Y95.39 F3000.0
M3 F3000.0
G01 X66.37 F3000.0
G01 X68.37 F3000.0
G01 X69.56 F3000.0
M5
G00 X69.56 Y95.39 F3000.0
M3 F3000.0
G01 Y95.42 F3000.0
G01 Y97.42 F3000.0
G01 Y98.44 F3000.0
M5
G00 X67.87 Y97.42 F3000.0
M3 F3000.0
G01 X68.08 Y97.15 F3000.0
G01 X68.89 Y96.07 F3000.0
M5
G00 X67.53 Y96.75 F3000.0
M3 F3000.0
G01 X67.65 Y96.98 F3000.0
G01 X68.21 Y98.1 F3000.0
M5
G00 X66.85 Y96.07 F3000.0
M3 F3000.0
G01 X67.53 Y96.75 F3000.0
M5
G00 X68.55 Y94.38 F3000.0
M3 F3000.0
G01 Y94.02 F3000.0
G01 Y93.02 F3000.0
G01 Y91.67 F3000.0
M5
G00 X67.19 Y91.67 F3000.0
M3 F3000.0
G01 Y92.02 F3000.0
G01 Y93.02 F3000.0
G01 Y94.38 F3000.0
M5
G00 X65.84 Y94.38 F3000.0
M3 F3000.0
G01 Y94.02 F3000.0
G01 Y93.02 F3000.0
G01 Y91.67 F3000.0
M5
G00 X64.82 Y91.67 F3000.0
M3 F3000.0
G01 X64.87 F3000.0
G01 X69.87 F3000.0
G01 X70.92 F3000.0
M5
G00 X69.9 Y91.67 F3000.0
M3 F3000.0
G01 Y92.02 F3000.0
G01 Y93.02 F3000.0
G01 Y94.38 F3000.0
M5
G00 X69.9 Y94.38 F3000.0
M3 F3000.0
G01 X69.87 F3000.0
G01 X66.87 F3000.0
G01 X65.84 F3000.0
M5
G00 X64.48 Y95.39 F3000.0
M3 F3000.0
G01 X64.46 F3000.0
G01 X62.46 F3000.0
G01 X61.44 F3000.0
M5
G00 X62.45 Y94.38 F3000.0
M3 F3000.0
G01 X62.39 Y94.25 F3000.0
G01 X61.94 Y93.36 F3000.0
G01 X61.44 Y92.34 F3000.0
M5
G00 X64.48 Y92.68 F3000.0
M3 F3000.0
G01 X64.33 Y93.06 F3000.0
G01 X63.81 Y94.38 F3000.0
M5
G00 X63.13 Y95.39 F3000.0
M3 F3000.0
G01 Y95.36 F3000.0
G01 Y92.36 F3000.0
G01 Y91.33 F3000.0
M5
G00 X64.14 Y96.41 F3000.0
M3 F3000.0
G01 X64.3 Y96.03 F3000.0
G01 X64.82 Y94.72 F3000.0
M5
G00 X62.79 Y96.75 F3000.0
M3 F3000.0
G01 X62.63 Y96.9 F3000.0
G01 X61.77 Y97.76 F3000.0
M5
G00 X61.77 Y97.76 F3000.0
M3 F3000.0
G01 X62.1 Y98.09 F3000.0
G01 X63.13 Y99.12 F3000.0
M5
G00 X64.48 Y99.12 F3000.0
M3 F3000.0
G01 Y99.46 F3000.0
G01 Y100.81 F3000.0
M5
G00 X64.14 Y98.1 F3000.0
M3 F3000.0
G01 X63.95 Y97.88 F3000.0
G01 X63.29 Y97.12 F3000.0
G01 X62.63 Y96.37 F3000.0
G01 X61.77 Y95.39 F3000.0
M5
G00 X57.94 Y96.41 F3000.0
M3 F3000.0
G01 X57.72 F3000.0
G01 X52.72 F3000.0
G01 X51.5 F3000.0
M5
G00 X50.82 Y100.13 F3000.0
M3 F3000.0
G01 X51.22 F3000.0
G01 X57.22 F3000.0
G01 X58.61 F3000.0
M5
G00 X61.44 Y99.8 F3000.0
M3 F3000.0
G01 X61.68 F3000.0
G01 X69.68 F3000.0
G01 X70.92 F3000.0
M5
G00 X67.87 Y100.81 F3000.0
M3 F3000.0
G01 Y100.46 F3000.0
G01 Y99.12 F3000.0
M5
G00 X64.82 Y105.44 F3000.0
M3 F3000.0
G01 X65.09 Y105.55 F3000.0
G01 X66.01 Y105.95 F3000.0
G01 X67.19 Y106.45 F3000.0
M5
G00 X67.19 Y106.45 F3000.0
M3 F3000.0
G01 X67.26 Y106.51 F3000.0
G01 X68.04 Y107.13 F3000.0
G01 X68.89 Y107.81 F3000.0
M5
G00 X68.89 Y107.81 F3000.0
M3 F3000.0
G01 X69.14 Y108.23 F3000.0
G01 X69.9 Y109.5 F3000.0
M5
G00 X69.9 Y109.5 F3000.0
M3 F3000.0
G01 X69.95 Y109.7 F3000.0
G01 X70.24 Y110.86 F3000.0
M5
G00 X70.24 Y110.86 F3000.0
M3 F3000.0
G01 X70.04 F3000.0
G01 X67.04 F3000.0
G01 X65.84 F3000.0
M5
G00 X66.18 Y109.84 F3000.0
M3 F3000.0
G01 X66.19 Y109.81 F3000.0
G01 X66.52 Y108.83 F3000.0
M5
G00 X66.52 Y108.83 F3000.0
M3 F3000.0
G01 X66.72 Y108.55 F3000.0
G01 X67.53 Y107.47 F3000.0
M5
G00 X67.53 Y107.47 F3000.0
M3 F3000.0
G01 X67.81 Y107.26 F3000.0
G01 X68.89 Y106.45 F3000.0
M5
G00 X68.89 Y106.45 F3000.0
M3 F3000.0
G01 X69.01 Y106.39 F3000.0
G01 X69.9 Y105.95 F3000.0
G01 X70.92 Y105.44 F3000.0
M5
G00 X67.87 Y110.86 F3000.0
M3 F3000.0
G01 Y110.89 F3000.0
G01 Y113.89 F3000.0
G01 Y114.92 F3000.0
M5
G00 X70.58 Y113.23 F3000.0
M3 F3000.0
G01 X70.2 F3000.0
G01 X66.2 F3000.0
G01 X64.82 F3000.0
M5
G00 X64.82 Y113.23 F3000.0
M3 F3000.0
G01 Y113.03 F3000.0
G01 Y110.03 F3000.0
G01 Y108.83 F3000.0
M5
G00 X64.82 Y108.83 F3000.0
M3 F3000.0
G01 X64.75 Y108.47 F3000.0
G01 X64.48 Y107.13 F3000.0
M5
G00 X64.48 Y107.13 F3000.0
M3 F3000.0
G01 X64.37 Y106.9 F3000.0
G01 X63.81 Y105.78 F3000.0
M5
G00 X62.45 Y106.79 F3000.0
M3 F3000.0
G01 X62.24 Y106.52 F3000.0
G01 X61.44 Y105.44 F3000.0
M5
G00 X57.94 Y105.78 F3000.0
M3 F3000.0
G01 X57.73 F3000.0
G01 X53.73 F3000.0
G01 X52.52 F3000.0
M5
G00 X52.52 Y105.44 F3000.0
M3 F3000.0
G01 Y105.8 F3000.0
G01 Y107.8 F3000.0
G01 Y109.16 F3000.0
M5
G00 X52.52 Y109.16 F3000.0
M3 F3000.0
G01 X52.73 F3000.0
G01 X56.73 F3000.0
G01 X57.94 F3000.0
M5
G00 X57.94 Y109.16 F3000.0
M3 F3000.0
G01 Y108.8 F3000.0
G01 Y106.8 F3000.0
G01 Y105.44 F3000.0
M5
G00 X54.55 Y100.13 F3000.0
M3 F3000.0
G01 X54.52 Y99.98 F3000.0
G01 X53.09 Y93.13 F3000.0
G01 X52.85 Y92.0 F3000.0
M5
G00 X50.15 Y92. F3000.0
M3 F3000.0
G01 X50.39 F3000.0
G01 X58.39 F3000.0
G01 X59.63 F3000.0
M5
G00 X57.94 Y92. F3000.0
M3 F3000.0
G01 Y92.21 F3000.0
G01 Y95.21 F3000.0
G01 Y96.41 F3000.0
M5
G00 X48.34 Y92.68 F3000.0
M3 F3000.0
G01 Y93.36 F3000.0
M5
G00 X47.66 Y91.67 F3000.0
M3 F3000.0
G01 X47.72 Y91.76 F3000.0
G01 X48.34 Y92.68 F3000.0
M5
G00 X46.31 Y94.72 F3000.0
M3 F3000.0
G01 X45.93 F3000.0
G01 X41.93 F3000.0
G01 X40.55 F3000.0
M5
G00 X40.55 Y94.38 F3000.0
M3 F3000.0
G01 Y94.42 F3000.0
G01 Y99.42 F3000.0
G01 Y100.47 F3000.0
M5
G00 X40.55 Y100.47 F3000.0
M3 F3000.0
G01 X40.93 F3000.0
G01 X44.93 F3000.0
G01 X46.31 F3000.0
M5
G00 X46.31 Y100.47 F3000.0
M3 F3000.0
G01 Y100.42 F3000.0
G01 Y95.42 F3000.0
G01 Y94.38 F3000.0
M5
G00 X44.28 Y94.72 F3000.0
M3 F3000.0
G01 Y94.53 F3000.0
G01 Y93.53 F3000.0
G01 Y92.34 F3000.0
M5
G00 X44.28 Y92.34 F3000.0
M3 F3000.0
G01 X44.95 Y91.67 F3000.0
M5
G00 X44.95 Y91.67 F3000.0
M3 F3000.0
G01 X45.31 F3000.0
G01 X46.31 F3000.0
G01 X47.66 F3000.0
M5
G00 X45.63 Y86.7 F3000.0
M3 F3000.0
G01 Y86.68 F3000.0
G01 Y85.68 F3000.0
G01 Y84.67 F3000.0
M5
G00 X43.6 Y84.67 F3000.0
M3 F3000.0
G01 Y84.64 F3000.0
G01 Y81.64 F3000.0
G01 Y80.6 F3000.0
M5
G00 X46.98 Y80.6 F3000.0
M3 F3000.0
G01 Y80.41 F3000.0
G01 Y78.41 F3000.0
G01 Y77.22 F3000.0
M5
G00 X46.98 Y77.56 F3000.0
M3 F3000.0
G01 X46.6 F3000.0
G01 X41.6 F3000.0
G01 X40.21 F3000.0
M5
G00 X40.21 Y77.22 F3000.0
M3 F3000.0
G01 Y77.41 F3000.0
G01 Y79.41 F3000.0
G01 Y80.6 F3000.0
M5
G00 X40.21 Y80.6 F3000.0
M3 F3000.0
G01 X40.6 F3000.0
G01 X45.6 F3000.0
G01 X46.98 F3000.0
M5
G00 X48.34 Y82.64 F3000.0
M3 F3000.0
G01 X48.1 F3000.0
G01 X40.1 F3000.0
G01 X38.86 F3000.0
M5
G00 X36.71 Y80.6 F3000.0
M3 F3000.0
G01 X36.64 Y80.25 F3000.0
G01 X36.37 Y78.91 F3000.0
M5
G00 X36.37 Y78.91 F3000.0
M3 F3000.0
G01 X36.22 Y78.53 F3000.0
G01 X35.7 Y77.22 F3000.0
M5
G00 X35.7 Y77.22 F3000.0
M3 F3000.0
G01 X35.69 F3000.0
G01 X34.68 F3000.0
M5
G00 X32.31 Y78.23 F3000.0
M3 F3000.0
G01 X32.56 Y78.65 F3000.0
G01 X33.33 Y79.93 F3000.0
M5
G00 X33.33 Y79.93 F3000.0
M3 F3000.0
G01 X33.37 Y80.12 F3000.0
G01 X33.66 Y81.28 F3000.0
M5
G00 X33.66 Y81.28 F3000.0
M3 F3000.0
G01 X33.72 Y81.67 F3000.0
G01 X33.86 Y82.66 F3000.0
G01 X34.14 Y84.64 F3000.0
G01 X34.34 Y86.02 F3000.0
M5
G00 X36.71 Y86.02 F3000.0
M3 F3000.0
G01 Y85.81 F3000.0
G01 Y81.81 F3000.0
G01 Y80.6 F3000.0
M5
G00 X31.63 Y79.59 F3000.0
M3 F3000.0
G01 X31.7 Y79.94 F3000.0
G01 X31.97 Y81.28 F3000.0
M5
G00 X31.29 Y79.25 F3000.0
M3 F3000.0
G01 X31.63 Y79.59 F3000.0
M5
G00 X29.94 Y79.25 F3000.0
M3 F3000.0
G01 X30.12 F3000.0
G01 X31.29 F3000.0
M5
G00 X31.29 Y77.22 F3000.0
M3 F3000.0
G01 X31.45 Y77.37 F3000.0
G01 X32.31 Y78.23 F3000.0
M5
G00 X29.26 Y79.93 F3000.0
M3 F3000.0
G01 X29.94 Y79.25 F3000.0
M5
G00 X30.28 Y83.31 F3000.0
M3 F3000.0
G01 X30.63 Y83.38 F3000.0
G01 X31.97 Y83.65 F3000.0
M5
G00 X31.97 Y86.02 F3000.0
M3 F3000.0
G01 X32.34 F3000.0
G01 X35.34 F3000.0
G01 X36.71 F3000.0
M5
G00 X38.86 Y85.68 F3000.0
M3 F3000.0
G01 X39.1 F3000.0
G01 X47.1 F3000.0
G01 X48.34 F3000.0
M5
G00 X51.16 Y86.36 F3000.0
M3 F3000.0
G01 X51.56 F3000.0
G01 X57.56 F3000.0
G01 X58.95 F3000.0
M5
G00 X61.44 Y82.97 F3000.0
M3 F3000.0
G01 X61.85 Y83.22 F3000.0
G01 X63.13 Y83.99 F3000.0
M5
G00 X66.18 Y84.67 F3000.0
M3 F3000.0
G01 Y84.64 F3000.0
G01 Y82.64 F3000.0
G01 Y81.62 F3000.0
M5
G00 X77.47 Y86.7 F3000.0
M3 F3000.0
G01 X77.21 Y86.64 F3000.0
G01 X76.24 Y86.42 F3000.0
G01 X75.26 Y86.19 F3000.0
G01 X74.29 Y85.97 F3000.0
G01 X73.06 Y85.68 F3000.0
M5
G00 X51.16 Y80.94 F3000.0
M3 F3000.0
G01 Y81.15 F3000.0
G01 Y85.15 F3000.0
G01 Y86.36 F3000.0
M5
G00 X50.82 Y78.57 F3000.0
M3 F3000.0
G01 X50.85 Y78.77 F3000.0
G01 X50.99 Y79.76 F3000.0
G01 X51.16 Y80.94 F3000.0
M5
G00 X50.15 Y77.22 F3000.0
M3 F3000.0
G01 X50.26 Y77.45 F3000.0
G01 X50.82 Y78.57 F3000.0
M5
G00 X48.34 Y71.23 F3000.0
M3 F3000.0
G01 Y71.06 F3000.0
G01 Y69.88 F3000.0
M5
G00 X47.32 Y68.53 F3000.0
M3 F3000.0
G01 Y69.2 F3000.0
M5
G00 X46.65 Y67.85 F3000.0
M3 F3000.0
G01 X47.32 Y68.53 F3000.0
M5
G00 X46.98 Y66.49 F3000.0
M3 F3000.0
G01 X46.6 F3000.0
G01 X41.6 F3000.0
G01 X40.21 F3000.0
M5
G00 X40.89 Y67.85 F3000.0
M3 F3000.0
G01 X40.7 Y67.8 F3000.0
G01 X39.53 Y67.51 F3000.0
M5
G00 X38.86 Y69.88 F3000.0
M3 F3000.0
G01 Y70.06 F3000.0
G01 Y71.23 F3000.0
M5
G00 X38.86 Y71.23 F3000.0
M3 F3000.0
G01 X39.1 F3000.0
G01 X47.1 F3000.0
G01 X48.34 F3000.0
M5
G00 X44.28 Y70.56 F3000.0
M3 F3000.0
G01 Y70.54 F3000.0
G01 Y69.54 F3000.0
G01 Y68.53 F3000.0
M5
G00 X44.28 Y68.53 F3000.0
M3 F3000.0
G01 X44.95 Y67.85 F3000.0
M5
G00 X44.95 Y67.85 F3000.0
M3 F3000.0
G01 X45.3 F3000.0
G01 X46.65 F3000.0
M5
G00 X43.6 Y66.49 F3000.0
M3 F3000.0
G01 Y66.47 F3000.0
G01 Y64.47 F3000.0
G01 Y63.44 F3000.0
M5
G00 X43.6 Y58.48 F3000.0
M3 F3000.0
G01 Y58.3 F3000.0
G01 Y57.12 F3000.0
M5
G00 X42.58 Y56.44 F3000.0
M3 F3000.0
G01 X42.53 Y56.25 F3000.0
G01 X42.24 Y55.09 F3000.0
M5
G00 X42.24 Y55.09 F3000.0
M3 F3000.0
G01 X41.91 Y54.41 F3000.0
M5
G00 X41.91 Y54.41 F3000.0
M3 F3000.0
G01 X41.81 Y54.35 F3000.0
G01 X40.89 Y53.74 F3000.0
M5
G00 X35.7 Y51.7 F3000.0
M3 F3000.0
G01 X35.5 F3000.0
G01 X33.5 F3000.0
G01 X32.31 F3000.0
M5
G00 X32.31 Y49.67 F3000.0
M3 F3000.0
G01 Y50.03 F3000.0
G01 Y52.03 F3000.0
G01 Y53.4 F3000.0
M5
G00 X35.02 Y54.41 F3000.0
M3 F3000.0
G01 Y54.78 F3000.0
G01 Y56.78 F3000.0
G01 Y58.14 F3000.0
M5
G00 X35.02 Y58.14 F3000.0
M3 F3000.0
G01 X34.81 F3000.0
G01 X30.81 F3000.0
G01 X29.6 F3000.0
M5
G00 X29.6 Y58.14 F3000.0
M3 F3000.0
G01 Y57.78 F3000.0
G01 Y55.78 F3000.0
G01 Y54.41 F3000.0
M5
G00 X29.6 Y54.75 F3000.0
M3 F3000.0
G01 X29.81 F3000.0
G01 X33.81 F3000.0
G01 X35.02 F3000.0
M5
G00 X29.94 Y56.44 F3000.0
M3 F3000.0
G01 X29.98 F3000.0
G01 X33.98 F3000.0
G01 X35.02 F3000.0
M5
G00 X32.99 Y49.33 F3000.0
M3 F3000.0
G01 X32.76 Y49.4 F3000.0
G01 X31.8 Y49.67 F3000.0
G01 X30.62 Y50.01 F3000.0
M5
G00 X30.62 Y50.01 F3000.0
M3 F3000.0
G01 X30.46 Y50.17 F3000.0
G01 X29.6 Y51.03 F3000.0
M5
G00 X28.92 Y50.01 F3000.0
M3 F3000.0
G01 X29.04 Y50.28 F3000.0
G01 X29.43 Y51.2 F3000.0
G01 X29.94 Y52.38 F3000.0
M5
G00 X27.57 Y53.4 F3000.0
M3 F3000.0
G01 X27.81 F3000.0
G01 X35.81 F3000.0
G01 X37.05 F3000.0
M5
G00 X37.05 Y49.33 F3000.0
M3 F3000.0
G01 X37.02 F3000.0
G01 X34.02 F3000.0
G01 X32.99 F3000.0
M5
G00 X27.91 Y49. F3000.0
M3 F3000.0
G01 X28.06 Y49.15 F3000.0
G01 X28.92 Y50.01 F3000.0
M5
G00 X30.28 Y44.37 F3000.0
M3 F3000.0
G01 X30.07 Y44.09 F3000.0
G01 X29.26 Y43.01 F3000.0
M5
G00 X31.97 Y43.69 F3000.0
M3 F3000.0
G01 X32.17 F3000.0
G01 X35.17 F3000.0
G01 X36.37 F3000.0
M5
G00 X35.02 Y35.22 F3000.0
M3 F3000.0
G01 Y35.6 F3000.0
G01 Y39.6 F3000.0
G01 Y40.98 F3000.0
M5
G00 X34.34 Y34.88 F3000.0
M3 F3000.0
G01 X35.02 Y35.22 F3000.0
M5
G00 X33.66 Y34.88 F3000.0
M3 F3000.0
G01 X34.34 F3000.0
M5
G00 X35.02 Y29.58 F3000.0
M3 F3000.0
G01 X34.79 Y29.38 F3000.0
G01 X34.04 Y28.72 F3000.0
G01 X33.29 Y28.06 F3000.0
G01 X32.31 Y27.21 F3000.0
M5
G00 X32.31 Y27.55 F3000.0
M3 F3000.0
G01 Y27.5 F3000.0
G01 Y22.5 F3000.0
G01 Y21.45 F3000.0
M5
G00 X32.31 Y21.45 F3000.0
M3 F3000.0
G01 X31.63 Y20.77 F3000.0
M5
G00 X31.63 Y20.77 F3000.0
M3 F3000.0
G01 X31.62 F3000.0
G01 X30.62 F3000.0
M5
G00 X25.09 Y21.11 F3000.0
M3 F3000.0
G01 Y21.18 F3000.0
G01 Y29.18 F3000.0
G01 Y30.25 F3000.0
M5
G00 X22.38 Y29.24 F3000.0
M3 F3000.0
G01 Y29.19 F3000.0
G01 Y24.19 F3000.0
G01 Y23.14 F3000.0
M5
G00 X23.39 Y20.77 F3000.0
M3 F3000.0
G01 X23.4 F3000.0
G01 X24.41 F3000.0
M5
G00 X24.41 Y20.77 F3000.0
M3 F3000.0
G01 X25.09 Y21.11 F3000.0
M5
G00 X27.57 Y25.51 F3000.0
M3 F3000.0
G01 X27.64 F3000.0
G01 X35.64 F3000.0
G01 X36.71 F3000.0
M5
G00 X38.86 Y25.17 F3000.0
M3 F3000.0
G01 X39.1 F3000.0
G01 X47.1 F3000.0
G01 X48.34 F3000.0
M5
G00 X46.98 Y23.48 F3000.0
M3 F3000.0
G01 X46.79 F3000.0
G01 X44.79 F3000.0
G01 X43.6 F3000.0
M5
G00 X43.6 Y21.45 F3000.0
M3 F3000.0
G01 Y21.81 F3000.0
G01 Y23.81 F3000.0
G01 Y25.17 F3000.0
M5
G00 X46.31 Y26.19 F3000.0
M3 F3000.0
G01 Y26.55 F3000.0
G01 Y28.55 F3000.0
G01 Y29.92 F3000.0
M5
G00 X46.31 Y29.92 F3000.0
M3 F3000.0
G01 X46.1 F3000.0
G01 X42.1 F3000.0
G01 X40.89 F3000.0
M5
G00 X40.89 Y29.92 F3000.0
M3 F3000.0
G01 Y29.55 F3000.0
G01 Y27.55 F3000.0
G01 Y26.19 F3000.0
M5
G00 X40.89 Y26.53 F3000.0
M3 F3000.0
G01 X41.1 F3000.0
G01 X45.1 F3000.0
G01 X46.31 F3000.0
M5
G00 X50.15 Y28.22 F3000.0
M3 F3000.0
G01 X50.34 F3000.0
G01 X52.34 F3000.0
G01 X53.53 F3000.0
M5
G00 X52.85 Y26.53 F3000.0
M3 F3000.0
G01 X52.84 F3000.0
G01 X51.84 F3000.0
G01 X50.82 F3000.0
M5
G00 X52.85 Y24.84 F3000.0
M3 F3000.0
G01 X52.84 F3000.0
G01 X51.84 F3000.0
G01 X50.82 F3000.0
M5
G00 X50.48 Y23.14 F3000.0
M3 F3000.0
G01 Y22.96 F3000.0
G01 Y21.96 F3000.0
G01 Y20.77 F3000.0
M5
G00 X50.82 Y21.11 F3000.0
M3 F3000.0
G01 X51.01 F3000.0
G01 X52.01 F3000.0
G01 X53.19 F3000.0
M5
G00 X53.19 Y20.77 F3000.0
M3 F3000.0
G01 Y20.96 F3000.0
G01 Y21.96 F3000.0
G01 Y23.14 F3000.0
M5
G00 X53.19 Y23.14 F3000.0
M3 F3000.0
G01 X52.84 F3000.0
G01 X51.84 F3000.0
G01 X50.48 F3000.0
M5
G00 X48.34 Y21.11 F3000.0
M3 F3000.0
G01 X48.31 F3000.0
G01 X45.31 F3000.0
G01 X44.28 F3000.0
M5
G00 X44.28 Y21.11 F3000.0
M3 F3000.0
G01 X44.05 Y21.17 F3000.0
G01 X43.09 Y21.45 F3000.0
G01 X41.91 Y21.79 F3000.0
M5
G00 X41.91 Y21.79 F3000.0
M3 F3000.0
G01 X41.75 Y21.94 F3000.0
G01 X40.89 Y22.8 F3000.0
M5
G00 X40.21 Y21.79 F3000.0
M3 F3000.0
G01 X40.33 Y22.05 F3000.0
G01 X40.72 Y22.97 F3000.0
G01 X41.23 Y24.16 F3000.0
M5
G00 X39.2 Y20.77 F3000.0
M3 F3000.0
G01 X39.35 Y20.93 F3000.0
G01 X40.21 Y21.79 F3000.0
M5
G00 X41.23 Y28.22 F3000.0
M3 F3000.0
G01 X41.27 F3000.0
G01 X45.27 F3000.0
G01 X46.31 F3000.0
M5
G00 X50.82 Y29.92 F3000.0
M3 F3000.0
G01 X50.84 F3000.0
G01 X51.84 F3000.0
G01 X52.85 F3000.0
M5
G00 X56.58 Y30.25 F3000.0
M3 F3000.0
G01 Y30.06 F3000.0
G01 Y28.06 F3000.0
G01 Y26.87 F3000.0
M5
G00 X56.92 Y26.19 F3000.0
M3 F3000.0
G01 X56.97 Y26.26 F3000.0
G01 X57.6 Y27.04 F3000.0
G01 X58.27 Y27.88 F3000.0
M5
G00 X58.27 Y27.88 F3000.0
M3 F3000.0
G01 X58.43 Y28.27 F3000.0
G01 X58.95 Y29.58 F3000.0
M5
G00 X57.94 Y28.9 F3000.0
M3 F3000.0
G01 X57.91 F3000.0
G01 X55.91 F3000.0
G01 X54.89 F3000.0
M5
G00 X55.23 Y25.17 F3000.0
M3 F3000.0
G01 X55.42 F3000.0
G01 X57.42 F3000.0
G01 X58.61 F3000.0
M5
G00 X58.61 Y25.17 F3000.0
M3 F3000.0
G01 Y24.97 F3000.0
G01 Y21.97 F3000.0
G01 Y20.77 F3000.0
M5
G00 X58.61 Y21.11 F3000.0
M3 F3000.0
G01 X58.42 F3000.0
G01 X56.42 F3000.0
G01 X55.23 F3000.0
M5
G00 X55.23 Y20.77 F3000.0
M3 F3000.0
G01 Y20.97 F3000.0
G01 Y23.97 F3000.0
G01 Y25.17 F3000.0
M5
G00 X55.56 Y25.17 F3000.0
M3 F3000.0
G01 X55.84 Y25.38 F3000.0
G01 X56.92 Y26.19 F3000.0
M5
G00 X59.63 Y26.87 F3000.0
M3 F3000.0
G01 X59.42 F3000.0
G01 X55.42 F3000.0
G01 X54.21 F3000.0
M5
G00 X53.53 Y24.16 F3000.0
M3 F3000.0
G01 X53.65 Y24.22 F3000.0
G01 X54.55 Y24.67 F3000.0
G01 X55.56 Y25.17 F3000.0
M5
G00 X55.23 Y23.14 F3000.0
M3 F3000.0
G01 X55.42 F3000.0
G01 X57.42 F3000.0
G01 X58.61 F3000.0
M5
G00 X61.44 Y20.77 F3000.0
M3 F3000.0
G01 X61.49 Y20.84 F3000.0
G01 X62.11 Y21.62 F3000.0
G01 X62.79 Y22.47 F3000.0
M5
G00 X62.79 Y22.47 F3000.0
M3 F3000.0
G01 X62.81 Y22.53 F3000.0
G01 X63.13 Y23.48 F3000.0
G01 X63.47 Y24.5 F3000.0
M5
G00 X63.81 Y25.51 F3000.0
M3 F3000.0
G01 X63.86 F3000.0
G01 X69.86 F3000.0
G01 X70.92 F3000.0
M5
G00 X69.56 Y22.13 F3000.0
M3 F3000.0
G01 X69.47 Y22.11 F3000.0
G01 X68.49 Y21.91 F3000.0
G01 X67.51 Y21.72 F3000.0
G01 X66.53 Y21.52 F3000.0
G01 X65.55 Y21.33 F3000.0
G01 X64.48 Y21.11 F3000.0
M5
G00 X66.85 Y25.51 F3000.0
M3 F3000.0
G01 X66.78 Y25.33 F3000.0
G01 X66.39 Y24.4 F3000.0
G01 X65.62 Y22.56 F3000.0
G01 X65.16 Y21.45 F3000.0
M5
G00 X69.9 Y21.79 F3000.0
M3 F3000.0
G01 X69.78 Y21.97 F3000.0
G01 X69.22 Y22.8 F3000.0
G01 X68.55 Y23.82 F3000.0
M5
G00 X70.24 Y20.77 F3000.0
M3 F3000.0
G01 X70.23 Y20.81 F3000.0
G01 X69.9 Y21.79 F3000.0
M5
G00 X69.9 Y16.14 F3000.0
M3 F3000.0
G01 X69.68 Y16.08 F3000.0
G01 X68.72 Y15.81 F3000.0
G01 X67.53 Y15.47 F3000.0
M5
G00 X67.53 Y15.47 F3000.0
M3 F3000.0
G01 X67.17 Y15.4 F3000.0
G01 X65.84 Y15.13 F3000.0
M5
G00 X65.84 Y15.13 F3000.0
M3 F3000.0
G01 Y15.09 F3000.0
G01 Y11.09 F3000.0
G01 Y10.05 F3000.0
M5
G00 X65.84 Y10.05 F3000.0
M3 F3000.0
G01 X65.79 Y9.86 F3000.0
G01 X65.5 Y8.69 F3000.0
M5
G00 X65.5 Y8.69 F3000.0
M3 F3000.0
G01 X65.25 Y8.28 F3000.0
G01 X64.48 Y7.0 F3000.0
M5
G00 X64.48 Y7. F3000.0
M3 F3000.0
G01 X63.81 Y6.66 F3000.0
M5
G00 X63.81 Y9.03 F3000.0
M3 F3000.0
G01 X63.9 Y9.09 F3000.0
G01 X64.82 Y9.71 F3000.0
M5
G00 X63.13 Y9.03 F3000.0
M3 F3000.0
G01 Y9.09 F3000.0
G01 Y15.09 F3000.0
G01 Y16.14 F3000.0
M5
G00 X64.82 Y13.1 F3000.0
M3 F3000.0
G01 X64.63 F3000.0
G01 X62.63 F3000.0
G01 X61.44 F3000.0
M5
G00 X58.61 Y11.4 F3000.0
M3 F3000.0
G01 X58.46 Y11.56 F3000.0
G01 X57.6 Y12.42 F3000.0
M5
G00 X57.6 Y12.42 F3000.0
M3 F3000.0
G01 X57.32 Y12.63 F3000.0
G01 X56.24 Y13.43 F3000.0
M5
G00 X54.89 Y13.77 F3000.0
M3 F3000.0
G01 Y13.72 F3000.0
G01 Y7.72 F3000.0
G01 Y6.66 F3000.0
M5
G00 X52.18 Y11.4 F3000.0
M3 F3000.0
G01 X52.24 Y11.46 F3000.0
G01 X53.02 Y12.08 F3000.0
G01 X53.87 Y12.76 F3000.0
M5
G00 X53.87 Y12.76 F3000.0
M3 F3000.0
G01 X53.99 Y12.91 F3000.0
G01 X54.59 Y13.71 F3000.0
G01 X55.19 Y14.51 F3000.0
G01 X55.9 Y15.47 F3000.0
M5
G00 X50.48 Y15.47 F3000.0
M3 F3000.0
G01 X50.89 F3000.0
G01 X57.89 F3000.0
G01 X59.29 F3000.0
M5
G00 X59.29 Y10.39 F3000.0
M3 F3000.0
G01 X59.23 Y10.48 F3000.0
G01 X58.61 Y11.4 F3000.0
M5
G00 X61.44 Y8.02 F3000.0
M3 F3000.0
G01 X61.7 Y8.13 F3000.0
G01 X62.62 Y8.52 F3000.0
G01 X63.81 Y9.03 F3000.0
M5
G00 X66.85 Y10.72 F3000.0
M3 F3000.0
G01 X66.88 F3000.0
G01 X68.88 F3000.0
G01 X69.9 F3000.0
M5
G00 X69.9 Y10.72 F3000.0
M3 F3000.0
G01 Y10.69 F3000.0
G01 Y7.69 F3000.0
G01 Y6.66 F3000.0
M5
G00 X69.9 Y7. F3000.0
M3 F3000.0
G01 X69.88 F3000.0
G01 X67.88 F3000.0
G01 X66.85 F3000.0
M5
G00 X66.85 Y6.66 F3000.0
M3 F3000.0
G01 Y6.69 F3000.0
G01 Y9.69 F3000.0
G01 Y10.72 F3000.0
M5
G00 X65.84 Y13.43 F3000.0
M3 F3000.0
G01 X65.88 F3000.0
G01 X69.88 F3000.0
G01 X70.92 F3000.0
M5
G00 X72.72 Y10.39 F3000.0
M3 F3000.0
G01 X72.84 Y10.45 F3000.0
G01 X73.74 Y10.89 F3000.0
G01 X74.76 Y11.4 F3000.0
M5
G00 X84.01 Y6.66 F3000.0
M3 F3000.0
G01 X84.07 Y6.75 F3000.0
G01 X84.69 Y7.68 F3000.0
M5
G00 X67.19 Y30.25 F3000.0
M3 F3000.0
G01 Y29.88 F3000.0
G01 Y26.88 F3000.0
G01 Y25.51 F3000.0
M5
G00 X64.48 Y28.22 F3000.0
M3 F3000.0
G01 X64.86 F3000.0
G01 X68.86 F3000.0
G01 X70.24 F3000.0
M5
G00 X63.47 Y28.56 F3000.0
M3 F3000.0
G01 X63.41 Y28.63 F3000.0
G01 X62.79 Y29.41 F3000.0
G01 X62.11 Y30.25 F3000.0
M5
G00 X62.79 Y26.19 F3000.0
M3 F3000.0
G01 X62.47 Y26.52 F3000.0
G01 X61.44 Y27.55 F3000.0
M5
G00 X48.34 Y14.79 F3000.0
M3 F3000.0
G01 X47.95 F3000.0
G01 X42.95 F3000.0
G01 X41.57 F3000.0
M5
G00 X41.57 Y14.79 F3000.0
M3 F3000.0
G01 Y14.42 F3000.0
G01 Y11.42 F3000.0
G01 Y10.05 F3000.0
M5
G00 X41.57 Y10.05 F3000.0
M3 F3000.0
G01 X41.56 Y10.02 F3000.0
G01 X41.4 Y9.03 F3000.0
G01 X41.23 Y8.02 F3000.0
M5
G00 X41.23 Y8.02 F3000.0
M3 F3000.0
G01 X41.11 Y7.79 F3000.0
G01 X40.55 Y6.66 F3000.0
M5
G00 X38.86 Y6.66 F3000.0
M3 F3000.0
G01 X39.11 Y7.08 F3000.0
G01 X39.87 Y8.35 F3000.0
M5
G00 X39.87 Y8.35 F3000.0
M3 F3000.0
G01 X39.94 Y8.58 F3000.0
G01 X40.21 Y9.54 F3000.0
G01 X40.55 Y10.72 F3000.0
M5
G00 X40.21 Y12.08 F3000.0
M3 F3000.0
G01 X39.89 Y12.4 F3000.0
G01 X38.86 Y13.43 F3000.0
M5
G00 X40.55 Y14.45 F3000.0
M3 F3000.0
G01 X40.5 Y14.52 F3000.0
G01 X39.87 Y15.3 F3000.0
G01 X39.2 Y16.14 F3000.0
M5
G00 X42.58 Y13.1 F3000.0
M3 F3000.0
G01 X42.77 F3000.0
G01 X43.77 F3000.0
G01 X44.95 F3000.0
M5
G00 X43.94 Y12.42 F3000.0
M3 F3000.0
G01 Y12.23 F3000.0
G01 Y11.23 F3000.0
G01 Y10.05 F3000.0
M5
G00 X43.94 Y10.05 F3000.0
M3 F3000.0
G01 X43.89 Y9.86 F3000.0
G01 X43.6 Y8.69 F3000.0
M5
G00 X43.6 Y8.69 F3000.0
M3 F3000.0
G01 X43.54 Y8.6 F3000.0
G01 X42.92 Y7.68 F3000.0
M5
G00 X42.92 Y7.68 F3000.0
M3 F3000.0
G01 X42.24 Y7.0 F3000.0
M5
G00 X44.61 Y6.66 F3000.0
M3 F3000.0
G01 X44.71 Y6.72 F3000.0
G01 X45.63 Y7.34 F3000.0
M5
G00 X45.63 Y7.34 F3000.0
M3 F3000.0
G01 X45.68 Y7.4 F3000.0
G01 X46.31 Y8.19 F3000.0
G01 X46.98 Y9.03 F3000.0
M5
G00 X46.98 Y9.03 F3000.0
M3 F3000.0
G01 X47.14 Y9.41 F3000.0
G01 X47.66 Y10.72 F3000.0
M5
G00 X47.66 Y10.72 F3000.0
M3 F3000.0
G01 X47.73 Y11.08 F3000.0
G01 X48.0 Y12.42 F3000.0
M5
G00 X50.15 Y10.39 F3000.0
M3 F3000.0
G01 X50.27 Y10.45 F3000.0
G01 X51.16 Y10.89 F3000.0
G01 X52.18 Y11.4 F3000.0
M5
G00 X46.65 Y9.37 F3000.0
M3 F3000.0
G01 X46.8 Y8.99 F3000.0
G01 X47.32 Y7.68 F3000.0
M5
G00 X47.32 Y7.68 F3000.0
M3 F3000.0
G01 X47.48 Y7.52 F3000.0
G01 X48.34 Y6.66 F3000.0
M5
G00 X48.34 Y6.66 F3000.0
M3 F3000.0
G01 Y6.84 F3000.0
G01 Y8.02 F3000.0
M5
G00 X44.95 Y9.71 F3000.0
M3 F3000.0
G01 X45.02 Y10.06 F3000.0
G01 X45.29 Y11.4 F3000.0
M5
G00 X42.92 Y11.4 F3000.0
M3 F3000.0
G01 X42.85 Y11.05 F3000.0
G01 X42.58 Y9.71 F3000.0
M5
G00 X43.94 Y9.37 F3000.0
M3 F3000.0
G01 X44.15 Y9.09 F3000.0
G01 X44.95 Y8.02 F3000.0
M5
G00 X47.66 Y15.47 F3000.0
M3 F3000.0
G01 X46.98 Y16.14 F3000.0
M5
G00 X45.63 Y16.14 F3000.0
M3 F3000.0
G01 X45.69 Y15.72 F3000.0
G01 X45.99 Y13.75 F3000.0
G01 X46.14 Y12.76 F3000.0
G01 X46.44 Y10.78 F3000.0
G01 X46.65 Y9.37 F3000.0
M5
G00 X36.71 Y10.39 F3000.0
M3 F3000.0
G01 X36.65 Y10.48 F3000.0
G01 X36.03 Y11.4 F3000.0
M5
G00 X36.03 Y11.4 F3000.0
M3 F3000.0
G01 X35.88 Y11.56 F3000.0
G01 X35.02 Y12.42 F3000.0
M5
G00 X35.02 Y12.42 F3000.0
M3 F3000.0
G01 X34.74 Y12.63 F3000.0
G01 X33.66 Y13.43 F3000.0
M5
G00 X32.31 Y13.77 F3000.0
M3 F3000.0
G01 Y13.72 F3000.0
G01 Y7.72 F3000.0
G01 Y6.66 F3000.0
M5
G00 X29.6 Y11.4 F3000.0
M3 F3000.0
G01 X29.67 Y11.46 F3000.0
G01 X30.45 Y12.08 F3000.0
G01 X31.29 Y12.76 F3000.0
M5
G00 X31.29 Y12.76 F3000.0
M3 F3000.0
G01 X31.41 Y12.91 F3000.0
G01 X32.01 Y13.71 F3000.0
G01 X32.61 Y14.51 F3000.0
G01 X33.33 Y15.47 F3000.0
M5
G00 X27.91 Y15.47 F3000.0
M3 F3000.0
G01 X28.31 F3000.0
G01 X35.31 F3000.0
G01 X36.71 F3000.0
M5
G00 X27.57 Y10.39 F3000.0
M3 F3000.0
G01 X27.69 Y10.45 F3000.0
G01 X28.58 Y10.89 F3000.0
G01 X29.6 Y11.4 F3000.0
M5
G00 X24.07 Y10.72 F3000.0
M3 F3000.0
G01 X24.02 F3000.0
G01 X19.02 F3000.0
G01 X17.97 F3000.0
M5
G00 X17.63 Y12.76 F3000.0
M3 F3000.0
G01 X17.43 Y12.48 F3000.0
G01 X16.62 Y11.4 F3000.0
M5
G00 X14.13 Y10.39 F3000.0
M3 F3000.0
G01 X14.07 Y10.48 F3000.0
G01 X13.46 Y11.4 F3000.0
M5
G00 X13.46 Y11.4 F3000.0
M3 F3000.0
G01 X13.3 Y11.56 F3000.0
G01 X12.44 Y12.42 F3000.0
M5
G00 X12.44 Y12.42 F3000.0
M3 F3000.0
G01 X12.16 Y12.63 F3000.0
G01 X11.09 Y13.43 F3000.0
M5
G00 X9.73 Y13.77 F3000.0
M3 F3000.0
G01 Y13.72 F3000.0
G01 Y7.72 F3000.0
G01 Y6.66 F3000.0
M5
G00 X7.02 Y11.4 F3000.0
M3 F3000.0
G01 X7.09 Y11.46 F3000.0
G01 X7.87 Y12.08 F3000.0
G01 X8.72 Y12.76 F3000.0
M5
G00 X8.72 Y12.76 F3000.0
M3 F3000.0
G01 X8.83 Y12.91 F3000.0
G01 X9.43 Y13.71 F3000.0
G01 X10.03 Y14.51 F3000.0
G01 X10.75 Y15.47 F3000.0
M5
G00 X5.33 Y15.47 F3000.0
M3 F3000.0
G01 X5.73 F3000.0
G01 X12.73 F3000.0
G01 X14.13 F3000.0
M5
G00 X17.97 Y13.77 F3000.0
M3 F3000.0
G01 X18.36 F3000.0
G01 X23.36 F3000.0
G01 X24.75 F3000.0
M5
G00 X18.65 Y15.47 F3000.0
M3 F3000.0
G01 X18.49 Y15.05 F3000.0
G01 X18.14 Y14.11 F3000.0
G01 X17.63 Y12.76 F3000.0
M5
G00 X16.28 Y7. F3000.0
M3 F3000.0
G01 X16.52 F3000.0
G01 X24.52 F3000.0
G01 X25.76 F3000.0
M5
G00 X21.02 Y7. F3000.0
M3 F3000.0
G01 Y7.07 F3000.0
G01 Y15.07 F3000.0
G01 Y16.14 F3000.0
M5
G00 X16.28 Y22.47 F3000.0
M3 F3000.0
G01 X16.33 Y22.53 F3000.0
G01 X16.96 Y23.31 F3000.0
G01 X17.63 Y24.16 F3000.0
M5
G00 X17.63 Y24.16 F3000.0
M3 F3000.0
G01 X17.64 Y24.17 F3000.0
G01 X18.09 Y25.07 F3000.0
G01 X18.54 Y25.96 F3000.0
G01 X18.99 Y26.87 F3000.0
M5
G00 X19.67 Y25.85 F3000.0
M3 F3000.0
G01 X19.79 Y25.67 F3000.0
G01 X20.34 Y24.84 F3000.0
G01 X21.02 Y23.82 F3000.0
M5
G00 X21.36 Y26.87 F3000.0
M3 F3000.0
G01 X21.32 F3000.0
G01 X17.32 F3000.0
G01 X16.28 F3000.0
M5
G00 X12.78 Y27.55 F3000.0
M3 F3000.0
G01 X13.2 Y27.29 F3000.0
G01 X14.47 Y26.53 F3000.0
M5
G00 X12.44 Y26.87 F3000.0
M3 F3000.0
G01 X12.23 F3000.0
G01 X8.23 F3000.0
G01 X7.02 F3000.0
M5
G00 X6.68 Y27.55 F3000.0
M3 F3000.0
G01 X6.96 Y27.75 F3000.0
G01 X8.04 Y28.56 F3000.0
M5
G00 X8.04 Y28.56 F3000.0
M3 F3000.0
G01 X8.18 Y28.7 F3000.0
G01 X8.88 Y29.41 F3000.0
G01 X9.73 Y30.25 F3000.0
M5
G00 X9.73 Y30.25 F3000.0
M3 F3000.0
G01 X9.87 Y30.11 F3000.0
G01 X10.58 Y29.41 F3000.0
G01 X11.43 Y28.56 F3000.0
M5
G00 X11.43 Y28.56 F3000.0
M3 F3000.0
G01 X11.7 Y28.35 F3000.0
G01 X12.78 Y27.55 F3000.0
M5
G00 X9.73 Y28.22 F3000.0
M3 F3000.0
G01 Y28.2 F3000.0
G01 Y26.2 F3000.0
G01 Y25.17 F3000.0
M5
G00 X12.44 Y23.82 F3000.0
M3 F3000.0
G01 X12.23 F3000.0
G01 X8.23 F3000.0
G01 X7.02 F3000.0
M5
G00 X7.02 Y23.82 F3000.0
M3 F3000.0
G01 Y23.8 F3000.0
G01 Y21.8 F3000.0
G01 Y20.77 F3000.0
M5
G00 X7.02 Y21.45 F3000.0
M3 F3000.0
G01 X7.23 F3000.0
G01 X11.23 F3000.0
G01 X12.44 F3000.0
M5
G00 X12.44 Y20.77 F3000.0
M3 F3000.0
G01 Y20.8 F3000.0
G01 Y22.8 F3000.0
G01 Y23.82 F3000.0
M5
G00 X5.33 Y25.17 F3000.0
M3 F3000.0
G01 X5.73 F3000.0
G01 X12.73 F3000.0
G01 X14.13 F3000.0
M5
G00 X18.99 Y29.58 F3000.0
M3 F3000.0
G01 Y29.17 F3000.0
G01 Y22.17 F3000.0
G01 Y20.77 F3000.0
M5
G00 X21.02 Y30.25 F3000.0
M3 F3000.0
G01 X20.77 Y30.2 F3000.0
G01 X19.79 Y29.97 F3000.0
G01 X18.82 Y29.75 F3000.0
G01 X17.84 Y29.52 F3000.0
G01 X16.62 Y29.24 F3000.0
M5
G00 X4.99 Y26.53 F3000.0
M3 F3000.0
G01 X5.41 Y26.78 F3000.0
G01 X6.68 Y27.55 F3000.0
M5
G00 X9.73 Y42.33 F3000.0
M3 F3000.0
G01 X9.67 Y42.43 F3000.0
G01 X9.05 Y43.35 F3000.0
M5
G00 X7.36 Y43.69 F3000.0
M3 F3000.0
G01 X7.18 F3000.0
G01 X6.01 F3000.0
M5
G00 X6.68 Y43.35 F3000.0
M3 F3000.0
G01 X6.84 Y43.2 F3000.0
G01 X7.7 Y42.33 F3000.0
M5
G00 X12.78 Y43.69 F3000.0
M3 F3000.0
G01 X12.57 Y43.41 F3000.0
G01 X11.76 Y42.33 F3000.0
M5
G00 X13.46 Y44.37 F3000.0
M3 F3000.0
G01 X13.39 Y44.36 F3000.0
G01 X12.4 Y44.25 F3000.0
G01 X11.4 Y44.14 F3000.0
G01 X9.41 Y43.92 F3000.0
G01 X8.42 Y43.81 F3000.0
G01 X7.36 Y43.69 F3000.0
M5
G00 X7.02 Y63.78 F3000.0
M3 F3000.0
G01 X7.7 Y63.44 F3000.0
M5
G00 X6.68 Y64.46 F3000.0
M3 F3000.0
G01 X7.02 Y63.78 F3000.0
M5
G00 X6.68 Y67.51 F3000.0
M3 F3000.0
G01 X6.9 F3000.0
G01 X11.9 F3000.0
G01 X13.12 F3000.0
M5
G00 X13.12 Y67.51 F3000.0
M3 F3000.0
G01 Y67.69 F3000.0
G01 Y68.69 F3000.0
G01 Y69.88 F3000.0
M5
G00 X13.12 Y69.88 F3000.0
M3 F3000.0
G01 X12.9 F3000.0
G01 X7.9 F3000.0
G01 X6.68 F3000.0
M5
G00 X6.68 Y69.88 F3000.0
M3 F3000.0
G01 Y69.67 F3000.0
G01 Y65.67 F3000.0
G01 Y64.46 F3000.0
M5
G00 X4.99 Y69.2 F3000.0
M3 F3000.0
G01 X5.14 Y69.36 F3000.0
G01 X6.01 Y70.22 F3000.0
M5
G00 X6.01 Y70.22 F3000.0
M3 F3000.0
G01 X6.27 Y70.59 F3000.0
G01 X6.85 Y71.4 F3000.0
G01 X7.7 Y72.59 F3000.0
M5
G00 X7.36 Y71.57 F3000.0
M3 F3000.0
G01 X7.39 F3000.0
G01 X10.39 F3000.0
G01 X11.43 F3000.0
M5
G00 X11.43 Y71.57 F3000.0
M3 F3000.0
G01 X11.37 Y71.51 F3000.0
G01 X10.75 Y70.73 F3000.0
G01 X10.07 Y69.88 F3000.0
M5
G00 X10.07 Y69.88 F3000.0
M3 F3000.0
G01 Y69.69 F3000.0
G01 Y68.69 F3000.0
G01 Y67.51 F3000.0
M5
G00 X7.7 Y77.56 F3000.0
M3 F3000.0
G01 X7.97 Y77.67 F3000.0
G01 X8.88 Y78.06 F3000.0
G01 X10.07 Y78.57 F3000.0
M5
G00 X10.07 Y78.57 F3000.0
M3 F3000.0
G01 X10.14 Y78.62 F3000.0
G01 X10.92 Y79.25 F3000.0
G01 X11.76 Y79.93 F3000.0
M5
G00 X11.76 Y79.93 F3000.0
M3 F3000.0
G01 X11.97 Y80.2 F3000.0
G01 X12.78 Y81.28 F3000.0
M5
G00 X12.78 Y81.28 F3000.0
M3 F3000.0
G01 X12.4 F3000.0
G01 X8.4 F3000.0
G01 X7.02 F3000.0
M5
G00 X8.04 Y81.28 F3000.0
M3 F3000.0
G01 X8.25 Y81.0 F3000.0
G01 X9.05 Y79.93 F3000.0
M5
G00 X9.05 Y79.93 F3000.0
M3 F3000.0
G01 X9.12 Y79.87 F3000.0
G01 X9.9 Y79.25 F3000.0
G01 X10.75 Y78.57 F3000.0
M5
G00 X10.75 Y78.57 F3000.0
M3 F3000.0
G01 X10.87 Y78.51 F3000.0
G01 X11.76 Y78.06 F3000.0
G01 X12.78 Y77.56 F3000.0
M5
G00 X12.78 Y77.56 F3000.0
M3 F3000.0
G01 X12.97 Y77.51 F3000.0
G01 X14.13 Y77.22 F3000.0
M5
G00 X16.28 Y81.96 F3000.0
M3 F3000.0
G01 X16.35 F3000.0
G01 X24.35 F3000.0
G01 X25.42 F3000.0
M5
G00 X27.57 Y82.97 F3000.0
M3 F3000.0
G01 X27.93 Y83.02 F3000.0
G01 X28.92 Y83.14 F3000.0
G01 X30.28 Y83.31 F3000.0
M5
G00 X29.26 Y86.7 F3000.0
M3 F3000.0
G01 Y86.31 F3000.0
G01 Y81.31 F3000.0
G01 Y79.93 F3000.0
M5
G00 X32.31 Y72.25 F3000.0
M3 F3000.0
G01 Y72.06 F3000.0
G01 Y70.06 F3000.0
G01 Y68.86 F3000.0
M5
G00 X30.62 Y65.48 F3000.0
M3 F3000.0
G01 Y65.5 F3000.0
G01 Y67.5 F3000.0
G01 Y68.53 F3000.0
M5
G00 X27.57 Y65.48 F3000.0
M3 F3000.0
G01 X27.81 F3000.0
G01 X35.81 F3000.0
G01 X37.05 F3000.0
M5
G00 X36.37 Y67.17 F3000.0
M3 F3000.0
G01 X36.31 F3000.0
G01 X29.31 F3000.0
G01 X28.25 F3000.0
M5
G00 X29.6 Y63.78 F3000.0
M3 F3000.0
G01 X29.75 Y63.94 F3000.0
G01 X30.62 Y64.8 F3000.0
M5
G00 X28.25 Y63.11 F3000.0
M3 F3000.0
G01 X28.48 Y63.22 F3000.0
G01 X29.6 Y63.78 F3000.0
M5
G00 X41.91 Y68.53 F3000.0
M3 F3000.0
G01 X41.81 Y68.46 F3000.0
G01 X40.89 Y67.85 F3000.0
M5
G00 X42.24 Y69.2 F3000.0
M3 F3000.0
G01 X41.91 Y68.53 F3000.0
M5
G00 X42.58 Y70.56 F3000.0
M3 F3000.0
G01 X42.53 Y70.36 F3000.0
G01 X42.24 Y69.2 F3000.0
M5
G00 X43.6 Y72.59 F3000.0
M3 F3000.0
G01 Y72.41 F3000.0
G01 Y71.23 F3000.0
M5
G00 X41.57 Y84.67 F3000.0
M3 F3000.0
G01 Y84.68 F3000.0
G01 Y85.68 F3000.0
G01 Y86.7 F3000.0
M5
G00 X40.55 Y91.67 F3000.0
M3 F3000.0
G01 X40.64 Y91.73 F3000.0
G01 X41.57 Y92.34 F3000.0
M5
G00 X41.57 Y92.34 F3000.0
M3 F3000.0
G01 X41.91 Y93.02 F3000.0
M5
G00 X41.91 Y93.02 F3000.0
M3 F3000.0
G01 X41.92 Y93.06 F3000.0
G01 X42.24 Y94.04 F3000.0
M5
G00 X42.24 Y94.04 F3000.0
M3 F3000.0
G01 Y94.72 F3000.0
M5
G00 X40.55 Y96.75 F3000.0
M3 F3000.0
G01 X40.93 F3000.0
G01 X44.93 F3000.0
G01 X46.31 F3000.0
M5
G00 X46.31 Y98.44 F3000.0
M3 F3000.0
G01 X45.93 F3000.0
G01 X41.93 F3000.0
G01 X40.55 F3000.0
M5
G00 X36.71 Y99.8 F3000.0
M3 F3000.0
G01 Y100.47 F3000.0
M5
G00 X36.71 Y100.47 F3000.0
M3 F3000.0
G01 X36.34 F3000.0
G01 X33.34 F3000.0
G01 X31.97 F3000.0
M5
G00 X30.28 Y100.13 F3000.0
M3 F3000.0
G01 X30.09 F3000.0
G01 X29.09 F3000.0
G01 X27.91 F3000.0
M5
G00 X27.91 Y100.13 F3000.0
M3 F3000.0
G01 Y99.92 F3000.0
G01 Y94.92 F3000.0
G01 Y93.7 F3000.0
M5
G00 X27.91 Y94.04 F3000.0
M3 F3000.0
G01 X28.09 F3000.0
G01 X29.09 F3000.0
G01 X30.28 F3000.0
M5
G00 X30.28 Y94.04 F3000.0
M3 F3000.0
G01 Y94.09 F3000.0
G01 Y99.09 F3000.0
G01 Y100.13 F3000.0
M5
G00 X30.28 Y97.09 F3000.0
M3 F3000.0
G01 X30.09 F3000.0
G01 X29.09 F3000.0
G01 X27.91 F3000.0
M5
G00 X25.09 Y99.12 F3000.0
M3 F3000.0
G01 X24.88 F3000.0
G01 X20.88 F3000.0
G01 X19.67 F3000.0
M5
G00 X18.31 Y99.8 F3000.0
M3 F3000.0
G01 Y99.41 F3000.0
G01 Y94.41 F3000.0
G01 Y93.02 F3000.0
M5
G00 X18.31 Y93.02 F3000.0
M3 F3000.0
G01 X18.3 F3000.0
G01 X17.3 F3000.0
G01 X16.28 F3000.0
M5
G00 X16.28 Y92.68 F3000.0
M3 F3000.0
G01 Y92.74 F3000.0
G01 Y98.74 F3000.0
G01 Y99.8 F3000.0
M5
G00 X16.28 Y99.8 F3000.0
M3 F3000.0
G01 X16.3 F3000.0
G01 X17.3 F3000.0
G01 X18.31 F3000.0
M5
G00 X18.99 Y97.09 F3000.0
M3 F3000.0
G01 X19.38 F3000.0
G01 X24.38 F3000.0
G01 X25.76 F3000.0
M5
G00 X23.73 Y96.41 F3000.0
M3 F3000.0
G01 Y96.04 F3000.0
G01 Y93.04 F3000.0
G01 Y91.67 F3000.0
M5
G00 X23.73 Y91.67 F3000.0
M3 F3000.0
G01 X23.39 Y91.33 F3000.0
M5
G00 X23.39 Y91.33 F3000.0
M3 F3000.0
G01 X23.38 F3000.0
G01 X22.38 F3000.0
M5
G00 X21.36 Y93.02 F3000.0
M3 F3000.0
G01 X21.2 Y93.18 F3000.0
G01 X20.34 Y94.04 F3000.0
M5
G00 X19.33 Y95.39 F3000.0
M3 F3000.0
G01 X19.71 F3000.0
G01 X23.71 F3000.0
G01 X25.09 F3000.0
M5
G00 X27.57 Y91.33 F3000.0
M3 F3000.0
G01 X27.89 Y91.65 F3000.0
G01 X28.92 Y92.68 F3000.0
M5
G00 X30.95 Y92.68 F3000.0
M3 F3000.0
G01 X31.07 Y92.45 F3000.0
G01 X31.63 Y91.33 F3000.0
M5
G00 X32.31 Y93.7 F3000.0
M3 F3000.0
G01 X32.67 F3000.0
G01 X34.67 F3000.0
G01 X36.03 F3000.0
M5
G00 X36.03 Y93.7 F3000.0
M3 F3000.0
G01 Y94.05 F3000.0
G01 Y95.05 F3000.0
G01 Y96.41 F3000.0
M5
G00 X36.03 Y96.41 F3000.0
M3 F3000.0
G01 X35.67 F3000.0
G01 X33.67 F3000.0
G01 X32.31 F3000.0
M5
G00 X32.31 Y96.41 F3000.0
M3 F3000.0
G01 Y96.38 F3000.0
G01 Y94.38 F3000.0
G01 Y93.36 F3000.0
M5
G00 X34.34 Y91.33 F3000.0
M3 F3000.0
G01 X34.13 Y91.6 F3000.0
G01 X33.33 Y92.68 F3000.0
M5
G00 X35.7 Y92.68 F3000.0
M3 F3000.0
G01 X36.02 Y92.36 F3000.0
G01 X37.05 Y91.33 F3000.0
M5
G00 X38.86 Y91.33 F3000.0
M3 F3000.0
G01 X39.21 Y91.4 F3000.0
G01 X40.55 Y91.67 F3000.0
M5
G00 X36.37 Y97.76 F3000.0
M3 F3000.0
G01 X36.38 Y97.79 F3000.0
G01 X36.54 Y98.78 F3000.0
G01 X36.71 Y99.8 F3000.0
M5
G00 X35.7 Y97.42 F3000.0
M3 F3000.0
G01 X36.37 Y97.76 F3000.0
M5
G00 X35.02 Y97.42 F3000.0
M3 F3000.0
G01 X35.7 F3000.0
M5
G00 X33.66 Y99.12 F3000.0
M3 F3000.0
G01 X33.6 Y99.03 F3000.0
G01 X32.99 Y98.1 F3000.0
M5
G00 X32.99 Y98.1 F3000.0
M3 F3000.0
G01 X32.57 Y97.85 F3000.0
G01 X31.29 Y97.09 F3000.0
M5
G00 X34. Y100.47 F3000.0
M3 F3000.0
G01 X33.95 Y100.28 F3000.0
G01 X33.66 Y99.12 F3000.0
M5
G00 X33.66 Y105.44 F3000.0
M3 F3000.0
G01 Y105.65 F3000.0
G01 Y109.65 F3000.0
G01 Y110.86 F3000.0
M5
G00 X34.34 Y111.53 F3000.0
M3 F3000.0
G01 X34.68 Y111.2 F3000.0
M5
G00 X34.68 Y111.2 F3000.0
M3 F3000.0
G01 X35.03 F3000.0
G01 X36.37 F3000.0
M5
G00 X36.37 Y111.2 F3000.0
M3 F3000.0
G01 X36.38 Y111.23 F3000.0
G01 X36.71 Y112.21 F3000.0
M5
G00 X36.71 Y113.23 F3000.0
M3 F3000.0
G01 Y113.24 F3000.0
G01 Y114.25 F3000.0
M5
G00 X36.71 Y114.25 F3000.0
M3 F3000.0
G01 X36.66 F3000.0
G01 X31.66 F3000.0
G01 X30.62 F3000.0
M5
G00 X30.62 Y114.25 F3000.0
M3 F3000.0
G01 Y114.24 F3000.0
G01 Y113.23 F3000.0
M5
G00 X29.6 Y113.23 F3000.0
M3 F3000.0
G01 X29.55 Y113.29 F3000.0
G01 X28.92 Y114.08 F3000.0
G01 X28.25 Y114.92 F3000.0
M5
G00 X27.57 Y112.21 F3000.0
M3 F3000.0
G01 X27.89 Y111.89 F3000.0
G01 X28.92 Y110.86 F3000.0
M5
G00 X29.26 Y109.5 F3000.0
M3 F3000.0
G01 X29.16 Y109.12 F3000.0
G01 X28.92 Y108.15 F3000.0
G01 X28.58 Y106.79 F3000.0
M5
G00 X28.58 Y106.79 F3000.0
M3 F3000.0
G01 X28.38 Y106.52 F3000.0
G01 X27.57 Y105.44 F3000.0
M5
G00 X29.94 Y106.45 F3000.0
M3 F3000.0
G01 X30.36 Y106.71 F3000.0
G01 X31.63 Y107.47 F3000.0
M5
G00 X31.63 Y107.47 F3000.0
M3 F3000.0
G01 X31.94 Y107.78 F3000.0
G01 X32.65 Y108.49 F3000.0
G01 X33.66 Y109.5 F3000.0
M5
G00 X33.66 Y109.5 F3000.0
M3 F3000.0
G01 X33.97 Y109.19 F3000.0
G01 X34.68 Y108.49 F3000.0
G01 X35.7 Y107.47 F3000.0
M5
G00 X35.7 Y107.47 F3000.0
M3 F3000.0
G01 X35.97 Y107.26 F3000.0
G01 X37.05 Y106.45 F3000.0
M5
G00 X39.2 Y106.45 F3000.0
M3 F3000.0
G01 X39.19 Y106.42 F3000.0
G01 X38.86 Y105.44 F3000.0
M5
G00 X41.23 Y105.44 F3000.0
M3 F3000.0
G01 X41.91 F3000.0
M5
G00 X41.91 Y105.44 F3000.0
M3 F3000.0
G01 X42.24 Y105.78 F3000.0
M5
G00 X42.24 Y105.78 F3000.0
M3 F3000.0
G01 Y105.84 F3000.0
G01 Y112.84 F3000.0
G01 Y113.91 F3000.0
M5
G00 X42.24 Y113.91 F3000.0
M3 F3000.0
G01 X41.89 F3000.0
G01 X40.89 F3000.0
G01 X39.53 F3000.0
M5
G00 X39.53 Y113.91 F3000.0
M3 F3000.0
G01 Y113.87 F3000.0
G01 Y109.87 F3000.0
G01 Y108.83 F3000.0
M5
G00 X39.53 Y108.83 F3000.0
M3 F3000.0
G01 X39.51 Y108.63 F3000.0
G01 X39.37 Y107.64 F3000.0
G01 X39.2 Y106.45 F3000.0
M5
G00 X40.89 Y107.47 F3000.0
M3 F3000.0
G01 Y107.82 F3000.0
G01 Y109.16 F3000.0
M5
G00 X38.86 Y109.84 F3000.0
M3 F3000.0
G01 X38.95 Y109.87 F3000.0
G01 X39.92 Y110.11 F3000.0
G01 X40.89 Y110.35 F3000.0
G01 X41.86 Y110.59 F3000.0
G01 X42.92 Y110.86 F3000.0
M5
G00 X43.94 Y111.53 F3000.0
M3 F3000.0
G01 X43.88 Y111.44 F3000.0
G01 X43.26 Y110.52 F3000.0
M5
G00 X44.28 Y109.16 F3000.0
M3 F3000.0
G01 X44.29 Y109.13 F3000.0
G01 X44.61 Y108.15 F3000.0
M5
G00 X44.61 Y108.15 F3000.0
M3 F3000.0
G01 X44.68 Y108.06 F3000.0
G01 X45.29 Y107.13 F3000.0
M5
G00 X45.29 Y107.13 F3000.0
M3 F3000.0
G01 X45.57 Y106.92 F3000.0
G01 X46.65 Y106.12 F3000.0
M5
G00 X46.65 Y106.12 F3000.0
M3 F3000.0
G01 X47.03 Y105.96 F3000.0
G01 X48.34 Y105.44 F3000.0
M5
G00 X45.97 Y107.13 F3000.0
M3 F3000.0
G01 X46.12 Y107.29 F3000.0
G01 X46.98 Y108.15 F3000.0
M5
G00 X46.98 Y108.15 F3000.0
M3 F3000.0
G01 X47.14 Y108.53 F3000.0
G01 X47.66 Y109.84 F3000.0
M5
G00 X47.66 Y109.84 F3000.0
M3 F3000.0
G01 X47.46 F3000.0
G01 X44.46 F3000.0
G01 X43.26 F3000.0
M5
G00 X44.28 Y113.23 F3000.0
M3 F3000.0
G01 X44.2 Y112.87 F3000.0
G01 X43.94 Y111.53 F3000.0
M5
G00 X46.65 Y111.2 F3000.0
M3 F3000.0
G01 Y111.39 F3000.0
G01 Y113.39 F3000.0
G01 Y114.58 F3000.0
M5
G00 X46.65 Y114.58 F3000.0
M3 F3000.0
G01 X46.46 F3000.0
G01 X45.46 F3000.0
G01 X44.28 F3000.0
M5
G00 X44.28 Y114.58 F3000.0
M3 F3000.0
G01 Y114.41 F3000.0
G01 Y113.23 F3000.0
M5
G00 X46.98 Y110.86 F3000.0
M3 F3000.0
G01 X46.65 Y111.2 F3000.0
M5
G00 X48. Y110.86 F3000.0
M3 F3000.0
G01 X47.99 F3000.0
G01 X46.98 F3000.0
M5
G00 X48.34 Y111.87 F3000.0
M3 F3000.0
G01 X48.33 Y111.84 F3000.0
G01 X48.0 Y110.86 F3000.0
M5
G00 X48.34 Y112.21 F3000.0
M3 F3000.0
G01 Y111.87 F3000.0
M5
G00 X50.15 Y111.2 F3000.0
M3 F3000.0
G01 X50.39 F3000.0
G01 X58.39 F3000.0
G01 X59.63 F3000.0
M5
G00 X61.44 Y112.21 F3000.0
M3 F3000.0
G01 X61.76 Y111.89 F3000.0
G01 X62.79 Y110.86 F3000.0
M5
G00 X63.47 Y109.5 F3000.0
M3 F3000.0
G01 X63.31 Y109.09 F3000.0
G01 X62.96 Y108.15 F3000.0
G01 X62.45 Y106.79 F3000.0
M5
G00 X59.63 Y113.91 F3000.0
M3 F3000.0
G01 X59.39 F3000.0
G01 X51.39 F3000.0
G01 X50.15 F3000.0
M5
G00 X53.19 Y114.92 F3000.0
M3 F3000.0
G01 Y114.91 F3000.0
G01 Y113.91 F3000.0
G01 Y112.89 F3000.0
M5
G00 X54.89 Y112.89 F3000.0
M3 F3000.0
G01 X54.77 Y112.66 F3000.0
G01 X54.21 Y111.53 F3000.0
M5
G00 X54.21 Y111.53 F3000.0
M3 F3000.0
G01 X54.16 Y111.47 F3000.0
G01 X53.53 Y110.69 F3000.0
G01 X52.85 Y109.84 F3000.0
M5
G00 X52.85 Y109.84 F3000.0
M3 F3000.0
G01 X52.58 Y109.63 F3000.0
G01 X51.5 Y108.83 F3000.0
M5
G00 X51.5 Y108.83 F3000.0
M3 F3000.0
G01 X51.27 Y108.71 F3000.0
G01 X50.15 Y108.15 F3000.0
M5
G00 X44.61 Y106.12 F3000.0
M3 F3000.0
G01 X44.89 Y106.33 F3000.0
G01 X45.97 Y107.13 F3000.0
M5
G00 X42.92 Y105.44 F3000.0
M3 F3000.0
G01 X43.3 Y105.59 F3000.0
G01 X44.61 Y106.12 F3000.0
M5
G00 X40.55 Y112.55 F3000.0
M3 F3000.0
G01 X40.67 Y112.32 F3000.0
G01 X41.23 Y111.2 F3000.0
M5
G00 X40.21 Y113.91 F3000.0
M3 F3000.0
G01 X40.27 Y114.0 F3000.0
G01 X40.89 Y114.92 F3000.0
M5
G00 X40.55 Y119.55 F3000.0
M3 F3000.0
G01 Y119.92 F3000.0
G01 Y122.92 F3000.0
G01 Y124.29 F3000.0
M5
G00 X39.2 Y124.29 F3000.0
M3 F3000.0
G01 X39.46 Y124.63 F3000.0
G01 X40.69 Y126.21 F3000.0
G01 X41.57 Y127.34 F3000.0
M5
G00 X42.92 Y128.69 F3000.0
M3 F3000.0
G01 X43.29 F3000.0
G01 X46.29 F3000.0
G01 X47.66 F3000.0
M5
G00 X47.66 Y128.69 F3000.0
M3 F3000.0
G01 X47.41 Y128.28 F3000.0
G01 X46.65 Y127.0 F3000.0
M5
G00 X46.65 Y127. F3000.0
M3 F3000.0
G01 X46.6 Y126.96 F3000.0
G01 X45.84 Y126.31 F3000.0
G01 X45.08 Y125.66 F3000.0
G01 X44.28 Y124.97 F3000.0
M5
G00 X44.28 Y124.97 F3000.0
M3 F3000.0
G01 X44.05 Y124.85 F3000.0
G01 X42.92 Y124.29 F3000.0
M5
G00 X41.57 Y125.31 F3000.0
M3 F3000.0
G01 X41.72 Y124.92 F3000.0
G01 X42.24 Y123.61 F3000.0
M5
G00 X43.6 Y122.6 F3000.0
M3 F3000.0
G01 X43.63 F3000.0
G01 X46.63 F3000.0
G01 X47.66 F3000.0
M5
G00 X48.34 Y124.29 F3000.0
M3 F3000.0
G01 X48.11 Y124.41 F3000.0
G01 X46.98 Y124.97 F3000.0
M5
G00 X46.98 Y124.97 F3000.0
M3 F3000.0
G01 X46.94 Y125.01 F3000.0
G01 X46.18 Y125.66 F3000.0
G01 X45.42 Y126.31 F3000.0
G01 X44.61 Y127.0 F3000.0
M5
G00 X44.61 Y127. F3000.0
M3 F3000.0
G01 X44.36 Y127.42 F3000.0
G01 X43.6 Y128.69 F3000.0
M5
G00 X40.21 Y125.98 F3000.0
M3 F3000.0
G01 X40.06 Y126.14 F3000.0
G01 X39.2 Y127.0 F3000.0
M5
G00 X39.2 Y127. F3000.0
M3 F3000.0
G01 X39.4 Y127.25 F3000.0
G01 X40.04 Y128.02 F3000.0
G01 X40.89 Y129.03 F3000.0
M5
G00 X39.2 Y133.66 F3000.0
M3 F3000.0
G01 Y133.85 F3000.0
G01 Y134.85 F3000.0
G01 Y136.03 F3000.0
M5
G00 X39.2 Y136.03 F3000.0
M3 F3000.0
G01 X39.55 F3000.0
G01 X40.55 F3000.0
G01 X41.91 F3000.0
M5
G00 X41.91 Y136.03 F3000.0
M3 F3000.0
G01 Y135.85 F3000.0
G01 Y134.85 F3000.0
G01 Y133.66 F3000.0
M5
G00 X41.91 Y134. F3000.0
M3 F3000.0
G01 X41.72 F3000.0
G01 X40.72 F3000.0
G01 X39.53 F3000.0
M5
G00 X39.53 Y137.73 F3000.0
M3 F3000.0
G01 X39.55 F3000.0
G01 X40.55 F3000.0
G01 X41.57 F3000.0
M5
G00 X41.57 Y139.42 F3000.0
M3 F3000.0
G01 X41.55 F3000.0
G01 X40.55 F3000.0
G01 X39.53 F3000.0
M5
G00 X38.86 Y141.11 F3000.0
M3 F3000.0
G01 X39.05 F3000.0
G01 X41.05 F3000.0
G01 X42.24 F3000.0
M5
G00 X42.58 Y142.13 F3000.0
M3 F3000.0
G01 X42.96 F3000.0
G01 X46.96 F3000.0
G01 X48.34 F3000.0
M5
G00 X47.32 Y142.13 F3000.0
M3 F3000.0
G01 Y142.06 F3000.0
G01 Y135.06 F3000.0
G01 Y134.0 F3000.0
M5
G00 X47.32 Y134. F3000.0
M3 F3000.0
G01 X47.29 Y133.99 F3000.0
G01 X46.31 Y133.66 F3000.0
M5
G00 X45.63 Y136.37 F3000.0
M3 F3000.0
G01 X45.45 F3000.0
G01 X44.45 F3000.0
G01 X43.26 F3000.0
M5
G00 X43.26 Y135.69 F3000.0
M3 F3000.0
G01 Y135.72 F3000.0
G01 Y138.72 F3000.0
G01 Y139.76 F3000.0
M5
G00 X43.26 Y139.76 F3000.0
M3 F3000.0
G01 X43.45 F3000.0
G01 X44.45 F3000.0
G01 X45.63 F3000.0
M5
G00 X45.63 Y139.76 F3000.0
M3 F3000.0
G01 Y139.56 F3000.0
G01 Y137.56 F3000.0
G01 Y136.37 F3000.0
M5
G00 X50.15 Y138.06 F3000.0
M3 F3000.0
G01 X50.24 Y138.09 F3000.0
G01 X51.21 Y138.33 F3000.0
G01 X52.18 Y138.57 F3000.0
G01 X53.15 Y138.81 F3000.0
G01 X54.21 Y139.08 F3000.0
M5
G00 X55.23 Y139.76 F3000.0
M3 F3000.0
G01 X55.16 Y139.66 F3000.0
G01 X54.55 Y138.74 F3000.0
M5
G00 X55.56 Y137.39 F3000.0
M3 F3000.0
G01 X55.58 Y137.35 F3000.0
G01 X55.9 Y136.37 F3000.0
M5
G00 X55.9 Y136.37 F3000.0
M3 F3000.0
G01 X55.97 Y136.28 F3000.0
G01 X56.58 Y135.35 F3000.0
M5
G00 X56.58 Y135.35 F3000.0
M3 F3000.0
G01 X56.86 Y135.15 F3000.0
G01 X57.94 Y134.34 F3000.0
M5
G00 X57.94 Y134.34 F3000.0
M3 F3000.0
G01 X58.32 Y134.19 F3000.0
G01 X59.63 Y133.66 F3000.0
M5
G00 X57.26 Y135.35 F3000.0
M3 F3000.0
G01 X57.41 Y135.51 F3000.0
G01 X58.27 Y136.37 F3000.0
M5
G00 X58.27 Y136.37 F3000.0
M3 F3000.0
G01 X58.43 Y136.75 F3000.0
G01 X58.95 Y138.06 F3000.0
M5
G00 X58.95 Y138.06 F3000.0
M3 F3000.0
G01 X58.75 F3000.0
G01 X55.75 F3000.0
G01 X54.55 F3000.0
M5
G00 X52.18 Y135.69 F3000.0
M3 F3000.0
G01 Y136.04 F3000.0
G01 Y137.39 F3000.0
M5
G00 X50.82 Y137.05 F3000.0
M3 F3000.0
G01 X50.8 Y136.85 F3000.0
G01 X50.65 Y135.86 F3000.0
G01 X50.48 Y134.68 F3000.0
M5
G00 X50.48 Y134.68 F3000.0
M3 F3000.0
G01 X50.47 Y134.64 F3000.0
G01 X50.15 Y133.66 F3000.0
M5
G00 X52.52 Y133.66 F3000.0
M3 F3000.0
G01 X53.19 F3000.0
M5
G00 X53.19 Y133.66 F3000.0
M3 F3000.0
G01 X53.53 Y134.0 F3000.0
M5
G00 X53.53 Y134. F3000.0
M3 F3000.0
G01 Y134.06 F3000.0
G01 Y141.06 F3000.0
G01 Y142.13 F3000.0
M5
G00 X53.53 Y142.13 F3000.0
M3 F3000.0
G01 X53.18 F3000.0
G01 X52.18 F3000.0
G01 X50.82 F3000.0
M5
G00 X50.82 Y142.13 F3000.0
M3 F3000.0
G01 Y142.09 F3000.0
G01 Y138.09 F3000.0
G01 Y137.05 F3000.0
M5
G00 X51.84 Y140.77 F3000.0
M3 F3000.0
G01 X51.95 Y140.54 F3000.0
G01 X52.52 Y139.42 F3000.0
M5
G00 X51.5 Y142.13 F3000.0
M3 F3000.0
G01 X51.56 Y142.22 F3000.0
G01 X52.18 Y143.14 F3000.0
M5
G00 X55.56 Y142.81 F3000.0
M3 F3000.0
G01 Y142.63 F3000.0
G01 Y141.45 F3000.0
M5
G00 X55.56 Y141.45 F3000.0
M3 F3000.0
G01 X55.49 Y141.09 F3000.0
G01 X55.23 Y139.76 F3000.0
M5
G00 X57.94 Y139.42 F3000.0
M3 F3000.0
G01 Y139.61 F3000.0
G01 Y141.61 F3000.0
G01 Y142.81 F3000.0
M5
G00 X57.94 Y142.81 F3000.0
M3 F3000.0
G01 X57.75 F3000.0
G01 X56.75 F3000.0
G01 X55.56 F3000.0
M5
G00 X58.27 Y139.08 F3000.0
M3 F3000.0
G01 X57.94 Y139.42 F3000.0
M5
G00 X59.29 Y139.08 F3000.0
M3 F3000.0
G01 X59.28 F3000.0
G01 X58.27 F3000.0
M5
G00 X59.63 Y140.1 F3000.0
M3 F3000.0
G01 X59.62 Y140.06 F3000.0
G01 X59.29 Y139.08 F3000.0
M5
G00 X59.63 Y140.44 F3000.0
M3 F3000.0
G01 Y140.1 F3000.0
M5
G00 X61.44 Y139.42 F3000.0
M3 F3000.0
G01 X61.68 F3000.0
G01 X69.68 F3000.0
G01 X70.92 F3000.0
M5
G00 X72.72 Y140.44 F3000.0
M3 F3000.0
G01 X73.05 Y140.11 F3000.0
G01 X74.08 Y139.08 F3000.0
M5
G00 X74.76 Y137.73 F3000.0
M3 F3000.0
G01 X74.6 Y137.31 F3000.0
G01 X74.25 Y136.37 F3000.0
G01 X73.74 Y135.02 F3000.0
M5
G00 X73.74 Y135.02 F3000.0
M3 F3000.0
G01 X73.53 Y134.74 F3000.0
G01 X72.72 Y133.66 F3000.0
M5
G00 X69.22 Y134. F3000.0
M3 F3000.0
G01 X69.02 F3000.0
G01 X65.02 F3000.0
G01 X63.81 F3000.0
M5
G00 X63.81 Y133.66 F3000.0
M3 F3000.0
G01 Y134.02 F3000.0
G01 Y136.02 F3000.0
G01 Y137.39 F3000.0
M5
G00 X63.81 Y137.39 F3000.0
M3 F3000.0
G01 X64.02 F3000.0
G01 X68.02 F3000.0
G01 X69.22 F3000.0
M5
G00 X69.22 Y137.39 F3000.0
M3 F3000.0
G01 Y137.02 F3000.0
G01 Y135.02 F3000.0
G01 Y133.66 F3000.0
M5
G00 X69.56 Y127.68 F3000.0
M3 F3000.0
G01 Y127.61 F3000.0
G01 Y120.61 F3000.0
G01 Y119.55 F3000.0
M5
G00 X69.56 Y119.89 F3000.0
M3 F3000.0
G01 X69.18 F3000.0
G01 X64.18 F3000.0
G01 X62.79 F3000.0
M5
G00 X62.79 Y119.55 F3000.0
M3 F3000.0
G01 Y119.61 F3000.0
G01 Y126.61 F3000.0
G01 Y127.68 F3000.0
M5
G00 X62.79 Y127.68 F3000.0
M3 F3000.0
G01 X63.18 F3000.0
G01 X68.18 F3000.0
G01 X69.56 F3000.0
M5
G00 X69.56 Y124.97 F3000.0
M3 F3000.0
G01 X69.18 F3000.0
G01 X64.18 F3000.0
G01 X62.79 F3000.0
M5
G00 X62.79 Y122.6 F3000.0
M3 F3000.0
G01 X63.18 F3000.0
G01 X68.18 F3000.0
G01 X69.56 F3000.0
M5
G00 X72.72 Y122.26 F3000.0
M3 F3000.0
G01 X73.03 Y122.57 F3000.0
G01 X73.74 Y123.28 F3000.0
G01 X74.76 Y124.29 F3000.0
M5
G00 X74.76 Y124.29 F3000.0
M3 F3000.0
G01 X75.01 Y124.71 F3000.0
G01 X75.77 Y125.98 F3000.0
M5
G00 X76.79 Y123.61 F3000.0
M3 F3000.0
G01 X77.16 F3000.0
G01 X80.16 F3000.0
G01 X81.53 F3000.0
M5
G00 X75.09 Y119.55 F3000.0
M3 F3000.0
G01 Y119.59 F3000.0
G01 Y123.59 F3000.0
G01 Y124.63 F3000.0
M5
G00 X65.16 Y129.03 F3000.0
M3 F3000.0
G01 X64.95 Y128.76 F3000.0
G01 X64.14 Y127.68 F3000.0
M5
G00 X58.95 Y128.69 F3000.0
M3 F3000.0
G01 X58.93 F3000.0
G01 X56.93 F3000.0
G01 X55.9 F3000.0
M5
G00 X55.9 Y128.69 F3000.0
M3 F3000.0
G01 Y128.32 F3000.0
G01 Y124.32 F3000.0
G01 Y122.94 F3000.0
M5
G00 X55.9 Y122.94 F3000.0
M3 F3000.0
G01 X55.93 F3000.0
G01 X57.93 F3000.0
G01 X58.95 F3000.0
M5
G00 X58.95 Y122.94 F3000.0
M3 F3000.0
G01 Y123.32 F3000.0
G01 Y127.32 F3000.0
G01 Y128.69 F3000.0
M5
G00 X55.9 Y126.66 F3000.0
M3 F3000.0
G01 X55.93 F3000.0
G01 X57.93 F3000.0
G01 X58.95 F3000.0
M5
G00 X58.95 Y124.97 F3000.0
M3 F3000.0
G01 X58.93 F3000.0
G01 X56.93 F3000.0
G01 X55.9 F3000.0
M5
G00 X54.21 Y123.28 F3000.0
M3 F3000.0
G01 X54.19 F3000.0
G01 X52.19 F3000.0
G01 X51.16 F3000.0
M5
G00 X51.16 Y124.63 F3000.0
M3 F3000.0
G01 X51.35 F3000.0
G01 X53.35 F3000.0
G01 X54.55 F3000.0
M5
G00 X53.53 Y125.65 F3000.0
M3 F3000.0
G01 X53.47 Y125.55 F3000.0
G01 X52.85 Y124.63 F3000.0
M5
G00 X52.85 Y124.63 F3000.0
M3 F3000.0
G01 Y124.43 F3000.0
G01 Y121.43 F3000.0
G01 Y120.23 F3000.0
M5
G00 X54.55 Y120.23 F3000.0
M3 F3000.0
G01 X54.35 F3000.0
G01 X52.35 F3000.0
G01 X51.16 F3000.0
M5
G00 X51.16 Y119.89 F3000.0
M3 F3000.0
G01 Y120.26 F3000.0
G01 Y123.26 F3000.0
G01 Y124.63 F3000.0
M5
G00 X51.5 Y125.31 F3000.0
M3 F3000.0
G01 X51.45 Y125.24 F3000.0
G01 X50.82 Y124.46 F3000.0
G01 X50.15 Y123.61 F3000.0
M5
G00 X51.16 Y121.92 F3000.0
M3 F3000.0
G01 X51.19 F3000.0
G01 X53.19 F3000.0
G01 X54.21 F3000.0
M5
G00 X54.89 Y119.55 F3000.0
M3 F3000.0
G01 X54.92 Y119.56 F3000.0
G01 X55.9 Y119.89 F3000.0
M5
G00 X55.9 Y119.89 F3000.0
M3 F3000.0
G01 X55.97 Y119.98 F3000.0
G01 X56.58 Y120.91 F3000.0
M5
G00 X56.58 Y120.91 F3000.0
M3 F3000.0
G01 X56.59 Y120.94 F3000.0
G01 X56.75 Y121.92 F3000.0
G01 X56.92 Y122.94 F3000.0
M5
G00 X57.94 Y122.94 F3000.0
M3 F3000.0
G01 Y122.75 F3000.0
G01 Y121.75 F3000.0
G01 Y120.57 F3000.0
M5
G00 X57.94 Y120.57 F3000.0
M3 F3000.0
G01 X57.95 Y120.53 F3000.0
G01 X58.27 Y119.55 F3000.0
M5
G00 X58.27 Y119.55 F3000.0
M3 F3000.0
G01 X58.28 F3000.0
G01 X59.29 F3000.0
G01 X59.3 Y119.58 F3000.0
G01 X59.63 Y120.57 F3000.0
M5
G00 X59.63 Y120.57 F3000.0
M3 F3000.0
G01 Y121.24 F3000.0
M5
G00 X62.11 Y114.92 F3000.0
M3 F3000.0
G01 X62.16 Y114.86 F3000.0
G01 X62.79 Y114.08 F3000.0
G01 X63.47 Y113.23 F3000.0
M5
G00 X69.56 Y111.87 F3000.0
M3 F3000.0
G01 X69.77 Y112.15 F3000.0
G01 X70.58 Y113.23 F3000.0
M5
G00 X56.58 Y112.89 F3000.0
M3 F3000.0
G01 Y112.91 F3000.0
G01 Y113.91 F3000.0
G01 Y114.92 F3000.0
M5
G00 X50.15 Y126.32 F3000.0
M3 F3000.0
G01 X50.52 F3000.0
G01 X53.52 F3000.0
G01 X54.89 F3000.0
M5
G00 X54.55 Y128.02 F3000.0
M3 F3000.0
G01 X54.35 F3000.0
G01 X52.35 F3000.0
G01 X51.16 F3000.0
M5
G00 X51.84 Y129.03 F3000.0
M3 F3000.0
G01 X51.79 Y128.97 F3000.0
G01 X51.16 Y128.19 F3000.0
G01 X50.48 Y127.34 F3000.0
M5
G00 X52.52 Y128.02 F3000.0
M3 F3000.0
G01 X52.36 Y127.6 F3000.0
G01 X52.01 Y126.66 F3000.0
G01 X51.5 Y125.31 F3000.0
M5
G00 X45.63 Y124.29 F3000.0
M3 F3000.0
G01 Y124.26 F3000.0
G01 Y121.26 F3000.0
G01 Y120.23 F3000.0
M5
G00 X42.58 Y120.23 F3000.0
M3 F3000.0
G01 X42.96 F3000.0
G01 X46.96 F3000.0
G01 X48.34 F3000.0
M5
G00 X42.24 Y121.24 F3000.0
M3 F3000.0
G01 X42.22 Y121.31 F3000.0
G01 X41.91 Y122.26 F3000.0
G01 X41.57 Y123.28 F3000.0
M5
G00 X39.53 Y123.28 F3000.0
M3 F3000.0
G01 X39.44 Y122.89 F3000.0
G01 X39.2 Y121.92 F3000.0
G01 X38.86 Y120.57 F3000.0
M5
G00 X37.05 Y122.26 F3000.0
M3 F3000.0
G01 X36.9 Y122.64 F3000.0
G01 X36.37 Y123.95 F3000.0
M5
G00 X36.37 Y123.95 F3000.0
M3 F3000.0
G01 X36.17 Y124.23 F3000.0
G01 X35.36 Y125.31 F3000.0
M5
G00 X35.7 Y121.92 F3000.0
M3 F3000.0
G01 Y122.26 F3000.0
M5
G00 X35.36 Y120.91 F3000.0
M3 F3000.0
G01 X35.37 Y120.94 F3000.0
G01 X35.7 Y121.92 F3000.0
M5
G00 X35.02 Y120.57 F3000.0
M3 F3000.0
G01 X35.36 Y120.91 F3000.0
M5
G00 X34. Y120.23 F3000.0
M3 F3000.0
G01 X34.04 Y120.24 F3000.0
G01 X35.02 Y120.57 F3000.0
M5
G00 X30.95 Y120.23 F3000.0
M3 F3000.0
G01 X30.98 F3000.0
G01 X32.98 F3000.0
G01 X34.0 F3000.0
M5
G00 X30.28 Y120.91 F3000.0
M3 F3000.0
G01 X30.95 Y120.23 F3000.0
M5
G00 X28.25 Y122.26 F3000.0
M3 F3000.0
G01 X28.27 Y122.33 F3000.0
G01 X28.58 Y123.28 F3000.0
G01 X28.92 Y124.29 F3000.0
M5
G00 X30.28 Y125.98 F3000.0
M3 F3000.0
G01 Y125.94 F3000.0
G01 Y121.94 F3000.0
G01 Y120.91 F3000.0
M5
G00 X27.57 Y121.24 F3000.0
M3 F3000.0
G01 X27.63 Y121.34 F3000.0
G01 X28.25 Y122.26 F3000.0
M5
G00 X25.76 Y124.63 F3000.0
M3 F3000.0
G01 X25.56 Y124.38 F3000.0
G01 X24.91 Y123.61 F3000.0
G01 X24.07 Y122.6 F3000.0
M5
G00 X24.07 Y122.6 F3000.0
M3 F3000.0
G01 X23.7 Y122.33 F3000.0
G01 X22.88 Y121.75 F3000.0
G01 X21.7 Y120.91 F3000.0
M5
G00 X21.7 Y120.91 F3000.0
M3 F3000.0
G01 X21.28 Y120.75 F3000.0
G01 X20.34 Y120.4 F3000.0
G01 X18.99 Y119.89 F3000.0
M5
G00 X18.99 Y119.89 F3000.0
M3 F3000.0
G01 X18.96 Y119.88 F3000.0
G01 X17.97 Y119.72 F3000.0
G01 X16.96 Y119.55 F3000.0
M5
G00 X17.97 Y121.58 F3000.0
M3 F3000.0
G01 X18.16 Y121.7 F3000.0
G01 X18.99 Y122.26 F3000.0
G01 X20.0 Y122.94 F3000.0
M5
G00 X20. Y122.94 F3000.0
M3 F3000.0
G01 X20.14 Y123.08 F3000.0
G01 X20.85 Y123.78 F3000.0
G01 X21.7 Y124.63 F3000.0
M5
G00 X21.7 Y124.63 F3000.0
M3 F3000.0
G01 X21.76 Y124.72 F3000.0
G01 X22.38 Y125.65 F3000.0
M5
G00 X21.7 Y125.98 F3000.0
M3 F3000.0
G01 X21.74 Y126.03 F3000.0
G01 X22.39 Y126.79 F3000.0
G01 X23.04 Y127.55 F3000.0
G01 X23.73 Y128.36 F3000.0
M5
G00 X23.73 Y128.36 F3000.0
M3 F3000.0
G01 X23.37 F3000.0
G01 X21.37 F3000.0
G01 X20.0 F3000.0
M5
G00 X18.99 Y127. F3000.0
M3 F3000.0
G01 X19.05 Y126.95 F3000.0
G01 X19.84 Y126.32 F3000.0
G01 X20.68 Y125.65 F3000.0
M5
G00 X22.04 Y124.63 F3000.0
M3 F3000.0
G01 X22.4 F3000.0
G01 X24.4 F3000.0
G01 X25.76 F3000.0
M5
G00 X20.68 Y122.94 F3000.0
M3 F3000.0
G01 X20.75 Y122.88 F3000.0
G01 X21.53 Y122.26 F3000.0
G01 X22.38 Y121.58 F3000.0
M5
G00 X19.33 Y124.29 F3000.0
M3 F3000.0
G01 X19.7 Y124.56 F3000.0
G01 X20.51 Y125.14 F3000.0
G01 X21.7 Y125.98 F3000.0
M5
G00 X18.31 Y126.66 F3000.0
M3 F3000.0
G01 X18.35 Y126.71 F3000.0
G01 X19.65 Y128.23 F3000.0
G01 X20.34 Y129.03 F3000.0
M5
G00 X16.96 Y125.65 F3000.0
M3 F3000.0
G01 X17.23 Y125.85 F3000.0
G01 X18.31 Y126.66 F3000.0
M5
G00 X17.63 Y123.61 F3000.0
M3 F3000.0
G01 X18.02 Y123.77 F3000.0
G01 X19.33 Y124.29 F3000.0
M5
G00 X16.28 Y123.28 F3000.0
M3 F3000.0
G01 X16.47 Y123.32 F3000.0
G01 X17.63 Y123.61 F3000.0
M5
G00 X13.46 Y125.98 F3000.0
M3 F3000.0
G01 X13.52 Y125.89 F3000.0
G01 X14.13 Y124.97 F3000.0
M5
G00 X12.1 Y124.29 F3000.0
M3 F3000.0
G01 X12.11 Y124.33 F3000.0
G01 X12.44 Y125.31 F3000.0
M5
G00 X12.44 Y126.66 F3000.0
M3 F3000.0
G01 X12.53 Y126.6 F3000.0
G01 X13.46 Y125.98 F3000.0
M5
