
;Inkscape Lasertools G-code
;https://github.com/ChrisWag91/Inkscape-Lasertools-Plugin

G90	;Absolute programming
G21	;Programming in millimeters (mm)
M5
M03 S1 ;Activate laser and set power to 0 (CUSTOM)

; START perimeter strategy
G01 F3000.0
M5
G00 X27.71 Y6.04 F3000.0
M3 F3000.0
G01 X27.52 Y6.15 F3000.0
G01 X26.46 Y6.75 F3000.0
G01 X26.28 Y7.2 F3000.0
G01 X25.91 Y8.13 F3000.0
G01 X25.36 Y9.51 F3000.0
G01 Y9.6 F3000.0
G01 X25.19 Y11.6 F3000.0
G01 X25.11 Y12.59 F3000.0
G01 X25.02 Y13.68 F3000.0
G01 Y13.89 F3000.0
G01 Y14.89 F3000.0
G01 Y16.1 F3000.0
G01 X25.01 Y16.5 F3000.0
G01 X24.95 Y18.5 F3000.0
G01 X24.93 Y19.49 F3000.0
G01 X24.88 Y21.49 F3000.0
G01 X24.85 Y22.49 F3000.0
G01 X24.83 Y23.49 F3000.0
G01 X24.79 Y24.88 F3000.0
G01 Y25.06 F3000.0
G01 X24.8 Y26.06 F3000.0
G01 Y27.06 F3000.0
G01 X24.81 Y28.06 F3000.0
G01 X24.82 Y29.23 F3000.0
G01 X24.6 Y28.97 F3000.0
G01 X24.44 Y28.57 F3000.0
G01 X23.68 Y26.72 F3000.0
G01 X23.14 Y25.4 F3000.0
G01 X23.15 Y25.31 F3000.0
G01 X23.32 Y24.33 F3000.0
G01 X23.49 Y23.34 F3000.0
G01 X23.66 Y22.36 F3000.0
G01 X23.84 Y21.28 F3000.0
G01 X23.81 Y20.68 F3000.0
G01 X23.53 Y20.75 F3000.0
G01 X21.58 Y21.18 F3000.0
G01 X20.33 Y21.46 F3000.0
G01 X20.11 Y21.61 F3000.0
G01 X19.3 Y22.19 F3000.0
G01 X18.49 Y22.78 F3000.0
G01 X17.67 Y23.36 F3000.0
G01 X16.64 Y24.09 F3000.0
G01 Y24.1 F3000.0
G01 X16.03 Y24.9 F3000.0
G01 X15.82 Y24.98 F3000.0
G01 X15.74 Y25.05 F3000.0
G01 X15.0 Y25.72 F3000.0
G01 X14.25 Y26.38 F3000.0
G01 X13.51 Y27.05 F3000.0
G01 X12.68 Y27.78 F3000.0
G01 X12.6 Y27.9 F3000.0
G01 X11.45 Y29.53 F3000.0
G01 X10.87 Y30.35 F3000.0
G01 X10.21 Y31.28 F3000.0
G01 X10.19 Y31.33 F3000.0
G01 X9.9 Y32.28 F3000.0
G01 X9.61 Y33.24 F3000.0
G01 X9.32 Y34.19 F3000.0
G01 X9.02 Y35.15 F3000.0
G01 X8.73 Y36.11 F3000.0
G01 X8.43 Y37.11 F3000.0
G01 Y37.57 F3000.0
G01 X8.46 Y39.57 F3000.0
G01 X8.47 Y40.57 F3000.0
G01 X8.48 Y41.57 F3000.0
G01 X8.49 Y42.57 F3000.0
G01 X8.52 Y44.57 F3000.0
G01 X8.53 Y45.57 F3000.0
G01 X8.54 Y46.57 F3000.0
G01 X8.55 Y47.57 F3000.0
G01 X8.57 Y49.04 F3000.0
G01 X8.59 Y49.11 F3000.0
G01 X8.79 Y50.09 F3000.0
G01 X9.0 Y51.07 F3000.0
G01 X9.21 Y52.05 F3000.0
G01 X9.41 Y53.03 F3000.0
G01 X9.62 Y54.01 F3000.0
G01 X9.84 Y55.06 F3000.0
G01 X9.89 Y55.22 F3000.0
G01 X10.46 Y57.14 F3000.0
G01 X10.74 Y58.1 F3000.0
G01 X11.07 Y59.23 F3000.0
G01 X11.22 Y59.56 F3000.0
G01 X11.61 Y60.48 F3000.0
G01 X12.0 Y61.4 F3000.0
G01 X12.39 Y62.32 F3000.0
G01 X12.79 Y63.24 F3000.0
G01 X13.32 Y64.5 F3000.0
G01 X13.47 Y64.78 F3000.0
G01 X14.43 Y66.54 F3000.0
G01 X14.91 Y67.42 F3000.0
G01 X15.86 Y69.17 F3000.0
G01 X16.5 Y70.33 F3000.0
G01 X16.6 Y70.56 F3000.0
G01 X17.83 Y73.29 F3000.0
G01 X18.24 Y74.2 F3000.0
G01 X19.06 Y76.03 F3000.0
G01 X19.57 Y77.16 F3000.0
G01 X19.66 Y77.4 F3000.0
G01 X20.03 Y78.33 F3000.0
G01 X20.76 Y80.19 F3000.0
G01 X21.13 Y81.12 F3000.0
G01 X21.5 Y82.06 F3000.0
G01 X21.86 Y82.98 F3000.0
G01 X22.23 Y83.92 F3000.0
G01 X22.59 Y84.85 F3000.0
G01 X22.96 Y85.78 F3000.0
G01 X23.42 Y86.95 F3000.0
G01 X23.6 Y87.41 F3000.0
G01 X25.06 Y91.14 F3000.0
G01 X25.42 Y92.07 F3000.0
G01 X26.51 Y94.87 F3000.0
G01 X27.05 Y96.26 F3000.0
G01 X27.06 Y96.29 F3000.0
G01 X27.41 Y97.23 F3000.0
G01 X27.76 Y98.17 F3000.0
G01 X28.11 Y99.1 F3000.0
G01 X28.48 Y100.08 F3000.0
G01 X28.61 Y100.47 F3000.0
G01 X28.93 Y101.42 F3000.0
G01 X29.25 Y102.37 F3000.0
G01 X29.56 Y103.32 F3000.0
G01 X29.88 Y104.27 F3000.0
G01 X30.52 Y106.16 F3000.0
G01 X30.84 Y107.11 F3000.0
G01 X31.16 Y108.06 F3000.0
G01 X31.47 Y109.0 F3000.0
G01 X31.79 Y109.95 F3000.0
G01 X32.24 Y111.3 F3000.0
G01 X32.38 Y111.72 F3000.0
G01 X36.01 Y123.15 F3000.0
G01 X36.45 Y124.52 F3000.0
G01 X36.49 Y124.64 F3000.0
G01 X36.84 Y125.58 F3000.0
G01 X37.19 Y126.52 F3000.0
G01 X37.54 Y127.46 F3000.0
G01 X37.89 Y128.4 F3000.0
G01 X38.23 Y129.33 F3000.0
G01 X38.63 Y130.39 F3000.0
G01 X38.7 Y130.58 F3000.0
G01 X39.06 Y131.51 F3000.0
G01 X39.41 Y132.44 F3000.0
G01 X39.77 Y133.38 F3000.0
G01 X40.2 Y134.5 F3000.0
G01 X40.36 Y135.31 F3000.0
G01 X40.73 Y135.42 F3000.0
G01 X41.07 Y135.39 F3000.0
G01 X42.41 Y135.28 F3000.0
G01 X42.97 Y135.01 F3000.0
G01 X43.39 Y135.32 F3000.0
G01 X43.79 Y135.48 F3000.0
G01 X44.71 Y135.87 F3000.0
G01 X45.63 Y136.25 F3000.0
G01 X46.56 Y136.63 F3000.0
G01 X47.88 Y137.18 F3000.0
G01 X48.26 Y137.21 F3000.0
G01 X49.25 Y137.29 F3000.0
G01 X50.63 Y137.39 F3000.0
G01 X50.67 F3000.0
G01 X51.66 Y137.27 F3000.0
G01 X52.66 Y137.16 F3000.0
G01 X53.65 Y137.04 F3000.0
G01 X54.68 Y136.93 F3000.0
G01 X55.26 Y136.91 F3000.0
G01 X55.76 Y137.63 F3000.0
G01 X55.86 Y137.69 F3000.0
G01 X56.8 Y138.31 F3000.0
G01 X57.41 Y138.42 F3000.0
G01 X57.94 Y137.95 F3000.0
G01 X58.22 Y137.72 F3000.0
G01 X59.27 Y136.87 F3000.0
G01 X59.5 Y136.55 F3000.0
G01 X60.08 Y135.74 F3000.0
G01 X61.24 Y134.11 F3000.0
G01 X61.82 Y133.29 F3000.0
G01 X62.62 Y132.16 F3000.0
G01 X62.76 Y131.9 F3000.0
G01 X63.21 Y131.01 F3000.0
G01 X63.66 Y130.12 F3000.0
G01 X64.24 Y128.96 F3000.0
G01 X64.29 Y128.86 F3000.0
G01 X64.73 Y127.96 F3000.0
G01 X65.17 Y127.07 F3000.0
G01 X65.61 Y126.17 F3000.0
G01 X66.49 Y124.37 F3000.0
G01 X66.98 Y123.38 F3000.0
G01 X67.1 Y123.14 F3000.0
G01 X67.56 Y122.25 F3000.0
G01 X68.02 Y121.37 F3000.0
G01 X68.48 Y120.48 F3000.0
G01 X68.94 Y119.59 F3000.0
G01 X69.86 Y117.81 F3000.0
G01 X70.32 Y116.92 F3000.0
G01 X71.69 Y114.26 F3000.0
G01 X72.16 Y113.37 F3000.0
G01 X72.73 Y112.25 F3000.0
G01 X72.81 Y112.1 F3000.0
G01 X75.96 Y105.85 F3000.0
G01 X76.49 Y104.8 F3000.0
G01 X76.5 Y104.78 F3000.0
G01 X78.2 Y101.16 F3000.0
G01 X78.64 Y100.22 F3000.0
G01 X78.81 Y99.86 F3000.0
G01 X79.24 Y98.95 F3000.0
G01 X79.67 Y98.05 F3000.0
G01 X80.09 Y97.14 F3000.0
G01 X80.52 Y96.24 F3000.0
G01 X81.11 Y94.97 F3000.0
G01 X81.15 Y94.89 F3000.0
G01 X81.58 Y93.99 F3000.0
G01 X82.44 Y92.18 F3000.0
G01 X82.86 Y91.27 F3000.0
G01 X83.33 Y90.29 F3000.0
G01 X83.51 Y89.86 F3000.0
G01 X83.89 Y88.94 F3000.0
G01 X84.28 Y88.01 F3000.0
G01 X84.67 Y87.09 F3000.0
G01 X85.44 Y85.25 F3000.0
G01 X85.82 Y84.32 F3000.0
G01 X86.21 Y83.4 F3000.0
G01 X86.59 Y82.48 F3000.0
G01 X87.37 Y80.63 F3000.0
G01 X87.75 Y79.71 F3000.0
G01 X88.32 Y78.36 F3000.0
G01 X88.36 Y78.19 F3000.0
G01 X88.64 Y77.23 F3000.0
G01 X88.92 Y76.27 F3000.0
G01 X89.47 Y74.35 F3000.0
G01 X89.75 Y73.39 F3000.0
G01 X90.07 Y72.27 F3000.0
G01 X90.09 Y72.12 F3000.0
G01 X90.6 Y69.16 F3000.0
G01 X90.77 Y68.17 F3000.0
G01 X90.96 Y67.04 F3000.0
G01 X91.0 Y66.67 F3000.0
G01 X91.11 Y65.67 F3000.0
G01 X91.23 Y64.68 F3000.0
G01 X91.38 Y63.32 F3000.0
G01 X91.39 Y63.23 F3000.0
G01 X91.46 Y62.23 F3000.0
G01 X91.53 Y61.23 F3000.0
G01 X91.6 Y60.24 F3000.0
G01 X91.67 Y59.24 F3000.0
G01 X91.74 Y58.24 F3000.0
G01 X91.82 Y57.16 F3000.0
G01 Y57.07 F3000.0
G01 X91.64 Y53.07 F3000.0
G01 X91.59 Y51.98 F3000.0
G01 X91.49 Y51.61 F3000.0
G01 X90.74 Y48.71 F3000.0
G01 X90.39 Y47.38 F3000.0
G01 X90.33 Y47.21 F3000.0
G01 X90.0 Y46.26 F3000.0
G01 X89.67 Y45.32 F3000.0
G01 X89.34 Y44.38 F3000.0
G01 X88.94 Y43.27 F3000.0
G01 X88.83 Y42.99 F3000.0
G01 X88.45 Y42.06 F3000.0
G01 X88.08 Y41.14 F3000.0
G01 X87.7 Y40.21 F3000.0
G01 X87.32 Y39.28 F3000.0
G01 X86.94 Y38.36 F3000.0
G01 X86.45 Y37.15 F3000.0
G01 X86.37 Y37.02 F3000.0
G01 X85.82 Y36.19 F3000.0
G01 X85.28 Y35.35 F3000.0
G01 X84.73 Y34.51 F3000.0
G01 X84.19 Y33.67 F3000.0
G01 X83.56 Y32.7 F3000.0
G01 X83.55 Y32.69 F3000.0
G01 X82.12 Y31.3 F3000.0
G01 X81.4 Y30.6 F3000.0
G01 X80.68 Y29.9 F3000.0
G01 X79.97 Y29.2 F3000.0
G01 X79.24 Y28.5 F3000.0
G01 X79.15 Y28.4 F3000.0
G01 X78.45 Y27.69 F3000.0
G01 X77.75 Y26.97 F3000.0
G01 X76.35 Y25.55 F3000.0
G01 X75.65 Y24.83 F3000.0
G01 X74.85 Y24.03 F3000.0
G01 X74.78 Y23.92 F3000.0
G01 X74.24 Y23.09 F3000.0
G01 X73.69 Y22.25 F3000.0
G01 X73.14 Y21.42 F3000.0
G01 X72.52 Y20.48 F3000.0
G01 X72.34 Y20.4 F3000.0
G01 X72.4 Y21.12 F3000.0
G01 X72.45 Y21.37 F3000.0
G01 X72.69 Y22.6 F3000.0
G01 X72.66 Y22.85 F3000.0
G01 X72.53 Y23.84 F3000.0
G01 X72.37 Y25.09 F3000.0
G01 X72.3 Y25.23 F3000.0
G01 X71.87 Y26.13 F3000.0
G01 X71.44 Y27.04 F3000.0
G01 X70.94 Y28.08 F3000.0
G01 X70.8 Y28.43 F3000.0
G01 X69.3 Y32.14 F3000.0
G01 X68.78 Y33.42 F3000.0
G01 X68.59 Y33.05 F3000.0
G01 Y32.85 F3000.0
G01 X68.6 Y31.85 F3000.0
G01 Y30.85 F3000.0
G01 X68.61 Y29.64 F3000.0
G01 X68.7 Y29.49 F3000.0
G01 X69.78 Y27.8 F3000.0
G01 X70.42 Y26.8 F3000.0
G01 X70.82 Y26.14 F3000.0
G01 X70.03 Y26.51 F3000.0
G01 X69.85 Y26.72 F3000.0
G01 X69.18 Y27.47 F3000.0
G01 X68.52 Y28.22 F3000.0
G01 X67.68 Y29.18 F3000.0
G01 X67.56 Y29.42 F3000.0
G01 X67.14 Y30.33 F3000.0
G01 X66.71 Y31.23 F3000.0
G01 X66.17 Y32.38 F3000.0
G01 X66.15 Y32.51 F3000.0
G01 X66.04 Y33.51 F3000.0
G01 X65.92 Y34.64 F3000.0
G01 X65.95 Y35.03 F3000.0
G01 X66.11 Y37.02 F3000.0
G01 X66.22 Y38.41 F3000.0
G01 X66.28 Y38.62 F3000.0
G01 X66.56 Y39.58 F3000.0
G01 X66.85 Y40.54 F3000.0
G01 X67.13 Y41.5 F3000.0
G01 X67.41 Y42.46 F3000.0
G01 X67.7 Y43.42 F3000.0
G01 X68.04 Y44.59 F3000.0
G01 X68.12 Y44.89 F3000.0
G01 X68.93 Y47.78 F3000.0
G01 X69.2 Y48.74 F3000.0
G01 X69.47 Y49.7 F3000.0
G01 X69.74 Y50.67 F3000.0
G01 X70.09 Y51.92 F3000.0
G01 Y51.96 F3000.0
G01 X70.26 Y52.95 F3000.0
G01 X70.42 Y53.93 F3000.0
G01 X70.58 Y54.92 F3000.0
G01 X70.74 Y55.91 F3000.0
G01 X70.9 Y56.89 F3000.0
G01 X71.06 Y57.88 F3000.0
G01 X71.22 Y58.87 F3000.0
G01 X71.39 Y59.85 F3000.0
G01 X71.56 Y60.88 F3000.0
G01 Y61.34 F3000.0
G01 X71.58 Y63.34 F3000.0
G01 Y64.34 F3000.0
G01 X71.59 Y65.34 F3000.0
G01 X71.61 Y66.8 F3000.0
G01 X71.59 Y66.93 F3000.0
G01 X71.5 Y67.93 F3000.0
G01 X71.41 Y68.92 F3000.0
G01 X71.3 Y70.05 F3000.0
G01 X71.28 Y70.15 F3000.0
G01 X71.13 Y71.14 F3000.0
G01 X70.98 Y72.13 F3000.0
G01 X70.83 Y73.12 F3000.0
G01 X70.52 Y75.09 F3000.0
G01 X70.37 Y76.08 F3000.0
G01 X70.22 Y77.07 F3000.0
G01 X70.05 Y78.16 F3000.0
G01 X70.01 Y78.34 F3000.0
G01 X69.81 Y79.32 F3000.0
G01 X69.22 Y82.26 F3000.0
G01 X68.98 Y83.42 F3000.0
G01 X68.97 Y83.45 F3000.0
G01 X68.77 Y84.43 F3000.0
G01 X68.56 Y85.41 F3000.0
G01 X68.36 Y86.39 F3000.0
G01 X68.15 Y87.37 F3000.0
G01 X67.94 Y88.34 F3000.0
G01 X67.74 Y89.32 F3000.0
G01 X67.52 Y90.34 F3000.0
G01 X67.47 Y90.58 F3000.0
G01 X67.25 Y91.56 F3000.0
G01 X67.03 Y92.53 F3000.0
G01 X66.81 Y93.51 F3000.0
G01 X66.58 Y94.48 F3000.0
G01 X66.14 Y96.43 F3000.0
G01 X65.92 Y97.41 F3000.0
G01 X65.7 Y98.38 F3000.0
G01 X65.42 Y99.6 F3000.0
G01 X65.33 Y100.02 F3000.0
G01 X64.88 Y101.97 F3000.0
G01 X64.66 Y102.94 F3000.0
G01 X64.43 Y103.92 F3000.0
G01 X64.21 Y104.89 F3000.0
G01 X63.89 Y106.28 F3000.0
G01 X63.78 Y106.76 F3000.0
G01 X63.57 Y107.74 F3000.0
G01 X63.14 Y109.69 F3000.0
G01 X62.93 Y110.67 F3000.0
G01 X62.71 Y111.64 F3000.0
G01 X62.5 Y112.62 F3000.0
G01 X62.28 Y113.6 F3000.0
G01 X62.07 Y114.57 F3000.0
G01 X61.85 Y115.55 F3000.0
G01 X61.64 Y116.53 F3000.0
G01 X61.32 Y117.98 F3000.0
G01 X61.31 Y118.05 F3000.0
G01 X61.08 Y119.02 F3000.0
G01 X60.85 Y120.0 F3000.0
G01 X60.62 Y121.04 F3000.0
G01 X60.53 Y121.38 F3000.0
G01 X60.28 Y122.35 F3000.0
G01 X59.95 Y123.66 F3000.0
G01 X59.9 Y123.86 F3000.0
G01 X59.6 Y125.03 F3000.0
G01 X59.41 Y124.54 F3000.0
G01 X59.4 Y124.5 F3000.0
G01 X58.94 Y123.61 F3000.0
G01 X58.48 Y122.72 F3000.0
G01 X58.0 Y121.8 F3000.0
G01 X57.99 Y121.79 F3000.0
G01 X57.31 Y121.05 F3000.0
G01 X56.63 Y120.3 F3000.0
G01 X56.5 Y120.16 F3000.0
G01 X55.66 Y119.32 F3000.0
G01 X55.88 Y118.87 F3000.0
G01 X56.03 Y118.67 F3000.0
G01 X57.2 Y117.05 F3000.0
G01 X57.93 Y116.04 F3000.0
G01 X58.03 Y115.5 F3000.0
G01 X58.01 Y115.51 F3000.0
G01 X57.07 Y115.92 F3000.0
G01 X56.74 Y116.2 F3000.0
G01 X55.98 Y116.85 F3000.0
G01 X54.89 Y117.78 F3000.0
G01 X54.6 Y118.2 F3000.0
G01 Y117.76 F3000.0
G01 X54.9 Y117.3 F3000.0
G01 X55.36 Y116.75 F3000.0
G01 X55.48 Y116.15 F3000.0
G01 X55.67 Y115.96 F3000.0
G01 X55.96 Y115.65 F3000.0
G01 X56.28 Y115.29 F3000.0
G01 X56.56 Y114.97 F3000.0
G01 X56.83 Y114.88 F3000.0
G01 X57.56 Y114.87 F3000.0
G01 X57.58 Y114.86 F3000.0
G01 X58.45 Y114.32 F3000.0
G01 X58.48 Y114.27 F3000.0
G01 X59.37 Y112.48 F3000.0
G01 X59.84 Y111.54 F3000.0
G01 X59.82 Y111.36 F3000.0
G01 X59.72 Y110.36 F3000.0
G01 X59.62 Y109.37 F3000.0
G01 X59.51 Y108.19 F3000.0
G01 X59.44 Y107.86 F3000.0
G01 X59.25 Y106.88 F3000.0
G01 X59.06 Y105.9 F3000.0
G01 X58.8 Y104.59 F3000.0
G01 X59.09 Y104.14 F3000.0
G01 X59.38 Y103.92 F3000.0
G01 X59.37 Y103.46 F3000.0
G01 X59.32 Y102.0 F3000.0
G01 Y101.89 F3000.0
G01 X59.35 Y100.89 F3000.0
G01 X59.38 Y99.89 F3000.0
G01 X59.42 Y98.89 F3000.0
G01 X59.45 Y97.89 F3000.0
G01 X59.48 Y96.89 F3000.0
G01 X59.52 Y95.89 F3000.0
G01 X59.55 Y94.78 F3000.0
G01 X59.6 Y94.41 F3000.0
G01 X59.74 Y93.42 F3000.0
G01 X59.88 Y92.43 F3000.0
G01 X60.01 Y91.44 F3000.0
G01 X60.15 Y90.45 F3000.0
G01 X60.34 Y89.1 F3000.0
G01 X60.42 Y88.67 F3000.0
G01 X60.62 Y87.69 F3000.0
G01 X60.9 Y86.28 F3000.0
G01 X60.98 Y85.88 F3000.0
G01 X61.4 Y83.93 F3000.0
G01 X61.61 Y82.95 F3000.0
G01 X62.03 Y80.99 F3000.0
G01 X62.24 Y80.02 F3000.0
G01 X62.66 Y78.06 F3000.0
G01 X62.96 Y76.68 F3000.0
G01 X63.05 Y76.31 F3000.0
G01 X63.27 Y75.33 F3000.0
G01 X63.49 Y74.36 F3000.0
G01 X63.8 Y73.01 F3000.0
G01 X63.86 Y72.73 F3000.0
G01 X64.15 Y71.48 F3000.0
G01 X64.18 Y71.33 F3000.0
G01 X64.4 Y70.19 F3000.0
G01 X64.41 Y70.14 F3000.0
G01 X64.64 Y69.11 F3000.0
G01 X64.77 Y68.38 F3000.0
G01 X64.7 Y68.26 F3000.0
G01 X64.09 Y67.31 F3000.0
G01 X63.82 Y67.09 F3000.0
G01 X64.03 Y66.58 F3000.0
G01 X64.09 Y65.74 F3000.0
G01 X63.45 Y65.3 F3000.0
G01 X62.66 Y65.87 F3000.0
G01 X62.32 Y66.26 F3000.0
G01 X62.39 Y65.77 F3000.0
G01 X62.58 Y64.87 F3000.0
G01 X62.41 Y64.18 F3000.0
G01 X62.39 F3000.0
G01 X61.39 Y64.04 F3000.0
G01 X61.26 Y64.23 F3000.0
G01 X60.58 Y65.25 F3000.0
G01 X60.03 Y65.48 F3000.0
G01 Y65.4 F3000.0
G01 X60.07 Y64.33 F3000.0
G01 X60.06 Y64.16 F3000.0
G01 X60.04 Y63.0 F3000.0
G01 X59.44 Y62.72 F3000.0
G01 X58.81 Y62.89 F3000.0
G01 X58.79 Y62.94 F3000.0
G01 X58.46 Y63.94 F3000.0
G01 X58.44 Y64.06 F3000.0
G01 X58.24 Y65.15 F3000.0
G01 X57.74 Y65.37 F3000.0
G01 X57.23 F3000.0
G01 X57.18 Y65.01 F3000.0
G01 X57.12 Y64.28 F3000.0
G01 X56.97 Y64.13 F3000.0
G01 X56.11 Y63.27 F3000.0
G01 X55.55 Y63.5 F3000.0
G01 Y63.57 F3000.0
G01 X55.44 Y64.63 F3000.0
G01 Y64.64 F3000.0
G01 Y65.64 F3000.0
G01 X54.76 Y65.86 F3000.0
G01 X54.66 Y65.91 F3000.0
G01 X53.64 Y66.39 F3000.0
G01 X53.2 Y66.64 F3000.0
G01 X53.25 Y66.4 F3000.0
G01 X53.46 Y65.42 F3000.0
G01 X53.67 Y64.44 F3000.0
G01 X53.94 Y63.22 F3000.0
G01 X54.02 Y62.82 F3000.0
G01 X55.02 Y57.92 F3000.0
G01 X55.3 Y56.54 F3000.0
G01 X55.38 Y56.1 F3000.0
G01 X55.74 Y54.14 F3000.0
G01 X56.0 Y52.72 F3000.0
G01 X56.03 Y52.53 F3000.0
G01 X56.21 Y51.55 F3000.0
G01 X56.41 Y50.38 F3000.0
G01 X56.48 Y50.02 F3000.0
G01 X56.73 Y48.69 F3000.0
G01 X56.75 Y48.57 F3000.0
G01 X56.88 Y47.58 F3000.0
G01 X57.02 Y46.59 F3000.0
G01 X57.17 Y45.49 F3000.0
G01 X57.21 Y45.27 F3000.0
G01 X57.4 Y44.29 F3000.0
G01 X57.6 Y43.31 F3000.0
G01 X57.84 Y42.12 F3000.0
G01 X57.96 Y41.85 F3000.0
G01 X58.83 Y40.05 F3000.0
G01 X59.39 Y38.88 F3000.0
G01 X59.5 Y38.59 F3000.0
G01 X60.24 Y36.73 F3000.0
G01 X60.62 Y35.8 F3000.0
G01 X60.99 Y34.87 F3000.0
G01 X61.36 Y33.94 F3000.0
G01 X61.73 Y33.02 F3000.0
G01 X62.47 Y31.16 F3000.0
G01 X62.84 Y30.23 F3000.0
G01 X63.21 Y29.3 F3000.0
G01 X63.7 Y28.08 F3000.0
G01 X63.83 Y27.66 F3000.0
G01 X64.12 Y26.7 F3000.0
G01 X64.41 Y25.74 F3000.0
G01 X64.83 Y24.36 F3000.0
G01 X64.84 Y24.3 F3000.0
G01 X65.12 Y23.33 F3000.0
G01 X65.39 Y22.37 F3000.0
G01 X65.67 Y21.41 F3000.0
G01 X65.94 Y20.45 F3000.0
G01 X66.23 Y19.42 F3000.0
G01 X66.3 Y19.17 F3000.0
G01 X66.61 Y17.94 F3000.0
G01 X66.71 Y17.55 F3000.0
G01 X67.06 Y16.19 F3000.0
G01 X67.39 Y15.59 F3000.0
G01 X67.47 Y15.1 F3000.0
G01 X67.72 Y13.63 F3000.0
G01 X67.73 Y13.33 F3000.0
G01 X67.8 Y12.34 F3000.0
G01 X67.87 Y11.04 F3000.0
G01 F3000.0
G01 X67.9 Y10.04 F3000.0
G01 X67.46 Y9.9 F3000.0
G01 X67.02 Y9.76 F3000.0
G01 Y9.71 F3000.0
G01 Y8.66 F3000.0
G01 X66.98 Y8.38 F3000.0
G01 X66.81 Y7.12 F3000.0
G01 X66.58 Y6.98 F3000.0
G01 X65.51 Y6.29 F3000.0
G01 X65.06 Y6.25 F3000.0
G01 X63.61 Y6.13 F3000.0
G01 X63.55 Y6.14 F3000.0
G01 X62.58 Y6.35 F3000.0
G01 X61.6 Y6.57 F3000.0
G01 X60.57 Y6.79 F3000.0
G01 X60.33 Y7.05 F3000.0
G01 X59.41 Y8.05 F3000.0
G01 X59.2 Y9.02 F3000.0
G01 X59.26 Y9.37 F3000.0
G01 X59.44 Y10.36 F3000.0
G01 X59.69 Y11.7 F3000.0
G01 X59.71 Y11.75 F3000.0
G01 X60.1 Y12.73 F3000.0
G01 X60.11 Y12.75 F3000.0
G01 X60.48 Y13.7 F3000.0
G01 Y13.72 F3000.0
G01 X60.82 Y14.66 F3000.0
G01 X61.17 Y15.61 F3000.0
G01 X61.2 Y15.88 F3000.0
G01 X61.29 Y16.87 F3000.0
G01 X61.41 Y18.14 F3000.0
G01 X61.34 Y18.36 F3000.0
G01 X61.05 Y19.31 F3000.0
G01 X60.76 Y20.27 F3000.0
G01 X60.47 Y21.23 F3000.0
G01 X60.11 Y22.4 F3000.0
G01 X60.02 Y22.64 F3000.0
G01 X59.65 Y23.57 F3000.0
G01 X59.28 Y24.5 F3000.0
G01 X58.92 Y25.43 F3000.0
G01 X58.18 Y27.29 F3000.0
G01 X57.72 Y28.47 F3000.0
G01 X57.55 Y28.81 F3000.0
G01 X57.09 Y29.71 F3000.0
G01 X56.46 Y30.95 F3000.0
G01 X56.34 Y31.17 F3000.0
G01 X55.38 Y32.93 F3000.0
G01 X54.89 Y33.8 F3000.0
G01 X54.29 Y34.91 F3000.0
G01 X54.13 Y35.24 F3000.0
G01 X53.71 Y36.15 F3000.0
G01 X53.28 Y37.05 F3000.0
G01 X52.86 Y37.96 F3000.0
G01 X52.44 Y38.86 F3000.0
G01 X52.01 Y39.77 F3000.0
G01 X51.43 Y41.01 F3000.0
G01 X51.4 Y41.1 F3000.0
G01 X51.06 Y42.04 F3000.0
G01 X50.69 Y43.06 F3000.0
G01 X50.57 Y43.37 F3000.0
G01 X50.22 Y44.3 F3000.0
G01 X49.75 Y45.54 F3000.0
G01 X49.66 Y45.92 F3000.0
G01 X49.42 Y46.89 F3000.0
G01 X49.09 Y48.23 F3000.0
G01 X48.98 Y48.69 F3000.0
G01 X48.76 Y49.66 F3000.0
G01 X48.43 Y51.09 F3000.0
G01 X48.41 Y51.19 F3000.0
G01 X48.2 Y52.17 F3000.0
G01 X47.97 Y53.24 F3000.0
G01 X47.88 Y53.58 F3000.0
G01 X47.65 Y54.56 F3000.0
G01 X47.41 Y55.53 F3000.0
G01 X47.17 Y56.5 F3000.0
G01 X46.93 Y57.47 F3000.0
G01 X46.61 Y58.78 F3000.0
G01 X46.58 Y58.88 F3000.0
G01 X46.27 Y59.83 F3000.0
G01 X45.96 Y60.78 F3000.0
G01 X45.65 Y61.73 F3000.0
G01 X45.33 Y62.68 F3000.0
G01 X44.99 Y63.73 F3000.0
G01 X44.91 Y63.95 F3000.0
G01 X44.51 Y65.11 F3000.0
G01 X44.39 Y65.36 F3000.0
G01 X44.21 Y65.82 F3000.0
G01 X43.85 Y66.75 F3000.0
G01 X43.5 Y67.68 F3000.0
G01 X42.97 Y69.07 F3000.0
G01 X42.72 Y69.05 F3000.0
G01 X42.33 Y68.98 F3000.0
G01 X41.34 Y68.8 F3000.0
G01 X39.97 Y68.56 F3000.0
G01 X39.81 Y68.55 F3000.0
G01 X38.65 Y68.49 F3000.0
G01 X38.6 Y68.24 F3000.0
G01 X38.36 Y67.0 F3000.0
G01 X38.29 Y66.53 F3000.0
G01 X38.12 Y65.54 F3000.0
G01 X37.88 Y64.08 F3000.0
G01 X37.84 Y63.75 F3000.0
G01 X37.7 Y62.76 F3000.0
G01 X37.51 Y61.45 F3000.0
G01 X37.49 Y61.05 F3000.0
G01 X37.43 Y60.05 F3000.0
G01 X37.38 Y59.05 F3000.0
G01 X37.33 Y58.05 F3000.0
G01 X37.28 Y57.06 F3000.0
G01 X37.22 Y56.06 F3000.0
G01 X37.17 Y55.06 F3000.0
G01 X37.06 Y53.06 F3000.0
G01 X37.01 Y52.06 F3000.0
G01 X36.94 Y50.67 F3000.0
G01 X36.99 Y50.27 F3000.0
G01 X37.11 Y49.28 F3000.0
G01 X37.24 Y48.28 F3000.0
G01 X37.37 Y47.29 F3000.0
G01 X37.49 Y46.3 F3000.0
G01 X37.62 Y45.31 F3000.0
G01 X37.79 Y43.92 F3000.0
G01 X37.84 Y43.79 F3000.0
G01 X38.16 Y42.84 F3000.0
G01 X38.47 Y41.89 F3000.0
G01 X38.79 Y40.95 F3000.0
G01 X39.11 Y40.0 F3000.0
G01 X39.43 Y39.05 F3000.0
G01 X39.75 Y38.1 F3000.0
G01 X40.07 Y37.16 F3000.0
G01 X40.43 Y36.08 F3000.0
G01 X40.51 Y35.48 F3000.0
G01 X40.43 Y35.55 F3000.0
G01 X39.6 Y36.28 F3000.0
G01 X39.5 Y36.45 F3000.0
G01 X39.0 Y37.32 F3000.0
G01 X38.51 Y38.19 F3000.0
G01 X37.52 Y39.93 F3000.0
G01 X37.03 Y40.8 F3000.0
G01 X36.44 Y41.84 F3000.0
G01 X36.39 Y41.98 F3000.0
G01 X36.03 Y43.06 F3000.0
G01 X35.76 Y42.35 F3000.0
G01 X35.68 Y42.22 F3000.0
G01 X35.14 Y41.38 F3000.0
G01 X34.6 Y40.53 F3000.0
G01 X34.06 Y39.69 F3000.0
G01 X33.53 Y38.85 F3000.0
G01 X32.99 Y38.01 F3000.0
G01 X32.37 Y37.04 F3000.0
G01 X32.18 Y36.63 F3000.0
G01 X31.58 Y35.32 F3000.0
G01 X31.57 Y35.28 F3000.0
G01 X31.34 Y34.31 F3000.0
G01 X31.11 Y33.3 F3000.0
G01 X31.04 Y32.94 F3000.0
G01 X30.86 Y31.95 F3000.0
G01 X30.68 Y30.97 F3000.0
G01 X30.5 Y29.99 F3000.0
G01 X30.32 Y29.0 F3000.0
G01 X30.13 Y28.02 F3000.0
G01 X29.95 Y27.04 F3000.0
G01 X29.71 Y25.7 F3000.0
G01 Y25.69 F3000.0
G01 X29.68 Y24.69 F3000.0
G01 X29.66 Y23.69 F3000.0
G01 X29.63 Y22.69 F3000.0
G01 X29.61 Y21.69 F3000.0
G01 X29.58 Y20.69 F3000.0
G01 X29.56 Y19.68 F3000.0
G01 X29.65 Y19.33 F3000.0
G01 X29.9 Y18.36 F3000.0
G01 X30.24 Y17.04 F3000.0
G01 X30.54 Y16.13 F3000.0
G01 X30.55 Y16.07 F3000.0
G01 X30.82 Y15.11 F3000.0
G01 X31.09 Y14.14 F3000.0
G01 X31.38 Y13.12 F3000.0
G01 X31.53 Y12.82 F3000.0
G01 X31.96 Y11.92 F3000.0
G01 X32.53 Y10.72 F3000.0
G01 X32.56 Y10.55 F3000.0
G01 X32.7 Y9.56 F3000.0
G01 X32.87 Y8.39 F3000.0
G01 X32.82 Y8.22 F3000.0
G01 X32.47 Y7.1 F3000.0
G01 X32.37 Y7.05 F3000.0
G01 X31.46 Y6.63 F3000.0
G01 X30.46 Y6.16 F3000.0
G01 X30.08 Y6.14 F3000.0
G01 X29.08 Y6.1 F3000.0
G01 X27.71 Y6.04 F3000.0
G01 F3000.0
M5
G00 X27.84 Y6.91 F3000.0
M3 F3000.0
G01 X27.75 Y7.39 F3000.0
G01 X27.57 Y7.44 F3000.0
G01 X26.41 Y7.74 F3000.0
G01 X26.64 Y7.25 F3000.0
G01 X26.78 Y7.15 F3000.0
G01 X27.73 Y6.46 F3000.0
G01 X27.84 Y6.91 F3000.0
G01 F3000.0
M5
G00 X29.16 Y7.59 F3000.0
M3 F3000.0
G01 X29.39 Y7.72 F3000.0
G01 X29.68 Y7.75 F3000.0
G01 X29.18 Y8.09 F3000.0
G01 X28.45 Y8.5 F3000.0
G01 X28.34 Y8.48 F3000.0
G01 X28.31 Y8.33 F3000.0
G01 X28.1 Y8.4 F3000.0
G01 X27.74 Y8.95 F3000.0
G01 Y8.96 F3000.0
G01 X27.06 Y9.7 F3000.0
G01 X26.68 Y9.9 F3000.0
G01 X26.55 Y9.88 F3000.0
G01 X26.2 Y10.19 F3000.0
G01 X25.91 Y10.4 F3000.0
G01 X26.34 Y9.55 F3000.0
G01 X26.48 Y9.32 F3000.0
G01 X27.12 Y8.22 F3000.0
G01 X27.76 Y7.78 F3000.0
G01 X28.09 Y7.9 F3000.0
G01 X28.64 Y7.69 F3000.0
G01 X28.8 Y7.57 F3000.0
G01 X29.16 Y7.59 F3000.0
G01 F3000.0
M5
G00 X30.26 Y8.2 F3000.0
M3 F3000.0
G01 X29.79 Y8.56 F3000.0
G01 X29.7 Y8.6 F3000.0
G01 X28.69 Y9.03 F3000.0
G01 X28.51 Y9.24 F3000.0
G01 X29.02 Y9.05 F3000.0
G01 X29.05 Y9.04 F3000.0
G01 X30.07 Y8.79 F3000.0
G01 X30.55 Y8.53 F3000.0
G01 X31.01 Y8.75 F3000.0
G01 X31.46 Y9.26 F3000.0
G01 X31.44 Y9.89 F3000.0
G01 X31.57 Y10.25 F3000.0
G01 X31.59 Y9.68 F3000.0
G01 X31.67 Y9.51 F3000.0
G01 X31.65 Y9.71 F3000.0
G01 X31.53 Y10.91 F3000.0
G01 F3000.0
G01 X31.17 Y11.85 F3000.0
G01 X31.03 Y12.42 F3000.0
G01 X31.34 Y11.85 F3000.0
G01 X31.71 Y11.22 F3000.0
G01 X31.56 Y11.6 F3000.0
G01 X31.02 Y12.9 F3000.0
G01 X30.98 Y13.02 F3000.0
G01 X30.7 Y13.97 F3000.0
G01 X30.41 Y14.93 F3000.0
G01 X30.08 Y16.0 F3000.0
G01 X29.8 Y16.93 F3000.0
G01 X29.77 Y17.0 F3000.0
G01 X29.42 Y18.0 F3000.0
G01 X29.27 Y18.68 F3000.0
G01 X28.47 Y18.63 F3000.0
G01 X27.66 Y18.58 F3000.0
G01 X28.03 Y18.73 F3000.0
G01 X28.8 Y18.88 F3000.0
G01 X29.2 Y19.02 F3000.0
G01 X28.8 Y19.18 F3000.0
G01 X28.41 Y19.21 F3000.0
G01 X28.78 Y19.29 F3000.0
G01 X29.15 Y19.36 F3000.0
G01 Y19.42 F3000.0
G01 X29.14 Y20.42 F3000.0
G01 X29.12 Y21.47 F3000.0
G01 Y21.65 F3000.0
G01 X29.17 Y23.65 F3000.0
G01 X29.2 Y24.83 F3000.0
G01 X29.25 Y25.11 F3000.0
G01 X29.59 Y27.08 F3000.0
G01 X29.76 Y28.07 F3000.0
G01 X30.1 Y30.04 F3000.0
G01 X30.27 Y31.02 F3000.0
G01 X30.44 Y32.01 F3000.0
G01 X30.66 Y33.27 F3000.0
G01 X30.68 Y33.36 F3000.0
G01 X30.85 Y34.44 F3000.0
G01 X30.89 Y34.64 F3000.0
G01 X30.95 Y34.94 F3000.0
G01 X31.21 Y36.22 F3000.0
G01 X31.25 Y36.37 F3000.0
G01 X31.49 Y37.34 F3000.0
G01 X31.74 Y38.31 F3000.0
G01 X32.02 Y39.43 F3000.0
G01 X32.03 Y39.48 F3000.0
G01 X32.28 Y40.45 F3000.0
G01 X32.52 Y41.42 F3000.0
G01 X32.77 Y42.39 F3000.0
G01 X33.03 Y43.41 F3000.0
G01 X33.04 Y43.53 F3000.0
G01 X33.09 Y44.53 F3000.0
G01 X33.14 Y45.53 F3000.0
G01 X33.2 Y46.53 F3000.0
G01 X33.26 Y47.66 F3000.0
G01 X33.29 Y48.06 F3000.0
G01 X33.35 Y49.06 F3000.0
G01 X33.42 Y50.06 F3000.0
G01 X33.49 Y51.06 F3000.0
G01 X33.58 Y52.46 F3000.0
G01 X33.87 Y52.8 F3000.0
G01 X33.85 Y52.68 F3000.0
G01 X33.68 Y51.58 F3000.0
G01 X33.64 Y51.12 F3000.0
G01 X33.51 Y49.67 F3000.0
G01 X33.52 Y48.8 F3000.0
G01 X33.63 Y49.71 F3000.0
G01 X33.66 Y49.88 F3000.0
G01 X33.81 Y50.87 F3000.0
G01 X33.96 Y51.86 F3000.0
G01 X34.4 Y54.83 F3000.0
G01 X34.55 Y55.81 F3000.0
G01 X34.85 Y57.79 F3000.0
G01 X34.99 Y58.78 F3000.0
G01 X35.14 Y59.77 F3000.0
G01 X35.32 Y60.93 F3000.0
G01 X35.37 Y61.23 F3000.0
G01 X35.53 Y62.22 F3000.0
G01 X35.7 Y63.2 F3000.0
G01 X35.92 Y64.49 F3000.0
G01 X35.43 Y64.27 F3000.0
G01 Y64.24 F3000.0
G01 X35.28 Y63.25 F3000.0
G01 X35.14 Y62.26 F3000.0
G01 X34.99 Y61.27 F3000.0
G01 X34.84 Y60.28 F3000.0
G01 X34.69 Y59.26 F3000.0
G01 X34.66 Y59.07 F3000.0
G01 X34.45 Y57.89 F3000.0
G01 X34.48 Y58.14 F3000.0
G01 X34.6 Y59.13 F3000.0
G01 X34.73 Y60.13 F3000.0
G01 X34.85 Y61.12 F3000.0
G01 X35.11 Y63.1 F3000.0
G01 X35.26 Y64.34 F3000.0
G01 X34.82 Y64.57 F3000.0
G01 X33.49 Y65.25 F3000.0
G01 X33.15 Y65.34 F3000.0
G01 X32.18 Y65.59 F3000.0
G01 X31.21 Y65.84 F3000.0
G01 X29.9 Y66.18 F3000.0
G01 X29.66 Y66.23 F3000.0
G01 X28.43 Y66.47 F3000.0
G01 X27.54 Y66.5 F3000.0
G01 X27.8 Y66.44 F3000.0
G01 X29.04 Y66.19 F3000.0
G01 X29.23 Y66.15 F3000.0
G01 X29.77 Y66.0 F3000.0
G01 X30.26 Y65.37 F3000.0
G01 X30.22 Y65.36 F3000.0
G01 X29.2 Y65.18 F3000.0
G01 X28.57 Y64.7 F3000.0
G01 X28.59 Y64.37 F3000.0
G01 X29.39 Y64.22 F3000.0
G01 X30.18 Y64.08 F3000.0
G01 X30.21 Y63.72 F3000.0
G01 X29.3 Y63.35 F3000.0
G01 F3000.0
G01 X28.3 Y63.26 F3000.0
G01 X28.2 Y63.12 F3000.0
G01 X28.45 Y62.89 F3000.0
G01 X28.52 Y62.86 F3000.0
G01 X29.48 Y62.39 F3000.0
G01 X30.09 Y62.27 F3000.0
G01 X30.1 Y61.55 F3000.0
G01 X30.05 Y60.72 F3000.0
G01 X29.3 Y60.7 F3000.0
G01 X28.5 Y60.75 F3000.0
G01 X28.42 Y59.98 F3000.0
G01 X29.18 Y59.78 F3000.0
G01 X29.19 F3000.0
G01 X30.02 Y59.2 F3000.0
G01 X29.67 Y58.83 F3000.0
G01 X28.8 Y58.92 F3000.0
G01 X28.27 Y58.99 F3000.0
G01 Y58.5 F3000.0
G01 X28.36 Y58.02 F3000.0
G01 X28.46 Y58.18 F3000.0
G01 X28.55 Y58.14 F3000.0
G01 X28.94 Y57.92 F3000.0
G01 X29.6 Y57.86 F3000.0
G01 X29.96 Y57.8 F3000.0
G01 X29.93 Y57.36 F3000.0
G01 X29.67 Y56.93 F3000.0
G01 X28.69 Y57.0 F3000.0
G01 X28.06 Y57.01 F3000.0
G01 X28.17 Y56.54 F3000.0
G01 Y56.13 F3000.0
G01 X29.01 Y56.02 F3000.0
G01 X29.85 Y55.9 F3000.0
G01 Y55.53 F3000.0
G01 X29.72 Y55.15 F3000.0
G01 X29.26 Y55.21 F3000.0
G01 X27.82 Y55.4 F3000.0
G01 X27.5 Y55.45 F3000.0
G01 X27.51 Y55.33 F3000.0
G01 X27.52 Y54.33 F3000.0
G01 X27.55 Y52.33 F3000.0
G01 X27.56 Y51.22 F3000.0
G01 Y51.13 F3000.0
G01 X27.59 Y50.13 F3000.0
G01 X27.62 Y49.13 F3000.0
G01 X27.65 Y48.13 F3000.0
G01 X27.68 Y47.13 F3000.0
G01 X27.71 Y46.04 F3000.0
G01 X27.78 Y45.08 F3000.0
G01 X27.71 Y44.8 F3000.0
G01 X27.8 Y44.75 F3000.0
G01 X27.89 Y44.15 F3000.0
G01 X27.81 Y43.41 F3000.0
G01 X27.68 Y43.14 F3000.0
G01 X27.6 Y42.88 F3000.0
G01 X27.26 Y41.64 F3000.0
G01 X27.17 Y41.31 F3000.0
G01 X26.82 Y40.02 F3000.0
G01 X26.48 Y39.4 F3000.0
G01 X26.5 Y39.5 F3000.0
G01 X26.73 Y40.47 F3000.0
G01 X26.98 Y41.55 F3000.0
G01 X27.07 Y42.0 F3000.0
G01 X27.26 Y42.98 F3000.0
G01 X27.54 Y44.41 F3000.0
G01 X27.49 Y44.89 F3000.0
G01 X27.48 Y44.87 F3000.0
G01 X27.23 Y43.89 F3000.0
G01 Y43.88 F3000.0
G01 X26.98 Y42.91 F3000.0
G01 X26.73 Y41.93 F3000.0
G01 X26.64 Y41.53 F3000.0
G01 X26.35 Y40.16 F3000.0
G01 X26.32 Y40.02 F3000.0
G01 X26.12 Y38.9 F3000.0
G01 X26.1 Y38.66 F3000.0
G01 X25.99 Y37.67 F3000.0
G01 X25.89 Y36.68 F3000.0
G01 X25.78 Y35.68 F3000.0
G01 X25.68 Y34.69 F3000.0
G01 X25.57 Y33.69 F3000.0
G01 X25.46 Y32.7 F3000.0
G01 X25.33 Y31.47 F3000.0
G01 Y31.17 F3000.0
G01 Y30.17 F3000.0
G01 Y29.17 F3000.0
G01 X25.32 Y27.17 F3000.0
G01 Y26.17 F3000.0
G01 Y23.17 F3000.0
G01 X25.31 Y22.17 F3000.0
G01 Y20.17 F3000.0
G01 X25.3 Y18.87 F3000.0
G01 X25.35 Y19.29 F3000.0
G01 X25.42 Y19.67 F3000.0
G01 X25.44 Y20.09 F3000.0
G01 X25.5 Y21.09 F3000.0
G01 X25.55 Y22.08 F3000.0
G01 X25.61 Y23.08 F3000.0
G01 X25.69 Y24.5 F3000.0
G01 Y24.52 F3000.0
G01 X25.74 Y25.52 F3000.0
G01 X25.79 Y26.52 F3000.0
G01 X25.84 Y27.52 F3000.0
G01 X25.89 Y28.51 F3000.0
G01 X25.95 Y29.51 F3000.0
G01 X26.0 Y30.53 F3000.0
G01 X26.11 Y30.9 F3000.0
G01 X26.37 Y31.87 F3000.0
G01 X26.64 Y32.83 F3000.0
G01 X26.91 Y33.79 F3000.0
G01 X27.29 Y35.13 F3000.0
G01 X27.68 Y35.43 F3000.0
G01 X27.42 Y35.04 F3000.0
G01 X27.34 Y34.71 F3000.0
G01 X27.09 Y33.75 F3000.0
G01 X26.83 Y32.78 F3000.0
G01 X26.58 Y31.81 F3000.0
G01 X26.24 Y30.52 F3000.0
G01 X26.23 Y30.31 F3000.0
G01 X26.1 Y28.32 F3000.0
G01 X26.04 Y27.32 F3000.0
G01 X25.97 Y26.32 F3000.0
G01 X25.89 Y25.12 F3000.0
G01 X25.9 Y24.95 F3000.0
G01 X25.91 Y23.95 F3000.0
G01 X25.92 Y22.95 F3000.0
G01 X25.93 Y21.95 F3000.0
G01 X25.95 Y20.78 F3000.0
G01 X25.96 Y19.8 F3000.0
G01 X25.85 Y20.01 F3000.0
G01 X25.81 Y19.68 F3000.0
G01 X25.68 Y18.69 F3000.0
G01 X25.51 Y17.37 F3000.0
G01 Y17.28 F3000.0
G01 X25.45 Y16.19 F3000.0
G01 X25.48 Y15.82 F3000.0
G01 X25.82 Y15.49 F3000.0
G01 X26.34 Y16.27 F3000.0
G01 X26.3 Y16.48 F3000.0
G01 X26.09 Y17.69 F3000.0
G01 X26.03 Y17.95 F3000.0
G01 X26.13 Y17.89 F3000.0
G01 X26.47 Y17.78 F3000.0
G01 X26.62 Y17.33 F3000.0
G01 Y17.31 F3000.0
G01 X26.73 Y16.29 F3000.0
G01 X26.7 Y15.99 F3000.0
G01 X26.54 Y15.83 F3000.0
G01 X25.91 Y15.24 F3000.0
G01 X25.75 Y14.69 F3000.0
G01 Y14.65 F3000.0
G01 X25.92 Y13.66 F3000.0
G01 X26.1 Y12.63 F3000.0
G01 X26.37 Y12.2 F3000.0
G01 X26.48 Y12.07 F3000.0
G01 X26.3 Y12.57 F3000.0
G01 Y12.94 F3000.0
G01 X26.22 Y13.47 F3000.0
G01 Y13.52 F3000.0
G01 X26.13 Y14.57 F3000.0
G01 X26.16 Y14.45 F3000.0
G01 X26.36 Y13.66 F3000.0
G01 X26.4 Y13.52 F3000.0
G01 X26.7 Y12.42 F3000.0
G01 X26.87 Y11.8 F3000.0
G01 X27.14 Y11.1 F3000.0
G01 X27.04 Y11.13 F3000.0
G01 X27.15 Y10.49 F3000.0
G01 X27.37 Y10.22 F3000.0
G01 X28.22 Y9.17 F3000.0
G01 X28.97 Y8.63 F3000.0
G01 X29.14 Y8.57 F3000.0
G01 X30.26 Y8.2 F3000.0
G01 F3000.0
M5
G00 X31.17 Y8.13 F3000.0
M3 F3000.0
G01 X31.56 Y8.21 F3000.0
G01 X31.61 Y8.22 F3000.0
G01 X31.83 Y8.56 F3000.0
G01 X31.85 Y8.44 F3000.0
G01 X31.84 Y8.37 F3000.0
G01 X31.88 Y8.48 F3000.0
G01 X32.17 Y8.87 F3000.0
G01 X32.4 Y9.51 F3000.0
G01 X32.32 Y9.82 F3000.0
G01 X32.14 Y9.42 F3000.0
G01 X31.72 Y8.89 F3000.0
G01 X31.13 Y8.41 F3000.0
G01 X30.79 Y7.99 F3000.0
G01 X31.17 Y8.13 F3000.0
G01 F3000.0
M5
G00 X32.3 Y8.27 F3000.0
M3 F3000.0
G01 X32.34 Y8.39 F3000.0
G01 Y8.15 F3000.0
G01 X32.3 Y8.27 F3000.0
G01 F3000.0
M5
G00 X32.23 Y7.12 F3000.0
M3 F3000.0
G01 X32.36 Y7.31 F3000.0
G01 X32.14 Y7.12 F3000.0
G01 X32.02 Y6.93 F3000.0
G01 X32.23 Y7.12 F3000.0
G01 F3000.0
M5
G00 X30.25 Y6.51 F3000.0
M3 F3000.0
G01 X30.44 Y6.6 F3000.0
G01 X31.54 Y7.11 F3000.0
G01 X31.62 Y7.14 F3000.0
G01 X31.73 Y7.29 F3000.0
G01 X32.47 Y8.23 F3000.0
G01 X32.11 Y8.33 F3000.0
G01 X31.78 Y8.24 F3000.0
G01 X30.82 Y7.97 F3000.0
G01 X29.86 Y7.7 F3000.0
G01 X28.57 Y7.34 F3000.0
G01 X28.0 Y7.39 F3000.0
G01 X28.04 Y7.09 F3000.0
G01 X28.22 Y6.43 F3000.0
G01 X28.93 Y6.36 F3000.0
G01 X29.09 Y6.38 F3000.0
G01 X30.25 Y6.51 F3000.0
G01 F3000.0
M5
G00 X26.55 Y8.29 F3000.0
M3 F3000.0
G01 X26.16 Y8.94 F3000.0
G01 X26.06 Y8.62 F3000.0
G01 X26.75 Y7.99 F3000.0
G01 X26.55 Y8.29 F3000.0
G01 F3000.0
M5
G00 X27.66 Y9.83 F3000.0
M3 F3000.0
G01 X27.42 Y10.6 F3000.0
G01 X27.44 Y10.56 F3000.0
G01 X27.84 Y9.61 F3000.0
G01 X27.66 Y9.83 F3000.0
G01 F3000.0
M5
G00 X26.49 Y10.62 F3000.0
M3 F3000.0
G01 X26.04 Y10.98 F3000.0
G01 X25.86 Y11.04 F3000.0
G01 X26.62 Y10.47 F3000.0
G01 X26.49 Y10.62 F3000.0
G01 F3000.0
M5
G00 X26.77 Y10.98 F3000.0
M3 F3000.0
G01 X26.59 Y11.23 F3000.0
G01 X26.4 Y11.37 F3000.0
G01 X26.55 Y11.12 F3000.0
G01 X26.77 Y10.98 F3000.0
G01 F3000.0
M5
G00 X26.93 Y11.53 F3000.0
M3 F3000.0
G01 X26.87 Y11.48 F3000.0
G01 X26.92 Y11.35 F3000.0
G01 X26.93 Y11.53 F3000.0
G01 F3000.0
M5
G00 X26.36 Y11.76 F3000.0
M3 F3000.0
G01 X26.02 Y12.26 F3000.0
G01 X25.93 Y12.07 F3000.0
G01 X25.92 Y11.78 F3000.0
G01 X26.36 Y11.76 F3000.0
G01 F3000.0
M5
G00 X25.74 Y11.52 F3000.0
M3 F3000.0
G01 X25.56 Y11.68 F3000.0
G01 X25.39 Y11.57 F3000.0
G01 X25.52 Y11.43 F3000.0
G01 X25.6 Y11.31 F3000.0
G01 X25.64 Y11.28 F3000.0
G01 X25.74 Y11.52 F3000.0
G01 F3000.0
M5
G00 X25.68 Y12.23 F3000.0
M3 F3000.0
G01 X25.79 Y12.47 F3000.0
G01 X25.78 Y12.54 F3000.0
G01 X25.62 Y13.6 F3000.0
G01 X25.61 Y13.61 F3000.0
G01 X25.5 Y14.62 F3000.0
G01 X25.39 Y13.99 F3000.0
G01 X25.38 Y13.57 F3000.0
G01 X25.34 Y12.15 F3000.0
G01 X25.68 Y12.23 F3000.0
G01 F3000.0
M5
G00 X25.43 Y15.36 F3000.0
M3 F3000.0
G01 X25.39 Y15.24 F3000.0
G01 X25.43 Y15.12 F3000.0
G01 Y15.36 F3000.0
G01 F3000.0
M5
G00 X28.12 Y15. F3000.0
M3 F3000.0
G01 X28.1 Y15.12 F3000.0
G01 X27.98 Y16.24 F3000.0
G01 X28.16 Y16.0 F3000.0
G01 X28.22 Y15.36 F3000.0
G01 X28.3 Y15.49 F3000.0
G01 X28.46 Y16.01 F3000.0
G01 X28.84 Y15.9 F3000.0
G01 X28.75 Y14.9 F3000.0
G01 X28.49 Y14.83 F3000.0
G01 X28.12 Y15.0 F3000.0
G01 F3000.0
M5
G00 X28.61 Y15.5 F3000.0
M3 F3000.0
G01 X28.47 Y15.7 F3000.0
G01 X28.68 Y15.15 F3000.0
G01 X28.61 Y15.5 F3000.0
G01 F3000.0
M5
G00 X29.37 Y12.35 F3000.0
M3 F3000.0
G01 X29.35 Y12.45 F3000.0
G01 X29.11 Y13.42 F3000.0
G01 X28.84 Y14.49 F3000.0
G01 X29.09 Y13.85 F3000.0
G01 X29.17 Y13.55 F3000.0
G01 X29.53 Y12.29 F3000.0
G01 X29.73 Y11.43 F3000.0
G01 X29.37 Y12.35 F3000.0
G01 F3000.0
M5
G00 X27.88 Y18.97 F3000.0
M3 F3000.0
G01 X28.15 Y19.11 F3000.0
G01 X27.81 Y18.78 F3000.0
G01 X27.88 Y18.97 F3000.0
G01 F3000.0
M5
G00 X29.26 Y22.57 F3000.0
M3 F3000.0
G01 X29.22 Y22.45 F3000.0
G01 X29.26 Y22.28 F3000.0
G01 X29.27 Y22.57 F3000.0
G01 X29.26 F3000.0
M5
G00 X23.21 Y21.63 F3000.0
M3 F3000.0
G01 X23.19 Y22.05 F3000.0
G01 X23.13 Y23.04 F3000.0
G01 X23.07 Y24.04 F3000.0
G01 X23.01 Y25.04 F3000.0
G01 X22.93 Y26.45 F3000.0
G01 X22.96 Y26.52 F3000.0
G01 X23.4 Y27.41 F3000.0
G01 X23.84 Y28.31 F3000.0
G01 X24.31 Y29.28 F3000.0
G01 X24.83 Y29.99 F3000.0
G01 X24.86 Y30.35 F3000.0
G01 X24.96 Y31.71 F3000.0
G01 X24.97 Y31.74 F3000.0
G01 X25.14 Y33.74 F3000.0
G01 X25.23 Y34.77 F3000.0
G01 X25.26 Y34.92 F3000.0
G01 X25.43 Y35.9 F3000.0
G01 X25.6 Y36.89 F3000.0
G01 X25.77 Y37.87 F3000.0
G01 X25.94 Y38.86 F3000.0
G01 X26.11 Y39.84 F3000.0
G01 X26.29 Y40.83 F3000.0
G01 X26.46 Y41.81 F3000.0
G01 X26.63 Y42.8 F3000.0
G01 X26.83 Y43.93 F3000.0
G01 X26.88 Y44.12 F3000.0
G01 X27.18 Y45.27 F3000.0
G01 X27.17 Y45.63 F3000.0
G01 X27.14 Y46.99 F3000.0
G01 Y47.31 F3000.0
G01 X27.22 Y59.31 F3000.0
G01 Y60.31 F3000.0
G01 X27.27 Y67.31 F3000.0
G01 Y68.63 F3000.0
G01 X27.2 Y68.84 F3000.0
G01 X27.05 Y68.74 F3000.0
G01 X27.01 Y68.64 F3000.0
G01 X26.62 Y67.61 F3000.0
G01 X26.49 F3000.0
G01 X25.35 Y67.66 F3000.0
G01 X24.45 Y67.65 F3000.0
G01 X24.38 F3000.0
G01 X23.31 Y67.62 F3000.0
G01 X23.3 Y68.41 F3000.0
G01 X23.33 Y68.64 F3000.0
G01 X23.44 Y69.64 F3000.0
G01 X23.58 Y70.87 F3000.0
G01 X23.01 Y70.14 F3000.0
G01 X22.99 Y70.12 F3000.0
G01 X22.47 Y69.23 F3000.0
G01 X22.54 Y69.4 F3000.0
G01 X22.99 Y70.5 F3000.0
G01 X23.31 Y71.09 F3000.0
G01 X23.07 Y71.28 F3000.0
G01 X22.77 Y71.48 F3000.0
G01 X22.6 Y71.16 F3000.0
G01 X21.98 Y69.94 F3000.0
G01 X21.84 Y69.66 F3000.0
G01 X21.23 Y68.5 F3000.0
G01 X21.5 Y69.3 F3000.0
G01 X21.64 Y69.69 F3000.0
G01 X21.96 Y70.64 F3000.0
G01 X22.41 Y71.98 F3000.0
G01 Y71.97 F3000.0
G01 X21.8 Y71.17 F3000.0
G01 X21.75 Y71.04 F3000.0
G01 X21.39 Y70.11 F3000.0
G01 X21.04 Y69.17 F3000.0
G01 X20.68 Y68.23 F3000.0
G01 X20.28 Y67.17 F3000.0
G01 X20.22 Y66.99 F3000.0
G01 X19.88 Y66.05 F3000.0
G01 X19.48 Y64.94 F3000.0
G01 X19.36 Y64.6 F3000.0
G01 X19.03 Y63.66 F3000.0
G01 X18.69 Y62.72 F3000.0
G01 X18.24 Y61.43 F3000.0
G01 X18.09 Y61.0 F3000.0
G01 X17.63 Y59.62 F3000.0
G01 X17.52 Y59.3 F3000.0
G01 X17.12 Y58.02 F3000.0
G01 X17.02 Y57.64 F3000.0
G01 X16.65 Y56.3 F3000.0
G01 X16.57 Y55.93 F3000.0
G01 X16.27 Y54.58 F3000.0
G01 X16.1 Y53.7 F3000.0
G01 X16.09 Y53.96 F3000.0
G01 X16.1 Y53.99 F3000.0
G01 X16.48 Y55.95 F3000.0
G01 X16.67 Y56.94 F3000.0
G01 X16.86 Y57.92 F3000.0
G01 X17.06 Y58.93 F3000.0
G01 X17.1 Y59.04 F3000.0
G01 X17.77 Y60.93 F3000.0
G01 X18.11 Y61.87 F3000.0
G01 X18.78 Y63.75 F3000.0
G01 X19.11 Y64.7 F3000.0
G01 X20.11 Y67.52 F3000.0
G01 X20.45 Y68.47 F3000.0
G01 X20.79 Y69.41 F3000.0
G01 X21.16 Y70.46 F3000.0
G01 X21.19 Y70.53 F3000.0
G01 X21.58 Y71.45 F3000.0
G01 X22.0 Y72.44 F3000.0
G01 X21.82 Y72.75 F3000.0
G01 Y72.95 F3000.0
G01 X21.81 Y74.15 F3000.0
G01 X22.0 Y74.57 F3000.0
G01 X22.41 Y75.48 F3000.0
G01 X22.82 Y76.4 F3000.0
G01 X23.65 Y78.22 F3000.0
G01 X24.25 Y79.55 F3000.0
G01 X24.32 Y79.72 F3000.0
G01 X25.1 Y81.56 F3000.0
G01 X25.57 Y82.65 F3000.0
G01 X25.71 Y83.08 F3000.0
G01 X26.03 Y84.03 F3000.0
G01 X26.34 Y84.98 F3000.0
G01 X26.66 Y85.92 F3000.0
G01 X26.98 Y86.87 F3000.0
G01 X27.61 Y88.77 F3000.0
G01 X28.07 Y90.15 F3000.0
G01 X28.17 Y90.37 F3000.0
G01 X28.54 Y91.3 F3000.0
G01 X28.92 Y92.22 F3000.0
G01 X29.39 Y93.38 F3000.0
G01 X29.25 Y92.87 F3000.0
G01 X29.26 Y92.59 F3000.0
G01 X29.38 Y92.85 F3000.0
G01 X29.8 Y93.76 F3000.0
G01 X30.22 Y94.66 F3000.0
G01 X30.76 Y95.83 F3000.0
G01 X30.9 Y96.27 F3000.0
G01 X31.22 Y97.22 F3000.0
G01 X31.85 Y99.12 F3000.0
G01 X32.16 Y100.06 F3000.0
G01 X32.48 Y101.01 F3000.0
G01 X32.8 Y101.96 F3000.0
G01 X33.26 Y103.35 F3000.0
G01 X33.31 Y103.48 F3000.0
G01 X33.74 Y104.54 F3000.0
G01 X33.96 Y104.78 F3000.0
G01 X33.82 Y104.34 F3000.0
G01 X33.36 Y102.96 F3000.0
G01 X33.27 Y102.4 F3000.0
G01 X33.23 Y102.27 F3000.0
G01 X33.17 Y102.2 F3000.0
G01 X33.12 Y101.79 F3000.0
G01 X33.03 Y101.51 F3000.0
G01 X32.74 Y100.56 F3000.0
G01 X32.44 Y99.6 F3000.0
G01 X32.06 Y98.36 F3000.0
G01 X31.98 Y97.58 F3000.0
G01 X31.73 Y96.7 F3000.0
G01 X31.57 Y96.35 F3000.0
G01 X31.73 Y97.21 F3000.0
G01 X31.88 Y98.08 F3000.0
G01 X31.77 Y97.87 F3000.0
G01 X31.74 Y97.78 F3000.0
G01 X31.38 Y96.74 F3000.0
G01 X31.25 Y96.4 F3000.0
G01 X30.77 Y95.11 F3000.0
G01 X30.64 Y94.83 F3000.0
G01 X30.22 Y93.92 F3000.0
G01 X29.67 Y92.72 F3000.0
G01 X29.02 Y92.03 F3000.0
G01 Y92.02 F3000.0
G01 X28.7 Y91.07 F3000.0
G01 X27.75 Y88.23 F3000.0
G01 X27.43 Y87.27 F3000.0
G01 X27.45 Y87.28 F3000.0
G01 X28.31 Y87.84 F3000.0
G01 X28.41 Y87.9 F3000.0
G01 X29.25 Y88.43 F3000.0
G01 X30.2 Y89.03 F3000.0
G01 X30.52 Y89.34 F3000.0
G01 X31.96 Y90.73 F3000.0
G01 X32.99 Y91.73 F3000.0
G01 X33.18 Y92.09 F3000.0
G01 X33.64 Y92.98 F3000.0
G01 X34.09 Y93.87 F3000.0
G01 X34.74 Y95.12 F3000.0
G01 X34.93 Y95.56 F3000.0
G01 X35.34 Y96.47 F3000.0
G01 X35.75 Y97.38 F3000.0
G01 X36.16 Y98.29 F3000.0
G01 X36.76 Y99.64 F3000.0
G01 X36.93 Y100.0 F3000.0
G01 X37.35 Y100.91 F3000.0
G01 X38.19 Y102.73 F3000.0
G01 X38.77 Y103.99 F3000.0
G01 X38.79 Y104.02 F3000.0
G01 X39.35 Y104.88 F3000.0
G01 X39.62 Y104.91 F3000.0
G01 X39.65 Y105.28 F3000.0
G01 X39.74 Y106.65 F3000.0
G01 X39.76 Y106.9 F3000.0
G01 X39.84 Y107.9 F3000.0
G01 X39.95 Y109.15 F3000.0
G01 X39.98 Y109.42 F3000.0
G01 X40.12 Y110.68 F3000.0
G01 X40.17 Y111.06 F3000.0
G01 X40.35 Y112.44 F3000.0
G01 X40.4 Y112.88 F3000.0
G01 X40.59 Y114.31 F3000.0
G01 X40.63 Y114.61 F3000.0
G01 X40.76 Y115.6 F3000.0
G01 X40.93 Y116.9 F3000.0
G01 X40.98 Y117.27 F3000.0
G01 X41.17 Y118.64 F3000.0
G01 X40.79 Y119.3 F3000.0
G01 X40.4 Y120.07 F3000.0
G01 X40.31 Y120.18 F3000.0
G01 X40.22 Y120.11 F3000.0
G01 X40.21 Y120.08 F3000.0
G01 X40.03 Y119.08 F3000.0
G01 X40.01 Y118.91 F3000.0
G01 X39.9 Y117.74 F3000.0
G01 X40.05 Y117.6 F3000.0
G01 X40.03 Y117.28 F3000.0
G01 X39.97 Y116.29 F3000.0
G01 X39.89 Y114.97 F3000.0
G01 X39.87 Y114.76 F3000.0
G01 X39.77 Y113.77 F3000.0
G01 X39.65 Y112.56 F3000.0
G01 X39.64 Y112.65 F3000.0
G01 X39.56 Y113.73 F3000.0
G01 Y114.08 F3000.0
G01 X39.55 Y115.08 F3000.0
G01 X39.54 Y116.44 F3000.0
G01 X39.46 Y117.39 F3000.0
G01 X39.47 Y117.44 F3000.0
G01 X39.62 Y118.43 F3000.0
G01 X39.79 Y119.46 F3000.0
G01 X39.82 Y119.59 F3000.0
G01 X40.08 Y120.7 F3000.0
G01 X39.88 Y121.27 F3000.0
G01 X39.68 Y121.84 F3000.0
G01 X39.53 Y121.13 F3000.0
G01 X39.52 Y121.06 F3000.0
G01 X39.35 Y120.08 F3000.0
G01 X39.18 Y119.09 F3000.0
G01 X39.01 Y118.05 F3000.0
G01 X38.92 Y117.83 F3000.0
G01 X38.84 Y118.67 F3000.0
G01 X38.91 Y119.26 F3000.0
G01 X38.97 Y119.8 F3000.0
G01 X39.03 Y120.21 F3000.0
G01 X39.22 Y121.61 F3000.0
G01 X39.24 Y122.02 F3000.0
G01 X39.31 Y123.42 F3000.0
G01 Y123.5 F3000.0
G01 X39.24 Y124.5 F3000.0
G01 X39.17 Y125.57 F3000.0
G01 Y125.79 F3000.0
G01 Y127.0 F3000.0
G01 X38.91 Y126.43 F3000.0
G01 X38.84 Y126.23 F3000.0
G01 X38.41 Y125.09 F3000.0
G01 X38.28 Y124.66 F3000.0
G01 X37.85 Y123.28 F3000.0
G01 X37.82 Y123.05 F3000.0
G01 X37.7 Y122.06 F3000.0
G01 X37.58 Y121.07 F3000.0
G01 X37.44 Y119.85 F3000.0
G01 X37.33 Y119.17 F3000.0
G01 X37.22 Y119.4 F3000.0
G01 X36.68 Y120.53 F3000.0
G01 X36.6 Y120.89 F3000.0
G01 X36.48 Y120.58 F3000.0
G01 X36.33 Y120.31 F3000.0
G01 X36.44 Y120.81 F3000.0
G01 X36.46 Y121.11 F3000.0
G01 X36.57 Y122.42 F3000.0
G01 Y122.49 F3000.0
G01 X36.56 Y123.57 F3000.0
G01 X36.52 Y123.45 F3000.0
G01 X36.18 Y122.37 F3000.0
G01 X36.16 Y122.32 F3000.0
G01 X35.85 Y121.37 F3000.0
G01 X35.24 Y119.46 F3000.0
G01 X34.93 Y118.51 F3000.0
G01 X34.6 Y117.5 F3000.0
G01 X34.55 Y117.34 F3000.0
G01 X34.25 Y116.38 F3000.0
G01 X33.96 Y115.43 F3000.0
G01 X33.66 Y114.47 F3000.0
G01 X33.36 Y113.52 F3000.0
G01 X33.06 Y112.56 F3000.0
G01 X32.71 Y111.44 F3000.0
G01 X32.65 Y111.24 F3000.0
G01 X32.33 Y110.29 F3000.0
G01 X32.01 Y109.34 F3000.0
G01 X31.7 Y108.39 F3000.0
G01 X31.38 Y107.44 F3000.0
G01 X31.07 Y106.5 F3000.0
G01 X30.75 Y105.55 F3000.0
G01 X30.44 Y104.6 F3000.0
G01 X30.12 Y103.65 F3000.0
G01 X29.8 Y102.7 F3000.0
G01 X29.49 Y101.75 F3000.0
G01 X29.11 Y100.6 F3000.0
G01 X29.03 Y100.4 F3000.0
G01 X28.68 Y99.46 F3000.0
G01 X28.34 Y98.53 F3000.0
G01 X27.99 Y97.59 F3000.0
G01 X27.56 Y96.45 F3000.0
G01 X27.38 Y95.99 F3000.0
G01 X26.3 Y93.19 F3000.0
G01 X25.93 Y92.26 F3000.0
G01 X24.49 Y88.53 F3000.0
G01 X23.95 Y87.14 F3000.0
G01 X23.89 Y87.01 F3000.0
G01 X23.53 Y86.08 F3000.0
G01 X23.17 Y85.15 F3000.0
G01 X22.75 Y84.08 F3000.0
G01 X22.71 Y83.98 F3000.0
G01 X22.34 Y83.05 F3000.0
G01 X21.98 Y82.11 F3000.0
G01 X21.57 Y81.08 F3000.0
G01 Y81.07 F3000.0
G01 X21.21 Y80.14 F3000.0
G01 X20.86 Y79.2 F3000.0
G01 X20.5 Y78.26 F3000.0
G01 X20.4 Y78.0 F3000.0
G01 X19.3 Y75.2 F3000.0
G01 X18.84 Y74.01 F3000.0
G01 X18.66 Y73.58 F3000.0
G01 X18.29 Y72.65 F3000.0
G01 X17.75 Y71.29 F3000.0
G01 X17.71 Y71.19 F3000.0
G01 X17.33 Y70.27 F3000.0
G01 X16.56 Y68.42 F3000.0
G01 X16.18 Y67.5 F3000.0
G01 X15.8 Y66.57 F3000.0
G01 X15.42 Y65.65 F3000.0
G01 X14.99 Y64.62 F3000.0
G01 X14.91 Y64.61 F3000.0
G01 X14.87 Y64.52 F3000.0
G01 X15.03 Y64.98 F3000.0
G01 X15.36 Y65.92 F3000.0
G01 X15.85 Y67.33 F3000.0
G01 X16.0 Y67.75 F3000.0
G01 X16.34 Y68.69 F3000.0
G01 X16.84 Y70.05 F3000.0
G01 X16.7 Y69.79 F3000.0
G01 X16.21 Y68.92 F3000.0
G01 X15.73 Y68.04 F3000.0
G01 X15.26 Y67.16 F3000.0
G01 X14.78 Y66.28 F3000.0
G01 X14.3 Y65.41 F3000.0
G01 X13.68 Y64.27 F3000.0
G01 X13.54 Y63.94 F3000.0
G01 X13.14 Y63.03 F3000.0
G01 X12.75 Y62.11 F3000.0
G01 X12.36 Y61.19 F3000.0
G01 X11.97 Y60.27 F3000.0
G01 X11.43 Y59.02 F3000.0
G01 X11.41 Y58.92 F3000.0
G01 X11.16 Y57.95 F3000.0
G01 X10.92 Y56.98 F3000.0
G01 X10.67 Y56.01 F3000.0
G01 X10.43 Y55.04 F3000.0
G01 X9.94 Y53.1 F3000.0
G01 X9.69 Y52.13 F3000.0
G01 X9.45 Y51.16 F3000.0
G01 X9.18 Y50.09 F3000.0
G01 X9.16 Y49.93 F3000.0
G01 X9.07 Y48.93 F3000.0
G01 X8.98 Y47.93 F3000.0
G01 X8.89 Y46.94 F3000.0
G01 X8.72 Y44.95 F3000.0
G01 X8.63 Y43.95 F3000.0
G01 X8.53 Y42.79 F3000.0
G01 X8.54 Y42.55 F3000.0
G01 X8.59 Y41.55 F3000.0
G01 X8.74 Y38.55 F3000.0
G01 X8.8 Y37.31 F3000.0
G01 X8.89 Y36.99 F3000.0
G01 X9.15 Y36.03 F3000.0
G01 X9.41 Y35.06 F3000.0
G01 X9.67 Y34.09 F3000.0
G01 X10.02 Y32.81 F3000.0
G01 X10.04 Y32.76 F3000.0
G01 X10.55 Y31.9 F3000.0
G01 X11.05 Y31.03 F3000.0
G01 X11.56 Y30.17 F3000.0
G01 X12.09 Y29.26 F3000.0
G01 X12.24 Y29.08 F3000.0
G01 X13.01 Y28.11 F3000.0
G01 X13.11 Y27.99 F3000.0
G01 X13.77 Y27.24 F3000.0
G01 X14.53 Y26.37 F3000.0
G01 X15.04 Y25.89 F3000.0
G01 X14.76 Y26.32 F3000.0
G01 X14.28 Y27.14 F3000.0
G01 X14.23 Y27.31 F3000.0
G01 X13.96 Y28.27 F3000.0
G01 X13.69 Y29.24 F3000.0
G01 X13.38 Y30.37 F3000.0
G01 Y30.49 F3000.0
G01 X13.36 Y31.49 F3000.0
G01 X13.35 Y32.62 F3000.0
G01 X13.42 Y32.76 F3000.0
G01 X13.55 Y32.97 F3000.0
G01 X13.6 Y33.72 F3000.0
G01 Y33.84 F3000.0
G01 X13.53 Y34.96 F3000.0
G01 X13.58 Y35.2 F3000.0
G01 X13.64 Y34.81 F3000.0
G01 X13.82 Y33.83 F3000.0
G01 X14.17 Y31.86 F3000.0
G01 X14.41 Y30.49 F3000.0
G01 X14.38 Y30.33 F3000.0
G01 X14.33 Y30.47 F3000.0
G01 X13.94 Y31.55 F3000.0
G01 X13.7 Y32.13 F3000.0
G01 X13.73 Y31.87 F3000.0
G01 X13.88 Y30.61 F3000.0
G01 X14.0 Y30.33 F3000.0
G01 X14.39 Y29.4 F3000.0
G01 X14.77 Y28.48 F3000.0
G01 X15.16 Y27.56 F3000.0
G01 X15.66 Y26.35 F3000.0
G01 X15.87 Y26.12 F3000.0
G01 X17.18 Y24.61 F3000.0
G01 X17.84 Y23.86 F3000.0
G01 X18.7 Y22.88 F3000.0
G01 X18.95 Y22.77 F3000.0
G01 X19.87 Y22.39 F3000.0
G01 X20.79 Y22.0 F3000.0
G01 X21.97 Y21.51 F3000.0
G01 X22.12 Y21.48 F3000.0
G01 X23.25 Y21.28 F3000.0
G01 X23.21 Y21.63 F3000.0
G01 F3000.0
M5
G00 X22.91 Y23.95 F3000.0
M3 F3000.0
G01 X22.86 Y23.89 F3000.0
G01 X22.91 Y23.76 F3000.0
G01 Y23.95 F3000.0
G01 F3000.0
M5
G00 X18. Y23.11 F3000.0
M3 F3000.0
G01 X17.83 Y23.27 F3000.0
G01 X17.8 Y23.24 F3000.0
G01 X18.0 Y23.11 F3000.0
G01 F3000.0
M5
G00 X17.25 Y23.87 F3000.0
M3 F3000.0
G01 X17.08 Y24.04 F3000.0
G01 X17.05 Y24.0 F3000.0
G01 X17.25 Y23.87 F3000.0
G01 F3000.0
M5
G00 X14.26 Y26.34 F3000.0
M3 F3000.0
G01 X13.91 Y26.7 F3000.0
G01 X13.56 Y27.03 F3000.0
G01 X13.88 Y26.67 F3000.0
G01 X14.26 Y26.34 F3000.0
G01 F3000.0
M5
G00 X18.2 Y29.49 F3000.0
M3 F3000.0
G01 X18.0 Y29.92 F3000.0
G01 X17.58 Y30.82 F3000.0
G01 X17.15 Y31.73 F3000.0
G01 X16.73 Y32.63 F3000.0
G01 X16.3 Y33.54 F3000.0
G01 X15.68 Y34.87 F3000.0
G01 X15.64 Y35.09 F3000.0
G01 X15.49 Y36.08 F3000.0
G01 X15.31 Y37.3 F3000.0
G01 X15.35 Y37.15 F3000.0
G01 X15.61 Y36.03 F3000.0
G01 X15.71 Y35.77 F3000.0
G01 X16.43 Y33.91 F3000.0
G01 X16.79 Y32.98 F3000.0
G01 X17.16 Y32.05 F3000.0
G01 X17.62 Y30.86 F3000.0
G01 X17.69 Y30.71 F3000.0
G01 X18.16 Y29.83 F3000.0
G01 X18.7 Y28.8 F3000.0
G01 X18.2 Y29.49 F3000.0
G01 F3000.0
M5
G00 X18.05 Y30.7 F3000.0
M3 F3000.0
G01 X17.99 Y30.84 F3000.0
G01 X17.59 Y31.76 F3000.0
G01 X17.2 Y32.68 F3000.0
G01 X16.75 Y33.74 F3000.0
G01 X16.72 Y33.84 F3000.0
G01 X16.42 Y34.9 F3000.0
G01 X16.44 Y34.87 F3000.0
G01 X16.82 Y33.91 F3000.0
G01 X16.94 Y33.6 F3000.0
G01 X17.32 Y32.68 F3000.0
G01 X17.83 Y31.45 F3000.0
G01 X17.92 Y31.25 F3000.0
G01 X18.42 Y30.14 F3000.0
G01 X18.05 Y30.7 F3000.0
G01 F3000.0
M5
G00 X21.64 Y33.48 F3000.0
M3 F3000.0
G01 X21.4 Y34.05 F3000.0
G01 X21.73 Y33.48 F3000.0
G01 X21.97 Y32.91 F3000.0
G01 X21.64 Y33.48 F3000.0
G01 F3000.0
M5
G00 X20.8 Y35.55 F3000.0
M3 F3000.0
G01 X20.79 Y36.0 F3000.0
G01 X20.7 Y38.0 F3000.0
G01 X20.66 Y39.0 F3000.0
G01 X20.6 Y40.45 F3000.0
G01 X20.61 Y40.58 F3000.0
G01 X20.79 Y42.57 F3000.0
G01 X20.88 Y43.57 F3000.0
G01 X20.97 Y44.7 F3000.0
G01 X21.02 Y44.89 F3000.0
G01 X21.49 Y46.84 F3000.0
G01 X21.77 Y48.01 F3000.0
G01 X21.8 Y48.04 F3000.0
G01 X22.3 Y48.91 F3000.0
G01 X22.82 Y49.81 F3000.0
G01 X22.45 Y49.09 F3000.0
G01 X22.36 Y48.76 F3000.0
G01 X21.82 Y46.83 F3000.0
G01 X21.55 Y45.87 F3000.0
G01 X21.18 Y44.57 F3000.0
G01 X21.16 Y44.12 F3000.0
G01 X21.1 Y43.12 F3000.0
G01 X21.04 Y42.12 F3000.0
G01 X20.86 Y39.13 F3000.0
G01 X20.77 Y37.68 F3000.0
G01 X20.8 Y37.2 F3000.0
G01 X20.88 Y35.72 F3000.0
G01 X20.93 Y35.22 F3000.0
G01 X20.8 Y35.55 F3000.0
G01 F3000.0
M5
G00 X15.2 Y37.54 F3000.0
M3 F3000.0
G01 X15.26 Y37.6 F3000.0
G01 X15.25 Y37.42 F3000.0
G01 X15.2 Y37.54 F3000.0
G01 F3000.0
M5
G00 X8.44 Y39.13 F3000.0
M3 F3000.0
G01 X8.38 Y39.07 F3000.0
G01 X8.43 Y38.95 F3000.0
G01 X8.44 Y39.13 F3000.0
G01 F3000.0
M5
G00 X8.35 Y42.81 F3000.0
M3 F3000.0
G01 X8.32 Y42.26 F3000.0
G01 X8.35 Y41.71 F3000.0
G01 Y41.76 F3000.0
G01 Y42.81 F3000.0
G01 F3000.0
M5
G00 X8.54 Y46.77 F3000.0
M3 F3000.0
G01 X8.48 Y46.71 F3000.0
G01 X8.53 Y46.58 F3000.0
G01 Y46.77 F3000.0
G01 X8.54 F3000.0
M5
G00 X16.36 Y52.19 F3000.0
M3 F3000.0
G01 X16.43 Y52.51 F3000.0
G01 X16.67 Y53.48 F3000.0
G01 X16.9 Y54.45 F3000.0
G01 X17.14 Y55.42 F3000.0
G01 X17.45 Y56.71 F3000.0
G01 X17.48 Y56.8 F3000.0
G01 X17.84 Y57.73 F3000.0
G01 X18.19 Y58.67 F3000.0
G01 X18.58 Y59.69 F3000.0
G01 X18.6 Y59.59 F3000.0
G01 X18.5 Y59.28 F3000.0
G01 X18.21 Y58.32 F3000.0
G01 X17.93 Y57.36 F3000.0
G01 X17.35 Y55.45 F3000.0
G01 X16.97 Y54.17 F3000.0
G01 X16.92 Y54.01 F3000.0
G01 X16.66 Y53.04 F3000.0
G01 X16.35 Y51.91 F3000.0
G01 X16.36 Y52.19 F3000.0
G01 F3000.0
M5
G00 X17.16 Y51.34 F3000.0
M3 F3000.0
G01 X17.2 Y51.56 F3000.0
G01 X17.58 Y53.52 F3000.0
G01 X17.82 Y54.72 F3000.0
G01 X17.91 Y55.14 F3000.0
G01 X18.14 Y56.11 F3000.0
G01 X18.38 Y57.09 F3000.0
G01 X18.61 Y58.06 F3000.0
G01 X18.93 Y59.45 F3000.0
G01 X18.98 Y59.35 F3000.0
G01 X18.96 Y59.24 F3000.0
G01 X18.77 Y58.26 F3000.0
G01 X18.55 Y57.16 F3000.0
G01 Y57.14 F3000.0
G01 X18.33 Y56.17 F3000.0
G01 X18.11 Y55.19 F3000.0
G01 X17.9 Y54.2 F3000.0
G01 X17.89 Y54.17 F3000.0
G01 X17.64 Y53.19 F3000.0
G01 X17.39 Y52.19 F3000.0
G01 X17.16 Y51.34 F3000.0
G01 F3000.0
M5
G00 X17.85 Y60.74 F3000.0
M3 F3000.0
G01 X17.96 Y61.33 F3000.0
G01 X17.89 Y61.12 F3000.0
G01 X17.53 Y59.96 F3000.0
G01 X17.85 Y60.74 F3000.0
G01 F3000.0
M5
G00 X19.39 Y65.17 F3000.0
M3 F3000.0
G01 X19.4 Y65.21 F3000.0
G01 X19.72 Y66.16 F3000.0
G01 X20.04 Y67.14 F3000.0
G01 X19.89 Y66.75 F3000.0
G01 X19.36 Y65.44 F3000.0
G01 X19.17 Y64.82 F3000.0
G01 X19.39 Y65.17 F3000.0
G01 F3000.0
M5
G00 X15.28 Y65.32 F3000.0
M3 F3000.0
G01 X15.19 Y65.27 F3000.0
G01 X15.1 Y65.03 F3000.0
G01 X15.19 Y65.08 F3000.0
G01 X15.28 Y65.32 F3000.0
G01 F3000.0
M5
G00 X24.19 Y67.99 F3000.0
M3 F3000.0
G01 X24.32 Y68.39 F3000.0
G01 X24.77 Y69.73 F3000.0
G01 X24.36 Y69.96 F3000.0
G01 X23.99 Y70.12 F3000.0
G01 X23.92 Y69.58 F3000.0
G01 F3000.0
G01 X23.82 Y68.57 F3000.0
G01 X23.74 Y67.97 F3000.0
G01 X24.19 Y67.99 F3000.0
G01 F3000.0
M5
G00 X25.2 Y68.58 F3000.0
M3 F3000.0
G01 X25.22 Y68.77 F3000.0
G01 X25.32 Y69.95 F3000.0
G01 X25.2 Y69.72 F3000.0
G01 X25.11 Y69.55 F3000.0
G01 X25.04 Y69.25 F3000.0
G01 X24.87 Y68.54 F3000.0
G01 X24.88 Y68.31 F3000.0
G01 X25.2 Y68.58 F3000.0
G01 F3000.0
M5
G00 X26.19 Y67.82 F3000.0
M3 F3000.0
G01 X26.28 Y68.21 F3000.0
G01 X26.19 Y68.31 F3000.0
G01 X25.94 Y68.42 F3000.0
G01 X25.62 Y68.22 F3000.0
G01 X26.19 Y67.82 F3000.0
G01 F3000.0
M5
G00 X26.64 Y69.16 F3000.0
M3 F3000.0
G01 X26.5 Y69.2 F3000.0
G01 X26.12 Y69.23 F3000.0
G01 X25.8 Y69.36 F3000.0
G01 X25.71 Y68.98 F3000.0
G01 X25.65 Y68.64 F3000.0
G01 X26.07 Y68.57 F3000.0
G01 X26.5 Y68.39 F3000.0
G01 X26.6 Y68.64 F3000.0
G01 X26.64 Y69.16 F3000.0
G01 F3000.0
M5
G00 X26.49 Y69.62 F3000.0
M3 F3000.0
G01 X26.3 Y69.57 F3000.0
G01 X26.12 Y69.42 F3000.0
G01 X26.3 Y69.47 F3000.0
G01 X26.49 Y69.62 F3000.0
G01 F3000.0
M5
G00 X27.45 Y69.76 F3000.0
M3 F3000.0
G01 X27.55 Y70.23 F3000.0
G01 X27.6 Y70.57 F3000.0
G01 X27.65 Y70.87 F3000.0
G01 X27.7 Y71.24 F3000.0
G01 X27.19 Y71.75 F3000.0
G01 X27.46 Y71.77 F3000.0
G01 X27.75 Y72.06 F3000.0
G01 X27.89 Y72.44 F3000.0
G01 X27.91 Y72.67 F3000.0
G01 X27.96 Y72.91 F3000.0
G01 X28.01 Y73.17 F3000.0
G01 X28.04 Y73.36 F3000.0
G01 X28.11 Y73.81 F3000.0
G01 X28.1 Y73.84 F3000.0
G01 X27.8 Y74.83 F3000.0
G01 X27.5 Y75.35 F3000.0
G01 X27.94 Y74.87 F3000.0
G01 X28.31 Y74.58 F3000.0
G01 X28.23 Y74.93 F3000.0
G01 X28.14 Y75.04 F3000.0
G01 X28.11 Y75.14 F3000.0
G01 X28.05 Y75.28 F3000.0
G01 X27.95 Y75.42 F3000.0
G01 X27.89 Y75.54 F3000.0
G01 X27.8 Y76.0 F3000.0
G01 X27.85 Y75.99 F3000.0
G01 X28.0 Y76.03 F3000.0
G01 X28.01 Y76.12 F3000.0
G01 X27.89 Y76.15 F3000.0
G01 X27.61 Y76.41 F3000.0
G01 X27.37 Y76.7 F3000.0
G01 X27.29 Y76.86 F3000.0
G01 X27.3 Y76.24 F3000.0
G01 X27.25 Y76.08 F3000.0
G01 X27.16 Y76.34 F3000.0
G01 X26.77 Y77.55 F3000.0
G01 X26.65 Y77.87 F3000.0
G01 X26.2 Y79.13 F3000.0
G01 X25.99 Y79.2 F3000.0
G01 X26.32 Y79.73 F3000.0
G01 X26.28 Y80.22 F3000.0
G01 X26.38 Y80.58 F3000.0
G01 X26.6 Y81.01 F3000.0
G01 X27.29 Y82.31 F3000.0
G01 X27.37 Y82.8 F3000.0
G01 X27.35 Y82.86 F3000.0
G01 X27.21 Y83.11 F3000.0
G01 X27.41 Y83.2 F3000.0
G01 X27.44 Y83.25 F3000.0
G01 X27.14 Y82.92 F3000.0
G01 X26.18 Y81.86 F3000.0
G01 X26.02 Y81.58 F3000.0
G01 X25.02 Y79.85 F3000.0
G01 X24.37 Y78.71 F3000.0
G01 X23.97 Y77.79 F3000.0
G01 X23.6 Y77.02 F3000.0
G01 X23.85 Y76.62 F3000.0
G01 Y76.6 F3000.0
G01 X24.0 Y75.59 F3000.0
G01 X23.88 Y75.87 F3000.0
G01 X23.69 Y76.25 F3000.0
G01 X23.42 Y76.66 F3000.0
G01 X23.34 Y76.97 F3000.0
G01 X23.04 Y76.31 F3000.0
G01 X22.91 Y75.52 F3000.0
G01 X23.13 Y75.39 F3000.0
G01 X23.36 Y75.09 F3000.0
G01 X24.2 Y74.69 F3000.0
G01 X24.39 Y74.91 F3000.0
G01 X25.24 Y75.87 F3000.0
G01 X25.22 Y75.7 F3000.0
G01 X25.38 Y75.78 F3000.0
G01 X25.54 Y75.8 F3000.0
G01 X25.64 Y75.58 F3000.0
G01 X25.43 Y75.39 F3000.0
G01 X25.37 Y75.34 F3000.0
G01 X24.57 Y74.61 F3000.0
G01 X24.69 Y73.86 F3000.0
G01 X24.78 Y73.28 F3000.0
G01 Y73.27 F3000.0
G01 X24.79 Y72.27 F3000.0
G01 X24.8 Y72.13 F3000.0
G01 X24.79 Y72.16 F3000.0
G01 X24.52 Y73.16 F3000.0
G01 X24.42 Y73.79 F3000.0
G01 X23.8 Y73.94 F3000.0
G01 X23.74 Y73.43 F3000.0
G01 X23.97 Y72.87 F3000.0
G01 X24.24 Y72.41 F3000.0
G01 X23.92 Y72.63 F3000.0
G01 X23.51 Y73.49 F3000.0
G01 X23.16 Y73.92 F3000.0
G01 X23.0 Y74.01 F3000.0
G01 X23.23 Y74.15 F3000.0
G01 X23.41 Y74.2 F3000.0
G01 X22.98 Y74.63 F3000.0
G01 X22.82 Y74.82 F3000.0
G01 X22.89 Y75.01 F3000.0
G01 X23.07 Y74.82 F3000.0
G01 X23.32 Y74.77 F3000.0
G01 X22.8 Y75.3 F3000.0
G01 X22.71 Y75.1 F3000.0
G01 X22.2 Y74.0 F3000.0
G01 X22.04 Y73.41 F3000.0
G01 X22.64 Y72.73 F3000.0
G01 X22.74 Y72.65 F3000.0
G01 X23.51 Y72.0 F3000.0
G01 X24.37 Y71.28 F3000.0
G01 X24.52 Y71.19 F3000.0
G01 X25.38 Y70.68 F3000.0
G01 X26.24 Y70.17 F3000.0
G01 X27.24 Y69.57 F3000.0
G01 X27.45 Y69.76 F3000.0
G01 F3000.0
M5
G00 X27.61 Y72.17 F3000.0
M3 F3000.0
G01 X27.47 Y72.57 F3000.0
G01 X27.38 Y72.91 F3000.0
G01 X27.66 Y72.17 F3000.0
G01 X27.61 F3000.0
G01 F3000.0
M5
G00 X29.29 Y73.81 F3000.0
M3 F3000.0
G01 X29.13 Y73.97 F3000.0
G01 X29.09 Y73.94 F3000.0
G01 X29.29 Y73.81 F3000.0
G01 F3000.0
M5
G00 X28.41 Y75.68 F3000.0
M3 F3000.0
G01 X28.85 Y76.2 F3000.0
G01 X29.15 Y76.63 F3000.0
G01 X29.0 Y76.49 F3000.0
G01 X28.13 Y75.65 F3000.0
G01 X28.41 Y75.68 F3000.0
G01 F3000.0
M5
G00 X28.08 Y76.29 F3000.0
M3 F3000.0
G01 X27.87 Y76.5 F3000.0
G01 X27.66 Y76.68 F3000.0
G01 X27.84 Y76.47 F3000.0
G01 X28.08 Y76.29 F3000.0
G01 F3000.0
M5
G00 X28.41 Y76.71 F3000.0
M3 F3000.0
G01 X28.13 Y76.54 F3000.0
G01 X28.32 Y76.55 F3000.0
G01 X28.41 Y76.71 F3000.0
G01 F3000.0
M5
G00 X28.79 Y77.16 F3000.0
M3 F3000.0
G01 X29.19 Y77.4 F3000.0
G01 X28.9 Y77.89 F3000.0
G01 F3000.0
G01 X28.27 Y78.67 F3000.0
G01 X27.97 Y79.09 F3000.0
G01 X27.9 Y79.21 F3000.0
G01 X27.8 Y79.36 F3000.0
G01 X27.59 Y79.45 F3000.0
G01 X27.54 Y79.5 F3000.0
G01 X27.71 Y79.7 F3000.0
G01 X26.96 Y79.31 F3000.0
G01 X26.74 Y79.14 F3000.0
G01 X27.0 Y78.51 F3000.0
G01 X27.36 Y77.94 F3000.0
G01 X27.39 Y77.89 F3000.0
G01 X27.58 Y77.35 F3000.0
G01 X27.69 Y77.33 F3000.0
G01 X28.79 Y77.16 F3000.0
G01 F3000.0
M5
G00 X29.31 Y76.85 F3000.0
M3 F3000.0
G01 X29.2 Y76.86 F3000.0
G01 X29.37 Y76.69 F3000.0
G01 X29.31 Y76.85 F3000.0
G01 F3000.0
M5
G00 X29.76 Y76.83 F3000.0
M3 F3000.0
G01 X29.87 Y76.92 F3000.0
G01 X29.97 Y77.08 F3000.0
G01 X30.64 Y78.07 F3000.0
G01 X30.06 Y77.45 F3000.0
G01 X29.66 Y76.73 F3000.0
G01 X29.76 Y76.83 F3000.0
G01 F3000.0
M5
G00 X29.86 Y77.47 F3000.0
M3 F3000.0
G01 X29.95 Y77.73 F3000.0
G01 X29.46 Y77.02 F3000.0
G01 X29.86 Y77.47 F3000.0
G01 F3000.0
M5
G00 X29.96 Y77.95 F3000.0
M3 F3000.0
G01 X29.92 Y77.98 F3000.0
G01 X29.76 Y77.82 F3000.0
G01 X29.96 Y77.95 F3000.0
G01 F3000.0
M5
G00 X30.28 Y78.63 F3000.0
M3 F3000.0
G01 X30.36 Y78.75 F3000.0
G01 X31.07 Y79.64 F3000.0
G01 X31.27 Y79.89 F3000.0
G01 X31.35 Y80.03 F3000.0
G01 X31.36 Y80.08 F3000.0
G01 X31.41 Y80.51 F3000.0
G01 X30.88 Y80.74 F3000.0
G01 X30.8 Y80.32 F3000.0
G01 Y80.19 F3000.0
G01 X30.68 Y80.1 F3000.0
G01 X29.76 Y79.44 F3000.0
G01 X29.3 Y79.22 F3000.0
G01 X29.02 Y79.07 F3000.0
G01 X29.14 Y78.38 F3000.0
G01 X29.29 Y77.88 F3000.0
G01 X29.38 Y77.69 F3000.0
G01 X29.48 Y77.8 F3000.0
G01 X30.28 Y78.63 F3000.0
G01 F3000.0
M5
G00 X31.41 Y78.56 F3000.0
M3 F3000.0
G01 X31.35 Y78.51 F3000.0
G01 X31.4 Y78.38 F3000.0
G01 X31.41 Y78.56 F3000.0
G01 F3000.0
M5
G00 X31.17 Y79.38 F3000.0
M3 F3000.0
G01 X31.14 Y79.42 F3000.0
G01 X30.97 Y79.25 F3000.0
G01 X31.17 Y79.38 F3000.0
G01 F3000.0
M5
G00 X30.32 Y79.97 F3000.0
M3 F3000.0
G01 X30.3 Y80.07 F3000.0
G01 X30.09 Y79.8 F3000.0
G01 X29.9 Y79.57 F3000.0
G01 X30.11 Y79.7 F3000.0
G01 X30.32 Y79.97 F3000.0
G01 F3000.0
M5
G00 X29.54 Y80.76 F3000.0
M3 F3000.0
G01 X29.51 Y80.85 F3000.0
G01 X29.27 Y80.55 F3000.0
G01 X29.54 Y80.76 F3000.0
G01 F3000.0
M5
G00 X29.18 Y80.04 F3000.0
M3 F3000.0
G01 X29.61 Y80.52 F3000.0
G01 X29.16 Y80.43 F3000.0
G01 X29.3 Y80.89 F3000.0
G01 X29.82 Y80.98 F3000.0
G01 X29.97 Y80.9 F3000.0
G01 X29.91 Y81.05 F3000.0
G01 X30.03 Y81.58 F3000.0
G01 X30.41 Y81.65 F3000.0
G01 X30.43 Y81.47 F3000.0
G01 X30.3 Y81.53 F3000.0
G01 X30.06 Y81.47 F3000.0
G01 X30.09 Y81.23 F3000.0
G01 X30.23 Y81.26 F3000.0
G01 X30.78 Y81.9 F3000.0
G01 X30.63 Y82.06 F3000.0
G01 X30.41 Y81.95 F3000.0
G01 X30.65 Y82.27 F3000.0
G01 X30.88 Y82.5 F3000.0
G01 X31.06 Y82.3 F3000.0
G01 X31.18 Y82.03 F3000.0
G01 X31.22 Y82.01 F3000.0
G01 X31.3 Y82.29 F3000.0
G01 X31.47 Y82.72 F3000.0
G01 X31.29 Y82.83 F3000.0
G01 X31.04 Y82.6 F3000.0
G01 X31.2 Y82.87 F3000.0
G01 X31.49 Y83.13 F3000.0
G01 X31.57 Y82.72 F3000.0
G01 X31.64 F3000.0
G01 X31.92 Y82.89 F3000.0
G01 X32.1 Y83.01 F3000.0
G01 X32.07 Y83.05 F3000.0
G01 X31.91 Y83.1 F3000.0
G01 X32.09 Y83.46 F3000.0
G01 X32.24 Y83.68 F3000.0
G01 X32.29 Y83.91 F3000.0
G01 X32.08 Y83.76 F3000.0
G01 X31.06 Y83.02 F3000.0
G01 X30.83 Y82.82 F3000.0
G01 X30.09 Y82.15 F3000.0
G01 X29.34 Y81.48 F3000.0
G01 X28.37 Y80.6 F3000.0
G01 X28.6 Y80.85 F3000.0
G01 X29.29 Y81.58 F3000.0
G01 X30.2 Y82.56 F3000.0
G01 X30.48 Y82.86 F3000.0
G01 X31.15 Y83.6 F3000.0
G01 X32.09 Y84.65 F3000.0
G01 X32.03 Y84.85 F3000.0
G01 X31.18 Y84.5 F3000.0
G01 X30.36 Y84.23 F3000.0
G01 X30.55 Y84.35 F3000.0
G01 X31.59 Y84.98 F3000.0
G01 X32.18 Y85.59 F3000.0
G01 X32.22 Y85.66 F3000.0
G01 X32.71 Y86.62 F3000.0
G01 X32.73 Y86.66 F3000.0
G01 X33.6 Y88.46 F3000.0
G01 X34.05 Y89.4 F3000.0
G01 X33.84 Y89.38 F3000.0
G01 X33.76 Y89.47 F3000.0
G01 X34.01 Y89.62 F3000.0
G01 X34.39 Y90.16 F3000.0
G01 X34.56 Y90.5 F3000.0
G01 X35.01 Y91.39 F3000.0
G01 X35.62 Y92.63 F3000.0
G01 X35.95 Y92.89 F3000.0
G01 X36.23 Y93.09 F3000.0
G01 X36.26 Y93.14 F3000.0
G01 X36.58 Y93.77 F3000.0
G01 X36.6 Y93.88 F3000.0
G01 X36.67 Y93.97 F3000.0
G01 X36.73 Y94.0 F3000.0
G01 X36.93 Y94.45 F3000.0
G01 X37.0 Y94.6 F3000.0
G01 X36.69 Y94.43 F3000.0
G01 X36.61 Y94.33 F3000.0
G01 X35.92 Y93.44 F3000.0
G01 X35.88 Y93.38 F3000.0
G01 X35.22 Y92.53 F3000.0
G01 X35.07 Y92.35 F3000.0
G01 X34.28 Y91.39 F3000.0
G01 X34.15 Y91.26 F3000.0
G01 X33.31 Y90.42 F3000.0
G01 X33.33 Y90.45 F3000.0
G01 X33.95 Y91.27 F3000.0
G01 X34.05 Y91.41 F3000.0
G01 X34.76 Y92.35 F3000.0
G01 X35.18 Y92.92 F3000.0
G01 X35.24 Y93.01 F3000.0
G01 X35.91 Y93.9 F3000.0
G01 X36.13 Y94.16 F3000.0
G01 X37.01 Y95.19 F3000.0
G01 X37.12 Y95.37 F3000.0
G01 X37.78 Y96.38 F3000.0
G01 X37.94 Y96.97 F3000.0
G01 X37.93 F3000.0
G01 X37.37 Y96.14 F3000.0
G01 X37.21 Y95.93 F3000.0
G01 X36.02 Y94.33 F3000.0
G01 X35.42 Y93.53 F3000.0
G01 X34.83 Y92.72 F3000.0
G01 X34.08 Y91.71 F3000.0
G01 X33.78 Y91.46 F3000.0
G01 X33.01 Y90.82 F3000.0
G01 X32.24 Y90.18 F3000.0
G01 X31.47 Y89.54 F3000.0
G01 X30.4 Y88.65 F3000.0
G01 X30.34 Y88.62 F3000.0
G01 X29.49 Y88.09 F3000.0
G01 X28.59 Y87.53 F3000.0
G01 X28.52 Y87.45 F3000.0
G01 X27.74 Y86.67 F3000.0
G01 Y86.55 F3000.0
G01 X27.78 Y85.55 F3000.0
G01 X27.82 Y84.55 F3000.0
G01 X27.86 Y83.55 F3000.0
G01 X27.9 Y82.55 F3000.0
G01 X27.94 Y81.43 F3000.0
G01 X27.95 Y81.38 F3000.0
G01 X28.2 Y80.42 F3000.0
G01 X28.47 Y79.41 F3000.0
G01 X29.18 Y80.04 F3000.0
G01 F3000.0
M5
G00 X28.87 Y80. F3000.0
M3 F3000.0
G01 X28.72 Y80.11 F3000.0
G01 X28.55 Y80.04 F3000.0
G01 X29.01 Y80.41 F3000.0
G01 X28.91 Y79.92 F3000.0
G01 X28.7 Y79.74 F3000.0
G01 X28.87 Y80.0 F3000.0
M5
G00 X28.17 Y79.41 F3000.0
M3 F3000.0
G01 X28.07 Y79.5 F3000.0
G01 X28.03 Y79.41 F3000.0
G01 X28.13 Y79.31 F3000.0
G01 X28.17 Y79.41 F3000.0
G01 F3000.0
M5
G00 X28.92 Y78.4 F3000.0
M3 F3000.0
G01 X28.68 Y78.73 F3000.0
G01 X28.84 Y78.36 F3000.0
G01 X29.09 Y78.02 F3000.0
G01 X28.92 Y78.4 F3000.0
G01 F3000.0
M5
G00 X27.3 Y77.23 F3000.0
M3 F3000.0
G01 X27.2 Y77.41 F3000.0
G01 X27.15 Y77.5 F3000.0
G01 X27.05 Y77.37 F3000.0
G01 X27.36 Y77.08 F3000.0
G01 X27.3 Y77.23 F3000.0
G01 F3000.0
M5
G00 X26.86 Y79.61 F3000.0
M3 F3000.0
G01 X26.95 Y79.65 F3000.0
G01 X27.09 Y79.75 F3000.0
G01 X27.21 Y79.85 F3000.0
G01 X27.4 Y79.96 F3000.0
G01 X27.46 Y79.98 F3000.0
G01 X27.55 Y79.97 F3000.0
G01 X27.65 Y80.39 F3000.0
G01 X27.58 Y80.71 F3000.0
G01 X27.13 Y80.31 F3000.0
G01 X26.74 Y79.47 F3000.0
G01 X26.86 Y79.61 F3000.0
G01 F3000.0
M5
G00 X27.19 Y80.85 F3000.0
M3 F3000.0
G01 X27.33 Y81.7 F3000.0
G01 X27.02 Y81.24 F3000.0
G01 X26.59 Y80.61 F3000.0
G01 X26.4 Y80.25 F3000.0
G01 X26.68 Y80.28 F3000.0
G01 X27.19 Y80.85 F3000.0
G01 F3000.0
M5
G00 X27.55 Y81.84 F3000.0
M3 F3000.0
G01 X27.45 Y81.95 F3000.0
G01 X27.47 Y81.8 F3000.0
G01 X27.55 Y81.84 F3000.0
G01 F3000.0
M5
G00 X26.34 Y82.87 F3000.0
M3 F3000.0
G01 X26.46 Y83.08 F3000.0
G01 X27.05 Y84.18 F3000.0
G01 X27.04 Y84.61 F3000.0
G01 X27.05 Y84.9 F3000.0
G01 X27.06 Y85.52 F3000.0
G01 X27.05 Y86.04 F3000.0
G01 X26.98 Y85.87 F3000.0
G01 X26.57 Y84.75 F3000.0
G01 X26.56 Y84.7 F3000.0
G01 X26.25 Y83.75 F3000.0
G01 X25.93 Y82.8 F3000.0
G01 X25.6 Y81.79 F3000.0
G01 X25.69 Y81.92 F3000.0
G01 X26.34 Y82.87 F3000.0
G01 F3000.0
M5
G00 X25.14 Y78.93 F3000.0
M3 F3000.0
G01 X25.42 Y79.02 F3000.0
G01 X25.65 Y78.93 F3000.0
G01 X25.37 Y78.83 F3000.0
G01 X25.14 Y78.93 F3000.0
G01 F3000.0
M5
G00 X29.45 Y75.97 F3000.0
M3 F3000.0
G01 X29.25 Y76.26 F3000.0
G01 X29.54 Y76.1 F3000.0
G01 X29.45 Y75.97 F3000.0
G01 F3000.0
M5
G00 X30.12 Y76.04 F3000.0
M3 F3000.0
G01 X30.16 Y76.08 F3000.0
G01 X30.32 Y75.91 F3000.0
G01 X30.12 Y76.04 F3000.0
G01 F3000.0
M5
G00 X31.59 Y76.95 F3000.0
M3 F3000.0
G01 X31.52 Y77.5 F3000.0
G01 X31.62 Y77.66 F3000.0
G01 X31.8 Y77.44 F3000.0
G01 X31.98 Y77.26 F3000.0
G01 X31.59 Y76.95 F3000.0
G01 F3000.0
M5
G00 X32.31 Y77.5 F3000.0
M3 F3000.0
G01 X32.15 Y77.61 F3000.0
G01 X31.88 Y77.8 F3000.0
G01 X31.91 Y78.0 F3000.0
G01 X32.14 Y77.78 F3000.0
G01 X32.19 Y78.12 F3000.0
G01 X32.26 Y78.35 F3000.0
G01 X32.3 Y78.27 F3000.0
G01 X32.31 Y78.14 F3000.0
G01 X32.33 Y78.48 F3000.0
G01 X32.55 Y78.69 F3000.0
G01 X32.65 Y78.26 F3000.0
G01 X32.61 Y78.04 F3000.0
G01 X32.47 Y77.58 F3000.0
G01 X32.31 Y77.5 F3000.0
G01 F3000.0
M5
G00 X33.47 Y76.79 F3000.0
M3 F3000.0
G01 X33.29 Y76.8 F3000.0
G01 X33.35 Y76.74 F3000.0
G01 X33.47 Y76.79 F3000.0
G01 F3000.0
M5
G00 X33.36 Y75.06 F3000.0
M3 F3000.0
G01 X33.41 Y75.17 F3000.0
G01 X33.86 Y76.19 F3000.0
G01 X33.96 Y76.21 F3000.0
G01 X33.99 Y76.31 F3000.0
G01 X34.04 Y76.41 F3000.0
G01 X34.1 Y76.47 F3000.0
G01 X34.33 Y77.3 F3000.0
G01 X34.47 Y78.16 F3000.0
G01 X34.38 Y78.43 F3000.0
G01 X34.6 Y78.64 F3000.0
G01 X34.86 Y78.53 F3000.0
G01 X35.01 Y78.69 F3000.0
G01 X35.25 Y79.33 F3000.0
G01 X35.42 Y80.05 F3000.0
G01 X34.81 Y79.74 F3000.0
G01 X34.01 Y79.58 F3000.0
G01 X33.78 Y79.75 F3000.0
G01 X33.65 Y79.67 F3000.0
G01 X33.46 Y79.6 F3000.0
G01 X32.94 Y80.06 F3000.0
G01 X32.67 Y80.58 F3000.0
G01 X32.93 Y80.41 F3000.0
G01 X33.28 Y80.2 F3000.0
G01 X33.22 Y80.27 F3000.0
G01 X33.15 Y80.46 F3000.0
G01 X33.1 Y80.65 F3000.0
G01 X33.05 Y80.84 F3000.0
G01 X33.01 Y81.03 F3000.0
G01 X32.96 Y81.22 F3000.0
G01 X32.91 Y81.41 F3000.0
G01 X32.87 Y81.55 F3000.0
G01 X32.83 Y81.7 F3000.0
G01 X32.38 Y80.93 F3000.0
G01 X32.25 Y80.73 F3000.0
G01 X31.6 Y79.67 F3000.0
G01 X31.22 Y79.12 F3000.0
G01 X31.36 Y79.24 F3000.0
G01 X31.72 Y79.21 F3000.0
G01 X31.64 Y79.02 F3000.0
G01 X31.6 Y78.83 F3000.0
G01 X31.5 Y78.41 F3000.0
G01 X31.12 Y78.29 F3000.0
G01 X30.88 Y78.53 F3000.0
G01 X30.95 Y78.61 F3000.0
G01 X31.14 Y78.69 F3000.0
G01 Y78.89 F3000.0
G01 X30.81 Y78.19 F3000.0
G01 X30.97 Y78.14 F3000.0
G01 X31.0 Y78.11 F3000.0
G01 X30.88 Y77.95 F3000.0
G01 X30.55 Y77.4 F3000.0
G01 X30.23 Y76.79 F3000.0
G01 X30.13 Y76.64 F3000.0
G01 X30.04 Y76.49 F3000.0
G01 X29.9 Y76.35 F3000.0
G01 X29.78 Y76.46 F3000.0
G01 X29.63 Y76.59 F3000.0
G01 X29.86 Y76.2 F3000.0
G01 X30.3 Y75.82 F3000.0
G01 X30.65 Y75.59 F3000.0
G01 X30.76 Y75.38 F3000.0
G01 X30.84 Y75.37 F3000.0
G01 X31.23 Y75.25 F3000.0
G01 X31.65 Y75.16 F3000.0
G01 X32.09 F3000.0
G01 X32.0 Y75.01 F3000.0
G01 X31.96 Y74.91 F3000.0
G01 X31.9 Y74.67 F3000.0
G01 X31.82 Y74.53 F3000.0
G01 X32.15 Y74.65 F3000.0
G01 X32.3 Y74.93 F3000.0
G01 X32.63 Y75.09 F3000.0
G01 X33.06 Y75.64 F3000.0
G01 X33.52 Y76.44 F3000.0
G01 X33.58 Y76.67 F3000.0
G01 X33.28 Y76.59 F3000.0
G01 X33.17 Y76.53 F3000.0
G01 X33.1 Y76.44 F3000.0
G01 X33.12 Y76.35 F3000.0
G01 X33.16 Y76.26 F3000.0
G01 X32.88 Y76.41 F3000.0
G01 X32.81 Y76.5 F3000.0
G01 X32.97 Y76.59 F3000.0
G01 X32.82 Y76.69 F3000.0
G01 X32.78 Y76.77 F3000.0
G01 X32.9 Y77.13 F3000.0
G01 X32.89 Y77.24 F3000.0
G01 X33.12 Y77.18 F3000.0
G01 X33.31 Y77.12 F3000.0
G01 X33.21 Y77.07 F3000.0
G01 X33.12 Y77.02 F3000.0
G01 X33.26 Y76.92 F3000.0
G01 X33.4 Y77.05 F3000.0
G01 X33.26 Y77.31 F3000.0
G01 X33.25 Y77.59 F3000.0
G01 X33.33 Y77.83 F3000.0
G01 X33.72 Y77.94 F3000.0
G01 Y77.47 F3000.0
G01 X33.66 Y77.15 F3000.0
G01 X33.7 Y76.81 F3000.0
G01 X33.89 Y77.22 F3000.0
G01 X34.12 Y77.52 F3000.0
G01 X34.09 Y77.43 F3000.0
G01 X33.69 Y76.42 F3000.0
G01 X33.65 Y76.33 F3000.0
G01 X33.21 Y75.32 F3000.0
G01 X32.98 Y75.09 F3000.0
G01 X32.85 Y74.77 F3000.0
G01 X32.89 Y74.45 F3000.0
G01 X33.36 Y75.06 F3000.0
G01 F3000.0
M5
G00 X33.72 Y74.83 F3000.0
M3 F3000.0
G01 X33.5 Y74.65 F3000.0
G01 X33.12 Y74.2 F3000.0
G01 X33.09 Y74.09 F3000.0
G01 X33.06 Y73.99 F3000.0
G01 X32.98 Y73.76 F3000.0
G01 X33.12 Y73.39 F3000.0
G01 X33.46 Y73.91 F3000.0
G01 X33.72 Y74.83 F3000.0
G01 F3000.0
M5
G00 X34.82 Y74.89 F3000.0
M3 F3000.0
G01 X34.58 Y75.34 F3000.0
G01 X34.74 Y75.71 F3000.0
G01 X34.76 F3000.0
G01 X35.78 Y75.59 F3000.0
G01 X35.83 Y75.2 F3000.0
G01 X35.49 Y74.97 F3000.0
G01 X34.82 Y74.89 F3000.0
G01 F3000.0
M5
G00 X34.89 Y75.54 F3000.0
M3 F3000.0
G01 X34.8 Y75.49 F3000.0
G01 X34.72 Y75.2 F3000.0
G01 X34.89 Y75.54 F3000.0
G01 F3000.0
M5
G00 X35.35 Y75.5 F3000.0
M3 F3000.0
G01 X34.99 Y75.39 F3000.0
G01 X35.13 Y75.36 F3000.0
G01 X35.27 Y75.3 F3000.0
G01 X35.42 Y75.31 F3000.0
G01 X35.35 Y75.5 F3000.0
G01 F3000.0
M5
G00 X37.39 Y76.52 F3000.0
M3 F3000.0
G01 X37.35 Y76.3 F3000.0
G01 X37.39 Y76.04 F3000.0
G01 Y76.52 F3000.0
G01 F3000.0
M5
G00 X38.91 Y75.11 F3000.0
M3 F3000.0
G01 X38.87 Y75.2 F3000.0
G01 X38.77 Y75.11 F3000.0
G01 X38.81 Y75.01 F3000.0
G01 X38.91 Y75.11 F3000.0
G01 F3000.0
M5
G00 X38.91 Y74.72 F3000.0
M3 F3000.0
G01 X38.82 Y74.87 F3000.0
G01 X38.72 Y74.78 F3000.0
G01 X38.82 Y74.63 F3000.0
G01 X38.91 Y74.72 F3000.0
G01 F3000.0
M5
G00 X38.76 Y74.51 F3000.0
M3 F3000.0
G01 X38.71 Y75.33 F3000.0
G01 X39.39 Y75.49 F3000.0
G01 X39.94 Y75.3 F3000.0
G01 X39.8 Y75.05 F3000.0
G01 X39.58 Y74.72 F3000.0
G01 X39.17 Y74.44 F3000.0
G01 X38.76 Y74.51 F3000.0
G01 F3000.0
M5
G00 X39.31 Y74.69 F3000.0
M3 F3000.0
G01 X39.07 F3000.0
G01 X39.19 Y74.65 F3000.0
G01 X39.31 Y74.69 F3000.0
G01 F3000.0
M5
G00 X39.56 Y75.2 F3000.0
M3 F3000.0
G01 X39.4 Y75.29 F3000.0
G01 X39.05 Y75.2 F3000.0
G01 X39.56 F3000.0
G01 F3000.0
M5
G00 X41.01 Y75.4 F3000.0
M3 F3000.0
G01 X40.99 Y75.55 F3000.0
G01 X41.09 Y75.45 F3000.0
G01 X41.01 Y75.4 F3000.0
G01 F3000.0
M5
G00 X41.97 Y75.74 F3000.0
M3 F3000.0
G01 X41.79 Y75.75 F3000.0
G01 X41.84 Y75.69 F3000.0
G01 X41.97 Y75.74 F3000.0
G01 F3000.0
M5
G00 X42.66 Y75.42 F3000.0
M3 F3000.0
G01 X42.55 Y75.43 F3000.0
G01 X42.72 Y75.25 F3000.0
G01 X42.66 Y75.42 F3000.0
G01 F3000.0
M5
G00 X42.94 Y75.13 F3000.0
M3 F3000.0
G01 X42.88 Y75.08 F3000.0
G01 X43.0 Y74.96 F3000.0
G01 X42.94 Y75.13 F3000.0
G01 F3000.0
M5
G00 X43.53 Y74.44 F3000.0
M3 F3000.0
G01 X43.36 Y74.53 F3000.0
G01 X43.39 Y74.44 F3000.0
G01 X43.53 F3000.0
G01 F3000.0
M5
G00 X44.14 Y74.69 F3000.0
M3 F3000.0
G01 X43.92 Y74.74 F3000.0
G01 X44.0 Y74.66 F3000.0
G01 X44.14 Y74.69 F3000.0
G01 F3000.0
M5
G00 X44.76 Y75.17 F3000.0
M3 F3000.0
G01 X44.64 Y75.19 F3000.0
G01 X44.51 Y75.06 F3000.0
G01 X44.64 Y75.05 F3000.0
G01 X44.76 Y75.17 F3000.0
G01 F3000.0
M5
G00 X44.96 Y74.69 F3000.0
M3 F3000.0
G01 X44.51 Y74.63 F3000.0
G01 X45.01 Y74.52 F3000.0
G01 X44.96 Y74.69 F3000.0
G01 F3000.0
M5
G00 X45.65 Y74.69 F3000.0
M3 F3000.0
G01 X45.47 F3000.0
G01 X45.59 Y74.38 F3000.0
G01 X45.65 Y74.69 F3000.0
G01 F3000.0
M5
G00 X45.5 Y75.46 F3000.0
M3 F3000.0
G01 X45.31 Y75.37 F3000.0
G01 X45.13 Y75.27 F3000.0
G01 Y75.17 F3000.0
G01 X45.38 Y75.19 F3000.0
G01 X45.5 Y75.46 F3000.0
G01 F3000.0
M5
G00 X45.7 Y75.51 F3000.0
M3 F3000.0
G01 X45.64 Y75.45 F3000.0
G01 X45.69 Y75.33 F3000.0
G01 X45.7 Y75.51 F3000.0
G01 F3000.0
M5
G00 X45.98 Y75.74 F3000.0
M3 F3000.0
G01 X45.8 Y75.75 F3000.0
G01 X45.86 Y75.69 F3000.0
G01 X45.98 Y75.74 F3000.0
G01 F3000.0
M5
G00 X46.43 Y76.64 F3000.0
M3 F3000.0
G01 X46.29 Y76.69 F3000.0
G01 X46.27 Y76.54 F3000.0
G01 X46.43 Y76.64 F3000.0
G01 F3000.0
M5
G00 X46.96 Y76.38 F3000.0
M3 F3000.0
G01 X47.13 Y76.62 F3000.0
G01 X46.74 Y76.55 F3000.0
G01 X46.47 Y76.33 F3000.0
G01 X46.42 Y76.18 F3000.0
G01 X46.96 Y76.38 F3000.0
G01 F3000.0
M5
G00 X47.23 Y76.95 F3000.0
M3 F3000.0
G01 X47.18 Y76.89 F3000.0
G01 X47.3 Y76.78 F3000.0
G01 X47.23 Y76.95 F3000.0
G01 F3000.0
M5
G00 X47.98 Y77.27 F3000.0
M3 F3000.0
G01 X47.9 Y77.32 F3000.0
G01 X47.77 Y77.11 F3000.0
G01 X47.98 Y77.27 F3000.0
G01 F3000.0
M5
G00 X48.43 Y77.4 F3000.0
M3 F3000.0
G01 X48.62 Y77.5 F3000.0
G01 X48.87 Y77.64 F3000.0
G01 X49.1 Y77.78 F3000.0
G01 X49.27 Y77.82 F3000.0
G01 X49.33 Y78.01 F3000.0
G01 X48.9 Y77.97 F3000.0
G01 X48.32 Y77.77 F3000.0
G01 X48.24 Y77.46 F3000.0
G01 X48.13 Y77.23 F3000.0
G01 X48.22 Y77.2 F3000.0
G01 X48.43 Y77.4 F3000.0
G01 F3000.0
M5
G00 X50.11 Y78.4 F3000.0
M3 F3000.0
G01 X50.36 Y78.55 F3000.0
G01 X50.49 Y78.64 F3000.0
G01 X50.59 Y78.74 F3000.0
G01 X50.83 Y78.88 F3000.0
G01 X50.49 F3000.0
G01 X50.16 Y78.81 F3000.0
G01 X50.15 Y78.76 F3000.0
G01 X49.72 Y78.63 F3000.0
G01 X49.76 Y78.45 F3000.0
G01 X50.12 Y78.4 F3000.0
G01 X50.11 F3000.0
M5
G00 X51.42 Y79.15 F3000.0
M3 F3000.0
G01 X51.1 Y79.05 F3000.0
G01 X51.24 Y79.03 F3000.0
G01 X51.42 Y79.15 F3000.0
G01 F3000.0
M5
G00 X52.06 Y79.47 F3000.0
M3 F3000.0
G01 X52.04 Y79.6 F3000.0
G01 X51.61 Y79.35 F3000.0
G01 X52.06 Y79.47 F3000.0
G01 F3000.0
M5
G00 X52.68 Y79.72 F3000.0
M3 F3000.0
G01 X52.61 Y79.78 F3000.0
G01 X52.41 Y79.91 F3000.0
G01 X52.33 Y79.9 F3000.0
G01 X52.23 Y79.64 F3000.0
G01 X52.39 Y79.58 F3000.0
G01 X52.68 Y79.72 F3000.0
G01 F3000.0
M5
G00 X53.45 Y80. F3000.0
M3 F3000.0
G01 X53.39 Y79.94 F3000.0
G01 X53.44 Y79.81 F3000.0
G01 X53.45 Y80.0 F3000.0
G01 F3000.0
M5
G00 X53.82 Y79.38 F3000.0
M3 F3000.0
G01 X53.78 Y79.21 F3000.0
G01 X53.82 Y79.05 F3000.0
G01 Y79.38 F3000.0
G01 F3000.0
M5
G00 X53.29 Y79.09 F3000.0
M3 F3000.0
G01 X53.23 Y79.02 F3000.0
G01 X53.3 Y78.64 F3000.0
G01 X53.35 Y78.71 F3000.0
G01 X53.29 Y79.09 F3000.0
G01 F3000.0
M5
G00 X52.13 Y77.3 F3000.0
M3 F3000.0
G01 X52.27 Y77.69 F3000.0
G01 X52.35 Y77.58 F3000.0
G01 X52.45 Y77.54 F3000.0
G01 X52.54 Y77.41 F3000.0
G01 X52.13 Y77.3 F3000.0
G01 F3000.0
M5
G00 X51.85 Y76.48 F3000.0
M3 F3000.0
G01 X52.21 Y76.63 F3000.0
G01 X52.45 Y76.69 F3000.0
G01 X52.52 Y76.75 F3000.0
G01 X52.66 Y76.86 F3000.0
G01 X52.8 Y76.91 F3000.0
G01 X53.1 Y77.71 F3000.0
G01 X53.12 Y78.36 F3000.0
G01 X53.02 Y78.67 F3000.0
G01 X52.94 Y79.28 F3000.0
G01 X52.6 Y79.45 F3000.0
G01 X52.28 Y79.36 F3000.0
G01 X52.06 Y79.25 F3000.0
G01 X51.89 Y79.14 F3000.0
G01 X51.63 Y78.94 F3000.0
G01 X50.98 Y78.61 F3000.0
G01 X50.58 Y78.45 F3000.0
G01 X50.4 Y78.36 F3000.0
G01 X50.21 Y78.26 F3000.0
G01 X50.06 Y78.16 F3000.0
G01 X50.2 Y77.76 F3000.0
G01 X50.4 Y77.26 F3000.0
G01 X50.51 Y76.77 F3000.0
G01 X51.25 Y76.26 F3000.0
G01 X51.85 Y76.48 F3000.0
G01 F3000.0
M5
G00 X51.66 Y76.23 F3000.0
M3 F3000.0
G01 X51.33 Y76.05 F3000.0
G01 X51.51 Y76.08 F3000.0
G01 X51.66 Y76.23 F3000.0
G01 F3000.0
M5
G00 X50.56 Y75.82 F3000.0
M3 F3000.0
G01 X50.4 Y75.87 F3000.0
G01 X50.74 Y75.4 F3000.0
G01 X50.56 Y75.82 F3000.0
G01 F3000.0
M5
G00 X51.23 Y74.46 F3000.0
M3 F3000.0
G01 X50.76 Y75.18 F3000.0
G01 X51.0 Y74.22 F3000.0
G01 X51.47 Y73.58 F3000.0
G01 X51.23 Y74.46 F3000.0
G01 F3000.0
M5
G00 X52.08 Y74.18 F3000.0
M3 F3000.0
G01 X51.89 Y74.61 F3000.0
G01 X51.7 Y75.11 F3000.0
G01 X51.61 Y75.16 F3000.0
G01 X51.58 Y75.26 F3000.0
G01 X51.52 Y75.35 F3000.0
G01 X51.45 Y75.37 F3000.0
G01 X51.34 Y75.78 F3000.0
G01 X51.16 Y75.69 F3000.0
G01 X51.31 Y75.37 F3000.0
G01 X51.91 Y74.15 F3000.0
G01 X52.08 Y74.18 F3000.0
G01 F3000.0
M5
G00 X52.74 Y74.64 F3000.0
M3 F3000.0
G01 Y74.65 F3000.0
G01 X53.05 Y75.61 F3000.0
G01 Y75.62 F3000.0
G01 X53.17 Y76.63 F3000.0
G01 X53.23 Y76.86 F3000.0
G01 X52.91 Y76.65 F3000.0
G01 X52.1 Y76.18 F3000.0
G01 X51.61 Y75.85 F3000.0
G01 X51.93 Y75.05 F3000.0
G01 X52.38 Y74.4 F3000.0
G01 X52.74 Y74.64 F3000.0
G01 F3000.0
M5
G00 X54.04 Y75.31 F3000.0
M3 F3000.0
G01 X53.96 Y75.01 F3000.0
G01 X54.04 Y74.59 F3000.0
G01 X54.05 Y75.31 F3000.0
G01 X54.04 F3000.0
M5
G00 X55.5 Y74.94 F3000.0
M3 F3000.0
G01 X55.44 Y74.88 F3000.0
G01 X55.49 Y74.75 F3000.0
G01 X55.5 Y74.94 F3000.0
G01 F3000.0
M5
G00 X55.69 Y74.13 F3000.0
M3 F3000.0
G01 X55.65 Y73.96 F3000.0
G01 X55.69 Y73.8 F3000.0
G01 Y74.13 F3000.0
G01 F3000.0
M5
G00 X56.02 Y74.16 F3000.0
M3 F3000.0
G01 X55.93 Y74.31 F3000.0
G01 X56.03 Y73.96 F3000.0
G01 X56.02 Y74.16 F3000.0
G01 F3000.0
M5
G00 X55.69 Y73.32 F3000.0
M3 F3000.0
G01 X55.64 Y73.2 F3000.0
G01 X55.69 Y73.08 F3000.0
G01 Y73.32 F3000.0
G01 F3000.0
M5
G00 X54.25 Y73.04 F3000.0
M3 F3000.0
G01 X54.41 Y73.77 F3000.0
G01 X54.22 Y74.26 F3000.0
G01 X54.04 Y73.86 F3000.0
G01 X53.9 Y73.06 F3000.0
G01 X53.92 Y72.9 F3000.0
G01 X54.25 Y73.04 F3000.0
G01 F3000.0
M5
G00 X53.67 Y72.02 F3000.0
M3 F3000.0
G01 X53.66 Y72.08 F3000.0
G01 X53.42 Y72.13 F3000.0
G01 X53.45 Y72.55 F3000.0
G01 X53.65 Y75.55 F3000.0
G01 X53.74 Y76.97 F3000.0
G01 Y77.0 F3000.0
G01 X53.73 Y78.02 F3000.0
G01 X53.66 Y77.26 F3000.0
G01 X53.63 Y76.89 F3000.0
G01 X53.55 Y75.9 F3000.0
G01 X53.44 Y74.54 F3000.0
G01 X53.42 Y74.32 F3000.0
G01 X53.33 Y73.33 F3000.0
G01 X53.23 Y72.12 F3000.0
G01 X53.36 Y71.75 F3000.0
G01 X53.67 Y72.02 F3000.0
G01 F3000.0
M5
G00 X52.63 Y70.57 F3000.0
M3 F3000.0
G01 X52.66 Y70.9 F3000.0
G01 X52.75 Y71.9 F3000.0
G01 X52.85 Y72.89 F3000.0
G01 X52.98 Y74.22 F3000.0
G01 X52.94 Y74.2 F3000.0
G01 X52.08 Y73.61 F3000.0
G01 X51.75 Y73.27 F3000.0
G01 X51.74 Y73.23 F3000.0
G01 X51.56 Y72.22 F3000.0
G01 X51.6 Y72.04 F3000.0
G01 X51.83 Y71.07 F3000.0
G01 X52.07 Y70.1 F3000.0
G01 X52.34 Y68.95 F3000.0
G01 X52.46 Y69.43 F3000.0
G01 X52.48 Y69.5 F3000.0
G01 X52.63 Y70.57 F3000.0
G01 F3000.0
M5
G00 X53.34 Y69.71 F3000.0
M3 F3000.0
G01 X53.91 Y70.35 F3000.0
G01 X54.39 Y70.81 F3000.0
G01 X53.94 Y70.47 F3000.0
G01 X53.23 Y70.6 F3000.0
G01 X53.02 Y70.86 F3000.0
G01 X53.01 Y70.57 F3000.0
G01 X52.91 Y69.95 F3000.0
G01 X52.77 Y69.05 F3000.0
G01 X52.9 Y68.37 F3000.0
G01 X53.12 Y68.81 F3000.0
G01 X53.34 Y69.71 F3000.0
G01 F3000.0
M5
G00 X51.85 Y69.06 F3000.0
M3 F3000.0
G01 X51.78 Y69.37 F3000.0
G01 X51.46 Y70.64 F3000.0
G01 X51.36 Y71.0 F3000.0
G01 X51.07 Y70.85 F3000.0
G01 X50.81 Y70.69 F3000.0
G01 X51.08 Y70.92 F3000.0
G01 X51.34 Y71.15 F3000.0
G01 X51.17 Y72.02 F3000.0
G01 X51.01 Y72.89 F3000.0
G01 X50.18 Y72.47 F3000.0
G01 X49.26 Y72.11 F3000.0
G01 X49.23 Y72.05 F3000.0
G01 X49.15 Y71.99 F3000.0
G01 X49.04 Y71.96 F3000.0
G01 X48.56 Y71.71 F3000.0
G01 X48.48 Y71.68 F3000.0
G01 X48.19 Y71.48 F3000.0
G01 X47.96 Y71.26 F3000.0
G01 X47.95 Y71.06 F3000.0
G01 X47.91 Y71.02 F3000.0
G01 X47.92 Y71.03 F3000.0
G01 X48.92 Y71.25 F3000.0
G01 X48.93 F3000.0
G01 X49.9 Y71.54 F3000.0
G01 X49.21 Y71.19 F3000.0
G01 X48.4 Y70.81 F3000.0
G01 X48.57 Y70.63 F3000.0
G01 X49.26 Y69.91 F3000.0
G01 X50.13 Y69.01 F3000.0
G01 X50.28 Y68.92 F3000.0
G01 X51.14 Y68.4 F3000.0
G01 X52.15 Y67.8 F3000.0
G01 X52.11 Y67.94 F3000.0
G01 X51.85 Y69.06 F3000.0
G01 F3000.0
M5
G00 X51.08 Y67.83 F3000.0
M3 F3000.0
G01 X50.79 Y68.13 F3000.0
G01 X50.52 Y68.19 F3000.0
G01 X50.58 Y67.89 F3000.0
G01 X51.08 Y67.83 F3000.0
G01 F3000.0
M5
G00 X51.8 Y67.47 F3000.0
M3 F3000.0
G01 X51.48 Y67.52 F3000.0
G01 X51.73 Y67.29 F3000.0
G01 X51.8 Y67.47 F3000.0
G01 F3000.0
M5
G00 X52.45 Y67.31 F3000.0
M3 F3000.0
G01 X52.15 Y67.52 F3000.0
G01 X52.08 Y67.51 F3000.0
G01 X52.49 Y67.19 F3000.0
G01 X52.45 Y67.31 F3000.0
G01 F3000.0
M5
G00 X52.52 Y66.58 F3000.0
M3 F3000.0
G01 X52.01 F3000.0
G01 X52.26 Y66.54 F3000.0
G01 X52.52 Y66.58 F3000.0
G01 F3000.0
M5
G00 X52.12 Y66.37 F3000.0
M3 F3000.0
G01 X51.39 Y66.4 F3000.0
G01 X51.82 Y66.33 F3000.0
G01 X52.12 Y66.37 F3000.0
G01 F3000.0
M5
G00 X52.28 Y65.62 F3000.0
M3 F3000.0
G01 X52.05 F3000.0
G01 X52.17 Y65.58 F3000.0
G01 X52.28 Y65.62 F3000.0
G01 F3000.0
M5
G00 X52.01 Y65.14 F3000.0
M3 F3000.0
G01 X51.73 Y65.15 F3000.0
G01 X51.84 Y65.1 F3000.0
G01 X52.01 Y65.14 F3000.0
G01 F3000.0
M5
G00 X51.73 Y65.53 F3000.0
M3 F3000.0
G01 X51.45 F3000.0
G01 X51.56 Y65.48 F3000.0
G01 X51.73 Y65.53 F3000.0
G01 F3000.0
M5
G00 X51.26 Y65.24 F3000.0
M3 F3000.0
G01 X50.98 F3000.0
G01 X51.09 Y65.2 F3000.0
G01 X51.26 Y65.24 F3000.0
G01 F3000.0
M5
G00 X51.26 Y65.05 F3000.0
M3 F3000.0
G01 X51.02 F3000.0
G01 X51.14 Y65.0 F3000.0
G01 X51.26 Y65.05 F3000.0
G01 F3000.0
M5
G00 X51.02 Y65.43 F3000.0
M3 F3000.0
G01 X50.84 F3000.0
G01 X50.9 Y65.38 F3000.0
G01 X51.02 Y65.43 F3000.0
G01 F3000.0
M5
G00 X50.84 Y66.3 F3000.0
M3 F3000.0
G01 X50.33 F3000.0
G01 X50.58 Y66.26 F3000.0
G01 X50.84 Y66.3 F3000.0
G01 F3000.0
M5
G00 X50.98 Y66.49 F3000.0
M3 F3000.0
G01 X50.51 F3000.0
G01 X50.72 Y66.45 F3000.0
G01 X50.98 Y66.49 F3000.0
G01 F3000.0
M5
G00 X50.01 Y66.17 F3000.0
M3 F3000.0
G01 X49.41 Y66.26 F3000.0
G01 X49.13 Y66.23 F3000.0
G01 X50.01 Y66.17 F3000.0
G01 F3000.0
M5
G00 X49.95 Y66.39 F3000.0
M3 F3000.0
G01 X49.67 F3000.0
G01 X49.79 Y66.34 F3000.0
G01 X49.95 Y66.39 F3000.0
G01 F3000.0
M5
G00 X49.11 Y66.1 F3000.0
M3 F3000.0
G01 X48.88 F3000.0
G01 X48.99 Y66.05 F3000.0
G01 X49.11 Y66.1 F3000.0
G01 F3000.0
M5
G00 X48.64 Y66.2 F3000.0
M3 F3000.0
G01 X48.41 F3000.0
G01 X48.53 Y66.15 F3000.0
G01 X48.64 Y66.2 F3000.0
G01 F3000.0
M5
G00 X48.43 Y66.04 F3000.0
M3 F3000.0
G01 X48.01 Y66.11 F3000.0
G01 X48.06 Y66.04 F3000.0
G01 X48.48 Y65.96 F3000.0
G01 X48.43 Y66.04 F3000.0
G01 F3000.0
M5
G00 X47.87 Y65.94 F3000.0
M3 F3000.0
G01 X47.36 Y66.02 F3000.0
G01 X47.41 Y65.94 F3000.0
G01 X47.87 F3000.0
G01 F3000.0
M5
G00 X46.89 Y65.65 F3000.0
M3 F3000.0
G01 X47.4 Y65.84 F3000.0
G01 X46.84 Y65.9 F3000.0
G01 X46.7 Y65.86 F3000.0
G01 X46.55 Y65.72 F3000.0
G01 X46.05 F3000.0
G01 X45.95 Y65.67 F3000.0
G01 X45.76 Y65.61 F3000.0
G01 X45.63 Y65.57 F3000.0
G01 X45.76 Y65.58 F3000.0
G01 X46.89 Y65.65 F3000.0
G01 F3000.0
M5
G00 X45.65 Y65.81 F3000.0
M3 F3000.0
G01 X45.9 Y65.84 F3000.0
G01 X47.88 Y66.12 F3000.0
G01 X48.87 Y66.26 F3000.0
G01 X50.84 Y66.54 F3000.0
G01 X52.08 Y66.72 F3000.0
G01 X52.68 F3000.0
G01 X52.08 Y66.89 F3000.0
G01 X52.05 Y66.91 F3000.0
G01 X50.31 Y67.88 F3000.0
G01 X49.44 Y68.37 F3000.0
G01 X48.56 Y68.86 F3000.0
G01 X47.67 Y69.36 F3000.0
G01 X47.19 Y69.99 F3000.0
G01 X47.17 Y70.02 F3000.0
G01 X46.8 Y70.23 F3000.0
G01 X46.52 Y70.52 F3000.0
G01 X45.73 Y70.19 F3000.0
G01 X44.77 Y69.89 F3000.0
G01 X44.66 Y69.84 F3000.0
G01 X44.51 Y69.81 F3000.0
G01 X44.36 Y69.79 F3000.0
G01 X43.86 Y69.54 F3000.0
G01 X43.31 Y69.38 F3000.0
G01 X43.44 Y68.94 F3000.0
G01 X44.1 Y68.46 F3000.0
G01 X44.91 Y68.64 F3000.0
G01 X45.36 Y67.94 F3000.0
G01 X45.69 Y67.12 F3000.0
G01 X45.31 Y67.7 F3000.0
G01 X44.88 Y68.38 F3000.0
G01 X44.81 Y68.36 F3000.0
G01 X43.77 Y68.1 F3000.0
G01 X43.84 Y67.9 F3000.0
G01 X44.19 Y66.96 F3000.0
G01 X44.62 Y65.83 F3000.0
G01 X44.63 F3000.0
G01 X45.65 Y65.81 F3000.0
G01 F3000.0
M5
G00 X45.49 Y65.47 F3000.0
M3 F3000.0
G01 X45.23 Y65.55 F3000.0
G01 X45.21 Y65.47 F3000.0
G01 X45.49 F3000.0
G01 F3000.0
M5
G00 X48.67 Y68.1 F3000.0
M3 F3000.0
G01 X48.32 Y68.39 F3000.0
G01 X47.18 Y69.31 F3000.0
G01 X46.62 Y69.91 F3000.0
G01 X47.37 Y69.31 F3000.0
G01 X47.66 Y69.1 F3000.0
G01 X48.75 Y68.29 F3000.0
G01 X49.55 Y67.7 F3000.0
G01 X48.67 Y68.1 F3000.0
G01 F3000.0
M5
G00 X48.25 Y69.03 F3000.0
M3 F3000.0
G01 X48.04 Y69.25 F3000.0
G01 X47.83 Y69.43 F3000.0
G01 X48.01 Y69.21 F3000.0
G01 X48.25 Y69.03 F3000.0
G01 F3000.0
M5
G00 X48.97 Y69.14 F3000.0
M3 F3000.0
G01 X48.91 Y69.2 F3000.0
G01 X48.15 Y69.95 F3000.0
G01 X47.65 Y69.87 F3000.0
G01 X47.92 Y69.63 F3000.0
G01 X48.94 Y68.71 F3000.0
G01 X48.97 Y69.14 F3000.0
G01 F3000.0
M5
G00 X49.82 Y68.73 F3000.0
M3 F3000.0
G01 X49.52 Y69.08 F3000.0
G01 X49.09 Y69.39 F3000.0
G01 Y69.02 F3000.0
G01 X49.45 Y68.62 F3000.0
G01 X49.82 Y68.73 F3000.0
G01 F3000.0
M5
G00 X50.35 Y68.22 F3000.0
M3 F3000.0
G01 X50.21 Y68.56 F3000.0
G01 X49.7 Y68.47 F3000.0
G01 X49.49 Y68.31 F3000.0
G01 X49.6 Y68.13 F3000.0
G01 X49.7 Y68.11 F3000.0
G01 X49.79 Y68.04 F3000.0
G01 X49.81 Y67.98 F3000.0
G01 X50.16 Y67.84 F3000.0
G01 X50.23 Y67.81 F3000.0
G01 X50.35 Y68.22 F3000.0
G01 F3000.0
M5
G00 X48.32 Y70.19 F3000.0
M3 F3000.0
G01 X47.84 Y70.84 F3000.0
G01 X47.33 Y71.48 F3000.0
G01 X47.3 Y70.85 F3000.0
G01 X47.35 Y70.14 F3000.0
G01 X48.32 Y70.19 F3000.0
G01 F3000.0
M5
G00 X47.12 Y71.12 F3000.0
M3 F3000.0
G01 X46.74 Y71.2 F3000.0
G01 X46.64 Y70.89 F3000.0
G01 X46.68 Y70.67 F3000.0
G01 X46.72 Y70.66 F3000.0
G01 X46.9 Y70.61 F3000.0
G01 X47.12 Y71.12 F3000.0
G01 F3000.0
M5
G00 X46.01 Y71.18 F3000.0
M3 F3000.0
G01 X45.99 Y71.2 F3000.0
G01 X45.38 Y72.03 F3000.0
G01 X44.87 Y72.53 F3000.0
G01 X44.7 Y72.44 F3000.0
G01 X44.78 Y72.35 F3000.0
G01 X45.45 Y71.61 F3000.0
G01 X46.21 Y70.78 F3000.0
G01 X46.01 Y71.18 F3000.0
G01 F3000.0
M5
G00 X46.1 Y71.87 F3000.0
M3 F3000.0
G01 X45.96 Y71.96 F3000.0
G01 X45.88 Y71.81 F3000.0
G01 X46.1 Y71.87 F3000.0
G01 F3000.0
M5
G00 X46.08 Y72.77 F3000.0
M3 F3000.0
G01 X45.68 Y73.29 F3000.0
G01 X45.6 Y72.9 F3000.0
G01 X46.05 Y72.24 F3000.0
G01 X46.47 F3000.0
G01 X46.08 Y72.77 F3000.0
M5
G00 X46.79 Y72.95 F3000.0
M3 F3000.0
G01 X46.65 Y73.1 F3000.0
G01 X46.66 Y72.9 F3000.0
G01 X46.79 Y72.95 F3000.0
G01 F3000.0
M5
G00 X46.56 Y73.53 F3000.0
M3 F3000.0
G01 F3000.0
G01 X46.27 Y74.49 F3000.0
G01 X45.98 Y75.45 F3000.0
G01 X45.83 Y74.63 F3000.0
G01 X45.93 Y73.9 F3000.0
G01 X46.05 Y73.71 F3000.0
G01 X46.16 Y73.58 F3000.0
G01 X46.38 Y73.33 F3000.0
G01 X46.56 Y73.53 F3000.0
G01 F3000.0
M5
G00 X46.72 Y73.79 F3000.0
M3 F3000.0
G01 X46.67 Y73.73 F3000.0
G01 X46.72 Y73.61 F3000.0
G01 Y73.79 F3000.0
G01 F3000.0
M5
G00 X47.07 Y74.04 F3000.0
M3 F3000.0
G01 X46.86 Y74.64 F3000.0
G01 X46.49 Y75.49 F3000.0
G01 X46.33 Y75.75 F3000.0
G01 X46.46 Y75.33 F3000.0
G01 X46.9 Y73.96 F3000.0
G01 X47.07 Y74.04 F3000.0
G01 F3000.0
M5
G00 X48.05 Y74.17 F3000.0
M3 F3000.0
G01 X48.16 Y74.2 F3000.0
G01 X48.25 Y74.25 F3000.0
G01 X48.39 Y74.31 F3000.0
G01 X48.47 Y74.36 F3000.0
G01 X48.56 Y74.41 F3000.0
G01 X48.67 Y74.43 F3000.0
G01 X49.1 Y74.58 F3000.0
G01 X49.13 Y74.63 F3000.0
G01 X49.22 Y74.7 F3000.0
G01 X49.32 Y74.72 F3000.0
G01 X49.46 Y74.87 F3000.0
G01 X49.79 Y75.15 F3000.0
G01 X49.73 Y75.83 F3000.0
G01 X49.34 Y76.52 F3000.0
G01 X49.24 Y76.73 F3000.0
G01 X49.38 Y76.5 F3000.0
G01 X50.02 Y75.41 F3000.0
G01 X50.16 Y75.17 F3000.0
G01 X50.14 Y75.29 F3000.0
G01 X50.04 Y76.4 F3000.0
G01 X49.91 Y76.61 F3000.0
G01 X49.23 Y77.66 F3000.0
G01 X48.99 Y77.47 F3000.0
G01 X48.87 Y77.4 F3000.0
G01 X48.53 Y77.21 F3000.0
G01 X48.25 Y77.02 F3000.0
G01 X48.08 Y76.78 F3000.0
G01 X47.84 Y76.54 F3000.0
G01 X47.66 Y76.45 F3000.0
G01 X46.58 Y75.92 F3000.0
G01 X46.75 Y75.36 F3000.0
G01 X46.87 Y75.22 F3000.0
G01 X47.69 Y74.37 F3000.0
G01 X47.61 Y74.28 F3000.0
G01 X47.34 Y74.21 F3000.0
G01 X47.54 Y74.14 F3000.0
G01 X47.64 Y74.05 F3000.0
G01 X47.79 Y74.01 F3000.0
G01 X48.05 Y74.17 F3000.0
G01 F3000.0
M5
G00 X48.38 Y75.11 F3000.0
M3 F3000.0
G01 X48.63 Y75.44 F3000.0
G01 X48.71 Y75.2 F3000.0
G01 X48.38 Y75.11 F3000.0
G01 F3000.0
M5
G00 X50.96 Y73.3 F3000.0
M3 F3000.0
G01 X51.16 Y73.45 F3000.0
G01 X50.81 Y74.16 F3000.0
G01 X50.43 Y74.91 F3000.0
G01 X50.3 Y74.85 F3000.0
G01 X49.25 Y74.41 F3000.0
G01 X49.08 Y74.33 F3000.0
G01 X47.99 Y73.87 F3000.0
G01 X48.0 Y73.82 F3000.0
G01 X48.07 Y72.77 F3000.0
G01 X48.37 Y71.87 F3000.0
G01 X48.53 Y71.95 F3000.0
G01 X49.57 Y72.51 F3000.0
G01 X49.83 Y72.66 F3000.0
G01 X50.96 Y73.3 F3000.0
G01 F3000.0
M5
G00 X48.13 Y71.81 F3000.0
M3 F3000.0
G01 Y71.82 F3000.0
G01 X47.84 Y72.78 F3000.0
G01 X47.51 Y73.62 F3000.0
G01 X47.29 Y73.53 F3000.0
G01 Y73.48 F3000.0
G01 X47.32 Y72.44 F3000.0
G01 X47.87 Y71.72 F3000.0
G01 X48.13 Y71.81 F3000.0
G01 F3000.0
M5
G00 X45.35 Y73.24 F3000.0
M3 F3000.0
G01 X45.29 Y73.33 F3000.0
G01 X44.66 Y74.25 F3000.0
G01 X44.27 Y74.32 F3000.0
G01 X44.52 Y73.94 F3000.0
G01 X45.31 Y72.72 F3000.0
G01 X45.35 Y73.24 F3000.0
G01 F3000.0
M5
G00 X43.46 Y72.46 F3000.0
M3 F3000.0
G01 X43.66 Y72.49 F3000.0
G01 X43.81 Y72.53 F3000.0
G01 X44.01 Y72.59 F3000.0
G01 X44.08 Y72.64 F3000.0
G01 X44.38 Y72.69 F3000.0
G01 X44.61 Y72.73 F3000.0
G01 X44.68 Y72.78 F3000.0
G01 X44.9 Y72.74 F3000.0
G01 X44.64 Y73.18 F3000.0
G01 X44.38 Y73.46 F3000.0
G01 X44.3 Y73.25 F3000.0
G01 X44.14 Y73.58 F3000.0
G01 X44.23 Y73.71 F3000.0
G01 X43.74 Y73.84 F3000.0
G01 X43.68 Y73.87 F3000.0
G01 X42.74 Y74.36 F3000.0
G01 X42.6 Y74.54 F3000.0
G01 X42.46 Y74.63 F3000.0
G01 X42.27 Y74.92 F3000.0
G01 X42.09 Y75.03 F3000.0
G01 X42.17 Y74.57 F3000.0
G01 X42.42 Y73.12 F3000.0
G01 X42.77 Y72.46 F3000.0
G01 X42.94 Y72.63 F3000.0
G01 X43.03 Y72.65 F3000.0
G01 X42.97 Y72.39 F3000.0
G01 X43.06 Y72.3 F3000.0
G01 X43.46 Y72.46 F3000.0
G01 F3000.0
M5
G00 X42.55 Y72.09 F3000.0
M3 F3000.0
G01 X42.41 Y72.18 F3000.0
G01 X42.27 Y72.15 F3000.0
G01 X42.41 Y72.05 F3000.0
G01 X42.55 Y72.09 F3000.0
G01 F3000.0
M5
G00 X42.32 Y72.61 F3000.0
M3 F3000.0
G01 X42.28 Y72.92 F3000.0
G01 X42.13 Y73.91 F3000.0
G01 X41.95 Y75.21 F3000.0
G01 X42.14 Y75.3 F3000.0
G01 X41.94 Y75.51 F3000.0
G01 X41.65 Y75.33 F3000.0
G01 Y75.04 F3000.0
G01 X41.72 Y75.21 F3000.0
G01 X41.85 Y74.31 F3000.0
G01 X41.95 Y73.85 F3000.0
G01 X42.23 Y72.41 F3000.0
G01 X42.32 Y72.61 F3000.0
G01 F3000.0
M5
G00 X41.75 Y72.53 F3000.0
M3 F3000.0
G01 X41.61 Y73.42 F3000.0
G01 X41.57 Y73.34 F3000.0
G01 X41.62 Y72.46 F3000.0
G01 X41.72 Y71.96 F3000.0
G01 X41.75 Y72.53 F3000.0
G01 F3000.0
M5
G00 X41.87 Y73.03 F3000.0
M3 F3000.0
G01 X41.81 Y72.97 F3000.0
G01 X41.86 Y72.84 F3000.0
G01 X41.87 Y73.03 F3000.0
G01 F3000.0
M5
G00 X41.55 Y74.06 F3000.0
M3 F3000.0
G01 X41.52 Y74.3 F3000.0
G01 X41.43 Y74.11 F3000.0
G01 X41.55 Y74.06 F3000.0
G01 F3000.0
M5
G00 X39.41 Y72.48 F3000.0
M3 F3000.0
G01 X39.67 Y72.86 F3000.0
G01 X39.75 Y72.57 F3000.0
G01 X39.41 Y72.48 F3000.0
G01 F3000.0
M5
G00 X39.73 Y71.35 F3000.0
M3 F3000.0
G01 X39.55 F3000.0
G01 X39.6 Y71.3 F3000.0
G01 X39.73 Y71.35 F3000.0
G01 F3000.0
M5
G00 X38.72 Y71.28 F3000.0
M3 F3000.0
G01 X39.19 Y71.42 F3000.0
G01 F3000.0
G01 X40.16 Y71.67 F3000.0
G01 X41.13 Y71.92 F3000.0
G01 X41.2 Y72.77 F3000.0
G01 X41.16 Y73.44 F3000.0
G01 X41.29 Y73.01 F3000.0
G01 X41.43 Y72.58 F3000.0
G01 X41.38 Y73.2 F3000.0
G01 X41.37 Y73.63 F3000.0
G01 X41.32 Y75.06 F3000.0
G01 X41.45 Y74.85 F3000.0
G01 Y74.87 F3000.0
G01 X41.35 Y75.87 F3000.0
G01 X41.11 Y76.25 F3000.0
G01 X40.81 Y76.67 F3000.0
G01 X40.68 Y76.88 F3000.0
G01 X40.54 Y77.02 F3000.0
G01 X40.4 Y77.17 F3000.0
G01 X40.26 Y77.37 F3000.0
G01 X40.12 Y77.61 F3000.0
G01 X39.94 Y77.85 F3000.0
G01 X39.75 Y78.07 F3000.0
G01 X39.47 Y78.31 F3000.0
G01 X39.19 Y78.6 F3000.0
G01 X38.85 Y78.85 F3000.0
G01 X38.62 Y79.17 F3000.0
G01 X38.82 Y79.51 F3000.0
G01 X38.72 Y79.79 F3000.0
G01 X38.63 Y80.03 F3000.0
G01 X38.54 Y80.27 F3000.0
G01 X38.44 Y80.41 F3000.0
G01 X38.36 Y80.72 F3000.0
G01 X38.11 Y81.27 F3000.0
G01 X37.94 Y81.65 F3000.0
G01 X37.88 Y81.33 F3000.0
G01 X37.87 Y81.16 F3000.0
G01 X37.82 Y80.16 F3000.0
G01 X37.76 Y78.99 F3000.0
G01 Y78.7 F3000.0
G01 X37.73 Y77.41 F3000.0
G01 X37.83 Y77.59 F3000.0
G01 X37.98 Y77.88 F3000.0
G01 X37.92 Y76.92 F3000.0
G01 Y76.87 F3000.0
G01 X37.84 Y75.83 F3000.0
G01 X37.85 Y75.57 F3000.0
G01 X37.87 Y74.31 F3000.0
G01 X37.97 Y73.34 F3000.0
G01 X38.09 Y74.18 F3000.0
G01 X38.11 Y74.49 F3000.0
G01 X38.17 Y73.58 F3000.0
G01 X38.2 Y73.23 F3000.0
G01 X38.3 Y71.89 F3000.0
G01 X38.28 Y71.58 F3000.0
G01 X38.09 Y72.12 F3000.0
G01 X38.0 Y72.67 F3000.0
G01 X37.99 Y72.2 F3000.0
G01 X38.3 Y71.45 F3000.0
G01 X37.93 Y71.39 F3000.0
G01 X37.54 Y71.29 F3000.0
G01 X38.35 Y71.21 F3000.0
G01 X38.72 Y71.28 F3000.0
G01 F3000.0
M5
G00 X37.84 Y71.98 F3000.0
M3 F3000.0
G01 X37.83 Y72.28 F3000.0
G01 X37.77 Y73.28 F3000.0
G01 X37.69 Y74.58 F3000.0
G01 Y74.7 F3000.0
G01 X37.62 Y75.7 F3000.0
G01 X37.54 Y76.82 F3000.0
G01 Y76.75 F3000.0
G01 Y75.68 F3000.0
G01 X37.52 Y75.2 F3000.0
G01 X37.43 Y73.2 F3000.0
G01 X37.36 Y71.73 F3000.0
G01 X37.6 Y71.58 F3000.0
G01 X37.84 Y71.98 F3000.0
G01 F3000.0
M5
G00 X37.29 Y72.36 F3000.0
M3 F3000.0
G01 X37.24 Y72.24 F3000.0
G01 X37.29 Y72.12 F3000.0
G01 Y72.36 F3000.0
G01 F3000.0
M5
G00 X37.11 Y72.35 F3000.0
M3 F3000.0
G01 X37.13 Y72.77 F3000.0
G01 X37.0 Y72.44 F3000.0
G01 X36.97 Y71.89 F3000.0
G01 X37.11 Y72.35 F3000.0
G01 F3000.0
M5
G00 X36.53 Y72.28 F3000.0
M3 F3000.0
G01 X36.68 Y72.72 F3000.0
G01 X36.82 Y73.29 F3000.0
G01 X36.95 Y73.63 F3000.0
G01 X36.9 Y73.26 F3000.0
G01 X36.79 Y72.74 F3000.0
G01 X36.83 Y72.67 F3000.0
G01 X37.09 Y73.34 F3000.0
G01 X37.11 Y73.61 F3000.0
G01 X37.19 Y74.61 F3000.0
G01 X37.28 Y75.87 F3000.0
G01 X37.29 Y76.21 F3000.0
G01 X37.34 Y77.21 F3000.0
G01 X37.4 Y78.55 F3000.0
G01 Y78.6 F3000.0
G01 X37.39 Y79.6 F3000.0
G01 X37.38 Y80.65 F3000.0
G01 X37.12 Y80.82 F3000.0
G01 X36.8 Y80.96 F3000.0
G01 X36.57 Y80.78 F3000.0
G01 X36.52 Y80.73 F3000.0
G01 X35.74 Y80.0 F3000.0
G01 X35.59 Y79.39 F3000.0
G01 X35.89 Y79.18 F3000.0
G01 X36.33 Y79.19 F3000.0
G01 X36.98 Y79.12 F3000.0
G01 X36.7 Y78.33 F3000.0
G01 X36.58 Y78.56 F3000.0
G01 X36.44 Y78.74 F3000.0
G01 X36.3 Y78.55 F3000.0
G01 X36.16 Y78.36 F3000.0
G01 X36.02 Y78.58 F3000.0
G01 X35.74 Y78.91 F3000.0
G01 X35.35 Y78.64 F3000.0
G01 X35.15 Y78.33 F3000.0
G01 X35.12 Y78.27 F3000.0
G01 X34.97 Y77.84 F3000.0
G01 X34.94 Y77.79 F3000.0
G01 X34.7 Y77.17 F3000.0
G01 X34.68 Y77.06 F3000.0
G01 X34.63 Y76.96 F3000.0
G01 X34.58 Y76.89 F3000.0
G01 X34.43 Y76.33 F3000.0
G01 X34.23 Y75.92 F3000.0
G01 X34.46 Y76.21 F3000.0
G01 X34.74 Y76.42 F3000.0
G01 X34.58 Y75.91 F3000.0
G01 X34.52 Y75.72 F3000.0
G01 X34.14 Y74.58 F3000.0
G01 X34.12 Y74.51 F3000.0
G01 X33.81 Y73.48 F3000.0
G01 X33.9 Y74.15 F3000.0
G01 X34.09 Y75.06 F3000.0
G01 X34.14 Y75.44 F3000.0
G01 X34.0 Y75.01 F3000.0
G01 X33.88 Y74.56 F3000.0
G01 X33.51 Y73.14 F3000.0
G01 X33.55 Y72.95 F3000.0
G01 X33.66 Y72.89 F3000.0
G01 X33.74 Y72.83 F3000.0
G01 X33.83 Y72.79 F3000.0
G01 X33.92 Y72.74 F3000.0
G01 X34.02 Y72.69 F3000.0
G01 X34.1 Y72.63 F3000.0
G01 X34.13 Y72.57 F3000.0
G01 X34.57 Y72.44 F3000.0
G01 X34.72 Y72.41 F3000.0
G01 X34.86 Y72.36 F3000.0
G01 X35.0 Y72.32 F3000.0
G01 X35.13 Y72.24 F3000.0
G01 X35.16 Y72.19 F3000.0
G01 X35.88 Y72.06 F3000.0
G01 X36.53 Y72.28 F3000.0
G01 F3000.0
M5
G00 X37.39 Y73.41 F3000.0
M3 F3000.0
G01 X37.35 Y73.25 F3000.0
G01 X37.39 Y73.03 F3000.0
G01 Y73.41 F3000.0
G01 F3000.0
M5
G00 X37.48 Y74.27 F3000.0
M3 F3000.0
G01 X37.42 Y74.21 F3000.0
G01 X37.47 Y74.08 F3000.0
G01 X37.48 Y74.27 F3000.0
G01 F3000.0
M5
G00 X34.8 Y72.86 F3000.0
M3 F3000.0
G01 X34.99 Y73.2 F3000.0
G01 X35.12 Y72.87 F3000.0
G01 X34.8 Y72.86 F3000.0
G01 F3000.0
M5
G00 X32.51 Y71.98 F3000.0
M3 F3000.0
G01 X32.73 Y72.52 F3000.0
G01 X32.66 Y72.58 F3000.0
G01 X32.58 Y72.64 F3000.0
G01 X32.73 Y72.75 F3000.0
G01 X32.77 Y72.88 F3000.0
G01 X32.84 Y72.96 F3000.0
G01 X32.9 Y72.99 F3000.0
G01 X32.21 Y72.45 F3000.0
G01 X31.98 Y71.69 F3000.0
G01 X32.51 Y71.98 F3000.0
G01 F3000.0
M5
G00 X31.96 Y72.62 F3000.0
M3 F3000.0
G01 X32.31 Y72.94 F3000.0
G01 X32.34 Y72.99 F3000.0
G01 X32.42 Y73.39 F3000.0
G01 X32.46 Y73.83 F3000.0
G01 X31.96 Y73.65 F3000.0
G01 X31.46 Y72.94 F3000.0
G01 X31.15 Y72.54 F3000.0
G01 X31.41 Y72.4 F3000.0
G01 X31.7 Y72.25 F3000.0
G01 X31.96 Y72.62 F3000.0
G01 F3000.0
M5
G00 X31.22 Y73.03 F3000.0
M3 F3000.0
G01 X31.75 Y73.74 F3000.0
G01 X32.0 Y74.14 F3000.0
G01 X31.23 Y74.76 F3000.0
G01 X30.94 Y75.01 F3000.0
G01 X29.91 Y75.91 F3000.0
G01 X29.35 Y76.45 F3000.0
G01 X29.0 Y76.1 F3000.0
G01 X28.54 Y75.48 F3000.0
G01 X28.67 Y74.84 F3000.0
G01 X28.69 Y74.82 F3000.0
G01 X29.42 Y74.13 F3000.0
G01 X30.14 Y73.44 F3000.0
G01 X30.89 Y72.72 F3000.0
G01 X31.22 Y73.03 F3000.0
G01 F3000.0
M5
G00 X31.72 Y74.67 F3000.0
M3 F3000.0
G01 X31.56 Y74.83 F3000.0
G01 X31.52 Y74.8 F3000.0
G01 X31.72 Y74.67 F3000.0
G01 F3000.0
M5
G00 X32.56 Y74.68 F3000.0
M3 F3000.0
G01 X32.39 Y74.78 F3000.0
G01 X32.47 Y74.58 F3000.0
G01 X32.63 Y74.48 F3000.0
G01 X32.56 Y74.68 F3000.0
G01 F3000.0
M5
G00 X32.75 Y79.12 F3000.0
M3 F3000.0
G01 X32.72 Y79.21 F3000.0
G01 X32.89 Y79.12 F3000.0
G01 X32.75 F3000.0
G01 F3000.0
M5
G00 X32.41 Y81.29 F3000.0
M3 F3000.0
G01 X32.52 Y81.6 F3000.0
G01 X32.19 Y80.97 F3000.0
G01 X32.41 Y81.29 F3000.0
G01 F3000.0
M5
G00 X32.21 Y81.29 F3000.0
M3 F3000.0
G01 Y81.3 F3000.0
G01 X32.65 Y82.2 F3000.0
G01 X32.58 Y82.44 F3000.0
G01 X32.32 Y82.22 F3000.0
G01 X32.07 Y82.04 F3000.0
G01 X31.96 Y81.98 F3000.0
G01 X31.54 Y81.55 F3000.0
G01 X31.57 Y80.91 F3000.0
G01 X31.81 Y80.65 F3000.0
G01 X32.21 Y81.29 F3000.0
G01 F3000.0
M5
G00 X32.84 Y81.98 F3000.0
M3 F3000.0
G01 X32.75 Y82.08 F3000.0
G01 X32.65 Y81.98 F3000.0
G01 X32.75 Y81.89 F3000.0
G01 X32.84 Y81.98 F3000.0
G01 F3000.0
M5
G00 X32.47 Y82.96 F3000.0
M3 F3000.0
G01 X32.38 Y83.04 F3000.0
G01 X32.34 Y82.82 F3000.0
G01 X32.47 Y82.96 F3000.0
G01 F3000.0
M5
G00 X31.67 Y83.23 F3000.0
M3 F3000.0
G01 X32.02 Y83.8 F3000.0
G01 X31.91 Y83.57 F3000.0
G01 X31.76 Y83.23 F3000.0
G01 X31.78 Y83.13 F3000.0
G01 X31.67 Y83.23 F3000.0
G01 F3000.0
M5
G00 X34.72 Y81. F3000.0
M3 F3000.0
G01 X34.82 Y81.08 F3000.0
G01 X35.64 Y81.65 F3000.0
G01 X36.56 Y82.3 F3000.0
G01 X37.42 Y82.79 F3000.0
G01 X37.49 Y82.86 F3000.0
G01 X37.65 Y82.99 F3000.0
G01 X37.81 Y83.1 F3000.0
G01 X38.17 Y83.55 F3000.0
G01 X38.55 Y83.88 F3000.0
G01 X38.58 Y84.1 F3000.0
G01 X38.73 Y85.31 F3000.0
G01 X38.78 Y85.6 F3000.0
G01 X38.98 Y86.88 F3000.0
G01 X39.09 Y86.91 F3000.0
G01 X39.33 Y87.62 F3000.0
G01 X39.35 Y87.69 F3000.0
G01 X39.6 Y88.66 F3000.0
G01 X39.84 Y89.63 F3000.0
G01 X40.34 Y91.57 F3000.0
G01 X40.58 Y92.54 F3000.0
G01 X40.84 Y93.59 F3000.0
G01 X40.96 Y93.89 F3000.0
G01 X41.3 Y94.83 F3000.0
G01 X41.76 Y96.07 F3000.0
G01 X41.91 Y96.46 F3000.0
G01 X42.44 Y97.79 F3000.0
G01 X42.51 Y97.98 F3000.0
G01 X42.87 Y98.92 F3000.0
G01 X43.23 Y99.85 F3000.0
G01 X43.95 Y101.72 F3000.0
G01 X44.38 Y102.85 F3000.0
G01 X44.46 Y103.05 F3000.0
G01 X45.19 Y104.91 F3000.0
G01 X45.56 Y105.84 F3000.0
G01 X45.92 Y106.77 F3000.0
G01 X46.37 Y107.91 F3000.0
G01 X46.66 Y108.77 F3000.0
G01 X46.42 Y108.46 F3000.0
G01 X46.09 Y108.15 F3000.0
G01 X46.1 Y108.17 F3000.0
G01 X46.62 Y109.06 F3000.0
G01 X46.74 Y109.38 F3000.0
G01 X47.23 Y110.63 F3000.0
G01 X46.94 Y110.4 F3000.0
G01 X46.71 Y110.25 F3000.0
G01 X46.62 Y110.11 F3000.0
G01 X45.06 Y107.55 F3000.0
G01 X44.53 Y106.7 F3000.0
G01 X43.93 Y105.71 F3000.0
G01 X43.75 Y105.39 F3000.0
G01 X43.25 Y104.53 F3000.0
G01 X42.25 Y102.79 F3000.0
G01 X41.57 Y101.6 F3000.0
G01 X41.51 Y101.51 F3000.0
G01 X41.0 Y100.65 F3000.0
G01 X40.48 Y99.79 F3000.0
G01 X39.91 Y98.84 F3000.0
G01 X39.79 Y98.64 F3000.0
G01 X39.27 Y97.79 F3000.0
G01 X38.63 Y96.74 F3000.0
G01 X38.55 Y96.59 F3000.0
G01 X38.04 Y95.73 F3000.0
G01 X37.54 Y94.87 F3000.0
G01 X37.04 Y94.0 F3000.0
G01 X36.45 Y92.99 F3000.0
G01 X36.31 Y92.71 F3000.0
G01 X37.26 Y92.54 F3000.0
G01 X37.49 Y92.42 F3000.0
G01 X38.61 Y91.84 F3000.0
G01 X38.55 Y91.65 F3000.0
G01 X38.2 Y90.5 F3000.0
G01 Y90.49 F3000.0
G01 X37.85 Y89.53 F3000.0
G01 X37.52 F3000.0
G01 X37.25 Y89.57 F3000.0
G01 X36.27 Y89.74 F3000.0
G01 X35.02 Y89.95 F3000.0
G01 X34.79 Y89.6 F3000.0
G01 X34.01 Y88.41 F3000.0
G01 X33.81 Y88.02 F3000.0
G01 X33.35 Y87.13 F3000.0
G01 X32.7 Y85.85 F3000.0
G01 X32.68 Y85.79 F3000.0
G01 X32.32 Y84.78 F3000.0
G01 X32.41 Y84.7 F3000.0
G01 X32.47 Y84.56 F3000.0
G01 X32.52 Y84.31 F3000.0
G01 X32.57 Y84.14 F3000.0
G01 X32.63 Y83.96 F3000.0
G01 X32.68 Y83.77 F3000.0
G01 X32.72 Y83.62 F3000.0
G01 X32.77 Y83.42 F3000.0
G01 X32.8 Y83.26 F3000.0
G01 X32.81 Y83.0 F3000.0
G01 X32.89 Y82.75 F3000.0
G01 X33.02 Y82.28 F3000.0
G01 X33.41 Y80.84 F3000.0
G01 X33.54 Y80.53 F3000.0
G01 X33.63 Y80.27 F3000.0
G01 X33.76 Y80.36 F3000.0
G01 X34.72 Y81.0 F3000.0
G01 F3000.0
M5
G00 X35.4 Y80.24 F3000.0
M3 F3000.0
G01 X35.92 Y81.07 F3000.0
G01 X35.48 Y80.93 F3000.0
G01 X35.27 Y80.79 F3000.0
G01 X35.14 Y80.69 F3000.0
G01 X35.0 Y80.59 F3000.0
G01 X34.86 Y80.5 F3000.0
G01 X34.71 Y80.41 F3000.0
G01 X34.56 Y80.32 F3000.0
G01 X34.43 Y80.22 F3000.0
G01 X34.3 Y80.11 F3000.0
G01 X34.13 Y80.03 F3000.0
G01 X34.07 Y80.02 F3000.0
G01 X34.18 Y79.75 F3000.0
G01 X34.69 Y79.84 F3000.0
G01 X35.4 Y80.24 F3000.0
G01 F3000.0
M5
G00 X35.61 Y80.09 F3000.0
M3 F3000.0
G01 X35.56 Y80.03 F3000.0
G01 X35.6 Y79.91 F3000.0
G01 X35.61 Y80.09 F3000.0
G01 F3000.0
M5
G00 X35.43 Y79.42 F3000.0
M3 F3000.0
G01 X35.37 Y79.37 F3000.0
G01 X35.42 Y79.24 F3000.0
G01 Y79.42 F3000.0
G01 X35.43 F3000.0
M5
G00 X36.88 Y79.69 F3000.0
M3 F3000.0
G01 X36.55 Y79.77 F3000.0
G01 X35.88 Y80.03 F3000.0
G01 X36.3 Y80.23 F3000.0
G01 X37.08 Y80.15 F3000.0
G01 X37.38 Y79.85 F3000.0
G01 X37.32 Y79.57 F3000.0
G01 X36.88 Y79.69 F3000.0
G01 F3000.0
M5
G00 X37.67 Y80.38 F3000.0
M3 F3000.0
G01 X37.64 Y79.93 F3000.0
G01 X37.67 Y79.43 F3000.0
G01 Y80.38 F3000.0
G01 F3000.0
M5
G00 X38.54 Y80.84 F3000.0
M3 F3000.0
G01 X38.44 Y80.93 F3000.0
G01 X38.4 Y80.84 F3000.0
G01 X38.49 Y80.74 F3000.0
G01 X38.54 Y80.84 F3000.0
G01 F3000.0
M5
G00 X38.76 Y81.17 F3000.0
M3 F3000.0
G01 X38.67 Y81.31 F3000.0
G01 X38.63 Y81.17 F3000.0
G01 X38.72 Y81.03 F3000.0
G01 X38.76 Y81.17 F3000.0
G01 F3000.0
M5
G00 X38.29 Y81.51 F3000.0
M3 F3000.0
G01 X38.1 Y81.76 F3000.0
G01 X38.36 Y81.22 F3000.0
G01 X38.29 Y81.51 F3000.0
G01 F3000.0
M5
G00 X37.51 Y81.46 F3000.0
M3 F3000.0
G01 X37.29 Y81.53 F3000.0
G01 X37.17 Y81.29 F3000.0
G01 X37.51 Y81.46 F3000.0
G01 F3000.0
M5
G00 X37.6 Y82.05 F3000.0
M3 F3000.0
G01 X37.83 Y82.28 F3000.0
G01 X37.95 Y82.06 F3000.0
G01 X38.03 Y82.02 F3000.0
G01 X37.92 Y82.44 F3000.0
G01 X37.86 Y82.68 F3000.0
G01 X37.74 Y82.4 F3000.0
G01 X37.61 Y82.28 F3000.0
G01 X37.47 Y82.43 F3000.0
G01 X37.37 Y82.37 F3000.0
G01 X37.21 Y82.19 F3000.0
G01 X37.09 Y82.18 F3000.0
G01 X37.05 Y82.23 F3000.0
G01 X37.0 Y81.89 F3000.0
G01 X36.62 Y81.64 F3000.0
G01 X36.33 Y81.68 F3000.0
G01 X36.4 Y81.64 F3000.0
G01 X36.35 Y81.56 F3000.0
G01 X36.37 Y81.41 F3000.0
G01 X36.62 Y81.31 F3000.0
G01 X36.71 Y81.38 F3000.0
G01 X37.6 Y82.05 F3000.0
G01 F3000.0
M5
G00 X38.26 Y82.56 F3000.0
M3 F3000.0
G01 X38.16 Y82.65 F3000.0
G01 X38.07 Y82.56 F3000.0
G01 X38.16 Y82.46 F3000.0
G01 X38.26 Y82.56 F3000.0
G01 F3000.0
M5
G00 X39.19 Y81.9 F3000.0
M3 F3000.0
G01 X39.12 Y82.14 F3000.0
G01 X39.27 Y81.94 F3000.0
G01 X39.19 Y81.9 F3000.0
G01 F3000.0
M5
G00 X39.53 Y81.07 F3000.0
M3 F3000.0
G01 X39.31 Y81.25 F3000.0
G01 X39.23 Y81.3 F3000.0
G01 X39.61 Y81.12 F3000.0
G01 X39.67 Y80.84 F3000.0
G01 X39.53 Y81.07 F3000.0
G01 F3000.0
M5
G00 X39.92 Y80.22 F3000.0
M3 F3000.0
G01 X39.74 Y80.46 F3000.0
G01 X39.77 Y80.22 F3000.0
G01 X39.95 Y79.98 F3000.0
G01 X39.92 Y80.22 F3000.0
G01 F3000.0
M5
G00 X39.7 Y80.01 F3000.0
M3 F3000.0
G01 X39.58 Y80.48 F3000.0
G01 X39.77 Y80.64 F3000.0
G01 X40.12 Y80.04 F3000.0
G01 X39.7 Y80.01 F3000.0
G01 F3000.0
M5
G00 X40.08 Y79.33 F3000.0
M3 F3000.0
G01 X40.12 Y79.79 F3000.0
G01 X40.59 Y79.24 F3000.0
G01 X40.08 Y79.33 F3000.0
G01 F3000.0
M5
G00 X40.35 Y79.46 F3000.0
M3 F3000.0
G01 X40.15 Y79.66 F3000.0
G01 X40.41 Y79.21 F3000.0
G01 X40.35 Y79.46 F3000.0
G01 F3000.0
M5
G00 X40.22 Y78.68 F3000.0
M3 F3000.0
G01 X40.07 Y78.77 F3000.0
G01 X39.98 Y78.74 F3000.0
G01 X40.22 Y78.68 F3000.0
G01 F3000.0
M5
G00 X40.6 Y78.61 F3000.0
M3 F3000.0
G01 X40.63 Y79.02 F3000.0
G01 X41.02 Y78.5 F3000.0
G01 X40.6 Y78.61 F3000.0
G01 F3000.0
M5
G00 X40.96 Y78.53 F3000.0
M3 F3000.0
G01 X40.78 Y78.78 F3000.0
G01 X40.71 Y78.64 F3000.0
G01 X40.96 Y78.53 F3000.0
G01 F3000.0
M5
G00 X41.34 Y78.06 F3000.0
M3 F3000.0
G01 X41.08 Y78.19 F3000.0
G01 X41.03 Y78.27 F3000.0
G01 X41.36 Y78.19 F3000.0
G01 X41.5 Y77.92 F3000.0
G01 X41.34 Y78.06 F3000.0
G01 F3000.0
M5
G00 X41.15 Y77.88 F3000.0
M3 F3000.0
G01 X41.1 Y78.07 F3000.0
G01 X41.24 Y77.88 F3000.0
G01 X41.3 Y77.69 F3000.0
G01 X41.15 Y77.88 F3000.0
G01 F3000.0
M5
G00 X40.78 Y77.92 F3000.0
M3 F3000.0
G01 X40.68 Y78.02 F3000.0
G01 X40.59 Y77.98 F3000.0
G01 X40.68 Y77.88 F3000.0
G01 X40.78 Y77.92 F3000.0
G01 F3000.0
M5
G00 X40.47 Y77.58 F3000.0
M3 F3000.0
G01 X40.38 Y77.84 F3000.0
G01 X40.31 Y77.81 F3000.0
G01 X40.36 Y77.55 F3000.0
G01 X40.47 Y77.58 F3000.0
G01 F3000.0
M5
G00 X40.03 Y78.21 F3000.0
M3 F3000.0
G01 X39.82 Y78.45 F3000.0
G01 X39.77 Y78.42 F3000.0
G01 X39.94 Y78.18 F3000.0
G01 X39.98 Y78.07 F3000.0
G01 X40.03 Y78.21 F3000.0
G01 F3000.0
M5
G00 X39.35 Y78.66 F3000.0
M3 F3000.0
G01 X39.29 Y78.6 F3000.0
G01 X39.34 Y78.48 F3000.0
G01 X39.35 Y78.66 F3000.0
G01 F3000.0
M5
G00 X39.12 Y78.99 F3000.0
M3 F3000.0
G01 X38.84 F3000.0
G01 X38.96 Y78.95 F3000.0
G01 X39.12 Y78.99 F3000.0
G01 F3000.0
M5
G00 X39.09 Y79.45 F3000.0
M3 F3000.0
G01 X38.93 Y79.56 F3000.0
G01 X39.11 Y79.31 F3000.0
G01 X39.09 Y79.45 F3000.0
G01 F3000.0
M5
G00 X38.88 Y80.02 F3000.0
M3 F3000.0
G01 X38.74 Y80.16 F3000.0
G01 X38.82 Y79.93 F3000.0
G01 X38.88 Y80.02 F3000.0
G01 F3000.0
M5
