
;Inkscape Lasertools G-code
;https://github.com/ChrisWag91/Inkscape-Lasertools-Plugin

G90	;Absolute programming
G21	;Programming in millimeters (mm)
M5
M03 S1 ;Activate laser and set power to 0 (CUSTOM)

; START perimeter strategy
G01 F6000.0
M5
G00 X37.43 Y16.35 F6000.0
M3 F6000.0
G01 X37.13 Y16.36 F6000.0
G01 X36.13 Y16.4 F6000.0
G01 X35.13 Y16.44 F6000.0
G01 X34.13 Y16.48 F6000.0
G01 X33.14 Y16.52 F6000.0
G01 X32.14 Y16.56 F6000.0
G01 X31.14 Y16.6 F6000.0
G01 X29.84 Y16.65 F6000.0
G01 X29.58 Y16.69 F6000.0
G01 X28.59 Y16.85 F6000.0
G01 X27.61 Y17.0 F6000.0
G01 X26.62 Y17.15 F6000.0
G01 X25.63 Y17.3 F6000.0
G01 X24.64 Y17.46 F6000.0
G01 X23.65 Y17.61 F6000.0
G01 X22.41 Y17.8 F6000.0
G01 X22.28 Y17.82 F6000.0
G01 X19.32 Y18.28 F6000.0
G01 X18.33 Y18.44 F6000.0
G01 X17.34 Y18.59 F6000.0
G01 X16.23 Y18.77 F6000.0
G01 X16.16 Y19.2 F6000.0
G01 X15.99 Y20.18 F6000.0
G01 X15.82 Y21.17 F6000.0
G01 X15.59 Y22.59 F6000.0
G01 X15.58 Y23.03 F6000.0
G01 X15.55 Y24.03 F6000.0
G01 X15.53 Y25.03 F6000.0
G01 X15.5 Y26.48 F6000.0
G01 X15.48 F6000.0
G01 X14.48 Y26.36 F6000.0
G01 X13.49 Y26.23 F6000.0
G01 X12.48 Y26.1 F6000.0
G01 X12.47 Y26.11 F6000.0
G01 X10.68 Y27.01 F6000.0
G01 X9.77 Y27.46 F6000.0
G01 X9.73 Y27.5 F6000.0
G01 X8.99 Y28.16 F6000.0
G01 X8.21 Y28.86 F6000.0
G01 X8.19 Y28.9 F6000.0
G01 X7.71 Y29.77 F6000.0
G01 X7.2 Y30.67 F6000.0
G01 X7.17 Y30.79 F6000.0
G01 X6.95 Y31.77 F6000.0
G01 X6.49 Y33.72 F6000.0
G01 X6.24 Y34.81 F6000.0
G01 X6.27 Y35.19 F6000.0
G01 X6.34 Y36.19 F6000.0
G01 X6.41 Y37.19 F6000.0
G01 X6.48 Y38.19 F6000.0
G01 X6.55 Y39.18 F6000.0
G01 X6.65 Y40.56 F6000.0
G01 X6.79 Y40.93 F6000.0
G01 X7.14 Y41.86 F6000.0
G01 X8.22 Y44.66 F6000.0
G01 X8.72 Y45.95 F6000.0
G01 X8.81 Y46.09 F6000.0
G01 X9.39 Y46.91 F6000.0
G01 X10.05 Y47.86 F6000.0
G01 X10.07 Y47.87 F6000.0
G01 X10.82 Y48.53 F6000.0
G01 X11.57 Y49.19 F6000.0
G01 X12.33 Y49.85 F6000.0
G01 X13.08 Y50.51 F6000.0
G01 X13.83 Y51.17 F6000.0
G01 X14.6 Y51.84 F6000.0
G01 X14.72 Y51.88 F6000.0
G01 X15.66 Y52.24 F6000.0
G01 X16.59 Y52.59 F6000.0
G01 X17.53 Y52.95 F6000.0
G01 X18.58 Y53.35 F6000.0
G01 X18.64 Y53.36 F6000.0
G01 X19.64 Y53.43 F6000.0
G01 X20.69 Y53.5 F6000.0
G01 X20.75 Y53.48 F6000.0
G01 X21.71 Y53.21 F6000.0
G01 X22.73 Y52.92 F6000.0
G01 X23.02 Y52.68 F6000.0
G01 X24.07 Y51.79 F6000.0
G01 X24.21 Y51.53 F6000.0
G01 X24.8 Y50.38 F6000.0
G01 X25.55 Y50.57 F6000.0
G01 Y51.24 F6000.0
G01 X25.36 Y51.54 F6000.0
G01 X24.62 Y52.67 F6000.0
G01 X24.29 Y52.86 F6000.0
G01 X23.42 Y53.35 F6000.0
G01 X22.21 Y54.03 F6000.0
G01 X21.84 Y54.06 F6000.0
G01 X20.84 Y54.16 F6000.0
G01 X19.47 Y54.29 F6000.0
G01 X19.22 Y54.21 F6000.0
G01 X18.27 Y53.91 F6000.0
G01 X17.32 Y53.61 F6000.0
G01 X16.36 Y53.32 F6000.0
G01 X15.41 Y53.02 F6000.0
G01 X14.2 Y52.64 F6000.0
G01 X13.78 Y52.38 F6000.0
G01 X12.07 Y51.34 F6000.0
G01 X10.79 Y50.57 F6000.0
G01 X10.58 Y50.33 F6000.0
G01 X9.71 Y49.34 F6000.0
G01 X9.23 Y48.89 F6000.0
G01 X8.53 Y49.26 F6000.0
G01 X8.55 Y49.33 F6000.0
G01 X8.86 Y50.28 F6000.0
G01 X9.16 Y51.24 F6000.0
G01 X9.46 Y52.19 F6000.0
G01 X9.79 Y53.21 F6000.0
G01 Y53.22 F6000.0
G01 X10.32 Y54.06 F6000.0
G01 X10.86 Y54.91 F6000.0
G01 X11.39 Y55.76 F6000.0
G01 X11.92 Y56.61 F6000.0
G01 X12.21 Y57.01 F6000.0
G01 X12.81 Y57.82 F6000.0
G01 X13.4 Y58.62 F6000.0
G01 X13.99 Y59.43 F6000.0
G01 X14.58 Y60.24 F6000.0
G01 X15.76 Y61.85 F6000.0
G01 X16.65 Y63.06 F6000.0
G01 X16.71 Y63.2 F6000.0
G01 X17.08 Y64.13 F6000.0
G01 X17.52 Y65.2 F6000.0
G01 X17.51 Y65.43 F6000.0
G01 X17.48 Y66.43 F6000.0
G01 X17.43 Y67.65 F6000.0
G01 X17.44 Y67.71 F6000.0
G01 X17.86 Y70.68 F6000.0
G01 X18.01 Y71.73 F6000.0
G01 X18.23 Y72.16 F6000.0
G01 X18.69 Y73.04 F6000.0
G01 X19.15 Y73.93 F6000.0
G01 X19.83 Y75.24 F6000.0
G01 X19.89 Y75.36 F6000.0
G01 X20.37 Y76.38 F6000.0
G01 X20.26 Y76.5 F6000.0
G01 X19.52 Y77.4 F6000.0
G01 X19.33 Y77.69 F6000.0
G01 X18.77 Y78.51 F6000.0
G01 X18.21 Y79.34 F6000.0
G01 X17.65 Y80.17 F6000.0
G01 X17.09 Y81.0 F6000.0
G01 X16.53 Y81.82 F6000.0
G01 X15.77 Y82.93 F6000.0
G01 X15.66 Y83.18 F6000.0
G01 X15.25 Y84.09 F6000.0
G01 X14.84 Y85.0 F6000.0
G01 X14.42 Y85.91 F6000.0
G01 X13.6 Y87.73 F6000.0
G01 X13.07 Y88.88 F6000.0
G01 X13.06 Y89.24 F6000.0
G01 X13.04 Y90.24 F6000.0
G01 X13.02 Y91.24 F6000.0
G01 X12.99 Y92.24 F6000.0
G01 X12.96 Y93.59 F6000.0
G01 X13.02 Y93.9 F6000.0
G01 X13.22 Y94.88 F6000.0
G01 X13.41 Y95.86 F6000.0
G01 X13.61 Y96.84 F6000.0
G01 X13.87 Y98.13 F6000.0
G01 X13.93 Y98.28 F6000.0
G01 X15.09 Y101.05 F6000.0
G01 X15.48 Y101.97 F6000.0
G01 X17.02 Y105.66 F6000.0
G01 X17.47 Y106.72 F6000.0
G01 X17.52 Y106.81 F6000.0
G01 X17.95 Y107.71 F6000.0
G01 X18.39 Y108.61 F6000.0
G01 X19.26 Y110.41 F6000.0
G01 X19.7 Y111.31 F6000.0
G01 X20.18 Y112.3 F6000.0
G01 X20.25 Y112.43 F6000.0
G01 X20.73 Y113.3 F6000.0
G01 X21.22 Y114.18 F6000.0
G01 X21.7 Y115.05 F6000.0
G01 X22.26 Y116.06 F6000.0
G01 X22.25 Y116.24 F6000.0
G01 X22.19 Y117.24 F6000.0
G01 X22.13 Y118.24 F6000.0
G01 X22.01 Y120.24 F6000.0
G01 X21.94 Y121.42 F6000.0
G01 X21.98 Y121.62 F6000.0
G01 X22.16 Y122.6 F6000.0
G01 X22.33 Y123.59 F6000.0
G01 X22.51 Y124.57 F6000.0
G01 X22.68 Y125.56 F6000.0
G01 X22.9 Y126.74 F6000.0
G01 X23.02 Y126.87 F6000.0
G01 X23.69 Y127.6 F6000.0
G01 X24.37 Y128.34 F6000.0
G01 X25.17 Y129.2 F6000.0
G01 X25.47 Y129.31 F6000.0
G01 X26.7 Y129.75 F6000.0
G01 X27.07 Y129.7 F6000.0
G01 X28.43 Y129.49 F6000.0
G01 X28.57 Y129.39 F6000.0
G01 X29.39 Y128.82 F6000.0
G01 X30.22 Y128.25 F6000.0
G01 X31.04 Y127.68 F6000.0
G01 X32.0 Y127.02 F6000.0
G01 X32.14 Y126.87 F6000.0
G01 X32.83 Y126.14 F6000.0
G01 X33.51 Y125.41 F6000.0
G01 X34.19 Y124.67 F6000.0
G01 X35.02 Y123.79 F6000.0
G01 X35.07 F6000.0
G01 X36.07 Y123.73 F6000.0
G01 X37.12 Y123.67 F6000.0
G01 X37.29 Y123.71 F6000.0
G01 X38.26 Y123.94 F6000.0
G01 X39.4 Y124.2 F6000.0
G01 X39.84 Y124.23 F6000.0
G01 X40.84 Y124.28 F6000.0
G01 X41.84 Y124.34 F6000.0
G01 X42.84 Y124.39 F6000.0
G01 X43.83 Y124.44 F6000.0
G01 X45.27 Y124.52 F6000.0
G01 X45.69 Y124.47 F6000.0
G01 X46.68 Y124.35 F6000.0
G01 X47.67 Y124.23 F6000.0
G01 X48.66 Y124.11 F6000.0
G01 X49.66 Y123.99 F6000.0
G01 X51.06 Y123.82 F6000.0
G01 X51.17 Y124.0 F6000.0
G01 X51.7 Y124.85 F6000.0
G01 X52.23 Y125.7 F6000.0
G01 X52.86 Y126.73 F6000.0
G01 X53.06 Y126.9 F6000.0
G01 X53.8 Y127.57 F6000.0
G01 X54.55 Y128.24 F6000.0
G01 X55.49 Y129.08 F6000.0
G01 X55.76 Y129.17 F6000.0
G01 X56.72 Y129.47 F6000.0
G01 X57.67 Y129.77 F6000.0
G01 X58.91 Y130.15 F6000.0
G01 X59.2 Y130.07 F6000.0
G01 X61.14 Y129.56 F6000.0
G01 X62.4 Y129.22 F6000.0
G01 X62.48 Y129.15 F6000.0
G01 X63.99 Y127.84 F6000.0
G01 X64.83 Y127.11 F6000.0
G01 X64.88 Y126.94 F6000.0
G01 X65.22 Y126.0 F6000.0
G01 X65.55 Y125.06 F6000.0
G01 X65.94 Y123.95 F6000.0
G01 X65.98 Y123.78 F6000.0
G01 X66.19 Y122.8 F6000.0
G01 X66.43 Y121.65 F6000.0
G01 X66.5 Y121.55 F6000.0
G01 X67.09 Y120.74 F6000.0
G01 X67.75 Y119.84 F6000.0
G01 X67.92 Y119.64 F6000.0
G01 X68.59 Y118.9 F6000.0
G01 X69.93 Y117.42 F6000.0
G01 X70.6 Y116.67 F6000.0
G01 X71.27 Y115.93 F6000.0
G01 X72.11 Y115.0 F6000.0
G01 X72.37 Y114.65 F6000.0
G01 X72.97 Y113.85 F6000.0
G01 X73.57 Y113.05 F6000.0
G01 X74.42 Y111.9 F6000.0
G01 X74.51 Y111.79 F6000.0
G01 X75.15 Y111.01 F6000.0
G01 X75.87 Y110.13 F6000.0
G01 X76.12 Y109.74 F6000.0
G01 X76.67 Y108.91 F6000.0
G01 X77.47 Y107.68 F6000.0
G01 X77.67 Y107.31 F6000.0
G01 X78.15 Y106.43 F6000.0
G01 X78.63 Y105.55 F6000.0
G01 X79.11 Y104.67 F6000.0
G01 X79.59 Y103.79 F6000.0
G01 X80.07 Y102.92 F6000.0
G01 X80.76 Y101.66 F6000.0
G01 X80.81 Y101.45 F6000.0
G01 X81.3 Y99.51 F6000.0
G01 X81.59 Y98.33 F6000.0
G01 X81.6 Y98.1 F6000.0
G01 X81.63 Y97.1 F6000.0
G01 X81.66 Y96.1 F6000.0
G01 X81.7 Y94.86 F6000.0
G01 X81.67 Y94.53 F6000.0
G01 X81.59 Y93.53 F6000.0
G01 X81.36 Y90.54 F6000.0
G01 X81.28 Y89.55 F6000.0
G01 X81.12 Y87.55 F6000.0
G01 X81.02 Y86.22 F6000.0
G01 F6000.0
G01 X80.92 Y85.22 F6000.0
G01 X80.82 Y84.23 F6000.0
G01 X80.72 Y83.23 F6000.0
G01 X80.62 Y82.24 F6000.0
G01 X80.52 Y81.24 F6000.0
G01 X80.42 Y80.25 F6000.0
G01 X80.32 Y79.25 F6000.0
G01 X80.22 Y78.25 F6000.0
G01 Y78.22 F6000.0
G01 X80.21 Y74.22 F6000.0
G01 Y73.22 F6000.0
G01 Y71.22 F6000.0
G01 X80.2 Y70.19 F6000.0
G01 X80.29 Y69.93 F6000.0
G01 X80.6 Y68.98 F6000.0
G01 X80.92 Y68.03 F6000.0
G01 X82.17 Y64.23 F6000.0
G01 X82.48 Y63.28 F6000.0
G01 X83.11 Y61.38 F6000.0
G01 X83.5 Y60.17 F6000.0
G01 X83.52 Y60.11 F6000.0
G01 X83.84 Y59.17 F6000.0
G01 X84.16 Y58.22 F6000.0
G01 X84.48 Y57.27 F6000.0
G01 X84.8 Y56.33 F6000.0
G01 X85.12 Y55.38 F6000.0
G01 X85.46 Y54.37 F6000.0
G01 X85.51 Y54.2 F6000.0
G01 X86.03 Y52.27 F6000.0
G01 X86.29 Y51.3 F6000.0
G01 X86.81 Y49.37 F6000.0
G01 X87.11 Y48.23 F6000.0
G01 X87.13 Y48.07 F6000.0
G01 X87.37 Y46.08 F6000.0
G01 X87.49 Y45.09 F6000.0
G01 X87.73 Y43.11 F6000.0
G01 X87.87 Y41.95 F6000.0
G01 X87.86 Y41.83 F6000.0
G01 X87.74 Y39.84 F6000.0
G01 X87.69 Y38.84 F6000.0
G01 X87.62 Y37.84 F6000.0
G01 X87.5 Y35.84 F6000.0
G01 X87.44 Y34.73 F6000.0
G01 X87.34 Y34.45 F6000.0
G01 X87.02 Y33.5 F6000.0
G01 X86.69 Y32.56 F6000.0
G01 X86.27 Y31.34 F6000.0
G01 X86.13 Y31.13 F6000.0
G01 X85.59 Y30.29 F6000.0
G01 X85.04 Y29.45 F6000.0
G01 X84.36 Y28.4 F6000.0
G01 X84.26 Y28.29 F6000.0
G01 X83.59 Y27.55 F6000.0
G01 X82.92 Y26.8 F6000.0
G01 X82.25 Y26.06 F6000.0
G01 X81.48 Y25.2 F6000.0
G01 X81.2 Y25.0 F6000.0
G01 X80.11 Y24.21 F6000.0
G01 X80.04 Y24.19 F6000.0
G01 X79.07 Y23.93 F6000.0
G01 X78.11 Y23.66 F6000.0
G01 X77.14 Y23.4 F6000.0
G01 X76.18 Y23.14 F6000.0
G01 X75.14 Y22.86 F6000.0
G01 X75.01 F6000.0
G01 X74.01 Y22.9 F6000.0
G01 X72.02 Y22.97 F6000.0
G01 X71.02 Y23.01 F6000.0
G01 X69.89 Y23.05 F6000.0
G01 X69.47 Y23.26 F6000.0
G01 X67.67 Y24.14 F6000.0
G01 X66.35 Y24.79 F6000.0
G01 X66.33 Y24.81 F6000.0
G01 X65.69 Y25.58 F6000.0
G01 X65.05 Y26.35 F6000.0
G01 X64.41 Y27.11 F6000.0
G01 X63.74 Y27.9 F6000.0
G01 X63.53 Y28.28 F6000.0
G01 X63.04 Y29.15 F6000.0
G01 X62.55 Y30.02 F6000.0
G01 X62.06 Y30.89 F6000.0
G01 X61.57 Y31.76 F6000.0
G01 X61.08 Y32.63 F6000.0
G01 X60.38 Y33.88 F6000.0
G01 X60.35 Y33.92 F6000.0
G01 X58.11 Y37.22 F6000.0
G01 X57.52 Y38.09 F6000.0
G01 X57.42 Y38.39 F6000.0
G01 X56.99 Y39.62 F6000.0
G01 X56.82 Y39.8 F6000.0
G01 X55.99 Y40.72 F6000.0
G01 X55.66 Y41.06 F6000.0
G01 X54.64 Y42.12 F6000.0
G01 X54.7 Y42.52 F6000.0
G01 X54.9 Y43.9 F6000.0
G01 X54.67 Y44.21 F6000.0
G01 X53.83 Y45.3 F6000.0
G01 X53.79 Y45.71 F6000.0
G01 X53.66 Y47.12 F6000.0
G01 X53.8 Y47.38 F6000.0
G01 X54.28 Y48.26 F6000.0
G01 X54.76 Y49.14 F6000.0
G01 X55.38 Y50.28 F6000.0
G01 X55.52 Y50.35 F6000.0
G01 X56.41 Y50.81 F6000.0
G01 X57.45 Y51.33 F6000.0
G01 X57.89 Y51.36 F6000.0
G01 X58.89 Y51.41 F6000.0
G01 X60.89 Y51.51 F6000.0
G01 X62.33 Y51.58 F6000.0
G01 X62.74 Y51.47 F6000.0
G01 X63.71 Y51.2 F6000.0
G01 X65.64 Y50.67 F6000.0
G01 X67.01 Y50.29 F6000.0
G01 X67.4 Y50.07 F6000.0
G01 X68.26 Y49.57 F6000.0
G01 X70.86 Y48.07 F6000.0
G01 X72.11 Y47.35 F6000.0
G01 X72.47 Y47.06 F6000.0
G01 X73.25 Y46.42 F6000.0
G01 X74.02 Y45.79 F6000.0
G01 X74.8 Y45.16 F6000.0
G01 X75.57 Y44.53 F6000.0
G01 X76.71 Y43.61 F6000.0
G01 X76.74 Y43.57 F6000.0
G01 X77.35 Y42.78 F6000.0
G01 X77.96 Y41.99 F6000.0
G01 X78.6 Y41.16 F6000.0
G01 X78.87 Y40.76 F6000.0
G01 X79.72 Y39.54 F6000.0
G01 X79.75 Y39.4 F6000.0
G01 X79.94 Y38.42 F6000.0
G01 X80.15 Y37.3 F6000.0
G01 X80.17 Y37.55 F6000.0
G01 X80.31 Y38.79 F6000.0
G01 X80.23 Y39.04 F6000.0
G01 X79.82 Y40.24 F6000.0
G01 X79.79 Y40.29 F6000.0
G01 X79.28 Y41.15 F6000.0
G01 X78.77 Y42.01 F6000.0
G01 X78.22 Y42.92 F6000.0
G01 X77.89 Y43.28 F6000.0
G01 X77.21 Y44.01 F6000.0
G01 X76.53 Y44.74 F6000.0
G01 X75.85 Y45.47 F6000.0
G01 X75.17 Y46.2 F6000.0
G01 X74.15 Y47.29 F6000.0
G01 X74.01 Y47.4 F6000.0
G01 X73.22 Y48.02 F6000.0
G01 X72.44 Y48.64 F6000.0
G01 X71.65 Y49.26 F6000.0
G01 X70.72 Y50.0 F6000.0
G01 X70.76 Y50.31 F6000.0
G01 X70.88 Y51.3 F6000.0
G01 X71.05 Y52.61 F6000.0
G01 X70.64 Y53.41 F6000.0
G01 X70.58 Y53.38 F6000.0
G01 X69.59 Y52.97 F6000.0
G01 X69.54 Y52.94 F6000.0
G01 X68.63 Y52.53 F6000.0
G01 X67.72 Y52.11 F6000.0
G01 X66.76 Y51.68 F6000.0
G01 X66.33 Y51.74 F6000.0
G01 X64.35 Y52.01 F6000.0
G01 X63.36 Y52.15 F6000.0
G01 X62.37 Y52.28 F6000.0
G01 X60.94 Y52.48 F6000.0
G01 X60.82 Y52.46 F6000.0
G01 X59.84 Y52.28 F6000.0
G01 X58.86 Y52.1 F6000.0
G01 X57.87 Y51.92 F6000.0
G01 X56.89 Y51.74 F6000.0
G01 X55.79 Y51.54 F6000.0
G01 X55.78 Y51.53 F6000.0
G01 X55.01 Y50.91 F6000.0
G01 X54.22 Y50.27 F6000.0
G01 X54.04 Y49.88 F6000.0
G01 X53.43 Y48.57 F6000.0
G01 X53.29 Y48.44 F6000.0
G01 X52.41 Y47.61 F6000.0
G01 X51.92 Y47.6 F6000.0
G01 X50.43 Y47.55 F6000.0
G01 X50.37 Y47.56 F6000.0
G01 X48.37 Y47.61 F6000.0
G01 X47.38 Y47.64 F6000.0
G01 X46.32 Y47.67 F6000.0
G01 X45.99 Y47.69 F6000.0
G01 X44.99 Y47.73 F6000.0
G01 X41.99 Y47.89 F6000.0
G01 X40.99 Y47.94 F6000.0
G01 X40.0 Y47.98 F6000.0
G01 X39.0 Y48.03 F6000.0
G01 X38.0 Y48.08 F6000.0
G01 X37.0 Y48.13 F6000.0
G01 X36.0 Y48.18 F6000.0
G01 X34.67 Y48.25 F6000.0
G01 X34.34 Y48.27 F6000.0
G01 X33.34 Y48.32 F6000.0
G01 X32.35 Y48.38 F6000.0
G01 X31.35 Y48.43 F6000.0
G01 X30.35 Y48.48 F6000.0
G01 X29.35 Y48.54 F6000.0
G01 X28.35 Y48.59 F6000.0
G01 X27.35 Y48.64 F6000.0
G01 X26.36 Y48.7 F6000.0
G01 X24.36 Y48.81 F6000.0
G01 X23.04 Y48.88 F6000.0
G01 X23.02 Y48.87 F6000.0
G01 X22.1 Y48.43 F6000.0
G01 X22.09 Y48.41 F6000.0
G01 X21.75 Y47.45 F6000.0
G01 X21.64 Y46.98 F6000.0
G01 X21.42 Y46.0 F6000.0
G01 X21.2 Y45.03 F6000.0
G01 X20.75 Y43.08 F6000.0
G01 X20.53 Y42.1 F6000.0
G01 X19.42 Y37.23 F6000.0
G01 X19.2 Y36.25 F6000.0
G01 X18.76 Y34.3 F6000.0
G01 X18.53 Y33.33 F6000.0
G01 X18.21 Y31.89 F6000.0
G01 X18.2 Y31.83 F6000.0
G01 X18.11 Y30.84 F6000.0
G01 X18.02 Y29.84 F6000.0
G01 X17.76 Y26.86 F6000.0
G01 X17.67 Y25.86 F6000.0
G01 X17.31 Y21.87 F6000.0
G01 X17.22 Y20.88 F6000.0
G01 X17.13 Y19.83 F6000.0
G01 X17.59 Y19.8 F6000.0
G01 X18.59 Y19.72 F6000.0
G01 X19.59 Y19.65 F6000.0
G01 X20.59 Y19.57 F6000.0
G01 X21.58 Y19.5 F6000.0
G01 X22.58 Y19.42 F6000.0
G01 X24.58 Y19.28 F6000.0
G01 X25.57 Y19.2 F6000.0
G01 X26.57 Y19.13 F6000.0
G01 X28.03 Y19.02 F6000.0
G01 X28.11 Y19.01 F6000.0
G01 X29.11 Y18.97 F6000.0
G01 X30.11 Y18.93 F6000.0
G01 X31.11 Y18.88 F6000.0
G01 X33.1 Y18.79 F6000.0
G01 X34.1 Y18.75 F6000.0
G01 X35.1 Y18.7 F6000.0
G01 X36.1 Y18.66 F6000.0
G01 X37.1 Y18.62 F6000.0
G01 X38.17 Y18.57 F6000.0
G01 X38.23 F6000.0
G01 X40.23 Y18.6 F6000.0
G01 X41.23 Y18.62 F6000.0
G01 X43.23 Y18.66 F6000.0
G01 X44.23 Y18.68 F6000.0
G01 X45.23 Y18.69 F6000.0
G01 X46.23 Y18.71 F6000.0
G01 X47.23 Y18.73 F6000.0
G01 X48.29 Y18.75 F6000.0
G01 X48.37 Y18.76 F6000.0
G01 X49.36 Y18.91 F6000.0
G01 X50.35 Y19.07 F6000.0
G01 X51.42 Y19.23 F6000.0
G01 X51.43 F6000.0
G01 X52.38 Y19.56 F6000.0
G01 X53.32 Y19.89 F6000.0
G01 X54.28 Y20.22 F6000.0
G01 X54.37 Y20.71 F6000.0
G01 X54.53 Y21.7 F6000.0
G01 X54.7 Y22.69 F6000.0
G01 X54.87 Y23.67 F6000.0
G01 X55.04 Y24.66 F6000.0
G01 X55.21 Y25.64 F6000.0
G01 X55.38 Y26.63 F6000.0
G01 X55.63 Y28.11 F6000.0
G01 Y28.12 F6000.0
G01 X55.58 Y29.12 F6000.0
G01 X55.53 Y30.12 F6000.0
G01 X55.48 Y31.11 F6000.0
G01 X55.42 Y32.11 F6000.0
G01 X55.37 Y33.11 F6000.0
G01 X55.32 Y34.11 F6000.0
G01 X55.27 Y35.11 F6000.0
G01 X55.22 Y36.12 F6000.0
G01 X55.19 Y36.51 F6000.0
G01 X55.11 Y37.89 F6000.0
G01 X55.18 Y38.21 F6000.0
G01 X55.46 Y39.51 F6000.0
G01 X56.23 Y39.66 F6000.0
G01 X56.66 Y38.96 F6000.0
G01 X56.79 Y38.53 F6000.0
G01 X57.22 Y37.16 F6000.0
G01 X57.31 Y36.92 F6000.0
G01 X58.02 Y35.05 F6000.0
G01 X58.37 Y34.12 F6000.0
G01 X58.72 Y33.18 F6000.0
G01 X59.08 Y32.25 F6000.0
G01 X59.43 Y31.31 F6000.0
G01 X59.78 Y30.38 F6000.0
G01 X60.14 Y29.44 F6000.0
G01 X60.58 Y28.27 F6000.0
G01 X60.74 Y27.97 F6000.0
G01 X61.23 Y27.09 F6000.0
G01 X61.88 Y25.92 F6000.0
G01 X62.15 Y25.7 F6000.0
G01 X62.94 Y25.09 F6000.0
G01 X64.01 Y24.26 F6000.0
G01 X64.45 Y24.16 F6000.0
G01 X65.85 Y23.81 F6000.0
G01 X65.67 Y23.02 F6000.0
G01 X65.43 Y22.93 F6000.0
G01 X64.24 Y22.53 F6000.0
G01 X63.77 Y22.64 F6000.0
G01 X62.33 Y22.98 F6000.0
G01 X62.06 Y23.21 F6000.0
G01 X60.55 Y24.53 F6000.0
G01 X59.53 Y25.42 F6000.0
G01 X59.34 Y25.76 F6000.0
G01 X58.38 Y27.52 F6000.0
G01 X57.71 Y28.74 F6000.0
G01 X57.7 Y28.51 F6000.0
G01 X57.67 Y26.51 F6000.0
G01 X57.65 Y25.51 F6000.0
G01 X57.64 Y24.51 F6000.0
G01 X57.62 Y23.28 F6000.0
G01 X57.56 Y23.1 F6000.0
G01 X56.92 Y21.21 F6000.0
G01 X56.59 Y20.26 F6000.0
G01 X56.27 Y19.31 F6000.0
G01 X55.89 Y18.19 F6000.0
G01 X55.81 Y18.16 F6000.0
G01 X53.89 Y17.6 F6000.0
G01 X52.93 Y17.32 F6000.0
G01 X51.97 Y17.03 F6000.0
G01 X50.93 Y16.73 F6000.0
G01 X50.72 Y16.71 F6000.0
G01 X49.72 Y16.65 F6000.0
G01 X46.72 Y16.47 F6000.0
G01 X45.51 Y16.39 F6000.0
G01 X45.47 F6000.0
G01 X43.47 Y16.38 F6000.0
G01 X42.47 F6000.0
G01 X40.47 Y16.37 F6000.0
G01 X39.47 Y16.36 F6000.0
G01 X38.47 F6000.0
G01 X37.43 Y16.35 F6000.0
G01 F6000.0
M5
G00 X36.3 Y19.58 F6000.0
M3 F6000.0
G01 X36.23 Y19.59 F6000.0
G01 X35.25 Y19.79 F6000.0
G01 X34.27 Y19.99 F6000.0
G01 X33.23 Y20.2 F6000.0
G01 X32.83 Y20.19 F6000.0
G01 X31.83 Y20.17 F6000.0
G01 X30.42 Y20.15 F6000.0
G01 X30.04 Y20.18 F6000.0
G01 X29.04 Y20.26 F6000.0
G01 X28.05 Y20.33 F6000.0
G01 X26.67 Y20.43 F6000.0
G01 X26.33 Y20.52 F6000.0
G01 X25.03 Y20.85 F6000.0
G01 X24.98 Y21.13 F6000.0
G01 X24.78 Y22.39 F6000.0
G01 X24.82 Y22.56 F6000.0
G01 X25.07 Y23.71 F6000.0
G01 X25.19 Y23.81 F6000.0
G01 X26.09 Y24.53 F6000.0
G01 X26.46 Y24.69 F6000.0
G01 X27.38 Y25.08 F6000.0
G01 X28.68 Y25.64 F6000.0
G01 X28.9 Y25.73 F6000.0
G01 X29.82 Y26.14 F6000.0
G01 X30.73 Y26.54 F6000.0
G01 X31.87 Y27.04 F6000.0
G01 X31.49 Y27.77 F6000.0
G01 X31.46 Y27.78 F6000.0
G01 X30.45 Y27.97 F6000.0
G01 X30.32 Y28.0 F6000.0
G01 X29.34 Y28.21 F6000.0
G01 X28.23 Y28.45 F6000.0
G01 X27.95 Y28.54 F6000.0
G01 X27.0 Y28.87 F6000.0
G01 X25.78 Y29.28 F6000.0
G01 X25.71 Y29.34 F6000.0
G01 X24.9 Y30.06 F6000.0
G01 X24.88 Y30.24 F6000.0
G01 X24.76 Y31.41 F6000.0
G01 Y31.55 F6000.0
G01 X24.82 Y32.55 F6000.0
G01 X24.86 Y33.55 F6000.0
G01 X24.91 Y34.55 F6000.0
G01 X24.97 Y35.54 F6000.0
G01 X25.02 Y36.54 F6000.0
G01 X25.07 Y37.54 F6000.0
G01 X25.12 Y38.68 F6000.0
G01 X25.13 Y38.72 F6000.0
G01 X25.31 Y39.7 F6000.0
G01 X25.5 Y40.68 F6000.0
G01 X25.68 Y41.67 F6000.0
G01 X25.86 Y42.65 F6000.0
G01 X26.05 Y43.63 F6000.0
G01 X26.23 Y44.61 F6000.0
G01 X26.42 Y45.63 F6000.0
G01 X26.7 Y45.82 F6000.0
G01 X27.81 Y46.57 F6000.0
G01 X28.23 Y46.58 F6000.0
G01 X29.65 Y46.63 F6000.0
G01 X30.02 Y46.61 F6000.0
G01 X31.02 Y46.57 F6000.0
G01 X32.02 Y46.53 F6000.0
G01 X33.4 Y46.47 F6000.0
G01 X33.45 F6000.0
G01 X34.45 Y46.42 F6000.0
G01 X35.45 Y46.36 F6000.0
G01 X36.44 Y46.31 F6000.0
G01 X37.44 Y46.25 F6000.0
G01 X38.44 Y46.2 F6000.0
G01 X39.49 Y46.14 F6000.0
G01 X39.96 Y46.05 F6000.0
G01 X40.95 Y45.86 F6000.0
G01 X42.41 Y45.58 F6000.0
G01 X42.85 Y45.36 F6000.0
G01 X43.74 Y44.9 F6000.0
G01 X45.07 Y44.21 F6000.0
G01 X45.08 Y44.2 F6000.0
G01 X45.95 Y43.71 F6000.0
G01 X46.84 Y43.22 F6000.0
G01 X47.03 Y42.82 F6000.0
G01 X47.64 Y41.51 F6000.0
G01 Y41.33 F6000.0
G01 X47.61 Y40.33 F6000.0
G01 X47.59 Y39.33 F6000.0
G01 X47.52 Y36.33 F6000.0
G01 X47.5 Y35.33 F6000.0
G01 X47.47 Y34.15 F6000.0
G01 X47.42 Y33.83 F6000.0
G01 X47.27 Y32.84 F6000.0
G01 X47.11 Y31.86 F6000.0
G01 X46.91 Y30.55 F6000.0
G01 X46.81 Y30.28 F6000.0
G01 X46.48 Y29.34 F6000.0
G01 X46.14 Y28.4 F6000.0
G01 X45.71 Y27.19 F6000.0
G01 X45.3 Y27.01 F6000.0
G01 X43.98 Y26.41 F6000.0
G01 X44.39 Y26.34 F6000.0
G01 X45.79 Y26.11 F6000.0
G01 X45.83 Y25.81 F6000.0
G01 X45.98 Y24.82 F6000.0
G01 X46.17 Y23.53 F6000.0
G01 X45.96 Y23.36 F6000.0
G01 X45.18 Y22.73 F6000.0
G01 X44.18 Y21.93 F6000.0
G01 X44.09 Y21.89 F6000.0
G01 X43.19 Y21.46 F6000.0
G01 X42.28 Y21.03 F6000.0
G01 X41.38 Y20.6 F6000.0
G01 X40.39 Y20.13 F6000.0
G01 X40.32 Y20.12 F6000.0
G01 X37.35 Y19.72 F6000.0
G01 X36.3 Y19.58 F6000.0
G01 F6000.0
M5
G00 X38.38 Y19.96 F6000.0
M3 F6000.0
G01 X38.68 Y20.08 F6000.0
G01 X40.54 Y20.82 F6000.0
G01 X41.47 Y21.19 F6000.0
G01 X42.7 Y21.69 F6000.0
G01 X42.81 Y21.73 F6000.0
G01 X43.73 Y22.14 F6000.0
G01 X44.76 Y22.58 F6000.0
G01 Y22.59 F6000.0
G01 X45.6 Y23.15 F6000.0
G01 Y23.17 F6000.0
G01 X45.81 Y24.16 F6000.0
G01 Y24.29 F6000.0
G01 X45.87 Y25.42 F6000.0
G01 X45.04 Y25.94 F6000.0
G01 X44.59 Y26.1 F6000.0
G01 X43.21 Y26.58 F6000.0
G01 X43.67 Y26.7 F6000.0
G01 X45.1 Y27.07 F6000.0
G01 X45.31 Y27.41 F6000.0
G01 X46.08 Y28.58 F6000.0
G01 X46.13 Y28.92 F6000.0
G01 X46.3 Y29.91 F6000.0
G01 X46.46 Y30.9 F6000.0
G01 X46.79 Y32.87 F6000.0
G01 X46.95 Y33.86 F6000.0
G01 X47.17 Y35.18 F6000.0
G01 Y35.54 F6000.0
G01 X47.16 Y36.54 F6000.0
G01 X47.15 Y39.54 F6000.0
G01 X47.14 Y40.54 F6000.0
G01 X47.13 Y41.9 F6000.0
G01 X46.85 Y42.24 F6000.0
G01 X45.93 Y43.36 F6000.0
G01 X45.87 Y43.38 F6000.0
G01 X44.98 Y43.83 F6000.0
G01 X44.02 Y44.3 F6000.0
G01 X43.66 Y44.46 F6000.0
G01 X42.74 Y44.86 F6000.0
G01 X41.46 Y45.42 F6000.0
G01 X41.05 Y45.48 F6000.0
G01 X40.06 Y45.61 F6000.0
G01 X38.66 Y45.81 F6000.0
G01 X38.29 Y45.83 F6000.0
G01 X36.3 Y45.96 F6000.0
G01 X35.3 Y46.02 F6000.0
G01 X34.3 Y46.09 F6000.0
G01 X32.94 Y46.17 F6000.0
G01 X32.55 Y46.19 F6000.0
G01 X31.55 Y46.22 F6000.0
G01 X30.55 Y46.24 F6000.0
G01 X29.17 Y46.28 F6000.0
G01 X28.8 Y46.2 F6000.0
G01 X27.45 Y45.92 F6000.0
G01 X27.2 Y45.6 F6000.0
G01 X26.34 Y44.49 F6000.0
G01 X26.32 Y44.34 F6000.0
G01 X26.2 Y43.34 F6000.0
G01 X25.94 Y41.36 F6000.0
G01 X25.82 Y40.37 F6000.0
G01 X25.56 Y38.39 F6000.0
G01 X25.42 Y37.24 F6000.0
G01 Y37.09 F6000.0
G01 X25.41 Y36.09 F6000.0
G01 X25.39 Y34.09 F6000.0
G01 X25.37 Y33.09 F6000.0
G01 X25.36 Y32.09 F6000.0
G01 X25.35 Y31.09 F6000.0
G01 X25.34 Y29.95 F6000.0
G01 X25.43 Y29.92 F6000.0
G01 X26.36 Y29.55 F6000.0
G01 X27.29 Y29.18 F6000.0
G01 X28.22 Y28.81 F6000.0
G01 X29.23 Y28.41 F6000.0
G01 X29.25 F6000.0
G01 X30.24 Y28.33 F6000.0
G01 X31.24 Y28.24 F6000.0
G01 X32.24 Y28.15 F6000.0
G01 X33.25 Y28.06 F6000.0
G01 X33.62 Y28.04 F6000.0
G01 X34.62 Y27.99 F6000.0
G01 X35.62 Y27.93 F6000.0
G01 X36.61 Y27.88 F6000.0
G01 X37.98 Y27.8 F6000.0
G01 X38.3 Y27.71 F6000.0
G01 X39.27 Y27.45 F6000.0
G01 X40.23 Y27.2 F6000.0
G01 X41.2 Y26.94 F6000.0
G01 X42.49 Y26.59 F6000.0
G01 X42.41 Y26.6 F6000.0
G01 X40.44 Y26.9 F6000.0
G01 X39.45 Y27.05 F6000.0
G01 X38.46 Y27.2 F6000.0
G01 X37.4 Y27.36 F6000.0
G01 X37.26 Y27.37 F6000.0
G01 X35.27 Y27.56 F6000.0
G01 X34.27 Y27.66 F6000.0
G01 X33.28 Y27.75 F6000.0
G01 X32.15 Y27.86 F6000.0
G01 Y27.84 F6000.0
G01 X32.07 Y26.84 F6000.0
G01 X31.98 Y25.82 F6000.0
G01 X32.25 Y25.6 F6000.0
G01 X33.3 Y24.76 F6000.0
G01 X33.58 Y24.75 F6000.0
G01 X35.58 Y24.66 F6000.0
G01 X36.58 Y24.62 F6000.0
G01 X37.85 Y24.56 F6000.0
G01 X38.17 Y24.65 F6000.0
G01 X39.13 Y24.92 F6000.0
G01 X40.42 Y25.27 F6000.0
G01 X41.22 Y25.43 F6000.0
G01 X40.37 Y24.99 F6000.0
G01 X40.22 Y24.96 F6000.0
G01 X39.24 Y24.74 F6000.0
G01 X38.27 Y24.53 F6000.0
G01 X37.29 Y24.32 F6000.0
G01 X36.16 Y24.07 F6000.0
G01 X35.97 Y24.09 F6000.0
G01 X34.98 Y24.22 F6000.0
G01 X33.98 Y24.34 F6000.0
G01 X32.99 Y24.47 F6000.0
G01 X31.81 Y24.62 F6000.0
G01 X31.86 Y24.91 F6000.0
G01 X32.07 Y26.18 F6000.0
G01 X31.54 Y26.6 F6000.0
G01 X31.34 Y26.52 F6000.0
G01 X30.43 Y26.12 F6000.0
G01 X29.32 Y25.64 F6000.0
G01 X29.17 Y25.57 F6000.0
G01 X28.28 Y25.11 F6000.0
G01 X27.39 Y24.66 F6000.0
G01 X26.5 Y24.2 F6000.0
G01 X25.46 Y23.67 F6000.0
G01 X25.38 Y23.3 F6000.0
G01 X25.08 Y21.95 F6000.0
G01 X25.2 Y21.85 F6000.0
G01 X26.08 Y21.1 F6000.0
G01 X26.33 Y21.06 F6000.0
G01 X27.32 Y20.93 F6000.0
G01 X28.32 Y20.79 F6000.0
G01 X29.56 Y20.62 F6000.0
G01 X29.69 Y20.61 F6000.0
G01 X30.69 Y20.56 F6000.0
G01 X31.82 Y20.49 F6000.0
G01 X32.63 Y21.02 F6000.0
G01 X32.64 Y21.06 F6000.0
G01 X32.91 Y22.07 F6000.0
G01 X33.67 Y22.52 F6000.0
G01 X33.32 Y22.4 F6000.0
G01 X32.36 Y22.28 F6000.0
G01 X32.73 Y22.47 F6000.0
G01 X34.0 Y23.12 F6000.0
G01 X34.77 Y23.22 F6000.0
G01 X34.76 Y22.62 F6000.0
G01 X34.52 Y22.52 F6000.0
G01 X33.38 Y22.0 F6000.0
G01 X33.33 Y21.8 F6000.0
G01 X33.01 Y20.63 F6000.0
G01 X33.31 Y20.56 F6000.0
G01 X34.28 Y20.32 F6000.0
G01 X35.55 Y20.0 F6000.0
G01 X35.97 F6000.0
G01 X36.96 Y19.98 F6000.0
G01 X38.38 Y19.96 F6000.0
G01 F6000.0
M5
G00 X39.61 Y20.05 F6000.0
M3 F6000.0
G01 F6000.0
G01 F6000.0
M5
G00 X39.67 Y19.98 F6000.0
M3 F6000.0
G01 F6000.0
G01 F6000.0
M5
G00 X39.61 Y19.85 F6000.0
M3 F6000.0
G01 F6000.0
G01 F6000.0
M5
G00 X43.12 Y21.85 F6000.0
M3 F6000.0
G01 F6000.0
G01 F6000.0
M5
G00 X43.58 Y22.07 F6000.0
M3 F6000.0
G01 F6000.0
G01 F6000.0
M5
G00 X44.4 Y22.1 F6000.0
M3 F6000.0
G01 F6000.0
G01 F6000.0
M5
G00 X46.07 Y23.02 F6000.0
M3 F6000.0
G01 F6000.0
G01 F6000.0
M5
G00 X43.82 Y26.47 F6000.0
M3 F6000.0
G01 X43.88 F6000.0
G01 X43.84 Y26.45 F6000.0
G01 X43.82 Y26.47 F6000.0
G01 F6000.0
M5
G00 X42.34 Y28.52 F6000.0
M3 F6000.0
G01 X42.47 Y29.0 F6000.0
G01 X42.74 Y29.96 F6000.0
G01 X43.27 Y31.89 F6000.0
G01 X43.66 Y33.33 F6000.0
G01 X43.67 Y33.49 F6000.0
G01 X43.75 Y34.48 F6000.0
G01 X43.83 Y35.48 F6000.0
G01 X43.9 Y36.48 F6000.0
G01 X43.98 Y37.48 F6000.0
G01 X44.06 Y38.63 F6000.0
G01 X44.28 Y39.47 F6000.0
G01 X44.29 Y39.42 F6000.0
G01 X44.32 Y38.42 F6000.0
G01 X44.35 Y37.38 F6000.0
G01 X44.31 Y36.98 F6000.0
G01 X44.23 Y35.98 F6000.0
G01 X44.14 Y34.99 F6000.0
G01 X44.05 Y33.99 F6000.0
G01 X43.93 Y32.6 F6000.0
G01 X43.91 Y32.46 F6000.0
G01 X43.73 Y31.48 F6000.0
G01 X43.53 Y30.35 F6000.0
G01 X43.48 Y30.28 F6000.0
G01 X42.94 Y29.44 F6000.0
G01 X42.34 Y28.52 F6000.0
G01 F6000.0
M5
G00 X42.42 Y28.65 F6000.0
M3 F6000.0
G01 F6000.0
G01 F6000.0
M5
G00 X42.8 Y28.9 F6000.0
M3 F6000.0
G01 F6000.0
G01 F6000.0
M5
G00 X41.61 Y30. F6000.0
M3 F6000.0
G01 F6000.0
G01 F6000.0
M5
G00 X39.86 Y28.8 F6000.0
M3 F6000.0
G01 X39.47 Y28.84 F6000.0
G01 X38.47 Y28.93 F6000.0
G01 X37.47 Y29.03 F6000.0
G01 X36.48 Y29.12 F6000.0
G01 X35.48 Y29.21 F6000.0
G01 X34.49 Y29.31 F6000.0
G01 X33.49 Y29.4 F6000.0
G01 X32.5 Y29.49 F6000.0
G01 X31.5 Y29.58 F6000.0
G01 X30.5 Y29.68 F6000.0
G01 X29.51 Y29.77 F6000.0
G01 X28.51 Y29.86 F6000.0
G01 X27.52 Y29.96 F6000.0
G01 X26.13 Y30.09 F6000.0
G01 X26.11 Y30.21 F6000.0
G01 X25.86 Y32.19 F6000.0
G01 X25.73 Y33.19 F6000.0
G01 X25.58 Y34.3 F6000.0
G01 X25.6 Y34.56 F6000.0
G01 X25.66 Y35.56 F6000.0
G01 X25.71 Y36.56 F6000.0
G01 X25.77 Y37.56 F6000.0
G01 X25.84 Y38.82 F6000.0
G01 X25.85 Y38.87 F6000.0
G01 X26.45 Y41.81 F6000.0
G01 X26.65 Y42.79 F6000.0
G01 X26.85 Y43.77 F6000.0
G01 X27.06 Y44.8 F6000.0
G01 X27.3 Y44.91 F6000.0
G01 X28.22 Y45.31 F6000.0
G01 X29.38 Y45.82 F6000.0
G01 X29.86 Y45.83 F6000.0
G01 X30.86 F6000.0
G01 X32.33 Y45.85 F6000.0
G01 X32.34 F6000.0
G01 X34.34 Y45.75 F6000.0
G01 X35.34 Y45.7 F6000.0
G01 X36.34 Y45.65 F6000.0
G01 X37.35 Y45.6 F6000.0
G01 X37.81 Y45.51 F6000.0
G01 X39.77 Y45.13 F6000.0
G01 X40.75 Y44.94 F6000.0
G01 X42.2 Y44.67 F6000.0
G01 X42.26 Y44.47 F6000.0
G01 X42.56 Y43.51 F6000.0
G01 X42.93 Y42.36 F6000.0
G01 Y42.1 F6000.0
G01 X42.95 Y41.1 F6000.0
G01 X42.97 Y39.85 F6000.0
G01 Y39.81 F6000.0
G01 X42.86 Y38.81 F6000.0
G01 X42.76 Y37.82 F6000.0
G01 X42.65 Y36.82 F6000.0
G01 X42.55 Y35.83 F6000.0
G01 X42.44 Y34.79 F6000.0
G01 X42.43 Y34.7 F6000.0
G01 X42.29 Y33.71 F6000.0
G01 X42.16 Y32.71 F6000.0
G01 X42.01 Y31.63 F6000.0
G01 X42.0 Y31.6 F6000.0
G01 X41.63 Y30.67 F6000.0
G01 X41.26 Y29.74 F6000.0
G01 X40.88 Y28.79 F6000.0
G01 X40.87 F6000.0
G01 X39.86 Y28.8 F6000.0
G01 F6000.0
M5
G00 X46.4 Y29.38 F6000.0
M3 F6000.0
G01 F6000.0
G01 F6000.0
M5
G00 X46.43 Y28.91 F6000.0
M3 F6000.0
G01 F6000.0
G01 F6000.0
M5
G00 X45.1 Y34.46 F6000.0
M3 F6000.0
G01 X45.11 Y34.5 F6000.0
G01 X45.34 Y35.48 F6000.0
G01 X45.57 Y36.45 F6000.0
G01 X45.81 Y37.47 F6000.0
G01 X45.96 Y37.88 F6000.0
G01 X46.02 Y37.52 F6000.0
G01 X46.22 Y36.17 F6000.0
G01 X46.2 Y36.15 F6000.0
G01 X45.66 Y35.32 F6000.0
G01 X45.1 Y34.46 F6000.0
G01 F6000.0
M5
G00 X45.6 Y34.8 F6000.0
M3 F6000.0
G01 F6000.0
G01 F6000.0
M5
G00 X45.77 Y35.22 F6000.0
M3 F6000.0
G01 F6000.0
G01 F6000.0
M5
G00 X43.8 Y35.49 F6000.0
M3 F6000.0
G01 X43.82 Y35.55 F6000.0
G01 Y35.43 F6000.0
G01 X43.8 Y35.49 F6000.0
G01 F6000.0
M5
G00 X44.34 Y36.81 F6000.0
M3 F6000.0
G01 X44.36 Y36.85 F6000.0
G01 Y36.76 F6000.0
G01 X44.34 Y36.81 F6000.0
G01 F6000.0
M5
G00 X43.96 Y37.77 F6000.0
M3 F6000.0
G01 X43.98 Y37.79 F6000.0
G01 Y37.73 F6000.0
G01 X43.96 Y37.77 F6000.0
G01 F6000.0
M5
G00 X44.37 Y38.77 F6000.0
M3 F6000.0
G01 X44.39 Y38.81 F6000.0
G01 Y38.73 F6000.0
G01 X44.37 Y38.77 F6000.0
G01 F6000.0
M5
G00 X44.37 Y39.47 F6000.0
M3 F6000.0
G01 X44.39 Y39.49 F6000.0
G01 Y39.42 F6000.0
G01 X44.37 Y39.47 F6000.0
G01 F6000.0
M5
G00 X44.11 Y39.77 F6000.0
M3 F6000.0
G01 X44.12 Y39.83 F6000.0
G01 Y39.69 F6000.0
G01 X44.11 Y39.77 F6000.0
G01 F6000.0
M5
G00 X42.95 Y40.85 F6000.0
M3 F6000.0
G01 X42.97 Y40.91 F6000.0
G01 Y40.78 F6000.0
G01 X42.95 Y40.85 F6000.0
G01 F6000.0
M5
G00 X44.83 Y44.08 F6000.0
M3 F6000.0
G01 F6000.0
G01 F6000.0
M5
G00 X45.37 Y43.75 F6000.0
M3 F6000.0
G01 F6000.0
G01 F6000.0
M5
G00 X44.1 Y44.68 F6000.0
M3 F6000.0
G01 F6000.0
G01 F6000.0
M5
G00 X43.99 Y46.41 F6000.0
M3 F6000.0
G01 X44.12 F6000.0
G01 X44.05 Y46.39 F6000.0
G01 X43.99 Y46.41 F6000.0
G01 F6000.0
M5
G00 X45.21 Y46.41 F6000.0
M3 F6000.0
G01 X45.27 F6000.0
G01 X45.23 Y46.39 F6000.0
G01 X45.21 Y46.41 F6000.0
G01 F6000.0
M5
G00 X45.04 Y47.18 F6000.0
M3 F6000.0
G01 X45.1 F6000.0
G01 X45.06 Y47.16 F6000.0
G01 X45.04 Y47.18 F6000.0
G01 F6000.0
M5
G00 X46.41 Y47.66 F6000.0
M3 F6000.0
G01 X46.53 F6000.0
G01 X46.47 Y47.64 F6000.0
G01 X46.41 Y47.66 F6000.0
G01 F6000.0
M5
G00 X46.46 Y46.38 F6000.0
M3 F6000.0
G01 X46.52 Y46.37 F6000.0
G01 X46.48 Y46.35 F6000.0
G01 X46.46 Y46.37 F6000.0
G01 Y46.38 F6000.0
M5
G00 X47.1 Y46.37 F6000.0
M3 F6000.0
G01 X46.62 Y46.39 F6000.0
G01 X45.62 Y46.43 F6000.0
G01 X43.62 Y46.51 F6000.0
G01 X42.62 Y46.55 F6000.0
G01 X41.62 Y46.58 F6000.0
G01 X40.62 Y46.62 F6000.0
G01 X38.62 Y46.7 F6000.0
G01 X37.14 Y46.76 F6000.0
G01 X36.66 Y46.8 F6000.0
G01 X35.66 Y46.88 F6000.0
G01 X34.66 Y46.96 F6000.0
G01 X32.67 Y47.11 F6000.0
G01 X31.67 Y47.19 F6000.0
G01 X29.68 Y47.35 F6000.0
G01 X28.68 Y47.43 F6000.0
G01 X27.21 Y47.55 F6000.0
G01 X27.2 F6000.0
G01 X25.2 Y47.58 F6000.0
G01 X24.2 Y47.6 F6000.0
G01 X23.96 Y47.86 F6000.0
G01 X24.42 Y47.93 F6000.0
G01 X25.87 Y48.13 F6000.0
G01 X26.31 Y48.11 F6000.0
G01 X28.31 Y48.04 F6000.0
G01 X29.31 Y48.0 F6000.0
G01 X30.3 Y47.97 F6000.0
G01 X31.3 Y47.93 F6000.0
G01 X32.3 Y47.9 F6000.0
G01 X33.3 Y47.86 F6000.0
G01 X34.3 Y47.83 F6000.0
G01 X36.3 Y47.75 F6000.0
G01 X37.74 Y47.7 F6000.0
G01 X38.19 Y47.67 F6000.0
G01 X39.18 Y47.6 F6000.0
G01 X40.18 Y47.53 F6000.0
G01 X41.18 Y47.45 F6000.0
G01 X42.17 Y47.38 F6000.0
G01 X43.17 Y47.31 F6000.0
G01 X44.17 Y47.24 F6000.0
G01 X45.17 Y47.16 F6000.0
G01 X46.16 Y47.09 F6000.0
G01 X47.16 Y47.02 F6000.0
G01 X48.16 Y46.95 F6000.0
G01 X49.6 Y46.84 F6000.0
G01 X49.59 Y46.83 F6000.0
G01 X48.69 Y46.34 F6000.0
G01 X48.4 F6000.0
G01 X47.1 Y46.37 F6000.0
G01 F6000.0
M5
G00 X47.54 Y46.98 F6000.0
M3 F6000.0
G01 X47.61 F6000.0
G01 X47.56 Y46.96 F6000.0
G01 X47.54 Y46.98 F6000.0
G01 F6000.0
M5
G00 X47.74 Y47.62 F6000.0
M3 F6000.0
G01 X47.83 F6000.0
G01 X47.79 Y47.61 F6000.0
G01 X47.74 Y47.62 F6000.0
G01 F6000.0
M5
G00 X48.59 Y46.95 F6000.0
M3 F6000.0
G01 X48.67 F6000.0
G01 X48.63 Y46.93 F6000.0
G01 X48.59 Y46.95 F6000.0
G01 F6000.0
M5
G00 X48.29 Y46.37 F6000.0
M3 F6000.0
G01 X48.35 F6000.0
G01 X48.31 Y46.35 F6000.0
G01 X48.29 Y46.37 F6000.0
G01 F6000.0
M5
G00 X49.3 Y46.41 F6000.0
M3 F6000.0
G01 X49.37 Y46.4 F6000.0
G01 X49.32 Y46.39 F6000.0
G01 X49.3 Y46.41 F6000.0
G01 F6000.0
M5
G00 X49.07 Y47.62 F6000.0
M3 F6000.0
G01 X49.13 F6000.0
G01 X49.09 Y47.6 F6000.0
G01 X49.07 Y47.62 F6000.0
G01 F6000.0
M5
G00 X50.89 Y46.51 F6000.0
M3 F6000.0
G01 X50.96 Y46.5 F6000.0
G01 X50.91 Y46.49 F6000.0
G01 X50.89 Y46.51 F6000.0
G01 F6000.0
M5
G00 X51.7 Y46.29 F6000.0
M3 F6000.0
G01 X50.91 Y46.59 F6000.0
G01 X51.15 Y47.05 F6000.0
G01 X51.96 Y47.27 F6000.0
G01 X52.86 Y46.86 F6000.0
G01 X52.73 Y46.8 F6000.0
G01 X51.7 Y46.29 F6000.0
G01 F6000.0
M5
G00 X54.37 Y44.59 F6000.0
M3 F6000.0
G01 F6000.0
G01 F6000.0
M5
G00 X54.58 Y44.3 F6000.0
M3 F6000.0
G01 F6000.0
G01 F6000.0
M5
G00 X54.91 Y41.75 F6000.0
M3 F6000.0
G01 F6000.0
G01 F6000.0
M5
G00 X55.94 Y39.81 F6000.0
M3 F6000.0
G01 X56.0 F6000.0
G01 X55.96 Y39.79 F6000.0
G01 X55.94 Y39.81 F6000.0
G01 F6000.0
M5
G00 X55.72 Y39.58 F6000.0
M3 F6000.0
G01 F6000.0
G01 F6000.0
M5
G00 X58.34 Y37.16 F6000.0
M3 F6000.0
G01 F6000.0
G01 F6000.0
M5
G00 X58.96 Y36.43 F6000.0
M3 F6000.0
G01 F6000.0
G01 F6000.0
M5
G00 X59.49 Y35.3 F6000.0
M3 F6000.0
G01 F6000.0
G01 F6000.0
M5
G00 X60.02 Y34.53 F6000.0
M3 F6000.0
G01 F6000.0
G01 F6000.0
M5
G00 X60.82 Y33.4 F6000.0
M3 F6000.0
G01 F6000.0
G01 F6000.0
M5
G00 X61.38 Y32.54 F6000.0
M3 F6000.0
G01 F6000.0
G01 F6000.0
M5
G00 X58.89 Y32.8 F6000.0
M3 F6000.0
G01 F6000.0
G01 F6000.0
M5
G00 X57.77 Y27.38 F6000.0
M3 F6000.0
G01 X57.8 Y27.4 F6000.0
G01 X57.79 Y27.34 F6000.0
G01 X57.77 Y27.38 F6000.0
G01 F6000.0
M5
G00 X60.98 Y27.31 F6000.0
M3 F6000.0
G01 F6000.0
G01 F6000.0
M5
G00 X62.08 Y25.49 F6000.0
M3 F6000.0
G01 F6000.0
G01 F6000.0
M5
G00 X63.11 Y24.57 F6000.0
M3 F6000.0
G01 F6000.0
G01 F6000.0
M5
G00 X61.58 Y23.46 F6000.0
M3 F6000.0
G01 F6000.0
G01 F6000.0
M5
G00 X60.83 Y24.04 F6000.0
M3 F6000.0
G01 F6000.0
G01 F6000.0
M5
G00 X60.04 Y24.94 F6000.0
M3 F6000.0
G01 F6000.0
G01 F6000.0
M5
G00 X64.29 Y27.26 F6000.0
M3 F6000.0
G01 F6000.0
G01 F6000.0
M5
G00 X67.64 Y24.03 F6000.0
M3 F6000.0
G01 F6000.0
G01 F6000.0
M5
G00 X65.81 Y21.46 F6000.0
M3 F6000.0
G01 F6000.0
G01 F6000.0
M5
G00 X64.25 Y21.3 F6000.0
M3 F6000.0
G01 F6000.0
G01 F6000.0
M5
G00 X64.24 Y20.07 F6000.0
M3 F6000.0
G01 F6000.0
G01 F6000.0
M5
G00 X63.54 Y17.94 F6000.0
M3 F6000.0
G01 X62.74 Y18.24 F6000.0
G01 X63.07 Y18.45 F6000.0
G01 X63.28 Y18.52 F6000.0
G01 X64.44 Y18.92 F6000.0
G01 X64.2 Y19.14 F6000.0
G01 X63.22 Y20.02 F6000.0
G01 X63.02 Y20.75 F6000.0
G01 X63.5 Y21.48 F6000.0
G01 X63.83 Y21.58 F6000.0
G01 X65.11 Y22.0 F6000.0
G01 X65.78 Y21.81 F6000.0
G01 X65.69 Y21.42 F6000.0
G01 X65.47 Y21.38 F6000.0
G01 X64.27 Y21.16 F6000.0
G01 X64.15 Y20.57 F6000.0
G01 X64.17 Y20.54 F6000.0
G01 X64.78 Y19.74 F6000.0
G01 X65.41 Y18.92 F6000.0
G01 X65.37 Y18.87 F6000.0
G01 X64.76 Y18.01 F6000.0
G01 X64.65 Y18.0 F6000.0
G01 X63.54 Y17.94 F6000.0
G01 F6000.0
M5
G00 X66.05 Y17.48 F6000.0
M3 F6000.0
G01 X66.09 Y17.72 F6000.0
G01 X66.3 Y18.95 F6000.0
G01 X66.25 Y19.23 F6000.0
G01 X66.06 Y20.5 F6000.0
G01 X66.25 Y20.32 F6000.0
G01 X67.19 Y19.47 F6000.0
G01 X67.34 Y19.53 F6000.0
G01 X68.4 Y20.0 F6000.0
G01 X69.29 Y20.27 F6000.0
G01 X68.84 Y19.51 F6000.0
G01 X68.66 Y19.38 F6000.0
G01 X67.85 Y18.79 F6000.0
G01 X67.04 Y18.2 F6000.0
G01 X66.05 Y17.48 F6000.0
G01 F6000.0
M5
G00 X66.89 Y17.78 F6000.0
M3 F6000.0
G01 F6000.0
G01 F6000.0
M5
G00 X66.76 Y18.53 F6000.0
M3 F6000.0
G01 F6000.0
G01 F6000.0
M5
G00 X66.32 Y19.09 F6000.0
M3 F6000.0
G01 F6000.0
G01 F6000.0
M5
G00 X66.96 Y19.54 F6000.0
M3 F6000.0
G01 F6000.0
G01 F6000.0
M5
G00 X68.72 Y19.38 F6000.0
M3 F6000.0
G01 F6000.0
G01 F6000.0
M5
G00 X69.87 Y19.53 F6000.0
M3 F6000.0
G01 X69.88 Y19.62 F6000.0
G01 Y19.42 F6000.0
G01 X69.87 Y19.53 F6000.0
G01 F6000.0
M5
G00 X70.84 Y20.34 F6000.0
M3 F6000.0
G01 X70.86 Y20.36 F6000.0
G01 Y20.3 F6000.0
G01 X70.84 Y20.34 F6000.0
G01 F6000.0
M5
G00 X72.04 Y20.32 F6000.0
M3 F6000.0
G01 F6000.0
G01 F6000.0
M5
G00 X72.38 Y19.97 F6000.0
M3 F6000.0
G01 F6000.0
G01 F6000.0
M5
G00 X73. Y20.62 F6000.0
M3 F6000.0
G01 X73.08 F6000.0
G01 X73.04 Y20.6 F6000.0
G01 X73.0 Y20.62 F6000.0
G01 F6000.0
M5
G00 X73.22 Y18.81 F6000.0
M3 F6000.0
G01 Y18.97 F6000.0
G01 X73.23 Y20.14 F6000.0
G01 X72.63 Y19.99 F6000.0
G01 X72.32 Y19.24 F6000.0
G01 X73.22 Y18.81 F6000.0
G01 F6000.0
M5
G00 X72.21 Y18.03 F6000.0
M3 F6000.0
G01 X72.14 Y18.11 F6000.0
G01 X71.39 Y18.93 F6000.0
G01 X71.41 Y18.98 F6000.0
G01 X71.71 Y19.99 F6000.0
G01 X71.79 Y20.04 F6000.0
G01 X72.66 Y20.69 F6000.0
G01 X72.69 F6000.0
G01 X73.72 Y20.57 F6000.0
G01 X73.83 Y20.2 F6000.0
G01 X74.22 Y18.87 F6000.0
G01 X74.1 Y18.29 F6000.0
G01 X73.43 Y18.4 F6000.0
G01 X73.3 Y18.36 F6000.0
G01 X72.21 Y18.03 F6000.0
G01 F6000.0
M5
G00 X71.83 Y18.32 F6000.0
M3 F6000.0
G01 F6000.0
G01 F6000.0
M5
G00 X70.74 Y17.8 F6000.0
M3 F6000.0
G01 X70.76 Y17.82 F6000.0
G01 Y17.76 F6000.0
G01 X70.74 Y17.8 F6000.0
G01 F6000.0
M5
G00 X70.3 Y17.34 F6000.0
M3 F6000.0
G01 X70.25 Y17.59 F6000.0
G01 X70.09 Y18.58 F6000.0
G01 X69.88 Y19.81 F6000.0
G01 X69.92 Y19.93 F6000.0
G01 X70.22 Y20.89 F6000.0
G01 X70.56 Y21.97 F6000.0
G01 X70.59 Y21.71 F6000.0
G01 X70.72 Y20.72 F6000.0
G01 X70.88 Y19.47 F6000.0
G01 X70.85 Y19.37 F6000.0
G01 X70.59 Y18.41 F6000.0
G01 X70.3 Y17.34 F6000.0
G01 F6000.0
M5
G00 X74.92 Y19.71 F6000.0
M3 F6000.0
G01 F6000.0
G01 F6000.0
M5
G00 X75.29 Y19.12 F6000.0
M3 F6000.0
G01 F6000.0
G01 F6000.0
M5
G00 X75.45 Y19.01 F6000.0
M3 F6000.0
G01 F6000.0
G01 F6000.0
M5
G00 X75.95 Y18.65 F6000.0
M3 F6000.0
G01 X75.93 Y18.66 F6000.0
G01 X75.07 Y19.23 F6000.0
G01 X75.06 Y19.27 F6000.0
G01 X74.76 Y20.26 F6000.0
G01 Y20.27 F6000.0
G01 X75.12 Y21.2 F6000.0
G01 X75.21 Y21.23 F6000.0
G01 X76.26 Y21.53 F6000.0
G01 X76.17 Y21.27 F6000.0
G01 X75.77 Y20.07 F6000.0
G01 X76.18 Y19.48 F6000.0
G01 X76.25 F6000.0
G01 X77.31 Y19.41 F6000.0
G01 X76.81 Y18.79 F6000.0
G01 X75.95 Y18.65 F6000.0
G01 F6000.0
M5
G00 X75.9 Y19.56 F6000.0
M3 F6000.0
G01 F6000.0
G01 F6000.0
M5
G00 X75.76 Y19.85 F6000.0
M3 F6000.0
G01 F6000.0
G01 F6000.0
M5
G00 X76.71 Y19.37 F6000.0
M3 F6000.0
G01 F6000.0
G01 F6000.0
M5
G00 X77.93 Y20.1 F6000.0
M3 F6000.0
G01 F6000.0
G01 F6000.0
M5
G00 X78.17 Y20.01 F6000.0
M3 F6000.0
G01 F6000.0
G01 F6000.0
M5
G00 X78.42 Y19.51 F6000.0
M3 F6000.0
G01 X78.31 Y19.67 F6000.0
G01 X77.62 Y20.64 F6000.0
G01 X77.63 Y21.11 F6000.0
G01 X78.06 Y20.83 F6000.0
G01 X78.75 Y21.33 F6000.0
G01 X79.15 Y21.69 F6000.0
G01 X79.64 Y21.29 F6000.0
G01 X80.06 Y21.3 F6000.0
G01 X80.42 Y21.94 F6000.0
G01 X80.67 Y22.21 F6000.0
G01 Y22.14 F6000.0
G01 X80.75 Y21.08 F6000.0
G01 Y21.06 F6000.0
G01 X80.65 Y20.04 F6000.0
G01 X79.99 Y20.06 F6000.0
G01 X79.23 Y20.22 F6000.0
G01 X78.84 Y19.61 F6000.0
G01 X78.8 Y19.53 F6000.0
G01 X78.42 Y19.51 F6000.0
G01 F6000.0
M5
G00 X79.79 Y20.14 F6000.0
M3 F6000.0
G01 F6000.0
G01 F6000.0
M5
G00 X81.99 Y21.85 F6000.0
M3 F6000.0
G01 X81.98 Y21.87 F6000.0
G01 X81.29 Y22.62 F6000.0
G01 Y22.65 F6000.0
G01 X81.45 Y23.67 F6000.0
G01 X81.48 Y23.7 F6000.0
G01 X82.18 Y24.47 F6000.0
G01 X83.17 Y24.52 F6000.0
G01 X83.34 Y24.99 F6000.0
G01 X83.74 Y24.67 F6000.0
G01 X83.87 Y24.5 F6000.0
G01 X84.59 Y23.53 F6000.0
G01 X84.43 Y22.74 F6000.0
G01 X84.36 Y22.69 F6000.0
G01 X83.49 Y22.04 F6000.0
G01 X83.23 Y22.01 F6000.0
G01 X81.99 Y21.85 F6000.0
G01 F6000.0
M5
G00 X83.15 Y22.74 F6000.0
M3 F6000.0
G01 X83.6 Y23.4 F6000.0
G01 X83.16 Y23.9 F6000.0
G01 X83.09 Y23.85 F6000.0
G01 X82.19 Y23.23 F6000.0
G01 X82.36 Y22.72 F6000.0
G01 X83.15 Y22.74 F6000.0
G01 F6000.0
M5
G00 X84.46 Y22.82 F6000.0
M3 F6000.0
G01 F6000.0
G01 F6000.0
M5
G00 X81.87 Y24.26 F6000.0
M3 F6000.0
G01 F6000.0
G01 F6000.0
M5
G00 X80.44 Y24.47 F6000.0
M3 F6000.0
G01 F6000.0
G01 F6000.0
M5
G00 X82.45 Y26.17 F6000.0
M3 F6000.0
G01 F6000.0
G01 F6000.0
M5
G00 X82.63 Y26.31 F6000.0
M3 F6000.0
G01 F6000.0
G01 F6000.0
M5
G00 X83.86 Y27.78 F6000.0
M3 F6000.0
G01 F6000.0
G01 F6000.0
M5
G00 X85.13 Y29.42 F6000.0
M3 F6000.0
G01 F6000.0
G01 F6000.0
M5
G00 X87.91 Y37.69 F6000.0
M3 F6000.0
G01 X87.92 Y37.76 F6000.0
G01 Y37.61 F6000.0
G01 X87.91 Y37.69 F6000.0
G01 F6000.0
M5
G00 X87.76 Y44.31 F6000.0
M3 F6000.0
G01 X87.78 Y44.33 F6000.0
G01 Y44.26 F6000.0
G01 X87.76 Y44.31 F6000.0
G01 F6000.0
M5
G00 X86.46 Y50.22 F6000.0
M3 F6000.0
G01 F6000.0
G01 F6000.0
M5
G00 X84.29 Y58.39 F6000.0
M3 F6000.0
G01 F6000.0
G01 F6000.0
M5
G00 X86.3 Y59.82 F6000.0
M3 F6000.0
G01 F6000.0
G01 F6000.0
M5
G00 X88.7 Y59.5 F6000.0
M3 F6000.0
G01 X88.78 F6000.0
G01 X88.74 Y59.49 F6000.0
G01 X88.7 Y59.5 F6000.0
G01 F6000.0
M5
G00 X91.95 Y57.95 F6000.0
M3 F6000.0
G01 F6000.0
G01 F6000.0
M5
G00 X93.01 Y56.39 F6000.0
M3 F6000.0
G01 F6000.0
G01 F6000.0
M5
G00 X93.37 Y56.02 F6000.0
M3 F6000.0
G01 X93.36 Y56.03 F6000.0
G01 X92.7 Y56.79 F6000.0
G01 X92.03 Y57.55 F6000.0
G01 X91.98 Y57.65 F6000.0
G01 X91.52 Y58.53 F6000.0
G01 X91.01 Y59.52 F6000.0
G01 X90.96 F6000.0
G01 X88.96 Y59.49 F6000.0
G01 X87.9 Y59.47 F6000.0
G01 X87.72 Y59.51 F6000.0
G01 X86.56 Y59.72 F6000.0
G01 X86.55 Y59.76 F6000.0
G01 X86.24 Y60.76 F6000.0
G01 X86.33 Y60.79 F6000.0
G01 X87.27 Y61.11 F6000.0
G01 X88.22 Y61.44 F6000.0
G01 X89.17 Y61.76 F6000.0
G01 X90.2 Y62.11 F6000.0
G01 X90.18 Y62.32 F6000.0
G01 X90.05 Y63.52 F6000.0
G01 X89.99 Y63.55 F6000.0
G01 X89.08 Y64.11 F6000.0
G01 X88.98 Y64.15 F6000.0
G01 X87.92 Y64.52 F6000.0
G01 X87.89 Y64.56 F6000.0
G01 X87.19 Y65.34 F6000.0
G01 X87.48 Y65.47 F6000.0
G01 X88.68 Y66.0 F6000.0
G01 X89.47 Y66.32 F6000.0
G01 X89.55 Y67.0 F6000.0
G01 X89.61 Y67.78 F6000.0
G01 X90.17 Y67.92 F6000.0
G01 X90.29 Y67.75 F6000.0
G01 X90.99 Y66.76 F6000.0
G01 X91.14 Y66.75 F6000.0
G01 X92.13 Y66.66 F6000.0
G01 X93.27 Y66.56 F6000.0
G01 X93.33 Y66.53 F6000.0
G01 X94.33 Y66.16 F6000.0
G01 X94.34 Y66.14 F6000.0
G01 X94.68 Y65.17 F6000.0
G01 X94.62 Y65.14 F6000.0
G01 X93.73 Y64.7 F6000.0
G01 X92.77 Y64.22 F6000.0
G01 X92.25 Y63.67 F6000.0
G01 X92.3 Y63.56 F6000.0
G01 X92.77 Y62.54 F6000.0
G01 X92.93 Y62.49 F6000.0
G01 X93.89 Y62.2 F6000.0
G01 X95.01 Y61.86 F6000.0
G01 X95.82 Y61.32 F6000.0
G01 X95.81 Y61.3 F6000.0
G01 X95.3 Y60.42 F6000.0
G01 X94.94 Y60.19 F6000.0
G01 X93.73 Y59.41 F6000.0
G01 X93.74 Y59.32 F6000.0
G01 X93.91 Y58.34 F6000.0
G01 X94.08 Y57.27 F6000.0
G01 X94.1 Y56.39 F6000.0
G01 X93.37 Y56.02 F6000.0
G01 F6000.0
M5
G00 X93.68 Y59.94 F6000.0
M3 F6000.0
G01 F6000.0
G01 F6000.0
M5
G00 X89. Y64.35 F6000.0
M3 F6000.0
G01 F6000.0
G01 F6000.0
M5
G00 X87.27 Y64.89 F6000.0
M3 F6000.0
G01 F6000.0
G01 F6000.0
M5
G00 X84.42 Y72.67 F6000.0
M3 F6000.0
G01 X84.12 Y73.32 F6000.0
G01 X84.49 Y73.92 F6000.0
G01 X84.67 Y74.14 F6000.0
G01 X85.51 Y75.12 F6000.0
G01 X85.68 Y75.32 F6000.0
G01 X86.5 Y76.28 F6000.0
G01 X86.76 Y76.86 F6000.0
G01 X86.4 Y77.24 F6000.0
G01 X86.36 Y77.27 F6000.0
G01 X85.48 Y77.83 F6000.0
G01 Y78.56 F6000.0
G01 X86.08 Y78.91 F6000.0
G01 F6000.0
G01 X86.94 Y78.38 F6000.0
G01 X87.0 Y78.37 F6000.0
G01 X88.06 Y78.21 F6000.0
G01 X88.15 Y78.33 F6000.0
G01 X88.86 Y79.22 F6000.0
G01 X88.89 Y79.26 F6000.0
G01 X89.48 Y80.06 F6000.0
G01 X90.07 Y80.87 F6000.0
G01 X90.69 Y81.7 F6000.0
G01 X90.4 Y81.72 F6000.0
G01 X89.41 Y81.79 F6000.0
G01 X88.41 Y81.86 F6000.0
G01 X87.12 Y81.95 F6000.0
G01 X86.8 Y81.98 F6000.0
G01 X85.47 Y82.09 F6000.0
G01 X85.42 Y82.19 F6000.0
G01 X84.87 Y83.16 F6000.0
G01 X84.89 F6000.0
G01 X85.87 Y83.36 F6000.0
G01 X86.85 Y83.56 F6000.0
G01 X87.83 Y83.75 F6000.0
G01 X88.83 Y83.95 F6000.0
G01 X88.93 F6000.0
G01 X89.93 Y83.93 F6000.0
G01 X91.93 Y83.88 F6000.0
G01 X93.04 Y83.86 F6000.0
G01 X93.16 Y83.55 F6000.0
G01 X93.63 Y82.31 F6000.0
G01 X93.54 Y82.0 F6000.0
G01 X93.15 Y80.72 F6000.0
G01 X92.98 Y80.5 F6000.0
G01 X92.39 Y79.69 F6000.0
G01 X91.81 Y78.88 F6000.0
G01 X91.05 Y77.85 F6000.0
G01 X90.64 Y77.05 F6000.0
G01 F6000.0
G01 X91.5 Y76.54 F6000.0
G01 X91.53 Y76.52 F6000.0
G01 X92.37 Y75.97 F6000.0
G01 X93.24 Y75.4 F6000.0
G01 X93.47 Y75.0 F6000.0
G01 X94.21 Y73.74 F6000.0
G01 X93.85 F6000.0
G01 X92.85 Y73.75 F6000.0
G01 X91.5 Y73.76 F6000.0
G01 X91.07 Y73.96 F6000.0
G01 X90.17 Y74.39 F6000.0
G01 X88.84 Y75.01 F6000.0
G01 X88.73 Y74.97 F6000.0
G01 X87.68 Y74.6 F6000.0
G01 X87.55 Y74.48 F6000.0
G01 X86.67 Y73.68 F6000.0
G01 X86.56 Y73.6 F6000.0
G01 X85.63 Y72.96 F6000.0
G01 X85.51 Y72.93 F6000.0
G01 X84.42 Y72.67 F6000.0
G01 F6000.0
M5
G00 X85.8 Y75.01 F6000.0
M3 F6000.0
G01 F6000.0
G01 F6000.0
M5
G00 X87.23 Y74.31 F6000.0
M3 F6000.0
G01 F6000.0
G01 F6000.0
M5
G00 X87.41 Y74.34 F6000.0
M3 F6000.0
G01 F6000.0
G01 F6000.0
M5
G00 X86.61 Y77.38 F6000.0
M3 F6000.0
G01 F6000.0
G01 F6000.0
M5
G00 X85.76 Y77.81 F6000.0
M3 F6000.0
G01 F6000.0
G01 F6000.0
M5
G00 X88.19 Y78.08 F6000.0
M3 F6000.0
G01 F6000.0
G01 F6000.0
M5
G00 X88.68 Y78.87 F6000.0
M3 F6000.0
G01 F6000.0
G01 F6000.0
M5
G00 X89. Y79.08 F6000.0
M3 F6000.0
G01 F6000.0
G01 F6000.0
M5
G00 X90.25 Y81. F6000.0
M3 F6000.0
G01 F6000.0
G01 F6000.0
M5
G00 X92.38 Y79.56 F6000.0
M3 F6000.0
G01 F6000.0
G01 F6000.0
M5
G00 X91.88 Y78.93 F6000.0
M3 F6000.0
G01 F6000.0
G01 F6000.0
M5
G00 X91.62 Y78.67 F6000.0
M3 F6000.0
G01 F6000.0
G01 F6000.0
M5
G00 X90.77 Y77.61 F6000.0
M3 F6000.0
G01 F6000.0
G01 F6000.0
M5
G00 X93.52 Y75.1 F6000.0
M3 F6000.0
G01 F6000.0
G01 F6000.0
M5
G00 X93.89 Y74.77 F6000.0
M3 F6000.0
G01 F6000.0
G01 F6000.0
M5
G00 X93.97 Y74.72 F6000.0
M3 F6000.0
G01 X93.9 Y74.8 F6000.0
G01 X93.98 Y74.73 F6000.0
G01 X94.05 Y74.64 F6000.0
G01 X93.97 Y74.72 F6000.0
G01 F6000.0
M5
G00 X88.6 Y88.3 F6000.0
M3 F6000.0
G01 X88.28 Y89.17 F6000.0
G01 X88.29 Y89.2 F6000.0
G01 X88.58 Y90.19 F6000.0
G01 X88.61 Y90.3 F6000.0
G01 X88.91 Y91.26 F6000.0
G01 X89.23 Y92.33 F6000.0
G01 Y92.44 F6000.0
G01 X89.21 Y93.54 F6000.0
G01 X88.97 Y93.65 F6000.0
G01 X87.81 Y94.14 F6000.0
G01 X87.68 Y94.23 F6000.0
G01 X86.7 Y94.85 F6000.0
G01 X86.56 Y94.77 F6000.0
G01 X85.56 Y94.16 F6000.0
G01 X85.45 Y94.28 F6000.0
G01 X84.68 Y95.13 F6000.0
G01 X84.65 Y95.32 F6000.0
G01 X84.51 Y96.51 F6000.0
G01 X84.61 Y96.96 F6000.0
G01 X84.84 Y97.94 F6000.0
G01 X85.18 Y99.36 F6000.0
G01 X85.27 Y99.6 F6000.0
G01 X85.65 Y100.53 F6000.0
G01 X86.12 Y101.7 F6000.0
G01 X86.39 Y101.55 F6000.0
G01 X87.52 Y100.9 F6000.0
G01 X87.94 Y100.94 F6000.0
G01 X89.37 Y101.08 F6000.0
G01 X89.86 Y101.15 F6000.0
G01 X91.34 Y101.33 F6000.0
G01 X91.74 Y101.19 F6000.0
G01 X93.09 Y100.72 F6000.0
G01 X93.12 Y100.45 F6000.0
G01 X93.23 Y99.46 F6000.0
G01 X93.35 Y98.46 F6000.0
G01 X93.49 Y97.2 F6000.0
G01 X93.37 Y96.83 F6000.0
G01 X93.07 Y95.88 F6000.0
G01 X92.77 Y94.93 F6000.0
G01 X92.34 Y93.61 F6000.0
G01 Y93.6 F6000.0
G01 X91.89 Y92.71 F6000.0
G01 X91.43 Y91.82 F6000.0
G01 X90.98 Y90.92 F6000.0
G01 X90.93 Y90.86 F6000.0
G01 X89.75 Y89.24 F6000.0
G01 X89.11 Y88.37 F6000.0
G01 X88.8 Y88.25 F6000.0
G01 X88.6 Y88.3 F6000.0
G01 F6000.0
M5
G00 X89.67 Y88.88 F6000.0
M3 F6000.0
G01 F6000.0
G01 F6000.0
M5
G00 X90.52 Y90.22 F6000.0
M3 F6000.0
G01 F6000.0
G01 F6000.0
M5
G00 X88.54 Y93.82 F6000.0
M3 F6000.0
G01 F6000.0
G01 F6000.0
M5
G00 X88.5 Y96.36 F6000.0
M3 F6000.0
G01 X88.56 F6000.0
G01 X88.52 Y96.34 F6000.0
G01 X88.5 Y96.36 F6000.0
G01 F6000.0
M5
G00 X87.35 Y96.33 F6000.0
M3 F6000.0
G01 X87.41 F6000.0
G01 X87.37 Y96.31 F6000.0
G01 X87.35 Y96.33 F6000.0
G01 F6000.0
M5
G00 X87.36 Y97.9 F6000.0
M3 F6000.0
G01 X87.38 Y97.94 F6000.0
G01 Y97.85 F6000.0
G01 X87.36 Y97.9 F6000.0
G01 F6000.0
M5
G00 X85.44 Y100.29 F6000.0
M3 F6000.0
G01 F6000.0
G01 F6000.0
M5
G00 X86.21 Y101.75 F6000.0
M3 F6000.0
G01 X86.31 F6000.0
G01 X86.25 Y101.73 F6000.0
G01 X86.21 Y101.75 F6000.0
G01 F6000.0
M5
G00 X83.77 Y106.76 F6000.0
M3 F6000.0
G01 X83.27 Y107.34 F6000.0
G01 X83.46 Y108.19 F6000.0
G01 X83.63 Y108.54 F6000.0
G01 X84.25 Y109.78 F6000.0
G01 X84.32 Y109.9 F6000.0
G01 X85.33 Y111.63 F6000.0
G01 X85.83 Y112.5 F6000.0
G01 X87.33 Y115.09 F6000.0
G01 X87.83 Y115.96 F6000.0
G01 X88.4 Y116.94 F6000.0
G01 X87.91 Y116.95 F6000.0
G01 X86.91 Y116.98 F6000.0
G01 X85.91 Y117.0 F6000.0
G01 X84.42 Y117.04 F6000.0
G01 X84.03 F6000.0
G01 X83.03 F6000.0
G01 X82.03 Y117.05 F6000.0
G01 X80.64 F6000.0
G01 Y117.06 F6000.0
G01 X81.17 Y117.93 F6000.0
G01 X81.28 Y117.96 F6000.0
G01 X82.37 Y118.2 F6000.0
G01 X82.67 Y118.25 F6000.0
G01 X83.66 Y118.38 F6000.0
G01 X84.96 Y118.56 F6000.0
G01 X85.02 Y118.57 F6000.0
G01 X85.98 Y118.82 F6000.0
G01 X86.95 Y119.06 F6000.0
G01 X87.98 Y119.32 F6000.0
G01 X88.25 Y119.34 F6000.0
G01 X89.5 Y119.47 F6000.0
G01 X89.69 Y119.36 F6000.0
G01 X90.74 Y118.73 F6000.0
G01 X90.81 Y118.39 F6000.0
G01 X91.07 Y117.07 F6000.0
G01 X90.98 Y116.76 F6000.0
G01 X90.64 Y115.49 F6000.0
G01 X90.53 Y115.33 F6000.0
G01 X90.0 Y114.48 F6000.0
G01 X89.47 Y113.63 F6000.0
G01 X88.84 Y112.63 F6000.0
G01 X89.23 Y112.39 F6000.0
G01 X90.08 Y111.87 F6000.0
G01 X91.33 Y111.11 F6000.0
G01 X91.44 Y111.0 F6000.0
G01 X92.12 Y110.28 F6000.0
G01 X92.92 Y109.44 F6000.0
G01 X92.93 Y109.42 F6000.0
G01 X93.28 Y108.47 F6000.0
G01 Y108.45 F6000.0
G01 X92.97 Y107.48 F6000.0
G01 X92.88 Y107.52 F6000.0
G01 X91.97 Y107.93 F6000.0
G01 X91.06 Y108.34 F6000.0
G01 X90.05 Y108.79 F6000.0
G01 X89.95 Y108.9 F6000.0
G01 X89.29 Y109.65 F6000.0
G01 X88.63 Y110.4 F6000.0
G01 X87.88 Y111.27 F6000.0
G01 X87.58 Y110.91 F6000.0
G01 X86.93 Y110.15 F6000.0
G01 X86.28 Y109.39 F6000.0
G01 X84.99 Y107.87 F6000.0
G01 X84.05 Y106.75 F6000.0
G01 X83.77 Y106.76 F6000.0
G01 F6000.0
M5
G00 X84.51 Y107.13 F6000.0
M3 F6000.0
G01 F6000.0
G01 F6000.0
M5
G00 X83.85 Y108.8 F6000.0
M3 F6000.0
G01 F6000.0
G01 F6000.0
M5
G00 X85.78 Y112.18 F6000.0
M3 F6000.0
G01 F6000.0
G01 F6000.0
M5
G00 X86.28 Y113.05 F6000.0
M3 F6000.0
G01 F6000.0
G01 F6000.0
M5
G00 X86.83 Y114.05 F6000.0
M3 F6000.0
G01 F6000.0
G01 F6000.0
M5
G00 X87.48 Y115.22 F6000.0
M3 F6000.0
G01 F6000.0
G01 F6000.0
M5
G00 X88.09 Y116.98 F6000.0
M3 F6000.0
G01 X88.16 Y116.97 F6000.0
G01 X88.11 Y116.96 F6000.0
G01 X88.09 Y116.98 F6000.0
G01 F6000.0
M5
G00 X88.03 Y119.17 F6000.0
M3 F6000.0
G01 F6000.0
G01 F6000.0
M5
G00 X90.55 Y118.92 F6000.0
M3 F6000.0
G01 F6000.0
G01 F6000.0
M5
G00 X84.91 Y117.08 F6000.0
M3 F6000.0
G01 X84.98 F6000.0
G01 X84.93 Y117.06 F6000.0
G01 X84.91 Y117.08 F6000.0
G01 F6000.0
M5
G00 X89.45 Y112.2 F6000.0
M3 F6000.0
G01 F6000.0
G01 F6000.0
M5
G00 X89.91 Y111.95 F6000.0
M3 F6000.0
G01 F6000.0
G01 F6000.0
M5
G00 X88.69 Y110.42 F6000.0
M3 F6000.0
G01 F6000.0
G01 F6000.0
M5
G00 X88.45 Y110.51 F6000.0
M3 F6000.0
G01 F6000.0
G01 F6000.0
M5
G00 X87.26 Y110.69 F6000.0
M3 F6000.0
G01 F6000.0
G01 F6000.0
M5
G00 X91.62 Y110.78 F6000.0
M3 F6000.0
G01 F6000.0
G01 F6000.0
M5
G00 X91.74 Y107.89 F6000.0
M3 F6000.0
G01 F6000.0
G01 F6000.0
M5
G00 X92.98 Y107.57 F6000.0
M3 F6000.0
G01 F6000.0
G01 F6000.0
M5
G00 X93.25 Y107.77 F6000.0
M3 F6000.0
G01 F6000.0
G01 F6000.0
M5
G00 X92.67 Y101.11 F6000.0
M3 F6000.0
G01 F6000.0
G01 F6000.0
M5
G00 X93. Y100.83 F6000.0
M3 F6000.0
G01 F6000.0
G01 F6000.0
M5
G00 X90.55 Y95.94 F6000.0
M3 F6000.0
G01 X90.66 Y96.38 F6000.0
G01 X91.03 Y97.79 F6000.0
G01 X90.97 Y97.9 F6000.0
G01 X90.43 Y98.88 F6000.0
G01 X90.29 Y98.9 F6000.0
G01 X88.32 Y99.25 F6000.0
G01 X87.19 Y99.45 F6000.0
G01 Y99.44 F6000.0
G01 X87.39 Y97.45 F6000.0
G01 X87.5 Y96.45 F6000.0
G01 X87.54 Y96.44 F6000.0
G01 X88.53 Y96.28 F6000.0
G01 X89.52 Y96.12 F6000.0
G01 X90.55 Y95.94 F6000.0
G01 F6000.0
M5
G00 X85.22 Y94.43 F6000.0
M3 F6000.0
G01 F6000.0
G01 F6000.0
M5
G00 X84.52 Y96.04 F6000.0
M3 F6000.0
G01 X84.53 Y96.08 F6000.0
G01 Y95.99 F6000.0
G01 X84.52 Y96.04 F6000.0
G01 F6000.0
M5
G00 X84.51 Y96.36 F6000.0
M3 F6000.0
G01 X84.53 Y96.38 F6000.0
G01 Y96.32 F6000.0
G01 X84.51 Y96.36 F6000.0
G01 F6000.0
M5
G00 X80.42 Y102.45 F6000.0
M3 F6000.0
G01 F6000.0
G01 F6000.0
M5
G00 X79.7 Y104.15 F6000.0
M3 F6000.0
G01 F6000.0
G01 F6000.0
M5
G00 X78.42 Y106.19 F6000.0
M3 F6000.0
G01 F6000.0
G01 F6000.0
M5
G00 X77.64 Y107.4 F6000.0
M3 F6000.0
G01 F6000.0
G01 F6000.0
M5
G00 X76.82 Y105.71 F6000.0
M3 F6000.0
G01 F6000.0
G01 F6000.0
M5
G00 X74.33 Y109.59 F6000.0
M3 F6000.0
G01 F6000.0
G01 F6000.0
M5
G00 X74.93 Y111.33 F6000.0
M3 F6000.0
G01 F6000.0
G01 F6000.0
M5
G00 X73.07 Y111.32 F6000.0
M3 F6000.0
G01 F6000.0
G01 F6000.0
M5
G00 X73. Y114. F6000.0
M3 F6000.0
G01 F6000.0
G01 F6000.0
M5
G00 X72.39 Y114.7 F6000.0
M3 F6000.0
G01 F6000.0
G01 F6000.0
M5
G00 X71.05 Y114.19 F6000.0
M3 F6000.0
G01 F6000.0
G01 F6000.0
M5
G00 X70.38 Y114.83 F6000.0
M3 F6000.0
G01 F6000.0
G01 F6000.0
M5
G00 X69.19 Y116.62 F6000.0
M3 F6000.0
G01 F6000.0
G01 F6000.0
M5
G00 X68.81 Y118.64 F6000.0
M3 F6000.0
G01 F6000.0
G01 F6000.0
M5
G00 X68.55 Y119.19 F6000.0
M3 F6000.0
G01 F6000.0
G01 F6000.0
M5
G00 X68.32 Y119.26 F6000.0
M3 F6000.0
G01 F6000.0
G01 F6000.0
M5
G00 X66.24 Y119.87 F6000.0
M3 F6000.0
G01 F6000.0
G01 F6000.0
M5
G00 X66.71 Y120.88 F6000.0
M3 F6000.0
G01 F6000.0
G01 F6000.0
M5
G00 X64.47 Y120.33 F6000.0
M3 F6000.0
G01 F6000.0
G01 F6000.0
M5
G00 X63.8 Y120.85 F6000.0
M3 F6000.0
G01 F6000.0
G01 F6000.0
M5
G00 X61.69 Y123.95 F6000.0
M3 F6000.0
G01 F6000.0
G01 F6000.0
M5
G00 X59.48 Y126.81 F6000.0
M3 F6000.0
G01 F6000.0
G01 F6000.0
M5
G00 X59.27 Y126.88 F6000.0
M3 F6000.0
G01 X59.21 Y126.96 F6000.0
G01 X59.29 Y126.89 F6000.0
G01 X59.35 Y126.8 F6000.0
G01 X59.27 Y126.88 F6000.0
G01 F6000.0
M5
G00 X59.18 Y127.18 F6000.0
M3 F6000.0
G01 F6000.0
G01 F6000.0
M5
G00 X55.64 Y126.62 F6000.0
M3 F6000.0
G01 F6000.0
G01 F6000.0
M5
G00 X55.15 Y128.79 F6000.0
M3 F6000.0
G01 F6000.0
G01 F6000.0
M5
G00 X52.42 Y126.01 F6000.0
M3 F6000.0
G01 F6000.0
G01 F6000.0
M5
G00 X51.56 Y124.66 F6000.0
M3 F6000.0
G01 F6000.0
G01 F6000.0
M5
G00 X53.27 Y124.52 F6000.0
M3 F6000.0
G01 X53.4 Y124.64 F6000.0
G01 X53.3 Y124.52 F6000.0
G01 X53.17 Y124.4 F6000.0
G01 X53.27 Y124.52 F6000.0
G01 F6000.0
M5
G00 X49.68 Y122.49 F6000.0
M3 F6000.0
G01 X49.74 F6000.0
G01 X49.7 Y122.47 F6000.0
G01 X49.68 Y122.49 F6000.0
G01 F6000.0
M5
G00 X44.46 Y122.12 F6000.0
M3 F6000.0
G01 X44.53 F6000.0
G01 X44.48 Y122.1 F6000.0
G01 X44.46 Y122.12 F6000.0
G01 F6000.0
M5
G00 X42.74 Y122.02 F6000.0
M3 F6000.0
G01 X42.8 F6000.0
G01 X42.76 Y122.0 F6000.0
G01 X42.74 Y122.02 F6000.0
G01 F6000.0
M5
G00 X42.13 Y121.99 F6000.0
M3 F6000.0
G01 X42.21 F6000.0
G01 X42.17 Y121.97 F6000.0
G01 X42.13 Y121.99 F6000.0
G01 F6000.0
M5
G00 X40.57 Y121.95 F6000.0
M3 F6000.0
G01 X40.65 F6000.0
G01 X40.61 Y121.94 F6000.0
G01 X40.57 Y121.95 F6000.0
G01 F6000.0
M5
G00 X39.91 Y121.95 F6000.0
M3 F6000.0
G01 X40.01 F6000.0
G01 X39.95 Y121.94 F6000.0
G01 X39.91 Y121.95 F6000.0
G01 F6000.0
M5
G00 X38.62 Y121.92 F6000.0
M3 F6000.0
G01 X38.79 F6000.0
G01 X38.7 Y121.91 F6000.0
G01 X38.62 Y121.92 F6000.0
G01 F6000.0
M5
G00 X37.06 Y121.92 F6000.0
M3 F6000.0
G01 X37.25 F6000.0
G01 X37.16 Y121.91 F6000.0
G01 X37.06 Y121.92 F6000.0
G01 F6000.0
M5
G00 X36.54 Y121.95 F6000.0
M3 F6000.0
G01 X36.61 F6000.0
G01 X36.56 Y121.93 F6000.0
G01 X36.54 Y121.95 F6000.0
G01 F6000.0
M5
G00 X35.38 Y123.28 F6000.0
M3 F6000.0
G01 F6000.0
G01 F6000.0
M5
G00 X34.35 Y122.85 F6000.0
M3 F6000.0
G01 F6000.0
G01 F6000.0
M5
G00 X33.4 Y125.72 F6000.0
M3 F6000.0
G01 F6000.0
G01 F6000.0
M5
G00 X30.2 Y128.43 F6000.0
M3 F6000.0
G01 F6000.0
G01 F6000.0
M5
G00 X30.12 Y128.56 F6000.0
M3 F6000.0
G01 F6000.0
G01 F6000.0
M5
G00 X25.01 Y128.93 F6000.0
M3 F6000.0
G01 F6000.0
G01 F6000.0
M5
G00 X24.55 Y128.61 F6000.0
M3 F6000.0
G01 F6000.0
G01 F6000.0
M5
G00 X23.35 Y127.33 F6000.0
M3 F6000.0
G01 F6000.0
G01 F6000.0
M5
G00 X28.98 Y120.81 F6000.0
M3 F6000.0
G01 F6000.0
G01 F6000.0
M5
G00 X29.45 Y120.84 F6000.0
M3 F6000.0
G01 F6000.0
G01 F6000.0
M5
G00 X30.55 Y120.26 F6000.0
M3 F6000.0
G01 X30.62 F6000.0
G01 X30.57 Y120.24 F6000.0
G01 X30.55 Y120.26 F6000.0
G01 F6000.0
M5
G00 X29.93 Y118.61 F6000.0
M3 F6000.0
G01 F6000.0
G01 F6000.0
M5
G00 X22.42 Y115.78 F6000.0
M3 F6000.0
G01 F6000.0
G01 F6000.0
M5
G00 X21.51 Y114.64 F6000.0
M3 F6000.0
G01 F6000.0
G01 F6000.0
M5
G00 X19.93 Y111.83 F6000.0
M3 F6000.0
G01 F6000.0
G01 F6000.0
M5
G00 X19.41 Y110.8 F6000.0
M3 F6000.0
G01 F6000.0
G01 F6000.0
M5
G00 X18.57 Y109.19 F6000.0
M3 F6000.0
G01 F6000.0
G01 F6000.0
M5
G00 X17.27 Y105.91 F6000.0
M3 F6000.0
G01 F6000.0
G01 F6000.0
M5
G00 X17.24 Y100.68 F6000.0
M3 F6000.0
G01 F6000.0
G01 F6000.0
M5
G00 X25.07 Y102.93 F6000.0
M3 F6000.0
G01 F6000.0
G01 F6000.0
M5
G00 X25.4 Y103.2 F6000.0
M3 F6000.0
G01 F6000.0
G01 F6000.0
M5
G00 X27.19 Y104.6 F6000.0
M3 F6000.0
G01 F6000.0
G01 F6000.0
M5
G00 X28.35 Y105.12 F6000.0
M3 F6000.0
G01 F6000.0
G01 F6000.0
M5
G00 X28.51 Y105.25 F6000.0
M3 F6000.0
G01 F6000.0
G01 F6000.0
M5
G00 X35.84 Y104.83 F6000.0
M3 F6000.0
G01 F6000.0
G01 F6000.0
M5
G00 X36.35 Y104.4 F6000.0
M3 F6000.0
G01 F6000.0
G01 F6000.0
M5
G00 X37.2 Y101.88 F6000.0
M3 F6000.0
G01 X37.22 Y101.9 F6000.0
G01 X37.21 Y101.83 F6000.0
G01 X37.2 Y101.88 F6000.0
G01 F6000.0
M5
G00 X37.23 Y100.89 F6000.0
M3 F6000.0
G01 X37.25 Y100.94 F6000.0
G01 Y100.83 F6000.0
G01 X37.23 Y100.89 F6000.0
G01 F6000.0
M5
G00 X35.36 Y98.19 F6000.0
M3 F6000.0
G01 F6000.0
G01 F6000.0
M5
G00 X34.72 Y97.68 F6000.0
M3 F6000.0
G01 F6000.0
G01 F6000.0
M5
G00 X33.37 Y96.53 F6000.0
M3 F6000.0
G01 F6000.0
G01 F6000.0
M5
G00 X32.04 Y95.34 F6000.0
M3 F6000.0
G01 F6000.0
G01 F6000.0
M5
G00 X29.08 Y91.05 F6000.0
M3 F6000.0
G01 F6000.0
G01 F6000.0
M5
G00 X30.23 Y90.05 F6000.0
M3 F6000.0
G01 X30.24 Y90.09 F6000.0
G01 Y90.0 F6000.0
G01 X30.23 Y90.05 F6000.0
G01 F6000.0
M5
G00 X30.22 Y89.7 F6000.0
M3 F6000.0
G01 F6000.0
G01 F6000.0
M5
G00 X30.61 Y86.49 F6000.0
M3 F6000.0
G01 F6000.0
G01 F6000.0
M5
G00 X31.47 Y85.74 F6000.0
M3 F6000.0
G01 F6000.0
G01 F6000.0
M5
G00 X31.8 Y85.5 F6000.0
M3 F6000.0
G01 F6000.0
G01 F6000.0
M5
G00 X35.06 Y84.54 F6000.0
M3 F6000.0
G01 X34.94 Y84.55 F6000.0
G01 X33.95 Y84.7 F6000.0
G01 X32.85 Y84.86 F6000.0
G01 X32.76 Y84.92 F6000.0
G01 X31.92 Y85.46 F6000.0
G01 X30.99 Y86.05 F6000.0
G01 X30.97 Y86.08 F6000.0
G01 X30.48 Y86.95 F6000.0
G01 X29.97 Y87.85 F6000.0
G01 X29.98 Y87.96 F6000.0
G01 X30.12 Y88.95 F6000.0
G01 X30.26 Y90.05 F6000.0
G01 X30.67 Y90.29 F6000.0
G01 X31.93 Y91.04 F6000.0
G01 X31.99 Y91.05 F6000.0
G01 X32.98 Y91.18 F6000.0
G01 X34.04 Y91.32 F6000.0
G01 X34.17 F6000.0
G01 X35.17 Y91.35 F6000.0
G01 X36.17 Y91.37 F6000.0
G01 X37.17 Y91.4 F6000.0
G01 X38.31 Y91.42 F6000.0
G01 X38.7 Y91.27 F6000.0
G01 X40.03 Y90.75 F6000.0
G01 X40.24 Y90.45 F6000.0
G01 X41.03 Y89.32 F6000.0
G01 X41.05 Y88.95 F6000.0
G01 X41.12 Y87.59 F6000.0
G01 X40.9 Y87.26 F6000.0
G01 X40.13 Y86.09 F6000.0
G01 X39.83 Y85.93 F6000.0
G01 X38.93 Y85.48 F6000.0
G01 X37.74 Y84.87 F6000.0
G01 X37.39 Y84.83 F6000.0
G01 X36.4 Y84.7 F6000.0
G01 X35.06 Y84.54 F6000.0
G01 F6000.0
M5
G00 X28.63 Y82.93 F6000.0
M3 F6000.0
G01 F6000.0
G01 F6000.0
M5
G00 X27.98 Y83.57 F6000.0
M3 F6000.0
G01 F6000.0
G01 F6000.0
M5
G00 X27.23 Y84.4 F6000.0
M3 F6000.0
G01 F6000.0
G01 F6000.0
M5
G00 X27.2 Y92.75 F6000.0
M3 F6000.0
G01 F6000.0
G01 F6000.0
M5
G00 X26.41 Y93.53 F6000.0
M3 F6000.0
G01 F6000.0
G01 F6000.0
M5
G00 X25.56 Y94.16 F6000.0
M3 F6000.0
G01 F6000.0
G01 F6000.0
M5
G00 X24.77 Y95. F6000.0
M3 F6000.0
G01 F6000.0
G01 F6000.0
M5
G00 X15.34 Y91.5 F6000.0
M3 F6000.0
G01 X15.35 Y91.58 F6000.0
G01 Y91.42 F6000.0
G01 X15.34 Y91.5 F6000.0
G01 F6000.0
M5
G00 X12.87 Y90.69 F6000.0
M3 F6000.0
G01 X12.88 Y90.76 F6000.0
G01 Y90.61 F6000.0
G01 X12.87 Y90.69 F6000.0
G01 F6000.0
M5
G00 X15.79 Y83.02 F6000.0
M3 F6000.0
G01 F6000.0
G01 F6000.0
M5
G00 X19.28 Y80.5 F6000.0
M3 F6000.0
G01 F6000.0
G01 F6000.0
M5
G00 X19.1 Y78.1 F6000.0
M3 F6000.0
G01 F6000.0
G01 F6000.0
M5
G00 X19.73 Y77.27 F6000.0
M3 F6000.0
G01 F6000.0
G01 F6000.0
M5
G00 X20.76 Y74.5 F6000.0
M3 F6000.0
G01 F6000.0
G01 F6000.0
M5
G00 X19.14 Y73.96 F6000.0
M3 F6000.0
G01 F6000.0
G01 F6000.0
M5
G00 X18.35 Y72.13 F6000.0
M3 F6000.0
G01 F6000.0
G01 F6000.0
M5
G00 X17.4 Y68.33 F6000.0
M3 F6000.0
G01 X17.41 Y68.39 F6000.0
G01 Y68.25 F6000.0
G01 X17.4 Y68.33 F6000.0
G01 F6000.0
M5
G00 X20.35 Y63.64 F6000.0
M3 F6000.0
G01 F6000.0
G01 F6000.0
M5
G00 X25.11 Y62.68 F6000.0
M3 F6000.0
G01 F6000.0
G01 F6000.0
M5
G00 X25.33 Y62.4 F6000.0
M3 F6000.0
G01 X25.21 Y62.51 F6000.0
G01 X24.35 Y63.29 F6000.0
G01 X24.33 Y63.42 F6000.0
G01 X24.19 Y64.54 F6000.0
G01 X24.34 Y64.8 F6000.0
G01 X24.83 Y65.67 F6000.0
G01 X25.47 Y66.8 F6000.0
G01 F6000.0
G01 X26.4 Y67.19 F6000.0
G01 X26.41 Y67.11 F6000.0
G01 X26.58 Y66.04 F6000.0
G01 Y65.96 F6000.0
G01 X26.55 Y64.97 F6000.0
G01 X26.51 Y63.89 F6000.0
G01 X26.23 Y63.53 F6000.0
G01 X25.33 Y62.4 F6000.0
G01 F6000.0
M5
G00 X26.09 Y62.83 F6000.0
M3 F6000.0
G01 F6000.0
G01 F6000.0
M5
G00 X24.75 Y65.85 F6000.0
M3 F6000.0
G01 F6000.0
G01 F6000.0
M5
G00 X24.96 Y66.25 F6000.0
M3 F6000.0
G01 X25.03 Y66.32 F6000.0
G01 X24.99 Y66.25 F6000.0
G01 X24.91 Y66.18 F6000.0
G01 X24.96 Y66.25 F6000.0
G01 F6000.0
M5
G00 X24.4 Y59.39 F6000.0
M3 F6000.0
G01 F6000.0
G01 F6000.0
M5
G00 X27.74 Y57.27 F6000.0
M3 F6000.0
G01 F6000.0
G01 F6000.0
M5
G00 X28.85 Y56.64 F6000.0
M3 F6000.0
G01 F6000.0
G01 F6000.0
M5
G00 X29.22 Y59.45 F6000.0
M3 F6000.0
G01 X29.13 Y59.51 F6000.0
G01 X28.19 Y60.07 F6000.0
G01 X28.15 Y60.16 F6000.0
G01 X27.76 Y61.19 F6000.0
G01 X27.8 Y61.34 F6000.0
G01 X28.02 Y62.31 F6000.0
G01 X28.28 Y63.44 F6000.0
G01 X28.63 Y64.3 F6000.0
G01 X29.14 Y64.29 F6000.0
G01 X29.26 Y64.06 F6000.0
G01 X29.83 Y62.93 F6000.0
G01 X29.85 Y62.83 F6000.0
G01 X30.05 Y61.85 F6000.0
G01 X30.26 Y60.78 F6000.0
G01 Y60.76 F6000.0
G01 X30.09 Y59.76 F6000.0
G01 X29.22 Y59.45 F6000.0
G01 F6000.0
M5
G00 X28.33 Y60.05 F6000.0
M3 F6000.0
G01 F6000.0
G01 F6000.0
M5
G00 X32.76 Y58.18 F6000.0
M3 F6000.0
G01 X32.66 Y58.23 F6000.0
G01 X31.7 Y58.77 F6000.0
G01 X31.67 Y58.85 F6000.0
G01 X31.27 Y59.86 F6000.0
G01 X31.28 Y59.94 F6000.0
G01 X31.46 Y61.0 F6000.0
G01 X31.49 Y61.03 F6000.0
G01 X32.27 Y61.73 F6000.0
G01 X32.53 Y61.45 F6000.0
G01 X33.46 Y60.44 F6000.0
G01 X33.58 Y60.08 F6000.0
G01 X33.99 Y58.77 F6000.0
G01 X33.82 Y58.69 F6000.0
G01 X32.76 Y58.18 F6000.0
G01 F6000.0
M5
G00 X33.9 Y58.72 F6000.0
M3 F6000.0
G01 F6000.0
G01 F6000.0
M5
G00 X33.38 Y60.53 F6000.0
M3 F6000.0
G01 F6000.0
G01 F6000.0
M5
G00 X33.3 Y60.69 F6000.0
M3 F6000.0
G01 X33.31 Y60.7 F6000.0
G01 X33.37 Y60.64 F6000.0
G01 X33.3 Y60.69 F6000.0
G01 F6000.0
M5
G00 X38.77 Y67.57 F6000.0
M3 F6000.0
G01 X38.62 Y67.63 F6000.0
G01 X37.69 Y68.01 F6000.0
G01 X36.77 Y68.4 F6000.0
G01 X35.69 Y68.84 F6000.0
G01 X35.58 Y69.0 F6000.0
G01 X34.99 Y69.81 F6000.0
G01 X34.41 Y70.62 F6000.0
G01 X33.72 Y71.59 F6000.0
G01 X33.66 Y71.72 F6000.0
G01 X33.28 Y72.64 F6000.0
G01 X32.91 Y73.57 F6000.0
G01 X32.15 Y75.42 F6000.0
G01 X31.72 Y76.47 F6000.0
G01 X31.69 Y76.64 F6000.0
G01 X31.54 Y77.63 F6000.0
G01 X31.38 Y78.61 F6000.0
G01 X31.08 Y80.59 F6000.0
G01 X30.9 Y81.75 F6000.0
G01 X30.88 Y81.76 F6000.0
G01 X29.13 Y82.75 F6000.0
G01 X28.24 Y83.25 F6000.0
G01 X27.97 Y83.53 F6000.0
G01 X27.01 Y84.54 F6000.0
G01 X26.99 Y84.62 F6000.0
G01 X26.64 Y85.56 F6000.0
G01 X26.27 Y86.57 F6000.0
G01 X26.24 Y86.98 F6000.0
G01 X26.13 Y88.39 F6000.0
G01 X26.14 Y88.42 F6000.0
G01 X26.44 Y89.38 F6000.0
G01 X26.74 Y90.37 F6000.0
G01 X26.84 Y90.74 F6000.0
G01 X27.2 Y92.09 F6000.0
G01 X27.15 Y92.18 F6000.0
G01 X26.61 Y93.15 F6000.0
G01 X26.52 Y93.23 F6000.0
G01 X25.79 Y93.92 F6000.0
G01 X24.97 Y94.69 F6000.0
G01 X24.9 Y94.84 F6000.0
G01 X24.45 Y95.73 F6000.0
G01 X23.93 Y96.77 F6000.0
G01 X23.96 Y97.12 F6000.0
G01 X24.08 Y99.12 F6000.0
G01 X24.14 Y100.12 F6000.0
G01 X24.23 Y101.47 F6000.0
G01 X24.31 Y101.6 F6000.0
G01 X24.83 Y102.45 F6000.0
G01 X25.44 Y103.44 F6000.0
G01 X25.58 Y103.53 F6000.0
G01 X26.42 Y104.07 F6000.0
G01 X27.39 Y104.7 F6000.0
G01 X27.72 Y104.79 F6000.0
G01 X28.69 Y105.03 F6000.0
G01 X29.66 Y105.27 F6000.0
G01 X30.63 Y105.52 F6000.0
G01 X31.93 Y105.84 F6000.0
G01 X32.26 Y105.74 F6000.0
G01 X33.21 Y105.44 F6000.0
G01 X34.16 Y105.14 F6000.0
G01 X35.12 Y104.84 F6000.0
G01 X36.4 Y104.44 F6000.0
G01 X36.58 Y104.03 F6000.0
G01 X37.16 Y102.7 F6000.0
G01 X37.17 Y102.25 F6000.0
G01 X37.2 Y100.81 F6000.0
G01 X37.05 Y100.42 F6000.0
G01 X36.52 Y99.11 F6000.0
G01 X36.2 Y98.85 F6000.0
G01 X35.12 Y97.95 F6000.0
G01 X34.97 Y97.83 F6000.0
G01 X34.21 Y97.18 F6000.0
G01 X33.45 Y96.53 F6000.0
G01 X32.68 Y95.88 F6000.0
G01 X31.77 Y95.11 F6000.0
G01 X31.71 Y95.02 F6000.0
G01 X31.11 Y94.23 F6000.0
G01 X30.5 Y93.43 F6000.0
G01 X29.83 Y92.55 F6000.0
G01 X29.79 Y92.44 F6000.0
G01 X29.41 Y91.51 F6000.0
G01 X29.02 Y90.59 F6000.0
G01 X28.6 Y89.55 F6000.0
G01 Y89.5 F6000.0
G01 X28.62 Y88.5 F6000.0
G01 X28.64 Y87.5 F6000.0
G01 X28.67 Y86.45 F6000.0
G01 X28.8 Y86.24 F6000.0
G01 X29.45 Y85.17 F6000.0
G01 X29.69 Y85.03 F6000.0
G01 X30.78 Y84.37 F6000.0
G01 X30.89 Y84.35 F6000.0
G01 X31.88 Y84.22 F6000.0
G01 X32.87 Y84.08 F6000.0
G01 X33.86 Y83.94 F6000.0
G01 X34.85 Y83.8 F6000.0
G01 X35.94 Y83.64 F6000.0
G01 X36.07 Y83.65 F6000.0
G01 X37.07 Y83.7 F6000.0
G01 X38.06 Y83.75 F6000.0
G01 X39.06 Y83.8 F6000.0
G01 X40.06 Y83.84 F6000.0
G01 X41.19 Y83.9 F6000.0
G01 X41.25 Y83.92 F6000.0
G01 X42.17 Y84.31 F6000.0
G01 X43.15 Y84.72 F6000.0
G01 X43.19 Y84.76 F6000.0
G01 X43.92 Y85.44 F6000.0
G01 X44.69 Y86.16 F6000.0
G01 X44.89 Y86.45 F6000.0
G01 X45.46 Y87.28 F6000.0
G01 X46.02 Y88.1 F6000.0
G01 X46.79 Y89.22 F6000.0
G01 X46.86 Y89.66 F6000.0
G01 X47.0 Y90.65 F6000.0
G01 X47.14 Y91.64 F6000.0
G01 X47.35 Y93.07 F6000.0
G01 X47.3 Y93.24 F6000.0
G01 X46.72 Y95.16 F6000.0
G01 X46.38 Y96.28 F6000.0
G01 X46.31 Y96.48 F6000.0
G01 X45.67 Y98.38 F6000.0
G01 X45.28 Y99.53 F6000.0
G01 Y99.6 F6000.0
G01 X45.39 Y101.59 F6000.0
G01 X45.45 Y102.66 F6000.0
G01 X45.56 Y102.89 F6000.0
G01 X46.1 Y104.03 F6000.0
G01 X46.33 Y104.17 F6000.0
G01 X47.41 Y104.84 F6000.0
G01 X47.45 F6000.0
G01 X48.45 Y104.93 F6000.0
G01 X49.45 Y105.01 F6000.0
G01 X50.44 Y105.1 F6000.0
G01 X51.44 Y105.18 F6000.0
G01 X52.47 Y105.27 F6000.0
G01 X52.56 Y105.26 F6000.0
G01 X54.54 Y104.94 F6000.0
G01 X55.53 Y104.78 F6000.0
G01 X56.51 Y104.62 F6000.0
G01 X57.59 Y104.45 F6000.0
G01 X57.84 Y104.35 F6000.0
G01 X60.62 Y103.23 F6000.0
G01 X61.8 Y102.76 F6000.0
G01 X61.95 Y102.57 F6000.0
G01 X62.56 Y101.78 F6000.0
G01 X63.18 Y100.99 F6000.0
G01 X63.94 Y100.0 F6000.0
G01 X63.99 Y99.76 F6000.0
G01 X64.2 Y98.78 F6000.0
G01 X64.41 Y97.81 F6000.0
G01 X64.67 Y96.59 F6000.0
G01 X64.63 Y96.29 F6000.0
G01 X64.4 Y94.3 F6000.0
G01 X64.25 Y93.01 F6000.0
G01 X64.15 Y92.77 F6000.0
G01 X63.78 Y91.84 F6000.0
G01 X63.4 Y90.91 F6000.0
G01 X62.93 Y89.75 F6000.0
G01 X62.9 Y89.69 F6000.0
G01 X61.7 Y88.09 F6000.0
G01 X61.1 Y87.29 F6000.0
G01 X60.47 Y86.44 F6000.0
G01 X60.43 Y86.41 F6000.0
G01 X59.59 Y85.87 F6000.0
G01 X58.75 Y85.33 F6000.0
G01 X57.91 Y84.78 F6000.0
G01 X57.03 Y84.21 F6000.0
G01 X56.6 Y83.99 F6000.0
G01 X55.72 Y83.52 F6000.0
G01 X54.41 Y82.83 F6000.0
G01 X54.39 Y82.81 F6000.0
G01 X53.66 Y82.13 F6000.0
G01 X52.92 Y81.45 F6000.0
G01 X52.17 Y80.75 F6000.0
G01 X52.03 Y80.49 F6000.0
G01 X51.56 Y79.61 F6000.0
G01 X51.09 Y78.72 F6000.0
G01 X50.63 Y77.84 F6000.0
G01 X50.02 Y76.7 F6000.0
G01 X49.84 Y76.41 F6000.0
G01 X49.31 Y75.55 F6000.0
G01 X48.79 Y74.7 F6000.0
G01 X48.26 Y73.85 F6000.0
G01 X47.56 Y72.71 F6000.0
G01 X47.33 Y72.47 F6000.0
G01 X46.63 Y71.76 F6000.0
G01 X45.93 Y71.05 F6000.0
G01 X45.23 Y70.33 F6000.0
G01 X44.3 Y69.39 F6000.0
G01 X44.03 Y69.22 F6000.0
G01 X43.19 Y68.69 F6000.0
G01 X42.08 Y68.0 F6000.0
G01 X41.91 Y67.97 F6000.0
G01 X39.92 Y67.72 F6000.0
G01 X38.77 Y67.57 F6000.0
G01 F6000.0
M5
G00 X35.26 Y69.52 F6000.0
M3 F6000.0
G01 F6000.0
G01 F6000.0
M5
G00 X33.74 Y71.88 F6000.0
M3 F6000.0
G01 F6000.0
G01 F6000.0
M5
G00 X44.51 Y69.56 F6000.0
M3 F6000.0
G01 F6000.0
G01 F6000.0
M5
G00 X45.57 Y70.52 F6000.0
M3 F6000.0
G01 F6000.0
G01 F6000.0
M5
G00 X46.09 Y71.08 F6000.0
M3 F6000.0
G01 F6000.0
G01 F6000.0
M5
G00 X47.16 Y72.54 F6000.0
M3 F6000.0
G01 F6000.0
G01 F6000.0
M5
G00 X47.43 Y72.68 F6000.0
M3 F6000.0
G01 F6000.0
G01 F6000.0
M5
G00 X48.75 Y74.38 F6000.0
M3 F6000.0
G01 F6000.0
G01 F6000.0
M5
G00 X48.92 Y74.58 F6000.0
M3 F6000.0
G01 F6000.0
G01 F6000.0
M5
G00 X49.13 Y74.89 F6000.0
M3 F6000.0
G01 F6000.0
G01 F6000.0
M5
G00 X51.83 Y80.33 F6000.0
M3 F6000.0
G01 F6000.0
G01 F6000.0
M5
G00 X53.68 Y82.43 F6000.0
M3 F6000.0
G01 F6000.0
G01 F6000.0
M5
G00 X56.11 Y83.73 F6000.0
M3 F6000.0
G01 F6000.0
G01 F6000.0
M5
G00 X59.04 Y85.36 F6000.0
M3 F6000.0
G01 F6000.0
G01 F6000.0
M5
G00 X59.35 Y85.5 F6000.0
M3 F6000.0
G01 F6000.0
G01 F6000.0
M5
G00 X60.72 Y86.85 F6000.0
M3 F6000.0
G01 F6000.0
G01 F6000.0
M5
G00 X61. Y87.06 F6000.0
M3 F6000.0
G01 F6000.0
G01 F6000.0
M5
G00 X61.87 Y88.2 F6000.0
M3 F6000.0
G01 F6000.0
G01 F6000.0
M5
G00 X62.56 Y89.27 F6000.0
M3 F6000.0
G01 F6000.0
G01 F6000.0
M5
G00 X63.55 Y91.18 F6000.0
M3 F6000.0
G01 F6000.0
G01 F6000.0
M5
G00 X63.95 Y99.97 F6000.0
M3 F6000.0
G01 F6000.0
G01 F6000.0
M5
G00 X62.32 Y102.16 F6000.0
M3 F6000.0
G01 F6000.0
G01 F6000.0
M5
G00 X61.27 Y103.1 F6000.0
M3 F6000.0
G01 F6000.0
G01 F6000.0
M5
G00 X47.28 Y104.71 F6000.0
M3 F6000.0
G01 F6000.0
G01 F6000.0
M5
G00 X45.62 Y102.73 F6000.0
M3 F6000.0
G01 F6000.0
G01 F6000.0
M5
G00 X47.01 Y95.15 F6000.0
M3 F6000.0
G01 F6000.0
G01 F6000.0
M5
G00 X46.37 Y88.31 F6000.0
M3 F6000.0
G01 F6000.0
G01 F6000.0
M5
G00 X41.07 Y87.41 F6000.0
M3 F6000.0
G01 F6000.0
G01 F6000.0
M5
G00 X39.88 Y90.72 F6000.0
M3 F6000.0
G01 F6000.0
G01 F6000.0
M5
G00 X37.49 Y91.49 F6000.0
M3 F6000.0
G01 X37.55 F6000.0
G01 X37.51 Y91.47 F6000.0
G01 X37.49 Y91.49 F6000.0
G01 F6000.0
M5
G00 X42.77 Y124.56 F6000.0
M3 F6000.0
G01 X42.84 F6000.0
G01 X42.79 Y124.54 F6000.0
G01 X42.77 Y124.56 F6000.0
G01 F6000.0
M5
G00 X63.46 Y128.66 F6000.0
M3 F6000.0
G01 F6000.0
G01 F6000.0
M5
G00 X64.19 Y127.84 F6000.0
M3 F6000.0
G01 F6000.0
G01 F6000.0
M5
G00 X64.3 Y127.95 F6000.0
M3 F6000.0
G01 F6000.0
G01 F6000.0
M5
G00 X64.64 Y127.44 F6000.0
M3 F6000.0
G01 F6000.0
G01 F6000.0
M5
G00 X79.14 Y88.14 F6000.0
M3 F6000.0
G01 F6000.0
G01 F6000.0
M5
G00 X77.11 Y70.72 F6000.0
M3 F6000.0
G01 F6000.0
G01 F6000.0
M5
G00 X75.2 Y68.27 F6000.0
M3 F6000.0
G01 F6000.0
G01 F6000.0
M5
G00 X73.56 Y66.93 F6000.0
M3 F6000.0
G01 F6000.0
G01 F6000.0
M5
G00 X68.11 Y63.2 F6000.0
M3 F6000.0
G01 F6000.0
G01 F6000.0
M5
G00 X67.71 Y62.97 F6000.0
M3 F6000.0
G01 F6000.0
G01 F6000.0
M5
G00 X66.28 Y62.16 F6000.0
M3 F6000.0
G01 F6000.0
G01 F6000.0
M5
G00 X60.64 Y52.53 F6000.0
M3 F6000.0
G01 X60.93 F6000.0
G01 X60.78 Y52.52 F6000.0
G01 X60.64 Y52.53 F6000.0
G01 F6000.0
M5
G00 X53.66 Y49.7 F6000.0
M3 F6000.0
G01 F6000.0
G01 F6000.0
M5
G00 X50.92 Y55.57 F6000.0
M3 F6000.0
G01 F6000.0
G01 F6000.0
M5
G00 X41.15 Y54.25 F6000.0
M3 F6000.0
G01 X41.39 Y54.26 F6000.0
G01 X42.39 Y54.3 F6000.0
G01 X43.39 Y54.34 F6000.0
G01 X45.39 Y54.42 F6000.0
G01 X46.62 Y54.47 F6000.0
G01 X46.82 Y54.53 F6000.0
G01 X48.74 Y55.09 F6000.0
G01 X49.7 Y55.37 F6000.0
G01 X50.66 Y55.66 F6000.0
G01 X51.81 Y55.99 F6000.0
G01 X51.85 Y56.01 F6000.0
G01 X52.78 Y56.38 F6000.0
G01 X53.71 Y56.75 F6000.0
G01 X55.57 Y57.49 F6000.0
G01 X56.49 Y57.87 F6000.0
G01 X57.42 Y58.24 F6000.0
G01 X58.35 Y58.61 F6000.0
G01 X59.28 Y58.98 F6000.0
G01 X60.21 Y59.35 F6000.0
G01 X61.14 Y59.72 F6000.0
G01 X62.07 Y60.09 F6000.0
G01 X63.03 Y60.48 F6000.0
G01 X63.21 Y60.58 F6000.0
G01 X64.07 Y61.09 F6000.0
G01 X64.93 Y61.6 F6000.0
G01 X65.8 Y62.11 F6000.0
G01 X66.66 Y62.61 F6000.0
G01 X67.52 Y63.12 F6000.0
G01 X68.38 Y63.63 F6000.0
G01 X69.42 Y64.24 F6000.0
G01 X69.43 Y64.25 F6000.0
G01 X70.25 Y64.83 F6000.0
G01 X71.07 Y65.4 F6000.0
G01 X72.7 Y66.55 F6000.0
G01 X73.53 Y67.13 F6000.0
G01 X73.76 Y67.35 F6000.0
G01 X74.49 Y68.04 F6000.0
G01 X75.22 Y68.72 F6000.0
G01 X76.18 Y69.63 F6000.0
G01 X76.34 Y69.97 F6000.0
G01 X76.77 Y70.88 F6000.0
G01 X77.2 Y71.78 F6000.0
G01 X77.8 Y73.02 F6000.0
G01 X77.81 Y73.29 F6000.0
G01 X77.86 Y77.29 F6000.0
G01 X77.87 Y78.29 F6000.0
G01 X77.89 Y79.56 F6000.0
G01 X77.91 Y79.75 F6000.0
G01 X78.03 Y80.74 F6000.0
G01 X78.16 Y81.73 F6000.0
G01 X78.28 Y82.73 F6000.0
G01 X78.4 Y83.72 F6000.0
G01 X78.53 Y84.71 F6000.0
G01 X78.67 Y85.89 F6000.0
G01 X78.7 Y86.12 F6000.0
G01 X78.82 Y87.12 F6000.0
G01 X78.94 Y88.11 F6000.0
G01 X79.06 Y89.1 F6000.0
G01 X79.19 Y90.09 F6000.0
G01 X79.31 Y91.09 F6000.0
G01 X79.43 Y92.08 F6000.0
G01 X79.58 Y93.3 F6000.0
G01 X79.56 Y93.5 F6000.0
G01 X79.5 Y94.5 F6000.0
G01 X79.43 Y95.5 F6000.0
G01 X79.37 Y96.5 F6000.0
G01 X79.17 Y99.49 F6000.0
G01 X79.09 Y100.69 F6000.0
G01 X78.94 Y101.04 F6000.0
G01 X78.17 Y102.88 F6000.0
G01 X77.64 Y104.15 F6000.0
G01 X77.48 Y104.4 F6000.0
G01 X76.95 Y105.24 F6000.0
G01 X76.41 Y106.08 F6000.0
G01 X75.72 Y107.17 F6000.0
G01 X75.49 Y107.53 F6000.0
G01 X74.94 Y108.37 F6000.0
G01 X74.39 Y109.2 F6000.0
G01 X73.84 Y110.04 F6000.0
G01 X73.29 Y110.88 F6000.0
G01 X72.74 Y111.71 F6000.0
G01 X71.95 Y112.91 F6000.0
G01 X71.82 Y113.07 F6000.0
G01 X71.19 Y113.84 F6000.0
G01 X70.56 Y114.62 F6000.0
G01 X69.93 Y115.4 F6000.0
G01 X69.3 Y116.17 F6000.0
G01 X68.67 Y116.95 F6000.0
G01 X68.04 Y117.73 F6000.0
G01 X67.28 Y118.66 F6000.0
G01 X66.99 Y118.87 F6000.0
G01 X66.19 Y119.47 F6000.0
G01 X65.1 Y120.27 F6000.0
G01 Y120.28 F6000.0
G01 X64.13 Y120.53 F6000.0
G01 X64.07 Y120.58 F6000.0
G01 X63.29 Y121.32 F6000.0
G01 X63.04 Y121.71 F6000.0
G01 X62.5 Y122.55 F6000.0
G01 X61.95 Y123.39 F6000.0
G01 X61.16 Y124.62 F6000.0
G01 X60.85 Y124.98 F6000.0
G01 X60.2 Y125.73 F6000.0
G01 X59.54 Y126.49 F6000.0
G01 X58.58 Y127.6 F6000.0
G01 X58.12 Y127.41 F6000.0
G01 X57.2 Y127.03 F6000.0
G01 X56.27 Y126.64 F6000.0
G01 X54.89 Y126.07 F6000.0
G01 X54.56 Y125.74 F6000.0
G01 X53.85 Y125.04 F6000.0
G01 X53.13 Y124.34 F6000.0
G01 X52.09 Y123.31 F6000.0
G01 X51.84 Y123.12 F6000.0
G01 X50.78 Y122.36 F6000.0
G01 X50.36 Y122.35 F6000.0
G01 X48.95 Y122.31 F6000.0
G01 X48.56 Y122.3 F6000.0
G01 X47.56 Y122.26 F6000.0
G01 X46.56 Y122.22 F6000.0
G01 X45.18 Y122.18 F6000.0
G01 X44.78 Y122.16 F6000.0
G01 X43.78 Y122.11 F6000.0
G01 X40.78 Y121.97 F6000.0
G01 X39.38 Y121.91 F6000.0
G01 X39.33 Y121.92 F6000.0
G01 X38.33 Y122.05 F6000.0
G01 X37.34 Y122.17 F6000.0
G01 X35.36 Y122.43 F6000.0
G01 X34.31 Y122.57 F6000.0
G01 X34.32 Y122.52 F6000.0
G01 X34.49 Y121.48 F6000.0
G01 X33.85 Y121.24 F6000.0
G01 X33.56 Y121.32 F6000.0
G01 X32.31 Y121.68 F6000.0
G01 X32.11 Y121.45 F6000.0
G01 X31.25 Y120.48 F6000.0
G01 X30.94 Y120.5 F6000.0
G01 X29.62 Y120.57 F6000.0
G01 X29.7 Y120.41 F6000.0
G01 X30.22 Y119.35 F6000.0
G01 X30.14 Y119.27 F6000.0
G01 X29.34 Y118.49 F6000.0
G01 X29.29 Y118.51 F6000.0
G01 X28.33 Y118.78 F6000.0
G01 X27.36 Y119.05 F6000.0
G01 X26.4 Y119.32 F6000.0
G01 X25.39 Y119.61 F6000.0
G01 X25.43 Y119.64 F6000.0
G01 X26.2 Y120.29 F6000.0
G01 X27.0 Y120.97 F6000.0
G01 X27.13 Y120.96 F6000.0
G01 X28.13 Y120.89 F6000.0
G01 X29.25 Y120.82 F6000.0
G01 X29.23 Y120.88 F6000.0
G01 X28.76 Y121.83 F6000.0
G01 X28.78 Y121.86 F6000.0
G01 X29.46 Y122.63 F6000.0
G01 X29.29 Y122.94 F6000.0
G01 X28.81 Y123.81 F6000.0
G01 X28.15 Y125.0 F6000.0
G01 X28.04 Y125.19 F6000.0
G01 X27.45 Y126.27 F6000.0
G01 X27.33 Y126.37 F6000.0
G01 X26.44 Y127.11 F6000.0
G01 X26.17 Y126.83 F6000.0
G01 X25.21 Y125.82 F6000.0
G01 X25.08 Y125.42 F6000.0
G01 X24.64 Y124.06 F6000.0
G01 X24.55 Y123.64 F6000.0
G01 X24.34 Y122.66 F6000.0
G01 X24.14 Y121.68 F6000.0
G01 X23.85 Y120.28 F6000.0
G01 X23.82 Y119.87 F6000.0
G01 X23.74 Y118.87 F6000.0
G01 X23.66 Y117.88 F6000.0
G01 X23.57 Y116.88 F6000.0
G01 X23.46 Y115.47 F6000.0
G01 X23.25 Y115.06 F6000.0
G01 X22.8 Y114.17 F6000.0
G01 X22.34 Y113.28 F6000.0
G01 X21.89 Y112.39 F6000.0
G01 X21.22 Y111.1 F6000.0
G01 X21.07 Y110.65 F6000.0
G01 X20.73 Y109.71 F6000.0
G01 X20.39 Y108.77 F6000.0
G01 X20.06 Y107.83 F6000.0
G01 X19.57 Y106.44 F6000.0
G01 X19.47 Y106.2 F6000.0
G01 X19.1 Y105.27 F6000.0
G01 X18.73 Y104.34 F6000.0
G01 X18.36 Y103.42 F6000.0
G01 X17.99 Y102.49 F6000.0
G01 X17.62 Y101.56 F6000.0
G01 X17.15 Y100.39 F6000.0
G01 X17.09 Y100.13 F6000.0
G01 X16.84 Y99.16 F6000.0
G01 X16.59 Y98.19 F6000.0
G01 X16.34 Y97.22 F6000.0
G01 X16.09 Y96.26 F6000.0
G01 X15.84 Y95.29 F6000.0
G01 X15.52 Y94.06 F6000.0
G01 Y93.97 F6000.0
G01 X15.53 Y92.97 F6000.0
G01 X15.54 Y91.97 F6000.0
G01 X15.56 Y89.97 F6000.0
G01 X15.58 Y88.88 F6000.0
G01 X15.59 Y88.84 F6000.0
G01 X16.27 Y86.96 F6000.0
G01 X16.61 Y86.02 F6000.0
G01 X16.95 Y85.08 F6000.0
G01 X17.3 Y84.1 F6000.0
G01 X17.38 Y83.96 F6000.0
G01 X18.86 Y81.35 F6000.0
G01 X19.43 Y80.34 F6000.0
G01 Y80.33 F6000.0
G01 X19.93 Y79.46 F6000.0
G01 X20.43 Y78.6 F6000.0
G01 X21.42 Y76.86 F6000.0
G01 X21.92 Y75.99 F6000.0
G01 X21.63 Y75.58 F6000.0
G01 X21.05 Y74.77 F6000.0
G01 X20.18 Y73.55 F6000.0
G01 X20.16 Y73.5 F6000.0
G01 X19.46 Y71.63 F6000.0
G01 X19.09 Y70.65 F6000.0
G01 Y70.62 F6000.0
G01 X18.96 Y68.63 F6000.0
G01 X18.89 Y67.61 F6000.0
G01 Y67.6 F6000.0
G01 X19.2 Y66.65 F6000.0
G01 X19.51 Y65.7 F6000.0
G01 X19.82 Y64.74 F6000.0
G01 X19.84 Y64.72 F6000.0
G01 X20.42 Y63.91 F6000.0
G01 X21.01 Y63.1 F6000.0
G01 X21.59 Y62.29 F6000.0
G01 X22.19 Y61.46 F6000.0
G01 X22.51 Y61.17 F6000.0
G01 X23.25 Y60.5 F6000.0
G01 X24.0 Y59.83 F6000.0
G01 X25.06 Y58.87 F6000.0
G01 X25.46 Y58.64 F6000.0
G01 X26.32 Y58.15 F6000.0
G01 X27.19 Y57.65 F6000.0
G01 X28.46 Y56.93 F6000.0
G01 X28.48 Y56.92 F6000.0
G01 X29.42 Y56.58 F6000.0
G01 X30.36 Y56.24 F6000.0
G01 X31.3 Y55.9 F6000.0
G01 X32.24 Y55.56 F6000.0
G01 X33.19 Y55.22 F6000.0
G01 X34.12 Y54.88 F6000.0
G01 X35.09 Y54.52 F6000.0
G01 X35.13 F6000.0
G01 X38.12 Y54.39 F6000.0
G01 X39.12 Y54.34 F6000.0
G01 X40.12 Y54.3 F6000.0
G01 X41.15 Y54.25 F6000.0
G01 F6000.0
M5
G00 X40.13 Y47.49 F6000.0
M3 F6000.0
G01 X40.2 Y47.48 F6000.0
G01 X40.15 Y47.47 F6000.0
G01 X40.13 Y47.49 F6000.0
G01 F6000.0
M5
G00 X39.55 Y47.52 F6000.0
M3 F6000.0
G01 X39.62 F6000.0
G01 X39.58 Y47.5 F6000.0
G01 X39.55 Y47.52 F6000.0
G01 F6000.0
M5
G00 X37.47 Y47.76 F6000.0
M3 F6000.0
G01 X37.57 F6000.0
G01 X37.51 Y47.74 F6000.0
G01 X37.47 Y47.76 F6000.0
G01 F6000.0
M5
G00 X37.25 Y47.96 F6000.0
M3 F6000.0
G01 X37.34 F6000.0
G01 X37.29 Y47.94 F6000.0
G01 X37.25 Y47.96 F6000.0
G01 F6000.0
M5
G00 X35.12 Y46.81 F6000.0
M3 F6000.0
G01 X35.19 F6000.0
G01 X35.14 Y46.79 F6000.0
G01 X35.12 Y46.81 F6000.0
G01 F6000.0
M5
G00 X32.95 Y48.06 F6000.0
M3 F6000.0
G01 X33.02 F6000.0
G01 X32.98 Y48.04 F6000.0
G01 X32.95 Y48.06 F6000.0
G01 F6000.0
M5
G00 X32.38 Y48.1 F6000.0
M3 F6000.0
G01 X32.44 Y48.09 F6000.0
G01 X32.4 Y48.08 F6000.0
G01 X32.38 Y48.1 F6000.0
G01 F6000.0
M5
G00 X31.5 Y48.57 F6000.0
M3 F6000.0
G01 X31.56 F6000.0
G01 X31.52 Y48.55 F6000.0
G01 X31.5 Y48.57 F6000.0
G01 F6000.0
M5
G00 X31.12 Y47.25 F6000.0
M3 F6000.0
G01 X31.21 F6000.0
G01 X31.17 Y47.23 F6000.0
G01 X31.12 Y47.25 F6000.0
G01 F6000.0
M5
G00 X30.01 Y48.64 F6000.0
M3 F6000.0
G01 X30.07 F6000.0
G01 X30.03 Y48.62 F6000.0
G01 X30.01 Y48.64 F6000.0
G01 F6000.0
M5
G00 X28.27 Y47.52 F6000.0
M3 F6000.0
G01 X28.37 F6000.0
G01 X28.31 Y47.5 F6000.0
G01 X28.27 Y47.52 F6000.0
G01 F6000.0
M5
G00 X27.88 Y48.27 F6000.0
M3 F6000.0
G01 X27.94 Y48.26 F6000.0
G01 X27.9 Y48.25 F6000.0
G01 X27.88 Y48.27 F6000.0
G01 F6000.0
M5
G00 X27.44 Y48.77 F6000.0
M3 F6000.0
G01 X27.5 F6000.0
G01 X27.46 Y48.75 F6000.0
G01 X27.44 Y48.77 F6000.0
G01 F6000.0
M5
G00 X27.3 Y48.84 F6000.0
M3 F6000.0
G01 F6000.0
G01 F6000.0
M5
G00 X26.86 Y48.23 F6000.0
M3 F6000.0
G01 X26.93 F6000.0
G01 X26.88 Y48.21 F6000.0
G01 X26.86 Y48.23 F6000.0
G01 F6000.0
M5
G00 X27.05 Y47.56 F6000.0
M3 F6000.0
G01 X27.15 Y47.55 F6000.0
G01 X27.09 Y47.54 F6000.0
G01 X27.05 Y47.56 F6000.0
G01 F6000.0
M5
G00 X26.12 Y47.56 F6000.0
M3 F6000.0
G01 X26.18 Y47.55 F6000.0
G01 X26.14 Y47.53 F6000.0
G01 X26.12 Y47.56 F6000.0
G01 F6000.0
M5
G00 X26.79 Y46.11 F6000.0
M3 F6000.0
G01 F6000.0
G01 F6000.0
M5
G00 X27.12 Y45.94 F6000.0
M3 F6000.0
G01 F6000.0
G01 F6000.0
M5
G00 X26.94 Y45.65 F6000.0
M3 F6000.0
G01 F6000.0
G01 F6000.0
M5
G00 X27.6 Y45.33 F6000.0
M3 F6000.0
G01 F6000.0
G01 F6000.0
M5
G00 X27.8 Y45.44 F6000.0
M3 F6000.0
G01 F6000.0
G01 F6000.0
M5
G00 X27.81 Y46.58 F6000.0
M3 F6000.0
G01 X27.89 F6000.0
G01 X27.85 Y46.56 F6000.0
G01 X27.81 Y46.58 F6000.0
G01 F6000.0
M5
G00 X24.36 Y48.03 F6000.0
M3 F6000.0
G01 X24.42 F6000.0
G01 X24.38 Y48.01 F6000.0
G01 X24.36 Y48.03 F6000.0
G01 F6000.0
M5
G00 X23.91 Y51.82 F6000.0
M3 F6000.0
G01 F6000.0
G01 F6000.0
M5
G00 X21.21 Y45.66 F6000.0
M3 F6000.0
G01 F6000.0
G01 F6000.0
M5
G00 X25.47 Y39.06 F6000.0
M3 F6000.0
G01 F6000.0
G01 F6000.0
M5
G00 X24.98 Y37.4 F6000.0
M3 F6000.0
G01 X25.0 Y37.42 F6000.0
G01 X24.99 Y37.36 F6000.0
G01 X24.98 Y37.4 F6000.0
G01 F6000.0
M5
G00 X24.84 Y35.1 F6000.0
M3 F6000.0
G01 X24.86 Y35.14 F6000.0
G01 Y35.04 F6000.0
G01 X24.84 Y35.1 F6000.0
G01 F6000.0
M5
G00 X25.62 Y33.34 F6000.0
M3 F6000.0
G01 X25.64 Y33.4 F6000.0
G01 Y33.26 F6000.0
G01 X25.62 Y33.34 F6000.0
G01 F6000.0
M5
G00 X25.59 Y32.61 F6000.0
M3 F6000.0
G01 X25.61 Y32.67 F6000.0
G01 Y32.55 F6000.0
G01 X25.59 Y32.61 F6000.0
G01 F6000.0
M5
G00 X31.45 Y37.86 F6000.0
M3 F6000.0
G01 X31.48 Y38.61 F6000.0
G01 X31.0 Y38.52 F6000.0
G01 X30.74 Y38.09 F6000.0
G01 X31.45 Y37.86 F6000.0
G01 F6000.0
M5
G00 X33.12 Y36.02 F6000.0
M3 F6000.0
G01 X33.19 F6000.0
G01 X33.15 Y36.0 F6000.0
G01 X33.12 Y36.02 F6000.0
G01 F6000.0
M5
G00 X35.73 Y35.51 F6000.0
M3 F6000.0
G01 X35.63 Y35.55 F6000.0
G01 X34.66 Y36.07 F6000.0
G01 X34.28 Y36.05 F6000.0
G01 X32.9 Y36.0 F6000.0
G01 X32.09 Y35.7 F6000.0
G01 X32.45 Y35.66 F6000.0
G01 X33.81 Y35.53 F6000.0
G01 X34.27 Y35.52 F6000.0
G01 X35.73 Y35.51 F6000.0
G01 F6000.0
M5
G00 X37.24 Y37.46 F6000.0
M3 F6000.0
G01 X36.93 Y38.23 F6000.0
G01 X36.45 Y37.92 F6000.0
G01 X36.37 Y37.38 F6000.0
G01 X37.24 Y37.46 F6000.0
G01 F6000.0
M5
G00 X41.99 Y46.44 F6000.0
M3 F6000.0
G01 X42.06 F6000.0
G01 X42.01 Y46.42 F6000.0
G01 X41.99 Y46.44 F6000.0
G01 F6000.0
M5
G00 X42.09 Y47.35 F6000.0
M3 F6000.0
G01 X42.16 F6000.0
G01 X42.11 Y47.33 F6000.0
G01 X42.09 Y47.35 F6000.0
G01 F6000.0
M5
G00 X47.28 Y39.39 F6000.0
M3 F6000.0
G01 F6000.0
G01 F6000.0
M5
G00 X47.48 Y36.43 F6000.0
M3 F6000.0
G01 F6000.0
G01 F6000.0
M5
G00 X50.59 Y19.02 F6000.0
M3 F6000.0
G01 F6000.0
G01 F6000.0
M5
G00 X49.77 Y16.7 F6000.0
M3 F6000.0
G01 F6000.0
G01 F6000.0
M5
G00 X45.54 Y18.53 F6000.0
M3 F6000.0
G01 X45.17 Y18.55 F6000.0
G01 X44.17 Y18.58 F6000.0
G01 X43.17 Y18.62 F6000.0
G01 X42.17 Y18.66 F6000.0
G01 X41.17 Y18.69 F6000.0
G01 X40.17 Y18.73 F6000.0
G01 X38.8 Y18.78 F6000.0
G01 X38.62 Y18.79 F6000.0
G01 X37.45 Y18.85 F6000.0
G01 X37.05 Y18.86 F6000.0
G01 X35.05 Y18.92 F6000.0
G01 X34.05 Y18.94 F6000.0
G01 X33.05 Y18.97 F6000.0
G01 X32.05 Y18.99 F6000.0
G01 X30.65 Y19.03 F6000.0
G01 X30.4 Y19.04 F6000.0
G01 X28.41 Y19.13 F6000.0
G01 X27.16 Y19.19 F6000.0
G01 X27.12 F6000.0
G01 X26.12 Y19.28 F6000.0
G01 X25.09 Y19.36 F6000.0
G01 X24.81 Y19.38 F6000.0
G01 X23.54 Y19.49 F6000.0
G01 X23.22 Y19.52 F6000.0
G01 X21.92 Y19.61 F6000.0
G01 X21.78 Y19.6 F6000.0
G01 X20.64 Y19.54 F6000.0
G01 X19.94 Y19.51 F6000.0
G01 X19.45 Y19.62 F6000.0
G01 X19.39 Y19.63 F6000.0
G01 X18.32 Y19.73 F6000.0
G01 X18.31 F6000.0
G01 X17.34 Y20.0 F6000.0
G01 X17.22 Y20.07 F6000.0
G01 X17.24 Y20.34 F6000.0
G01 X17.29 Y21.34 F6000.0
G01 X17.34 Y22.34 F6000.0
G01 X17.41 Y23.61 F6000.0
G01 X17.47 Y24.49 F6000.0
G01 X17.54 Y25.45 F6000.0
G01 X17.55 Y25.47 F6000.0
G01 X17.64 Y26.48 F6000.0
G01 X17.66 Y26.65 F6000.0
G01 X17.78 Y27.8 F6000.0
G01 X17.87 Y28.63 F6000.0
G01 X17.95 Y29.48 F6000.0
G01 Y29.5 F6000.0
G01 X18.05 Y30.51 F6000.0
G01 X18.09 Y30.74 F6000.0
G01 X18.25 Y31.73 F6000.0
G01 X18.44 Y32.95 F6000.0
G01 X18.55 Y33.4 F6000.0
G01 X18.79 Y34.37 F6000.0
G01 X19.14 Y35.79 F6000.0
G01 X19.22 Y36.09 F6000.0
G01 X19.56 Y37.35 F6000.0
G01 X19.57 Y37.42 F6000.0
G01 X19.95 Y39.38 F6000.0
G01 X20.15 Y40.43 F6000.0
G01 X20.16 Y40.46 F6000.0
G01 X20.36 Y41.44 F6000.0
G01 X20.55 Y42.42 F6000.0
G01 X20.76 Y43.44 F6000.0
G01 X20.84 Y43.81 F6000.0
G01 X21.16 Y45.15 F6000.0
G01 X21.23 Y45.34 F6000.0
G01 X21.4 Y45.75 F6000.0
G01 X21.94 Y47.1 F6000.0
G01 X21.95 Y47.11 F6000.0
G01 X22.33 Y48.05 F6000.0
G01 X22.39 F6000.0
G01 X23.44 Y48.1 F6000.0
G01 X23.67 Y47.62 F6000.0
G01 X23.62 Y47.24 F6000.0
G01 X23.55 Y46.78 F6000.0
G01 X23.48 Y46.39 F6000.0
G01 X23.21 Y45.02 F6000.0
G01 X23.2 Y44.97 F6000.0
G01 X22.98 Y44.0 F6000.0
G01 X22.74 Y42.97 F6000.0
G01 X22.59 Y42.0 F6000.0
G01 Y41.97 F6000.0
G01 X22.47 Y40.95 F6000.0
G01 X22.45 Y40.8 F6000.0
G01 X22.34 Y39.81 F6000.0
G01 X22.21 Y38.67 F6000.0
G01 X22.15 Y38.25 F6000.0
G01 X21.94 Y36.85 F6000.0
G01 X21.87 Y36.4 F6000.0
G01 X21.62 Y34.96 F6000.0
G01 X21.61 Y34.91 F6000.0
G01 X21.45 Y33.92 F6000.0
G01 X21.27 Y32.88 F6000.0
G01 X21.18 Y32.31 F6000.0
G01 X21.08 Y31.8 F6000.0
G01 X20.98 Y31.34 F6000.0
G01 X20.79 Y30.43 F6000.0
G01 Y30.39 F6000.0
G01 X20.57 Y29.38 F6000.0
G01 X20.42 Y28.67 F6000.0
G01 X20.3 Y28.18 F6000.0
G01 X20.28 Y28.07 F6000.0
G01 X20.03 Y26.99 F6000.0
G01 X19.86 Y26.21 F6000.0
G01 X19.8 Y25.89 F6000.0
G01 X19.55 Y24.58 F6000.0
G01 X19.42 Y24.26 F6000.0
G01 X18.59 Y23.76 F6000.0
G01 X18.31 Y23.14 F6000.0
G01 X18.39 Y22.85 F6000.0
G01 X18.94 Y22.86 F6000.0
G01 X19.57 Y23.3 F6000.0
G01 X19.89 Y23.36 F6000.0
G01 X20.28 Y23.3 F6000.0
G01 X20.41 Y23.26 F6000.0
G01 X20.24 Y23.17 F6000.0
G01 X19.76 Y22.79 F6000.0
G01 X19.65 Y22.68 F6000.0
G01 X19.63 Y22.65 F6000.0
G01 X19.56 Y22.4 F6000.0
G01 X19.46 Y21.96 F6000.0
G01 X19.53 Y21.63 F6000.0
G01 X19.73 Y21.53 F6000.0
G01 X19.74 Y21.54 F6000.0
G01 X20.56 Y22.13 F6000.0
G01 X20.89 Y22.93 F6000.0
G01 X20.93 Y23.03 F6000.0
G01 X21.42 Y22.78 F6000.0
G01 X21.53 Y22.72 F6000.0
G01 X22.5 Y22.15 F6000.0
G01 X23.3 Y21.69 F6000.0
G01 X24.08 Y21.4 F6000.0
G01 X24.5 Y21.25 F6000.0
G01 X24.66 Y21.14 F6000.0
G01 X24.89 Y20.83 F6000.0
G01 X25.13 Y20.79 F6000.0
G01 X26.36 Y20.56 F6000.0
G01 X26.8 Y20.51 F6000.0
G01 X27.17 Y20.47 F6000.0
G01 X28.17 Y20.36 F6000.0
G01 X29.16 Y20.26 F6000.0
G01 X30.52 Y20.11 F6000.0
G01 X31.37 Y20.09 F6000.0
G01 X31.79 Y20.1 F6000.0
G01 X32.21 Y20.38 F6000.0
G01 X32.65 Y20.49 F6000.0
G01 X32.66 Y20.42 F6000.0
G01 X32.72 Y20.33 F6000.0
G01 X33.12 Y20.1 F6000.0
G01 X33.5 Y20.03 F6000.0
G01 X34.86 Y19.78 F6000.0
G01 X35.58 Y19.66 F6000.0
G01 X35.82 F6000.0
G01 X37.82 Y19.62 F6000.0
G01 X39.05 Y19.6 F6000.0
G01 X39.17 Y19.62 F6000.0
G01 X39.3 Y19.65 F6000.0
G01 X39.7 Y19.79 F6000.0
G01 X40.26 Y19.82 F6000.0
G01 X40.55 Y19.85 F6000.0
G01 X41.84 Y20.0 F6000.0
G01 X42.62 Y20.03 F6000.0
G01 X42.92 Y20.04 F6000.0
G01 X44.22 Y20.07 F6000.0
G01 X44.24 F6000.0
G01 X45.23 Y20.2 F6000.0
G01 X46.25 Y20.34 F6000.0
G01 X47.08 Y20.46 F6000.0
G01 X47.4 Y20.54 F6000.0
G01 X48.7 Y20.86 F6000.0
G01 X49.63 Y21.1 F6000.0
G01 X49.85 Y21.16 F6000.0
G01 X51.04 Y21.46 F6000.0
G01 F6000.0
G01 X52.01 Y21.7 F6000.0
G01 X52.98 Y21.94 F6000.0
G01 X53.24 Y22.01 F6000.0
G01 X53.3 Y22.51 F6000.0
G01 X53.33 Y22.82 F6000.0
G01 X53.46 Y24.13 F6000.0
G01 X53.48 Y24.39 F6000.0
G01 X53.56 Y25.39 F6000.0
G01 X53.66 Y26.65 F6000.0
G01 X53.72 Y27.14 F6000.0
G01 X53.93 Y28.61 F6000.0
G01 X54.0 Y28.96 F6000.0
G01 X54.3 Y30.27 F6000.0
G01 X54.32 Y30.39 F6000.0
G01 X54.55 Y31.36 F6000.0
G01 X54.8 Y32.46 F6000.0
G01 Y32.48 F6000.0
G01 X54.95 Y33.49 F6000.0
G01 X55.05 Y34.38 F6000.0
G01 X55.1 Y34.9 F6000.0
G01 X55.33 Y35.22 F6000.0
G01 X55.35 Y34.99 F6000.0
G01 X55.41 Y33.99 F6000.0
G01 X55.49 Y32.76 F6000.0
G01 X55.5 Y32.64 F6000.0
G01 X55.51 Y31.64 F6000.0
G01 X55.52 Y30.51 F6000.0
G01 Y30.31 F6000.0
G01 X55.5 Y29.31 F6000.0
G01 X55.48 Y28.31 F6000.0
G01 X55.46 Y27.31 F6000.0
G01 X55.44 Y26.31 F6000.0
G01 X55.42 Y25.11 F6000.0
G01 X55.4 Y25.02 F6000.0
G01 X55.23 Y23.94 F6000.0
G01 X55.17 Y23.53 F6000.0
G01 X55.14 Y23.42 F6000.0
G01 X54.89 Y22.34 F6000.0
G01 X54.66 Y21.58 F6000.0
G01 X54.58 Y21.35 F6000.0
G01 X54.21 Y20.17 F6000.0
G01 X53.42 Y19.8 F6000.0
G01 X53.02 Y19.66 F6000.0
G01 X52.38 Y19.51 F6000.0
G01 X51.65 Y19.34 F6000.0
G01 X51.27 Y19.26 F6000.0
G01 X50.87 Y19.17 F6000.0
G01 X50.79 Y19.16 F6000.0
G01 X49.8 Y19.0 F6000.0
G01 X48.73 Y18.83 F6000.0
G01 X48.72 F6000.0
G01 X47.71 Y18.7 F6000.0
G01 X47.13 Y18.63 F6000.0
G01 X46.52 Y18.56 F6000.0
G01 X46.05 Y18.5 F6000.0
G01 X45.54 Y18.53 F6000.0
G01 F6000.0
M5
G00 X55.89 Y18.23 F6000.0
M3 F6000.0
G01 F6000.0
G01 F6000.0
M5
G00 X34.77 Y22.58 F6000.0
M3 F6000.0
G01 X35.02 Y23.17 F6000.0
G01 X34.65 Y23.36 F6000.0
G01 X34.59 Y23.34 F6000.0
G01 X33.58 Y23.03 F6000.0
G01 X33.17 Y22.83 F6000.0
G01 X33.19 Y22.96 F6000.0
G01 X33.16 Y22.97 F6000.0
G01 X32.19 Y23.3 F6000.0
G01 X32.15 Y23.31 F6000.0
G01 X31.21 Y23.63 F6000.0
G01 X30.22 Y23.95 F6000.0
G01 X30.04 Y24.17 F6000.0
G01 X29.21 Y25.15 F6000.0
G01 X29.2 Y25.52 F6000.0
G01 X29.72 Y25.79 F6000.0
G01 X29.74 Y25.8 F6000.0
G01 X30.67 Y26.24 F6000.0
G01 X31.27 Y26.49 F6000.0
G01 X31.86 Y26.75 F6000.0
G01 X31.83 Y26.11 F6000.0
G01 X31.76 Y25.17 F6000.0
G01 X31.74 Y24.56 F6000.0
G01 X31.92 Y24.47 F6000.0
G01 X32.2 Y24.38 F6000.0
G01 X32.57 Y24.33 F6000.0
G01 X33.1 Y24.28 F6000.0
G01 X33.59 Y24.25 F6000.0
G01 X34.47 Y24.18 F6000.0
G01 X34.48 F6000.0
G01 X35.5 Y24.11 F6000.0
G01 X35.63 F6000.0
G01 X36.77 Y24.06 F6000.0
G01 X37.65 Y24.04 F6000.0
G01 X37.95 Y24.13 F6000.0
G01 X38.04 Y24.16 F6000.0
G01 X38.98 Y24.49 F6000.0
G01 X39.92 Y24.82 F6000.0
G01 X40.95 Y25.18 F6000.0
G01 X41.49 Y25.52 F6000.0
G01 X40.94 F6000.0
G01 X40.87 Y25.49 F6000.0
G01 X39.91 Y25.2 F6000.0
G01 X38.88 Y24.88 F6000.0
G01 X38.46 Y24.8 F6000.0
G01 X37.06 Y24.55 F6000.0
G01 X36.19 Y24.59 F6000.0
G01 X35.81 Y24.61 F6000.0
G01 X34.43 Y24.71 F6000.0
G01 X33.81 Y24.74 F6000.0
G01 X33.15 Y24.8 F6000.0
G01 X32.35 Y24.85 F6000.0
G01 X32.17 Y24.87 F6000.0
G01 X32.2 Y25.73 F6000.0
G01 X32.19 Y26.14 F6000.0
G01 X32.18 Y27.54 F6000.0
G01 X32.12 Y27.67 F6000.0
G01 X32.07 Y27.8 F6000.0
G01 X32.37 Y27.78 F6000.0
G01 X33.23 Y27.67 F6000.0
G01 X33.77 Y27.64 F6000.0
G01 X34.64 Y27.56 F6000.0
G01 X35.48 Y27.48 F6000.0
G01 X35.79 Y27.44 F6000.0
G01 X37.09 Y27.3 F6000.0
G01 X38.06 Y27.26 F6000.0
G01 X38.23 Y27.25 F6000.0
G01 X39.22 Y27.18 F6000.0
G01 X40.39 Y27.1 F6000.0
G01 X40.75 Y26.97 F6000.0
G01 X41.12 Y26.83 F6000.0
G01 X41.34 Y26.76 F6000.0
G01 X41.51 Y26.69 F6000.0
G01 X42.3 Y26.43 F6000.0
G01 X42.5 Y26.58 F6000.0
G01 X42.15 Y26.79 F6000.0
G01 X41.57 Y27.04 F6000.0
G01 X41.3 Y27.16 F6000.0
G01 X40.93 Y27.33 F6000.0
G01 X40.3 Y27.55 F6000.0
G01 X40.03 Y27.57 F6000.0
G01 X39.03 Y27.67 F6000.0
G01 X37.77 Y27.8 F6000.0
G01 X37.7 Y27.81 F6000.0
G01 X36.7 Y27.89 F6000.0
G01 X35.64 Y27.99 F6000.0
G01 X35.17 Y28.01 F6000.0
G01 X33.71 Y28.08 F6000.0
G01 X33.66 F6000.0
G01 X32.61 Y28.13 F6000.0
G01 X32.55 F6000.0
G01 X31.49 Y28.14 F6000.0
G01 X31.44 Y28.04 F6000.0
G01 X30.69 Y28.1 F6000.0
G01 X30.31 Y28.22 F6000.0
G01 X29.35 Y28.51 F6000.0
G01 X28.4 Y28.81 F6000.0
G01 X27.05 Y29.22 F6000.0
G01 X26.55 Y29.43 F6000.0
G01 X26.19 Y29.58 F6000.0
G01 X25.79 Y29.77 F6000.0
G01 X25.52 Y29.92 F6000.0
G01 X25.34 Y30.05 F6000.0
G01 X25.69 Y30.26 F6000.0
G01 X25.93 Y30.18 F6000.0
G01 X26.66 Y29.78 F6000.0
G01 X26.9 Y29.76 F6000.0
G01 X28.14 Y29.63 F6000.0
G01 X29.12 Y29.57 F6000.0
G01 X29.96 Y29.5 F6000.0
G01 X30.19 Y29.48 F6000.0
G01 X31.4 Y29.38 F6000.0
G01 X31.59 Y29.36 F6000.0
G01 X32.77 Y29.26 F6000.0
G01 X33.27 Y29.21 F6000.0
G01 X33.28 F6000.0
G01 X34.3 Y29.12 F6000.0
G01 X34.44 Y29.11 F6000.0
G01 X35.57 Y29.02 F6000.0
G01 X35.75 Y29.01 F6000.0
G01 X36.92 Y28.92 F6000.0
G01 X36.95 F6000.0
G01 X37.97 Y28.86 F6000.0
G01 X38.37 Y28.84 F6000.0
G01 X39.37 Y28.82 F6000.0
G01 X40.78 Y28.78 F6000.0
G01 X41.58 Y28.55 F6000.0
G01 X41.82 Y28.41 F6000.0
G01 X42.12 Y28.59 F6000.0
G01 X42.33 Y28.69 F6000.0
G01 X42.34 Y28.5 F6000.0
G01 X42.5 F6000.0
G01 X42.75 Y28.68 F6000.0
G01 X42.89 Y28.8 F6000.0
G01 X42.78 Y28.64 F6000.0
G01 X42.15 Y28.03 F6000.0
G01 X42.05 Y27.95 F6000.0
G01 X42.22 Y27.84 F6000.0
G01 X42.88 Y27.45 F6000.0
G01 X43.56 Y26.97 F6000.0
G01 X43.49 Y26.71 F6000.0
G01 X43.15 Y26.51 F6000.0
G01 X43.18 Y26.4 F6000.0
G01 X43.02 Y26.25 F6000.0
G01 X42.51 Y25.74 F6000.0
G01 X42.32 Y25.51 F6000.0
G01 X41.5 Y24.5 F6000.0
G01 X40.76 Y23.92 F6000.0
G01 X40.59 Y23.84 F6000.0
G01 X39.49 Y23.37 F6000.0
G01 X38.94 Y23.2 F6000.0
G01 X38.34 Y23.03 F6000.0
G01 X37.67 Y22.84 F6000.0
G01 X37.65 F6000.0
G01 X36.65 Y22.61 F6000.0
G01 X36.27 Y22.58 F6000.0
G01 X34.89 Y22.49 F6000.0
G01 X34.6 F6000.0
G01 X34.77 Y22.58 F6000.0
G01 F6000.0
M5
G00 X34.04 Y23.04 F6000.0
M3 F6000.0
G01 F6000.0
G01 F6000.0
M5
G00 X33.11 Y20.89 F6000.0
M3 F6000.0
G01 X33.14 Y21.52 F6000.0
G01 X33.13 Y21.82 F6000.0
G01 X33.2 Y21.86 F6000.0
G01 X34.18 Y22.31 F6000.0
G01 X34.3 Y22.36 F6000.0
G01 X34.21 Y22.29 F6000.0
G01 X33.85 Y22.07 F6000.0
G01 X33.4 Y21.37 F6000.0
G01 X33.16 Y20.86 F6000.0
G01 X33.11 Y20.89 F6000.0
G01 F6000.0
M5
G00 X32.32 Y20.61 F6000.0
M3 F6000.0
G01 F6000.0
G01 F6000.0
M5
G00 X31.61 Y20.47 F6000.0
M3 F6000.0
G01 X31.59 Y21.19 F6000.0
G01 X31.87 Y22.13 F6000.0
G01 X32.26 Y22.33 F6000.0
G01 X32.37 F6000.0
G01 X32.18 Y22.05 F6000.0
G01 X32.64 Y22.12 F6000.0
G01 X33.56 Y22.48 F6000.0
G01 X33.03 Y22.18 F6000.0
G01 X32.75 Y21.87 F6000.0
G01 X32.62 Y21.13 F6000.0
G01 X32.56 Y20.97 F6000.0
G01 X32.38 Y20.89 F6000.0
G01 X31.67 Y20.46 F6000.0
G01 X31.61 Y20.47 F6000.0
G01 F6000.0
M5
G00 X31.5 Y26.71 F6000.0
M3 F6000.0
G01 F6000.0
G01 F6000.0
M5
G00 X25.4 Y23.72 F6000.0
M3 F6000.0
G01 F6000.0
G01 F6000.0
M5
G00 X24.81 Y22.04 F6000.0
M3 F6000.0
G01 F6000.0
G01 F6000.0
M5
G00 X22.01 Y21.78 F6000.0
M3 F6000.0
G01 F6000.0
G01 F6000.0
M5
G00 X21.8 Y20.63 F6000.0
M3 F6000.0
G01 X22.15 Y21.42 F6000.0
G01 X21.86 Y21.98 F6000.0
G01 X21.39 Y21.75 F6000.0
G01 Y21.72 F6000.0
G01 X21.24 Y20.69 F6000.0
G01 X21.8 Y20.63 F6000.0
G01 F6000.0
M5
G00 X21.39 Y20.61 F6000.0
M3 F6000.0
G01 X21.21 Y21.42 F6000.0
G01 X21.67 Y21.79 F6000.0
G01 X22.1 Y21.6 F6000.0
G01 X21.83 Y20.73 F6000.0
G01 X21.39 Y20.61 F6000.0
G01 F6000.0
M5
G00 X19.72 Y21.56 F6000.0
M3 F6000.0
G01 X19.52 Y22.27 F6000.0
G01 X20.05 Y22.98 F6000.0
G01 X20.67 Y23.23 F6000.0
G01 X20.72 Y22.59 F6000.0
G01 X20.57 Y22.43 F6000.0
G01 X19.72 Y21.56 F6000.0
G01 F6000.0
M5
G00 X19.58 Y21.6 F6000.0
M3 F6000.0
G01 F6000.0
G01 F6000.0
M5
G00 X18.41 Y22.89 F6000.0
M3 F6000.0
G01 X18.51 Y23.64 F6000.0
G01 X19.2 Y24.1 F6000.0
G01 X19.81 Y24.12 F6000.0
G01 X19.68 Y23.59 F6000.0
G01 X19.48 Y23.48 F6000.0
G01 X18.41 Y22.89 F6000.0
G01 F6000.0
M5
G00 X19.8 Y24.22 F6000.0
M3 F6000.0
G01 F6000.0
G01 F6000.0
M5
G00 X15.82 Y20.93 F6000.0
M3 F6000.0
G01 F6000.0
G01 F6000.0
M5
G00 X18.95 Y18.28 F6000.0
M3 F6000.0
G01 F6000.0
G01 F6000.0
M5
G00 X13.86 Y26.1 F6000.0
M3 F6000.0
G01 X13.93 F6000.0
G01 X13.88 Y26.08 F6000.0
G01 X13.87 Y26.1 F6000.0
G01 X13.86 F6000.0
M5
G00 X13.15 Y26.07 F6000.0
M3 F6000.0
G01 X13.22 Y26.06 F6000.0
G01 X13.17 Y26.05 F6000.0
G01 X13.15 Y26.07 F6000.0
G01 F6000.0
M5
G00 X9.73 Y47.42 F6000.0
M3 F6000.0
G01 F6000.0
G01 F6000.0
M5
G00 X10.88 Y48.81 F6000.0
M3 F6000.0
G01 F6000.0
G01 F6000.0
M5
G00 X11.34 Y49.28 F6000.0
M3 F6000.0
G01 F6000.0
G01 F6000.0
M5
G00 X12.01 Y49.89 F6000.0
M3 F6000.0
G01 F6000.0
G01 F6000.0
M5
G00 X11.67 Y51.17 F6000.0
M3 F6000.0
G01 F6000.0
G01 F6000.0
M5
G00 X12.75 Y51.86 F6000.0
M3 F6000.0
G01 F6000.0
G01 F6000.0
M5
G00 X10.3 Y50.14 F6000.0
M3 F6000.0
G01 F6000.0
G01 F6000.0
M5
G00 X9.79 Y49.75 F6000.0
M3 F6000.0
G01 F6000.0
G01 F6000.0
M5
G00 X8.65 Y49.14 F6000.0
M3 F6000.0
G01 F6000.0
G01 F6000.0
M5
G00 X10.76 Y54.47 F6000.0
M3 F6000.0
G01 F6000.0
G01 F6000.0
M5
G00 X10.76 Y54.74 F6000.0
M3 F6000.0
G01 F6000.0
G01 F6000.0
M5
G00 X10.65 Y54.81 F6000.0
M3 F6000.0
G01 F6000.0
G01 F6000.0
M5
G00 X12.59 Y57.53 F6000.0
M3 F6000.0
G01 F6000.0
G01 F6000.0
M5
G00 X13.07 Y58.06 F6000.0
M3 F6000.0
G01 F6000.0
G01 F6000.0
M5
G00 X13.65 Y58.8 F6000.0
M3 F6000.0
G01 F6000.0
G01 F6000.0
M5
G00 X13.87 Y59.09 F6000.0
M3 F6000.0
G01 F6000.0
G01 F6000.0
M5
G00 X71.4 Y49.55 F6000.0
M3 F6000.0
G01 F6000.0
G01 F6000.0
M5
G00 X71.58 Y49.38 F6000.0
M3 F6000.0
G01 F6000.0
G01 F6000.0
M5
G00 X72.45 Y48.84 F6000.0
M3 F6000.0
G01 F6000.0
G01 F6000.0
M5
G00 X73.05 Y48.38 F6000.0
M3 F6000.0
G01 F6000.0
G01 F6000.0
M5
G00 X74.07 Y47.51 F6000.0
M3 F6000.0
G01 F6000.0
G01 F6000.0
M5
G00 X73.09 Y46.62 F6000.0
M3 F6000.0
G01 F6000.0
G01 F6000.0
M5
G00 X73.58 Y46.2 F6000.0
M3 F6000.0
G01 F6000.0
G01 F6000.0
M5
G00 X74.54 Y45.3 F6000.0
M3 F6000.0
G01 F6000.0
G01 F6000.0
M5
G00 X75.53 Y44.48 F6000.0
M3 F6000.0
G01 F6000.0
G01 F6000.0
M5
G00 X76.73 Y44.84 F6000.0
M3 F6000.0
G01 F6000.0
G01 F6000.0
M5
G00 X75.99 Y45.7 F6000.0
M3 F6000.0
G01 F6000.0
G01 F6000.0
M5
G00 X76.49 Y43.66 F6000.0
M3 F6000.0
G01 F6000.0
G01 F6000.0
M5
G00 X77.36 Y42.94 F6000.0
M3 F6000.0
G01 F6000.0
G01 F6000.0
M5
G00 X79.12 Y41.63 F6000.0
M3 F6000.0
G01 F6000.0
G01 F6000.0
M5
G00 X79.28 Y41.39 F6000.0
M3 F6000.0
G01 F6000.0
G01 F6000.0
M5
G00 X78.71 Y41.05 F6000.0
M3 F6000.0
G01 F6000.0
G01 F6000.0
M5
;END perimeter

G00 X0 Y0

M5 ;Deactivate laser and set power to 0 (CUSTOM)
G1 X0 Y0
