
;Inkscape Lasertools G-code
;https://github.com/ChrisWag91/Inkscape-Lasertools-Plugin

G90	;Absolute programming
G21	;Programming in millimeters (mm)
M5
M03 S1 ;Activate laser and set power to 0 (CUSTOM)

; START perimeter strategy
G01 F12000.0
M5
G00 X44.85 Y99.97 F12000.0
M3 F12000.0
G01 X44.8 Y99.96 F12000.0
G01 X43.8 Y99.66 F12000.0
G01 X43.69 Y99.59 F12000.0
G01 X42.73 Y99.01 F12000.0
G01 Y99.1 F12000.0
G01 X42.74 Y100.19 F12000.0
G01 X42.75 Y100.95 F12000.0
G01 X43.53 Y101.16 F12000.0
G01 X43.49 Y101.29 F12000.0
G01 X42.74 Y101.09 F12000.0
G01 X42.65 Y101.66 F12000.0
G01 X42.34 Y102.25 F12000.0
G01 X42.23 Y102.16 F12000.0
G01 X42.52 Y101.62 F12000.0
G01 X42.6 Y101.07 F12000.0
G01 X41.88 Y101.01 F12000.0
G01 X41.27 Y101.16 F12000.0
G01 X41.2 Y101.03 F12000.0
G01 X41.85 Y100.87 F12000.0
G01 X42.61 Y100.93 F12000.0
G01 X42.6 Y100.19 F12000.0
G01 Y100.05 F12000.0
G01 X42.59 Y98.91 F12000.0
G01 X41.77 Y98.42 F12000.0
G01 X41.08 Y98.28 F12000.0
G01 X41.05 Y98.14 F12000.0
G01 X41.84 Y98.3 F12000.0
G01 X42.42 Y97.71 F12000.0
G01 X42.6 Y97.41 F12000.0
G01 X42.73 Y97.44 F12000.0
G01 Y97.64 F12000.0
G01 Y98.83 F12000.0
G01 X42.85 Y98.9 F12000.0
G01 X43.81 Y99.5 F12000.0
G01 X43.85 Y99.52 F12000.0
G01 X44.85 Y99.83 F12000.0
G01 X45.53 Y99.62 F12000.0
G01 X45.82 Y99.13 F12000.0
G01 X45.67 Y98.63 F12000.0
G01 X45.05 Y98.38 F12000.0
G01 X44.26 Y98.55 F12000.0
G01 X43.69 Y98.92 F12000.0
G01 X43.59 Y98.82 F12000.0
G01 X44.2 Y98.42 F12000.0
G01 X45.05 Y98.24 F12000.0
G01 X45.48 Y98.33 F12000.0
G01 X45.78 Y98.53 F12000.0
G01 X45.96 Y99.13 F12000.0
G01 X45.64 Y99.72 F12000.0
G01 X45.3 Y99.91 F12000.0
G01 X44.85 Y99.97 F12000.0
G01 F12000.0
M5
G00 X44.4 Y101.56 F12000.0
M3 F12000.0
G01 X44.45 Y101.43 F12000.0
G01 X45.39 Y101.64 F12000.0
G01 X46.02 Y101.53 F12000.0
G01 X45.53 Y101.36 F12000.0
G01 X45.58 Y101.24 F12000.0
G01 X46.27 Y101.46 F12000.0
G01 Y101.6 F12000.0
G01 X45.58 Y101.77 F12000.0
G01 X45.05 Y101.75 F12000.0
G01 X44.4 Y101.56 F12000.0
G01 F12000.0
M5
G00 X42.59 Y97.7 F12000.0
M3 F12000.0
G01 X41.98 Y98.37 F12000.0
G01 X42.59 Y98.74 F12000.0
G01 Y98.72 F12000.0
G01 Y97.7 F12000.0
M5
G00 X42.69 Y93.66 F12000.0
M3 F12000.0
G01 X42.84 Y93.74 F12000.0
G01 X42.68 Y93.53 F12000.0
G01 X42.69 Y93.66 F12000.0
M5
G00 X44.92 Y91.21 F12000.0
M3 F12000.0
G01 X44.23 Y91.17 F12000.0
G01 X44.04 Y91.33 F12000.0
G01 X43.99 Y91.58 F12000.0
G01 X44.12 Y91.8 F12000.0
G01 X44.4 Y91.93 F12000.0
G01 X45.21 Y91.88 F12000.0
G01 X45.48 Y91.78 F12000.0
G01 X45.23 Y91.42 F12000.0
G01 X44.92 Y91.21 F12000.0
G01 F12000.0
M5
G00 X46.61 Y91.21 F12000.0
M3 F12000.0
G01 X46.56 Y91.25 F12000.0
G01 X45.67 Y91.85 F12000.0
G01 X45.88 Y92.59 F12000.0
G01 X45.91 Y93.34 F12000.0
G01 X45.72 Y93.98 F12000.0
G01 X45.32 Y94.35 F12000.0
G01 X44.65 Y94.31 F12000.0
G01 X43.98 Y93.83 F12000.0
G01 X43.92 Y93.76 F12000.0
G01 X43.28 Y92.99 F12000.0
G01 X42.59 Y92.14 F12000.0
G01 X42.56 Y92.09 F12000.0
G01 Y92.11 F12000.0
G01 Y92.18 F12000.0
G01 X42.66 Y93.26 F12000.0
G01 X42.74 Y93.35 F12000.0
G01 X43.49 Y94.2 F12000.0
G01 X42.7 Y93.83 F12000.0
G01 Y93.84 F12000.0
G01 X42.75 Y94.84 F12000.0
G01 X42.63 Y95.56 F12000.0
G01 X42.51 Y95.5 F12000.0
G01 X42.61 Y94.79 F12000.0
G01 Y94.77 F12000.0
G01 X42.56 Y93.76 F12000.0
G01 X42.39 Y93.67 F12000.0
G01 X41.72 Y93.59 F12000.0
G01 X41.07 Y93.9 F12000.0
G01 X40.98 Y93.79 F12000.0
G01 X41.7 Y93.45 F12000.0
G01 X42.44 Y93.55 F12000.0
G01 X42.54 Y93.6 F12000.0
G01 X42.51 Y93.3 F12000.0
G01 X42.45 Y93.2 F12000.0
G01 X42.51 Y93.17 F12000.0
G01 X42.5 Y93.15 F12000.0
G01 X42.41 Y92.12 F12000.0
G01 Y91.91 F12000.0
G01 X42.34 Y91.85 F12000.0
G01 X41.52 Y91.13 F12000.0
G01 X41.15 Y91.04 F12000.0
G01 X40.84 Y91.16 F12000.0
G01 X40.76 Y91.05 F12000.0
G01 X41.09 Y90.91 F12000.0
G01 X41.49 Y90.97 F12000.0
G01 X41.56 Y91.02 F12000.0
G01 X42.41 Y91.69 F12000.0
G01 X42.44 Y91.46 F12000.0
G01 X42.59 Y90.23 F12000.0
G01 X42.73 Y90.27 F12000.0
G01 X42.7 Y90.57 F12000.0
G01 X42.55 Y91.86 F12000.0
G01 X42.7 Y92.06 F12000.0
G01 X42.74 Y92.11 F12000.0
G01 X43.38 Y92.88 F12000.0
G01 X44.05 Y93.71 F12000.0
G01 X44.67 Y94.18 F12000.0
G01 X45.27 Y94.22 F12000.0
G01 X45.62 Y93.88 F12000.0
G01 X45.77 Y93.29 F12000.0
G01 X45.74 Y92.58 F12000.0
G01 X45.54 Y91.9 F12000.0
G01 X45.25 Y92.01 F12000.0
G01 X44.32 Y92.05 F12000.0
G01 X44.0 Y91.88 F12000.0
G01 X43.85 Y91.59 F12000.0
G01 X43.91 Y91.26 F12000.0
G01 X44.14 Y91.06 F12000.0
G01 X44.51 Y90.99 F12000.0
G01 X44.97 Y91.08 F12000.0
G01 X45.33 Y91.33 F12000.0
G01 X45.61 Y91.73 F12000.0
G01 X45.65 Y91.7 F12000.0
G01 X46.51 Y91.11 F12000.0
G01 X46.61 Y91.21 F12000.0
M5
G00 X45.41 Y88.54 F12000.0
M3 F12000.0
G01 X45.38 Y88.4 F12000.0
G01 F12000.0
G01 X46.31 Y88.0 F12000.0
G01 X46.39 Y88.11 F12000.0
G01 X46.36 Y88.13 F12000.0
G01 X45.41 Y88.54 F12000.0
G01 F12000.0
M5
G00 X46.03 Y87.58 F12000.0
M3 F12000.0
G01 X45.99 Y87.59 F12000.0
G01 X45.04 Y88.01 F12000.0
G01 X45.01 Y87.87 F12000.0
G01 X45.02 Y87.86 F12000.0
G01 X45.94 Y87.47 F12000.0
G01 X46.03 Y87.58 F12000.0
M5
G00 X44.56 Y86.89 F12000.0
M3 F12000.0
G01 X44.55 Y86.75 F12000.0
G01 X45.3 Y86.53 F12000.0
G01 X45.83 Y86.18 F12000.0
G01 X46.11 Y85.8 F12000.0
G01 X46.13 Y85.51 F12000.0
G01 X45.83 Y85.28 F12000.0
G01 X45.31 Y85.12 F12000.0
G01 X45.35 Y84.98 F12000.0
G01 X45.9 Y85.16 F12000.0
G01 X46.26 Y85.44 F12000.0
G01 X46.25 Y85.8 F12000.0
G01 X45.93 Y86.24 F12000.0
G01 X45.36 Y86.64 F12000.0
G01 X44.56 Y86.89 F12000.0
G01 F12000.0
M5
G00 X42.94 Y86.69 F12000.0
M3 F12000.0
G01 X42.63 Y86.61 F12000.0
G01 X42.82 Y87.55 F12000.0
G01 X42.75 Y88.23 F12000.0
G01 X42.62 Y88.17 F12000.0
G01 X42.68 Y87.5 F12000.0
G01 X42.48 Y86.57 F12000.0
G01 X41.73 Y86.44 F12000.0
G01 X40.85 Y86.61 F12000.0
G01 X40.79 Y86.48 F12000.0
G01 X41.67 Y86.29 F12000.0
G01 X42.42 Y86.41 F12000.0
G01 X42.34 Y86.22 F12000.0
G01 X41.84 Y85.13 F12000.0
G01 X41.83 Y85.11 F12000.0
G01 X41.19 Y84.32 F12000.0
G01 X40.98 Y84.18 F12000.0
G01 X41.05 Y84.07 F12000.0
G01 X41.26 Y84.2 F12000.0
G01 X41.3 Y84.25 F12000.0
G01 X41.97 Y85.08 F12000.0
G01 X42.07 Y85.31 F12000.0
G01 X42.58 Y86.45 F12000.0
G01 X42.97 Y86.55 F12000.0
G01 X43.4 Y86.51 F12000.0
G01 X43.67 Y86.25 F12000.0
G01 X43.77 Y85.84 F12000.0
G01 X43.71 Y85.37 F12000.0
G01 X43.3 Y84.54 F12000.0
G01 X42.9 Y84.32 F12000.0
G01 X42.31 F12000.0
G01 X42.28 Y84.18 F12000.0
G01 X42.94 Y84.19 F12000.0
G01 X43.39 Y84.44 F12000.0
G01 X43.68 Y84.84 F12000.0
G01 X43.85 Y85.33 F12000.0
G01 X43.91 Y85.91 F12000.0
G01 X43.75 Y86.37 F12000.0
G01 X43.41 Y86.65 F12000.0
G01 X42.94 Y86.69 F12000.0
G01 F12000.0
M5
G00 X43.36 Y77.9 F12000.0
M3 F12000.0
G01 X42.89 Y77.72 F12000.0
G01 X42.48 Y77.73 F12000.0
G01 X41.82 Y78.2 F12000.0
G01 X41.42 Y79.01 F12000.0
G01 X41.28 Y79.84 F12000.0
G01 X41.13 F12000.0
G01 X41.29 Y78.97 F12000.0
G01 X41.74 Y78.09 F12000.0
G01 X42.06 Y77.77 F12000.0
G01 X42.46 Y77.58 F12000.0
G01 X42.91 Y77.57 F12000.0
G01 X43.43 Y77.78 F12000.0
G01 X43.36 Y77.9 F12000.0
M5
G00 X46.24 Y78.47 F12000.0
M3 F12000.0
G01 X45.98 Y79.02 F12000.0
G01 X45.53 Y79.48 F12000.0
G01 X44.92 Y79.76 F12000.0
G01 X44.17 Y79.75 F12000.0
G01 X44.2 Y79.61 F12000.0
G01 X44.89 Y79.62 F12000.0
G01 X45.46 Y79.37 F12000.0
G01 X45.86 Y78.95 F12000.0
G01 X46.09 Y78.44 F12000.0
G01 X46.24 Y78.47 F12000.0
M5
G00 X51.23 Y78.37 F12000.0
M3 F12000.0
G01 X51.38 Y78.6 F12000.0
G01 X51.93 Y79.44 F12000.0
G01 X52.62 Y80.52 F12000.0
G01 X52.95 Y81.12 F12000.0
G01 X52.97 Y81.25 F12000.0
G01 X52.86 Y81.26 F12000.0
G01 X52.12 Y81.06 F12000.0
G01 X51.61 Y81.02 F12000.0
G01 X51.18 Y81.14 F12000.0
G01 X51.11 Y81.01 F12000.0
G01 X51.59 Y80.88 F12000.0
G01 X52.12 Y80.92 F12000.0
G01 X52.9 Y81.14 F12000.0
G01 X52.63 Y80.72 F12000.0
G01 X51.54 Y79.05 F12000.0
G01 X50.73 Y77.8 F12000.0
G01 X50.85 Y77.72 F12000.0
G01 X51.43 Y78.36 F12000.0
G01 X52.02 Y78.74 F12000.0
G01 X52.58 Y78.91 F12000.0
G01 X53.09 Y78.89 F12000.0
G01 X53.52 Y78.73 F12000.0
G01 X53.84 Y78.45 F12000.0
G01 X54.01 Y78.1 F12000.0
G01 X54.02 Y77.7 F12000.0
G01 X53.78 Y77.21 F12000.0
G01 X53.29 Y76.83 F12000.0
G01 X52.55 Y76.54 F12000.0
G01 X52.54 F12000.0
G01 X51.55 Y76.35 F12000.0
G01 X51.56 Y76.21 F12000.0
G01 X51.59 Y76.22 F12000.0
G01 X52.6 Y76.41 F12000.0
G01 X53.38 Y76.71 F12000.0
G01 X53.9 Y77.13 F12000.0
G01 X54.16 Y77.67 F12000.0
G01 Y78.06 F12000.0
G01 X54.01 Y78.42 F12000.0
G01 X53.34 Y78.93 F12000.0
G01 X52.88 Y79.03 F12000.0
G01 X52.35 Y78.99 F12000.0
G01 X51.8 Y78.78 F12000.0
G01 X51.23 Y78.37 F12000.0
G01 F12000.0
M5
G00 X52.5 Y83.75 F12000.0
M3 F12000.0
G01 X52.27 Y83.53 F12000.0
G01 X51.73 Y83.52 F12000.0
G01 X51.17 Y83.78 F12000.0
G01 X51.05 Y84.2 F12000.0
G01 X51.22 Y84.43 F12000.0
G01 X51.56 Y84.57 F12000.0
G01 X52.51 Y84.52 F12000.0
G01 X52.5 Y83.75 F12000.0
G01 F12000.0
M5
G00 X54.1 Y84.03 F12000.0
M3 F12000.0
G01 X53.84 Y84.14 F12000.0
G01 X52.65 Y84.63 F12000.0
G01 Y84.96 F12000.0
G01 Y86.29 F12000.0
G01 X52.63 Y86.53 F12000.0
G01 X52.58 Y87.76 F12000.0
G01 X52.3 Y88.6 F12000.0
G01 X52.19 Y88.52 F12000.0
G01 X52.44 Y87.72 F12000.0
G01 X52.45 Y87.51 F12000.0
G01 X52.5 Y86.29 F12000.0
G01 X52.51 Y85.98 F12000.0
G01 X52.52 Y84.67 F12000.0
G01 X52.5 F12000.0
G01 X51.48 Y84.7 F12000.0
G01 X51.11 Y84.52 F12000.0
G01 X50.91 Y84.25 F12000.0
G01 X50.9 Y83.96 F12000.0
G01 X51.04 Y83.7 F12000.0
G01 X51.71 Y83.38 F12000.0
G01 X52.36 Y83.41 F12000.0
G01 X52.65 Y83.75 F12000.0
G01 Y84.48 F12000.0
G01 X52.88 Y84.38 F12000.0
G01 X54.03 Y83.9 F12000.0
G01 X54.1 Y84.03 F12000.0
M5
G00 X53.99 Y87.26 F12000.0
M3 F12000.0
G01 X53.92 Y87.39 F12000.0
G01 X53.26 Y87.19 F12000.0
G01 X52.7 Y87.3 F12000.0
G01 X52.63 Y87.17 F12000.0
G01 X53.26 Y87.05 F12000.0
G01 X53.99 Y87.26 F12000.0
G01 F12000.0
M5
G00 X54.13 Y91.8 F12000.0
M3 F12000.0
G01 X53.65 Y92.6 F12000.0
G01 X53.18 Y93.03 F12000.0
G01 X53.08 Y92.93 F12000.0
G01 X53.55 Y92.5 F12000.0
G01 X54.0 Y91.75 F12000.0
G01 X54.06 Y91.22 F12000.0
G01 X53.91 Y90.76 F12000.0
G01 X53.58 Y90.44 F12000.0
G01 X53.1 Y90.3 F12000.0
G01 X52.58 Y90.38 F12000.0
G01 X52.22 Y90.65 F12000.0
G01 X52.05 Y91.11 F12000.0
G01 Y91.74 F12000.0
G01 X52.06 Y91.79 F12000.0
G01 X52.89 Y92.09 F12000.0
G01 X52.82 Y92.22 F12000.0
G01 X52.08 Y91.93 F12000.0
G01 X52.15 Y92.34 F12000.0
G01 X52.38 Y93.74 F12000.0
G01 X52.43 Y93.7 F12000.0
G01 X52.52 Y93.81 F12000.0
G01 X52.4 Y93.89 F12000.0
G01 X52.41 Y94.83 F12000.0
G01 X52.17 Y95.59 F12000.0
G01 X52.05 Y95.52 F12000.0
G01 X52.27 Y94.83 F12000.0
G01 Y93.96 F12000.0
G01 X51.88 Y94.11 F12000.0
G01 X50.56 Y94.6 F12000.0
G01 X50.52 Y94.46 F12000.0
G01 X50.91 Y94.31 F12000.0
G01 X52.25 Y93.81 F12000.0
G01 X52.18 Y93.36 F12000.0
G01 X51.94 Y91.92 F12000.0
G01 X51.7 Y91.93 F12000.0
G01 X51.29 Y92.1 F12000.0
G01 X51.09 Y92.41 F12000.0
G01 X51.12 Y92.81 F12000.0
G01 X51.38 Y93.25 F12000.0
G01 X51.26 Y93.34 F12000.0
G01 X50.98 Y92.83 F12000.0
G01 X50.96 Y92.36 F12000.0
G01 X51.2 Y92.0 F12000.0
G01 X51.67 Y91.79 F12000.0
G01 X51.91 Y91.78 F12000.0
G01 Y91.75 F12000.0
G01 Y91.06 F12000.0
G01 X52.11 Y90.56 F12000.0
G01 X52.51 Y90.25 F12000.0
G01 X53.1 Y90.16 F12000.0
G01 X53.65 Y90.31 F12000.0
G01 X54.03 Y90.69 F12000.0
G01 X54.2 Y91.2 F12000.0
G01 X54.13 Y91.8 F12000.0
G01 F12000.0
M5
G00 X50.75 Y100.67 F12000.0
M3 F12000.0
G01 Y100.3 F12000.0
G01 Y98.94 F12000.0
G01 X51.21 F12000.0
G01 X52.68 F12000.0
G01 Y99.3 F12000.0
G01 Y100.67 F12000.0
G01 X52.21 F12000.0
G01 X50.75 F12000.0
M5
G00 X49.63 Y100.28 F12000.0
M3 F12000.0
G01 X49.52 Y100.36 F12000.0
G01 X49.65 Y100.57 F12000.0
G01 X50.32 Y101.63 F12000.0
G01 X50.42 Y101.9 F12000.0
G01 X50.89 Y103.11 F12000.0
G01 X51.02 Y103.06 F12000.0
G01 X50.8 Y102.39 F12000.0
G01 X50.98 F12000.0
G01 X53.98 F12000.0
G01 X55.17 F12000.0
G01 Y102.25 F12000.0
G01 X55.0 F12000.0
G01 X54.0 F12000.0
G01 X52.82 F12000.0
G01 Y102.03 F12000.0
G01 Y100.81 F12000.0
G01 X52.89 F12000.0
G01 X53.89 F12000.0
G01 X54.97 F12000.0
G01 Y100.67 F12000.0
G01 X54.89 F12000.0
G01 X53.89 F12000.0
G01 X52.82 F12000.0
G01 Y100.3 F12000.0
G01 Y98.94 F12000.0
G01 X53.17 F12000.0
G01 X54.17 F12000.0
G01 X55.52 F12000.0
G01 Y98.8 F12000.0
G01 X55.17 F12000.0
G01 X54.17 F12000.0
G01 X52.82 F12000.0
G01 Y98.37 F12000.0
G01 Y96.93 F12000.0
G01 X52.68 F12000.0
G01 Y97.37 F12000.0
G01 Y98.8 F12000.0
G01 X52.56 F12000.0
G01 X50.56 F12000.0
G01 X49.44 F12000.0
G01 Y98.94 F12000.0
G01 X49.52 F12000.0
G01 X50.61 F12000.0
G01 Y99.37 F12000.0
G01 Y100.81 F12000.0
G01 X50.64 F12000.0
G01 X51.64 F12000.0
G01 X52.68 F12000.0
G01 Y101.03 F12000.0
G01 Y102.25 F12000.0
G01 X52.21 F12000.0
G01 X50.75 F12000.0
G01 X50.71 Y102.18 F12000.0
G01 X50.24 Y101.2 F12000.0
G01 X50.21 Y101.16 F12000.0
G01 X49.63 Y100.28 F12000.0
G01 F12000.0
M5
G00 X52.24 Y108.76 F12000.0
M3 F12000.0
G01 X51.84 F12000.0
G01 X50.84 F12000.0
G01 X49.44 F12000.0
G01 Y108.9 F12000.0
G01 X49.92 F12000.0
G01 X50.92 F12000.0
G01 X52.41 F12000.0
G01 Y109.02 F12000.0
G01 Y110.14 F12000.0
G01 X52.55 F12000.0
G01 Y110.02 F12000.0
G01 Y108.9 F12000.0
G01 X53.03 F12000.0
G01 X54.03 F12000.0
G01 X55.52 F12000.0
G01 Y108.76 F12000.0
G01 X55.11 F12000.0
G01 X54.11 F12000.0
G01 X52.71 F12000.0
G01 X52.79 Y108.64 F12000.0
G01 X53.33 Y107.8 F12000.0
G01 X53.96 Y106.85 F12000.0
G01 X54.14 Y106.66 F12000.0
G01 X54.83 Y105.94 F12000.0
G01 X55.7 Y105.04 F12000.0
G01 X55.61 Y104.94 F12000.0
G01 X55.41 Y105.15 F12000.0
G01 X54.72 Y105.87 F12000.0
G01 X53.83 Y106.79 F12000.0
G01 X53.73 Y106.94 F12000.0
G01 X53.19 Y107.78 F12000.0
G01 X52.55 Y108.76 F12000.0
G01 F12000.0
G01 Y108.6 F12000.0
G01 Y106.6 F12000.0
G01 Y105.44 F12000.0
G01 X52.91 F12000.0
G01 X54.27 F12000.0
G01 Y105.3 F12000.0
G01 X53.91 F12000.0
G01 X52.55 F12000.0
G01 Y105.11 F12000.0
G01 Y103.92 F12000.0
G01 X52.41 F12000.0
G01 Y104.11 F12000.0
G01 Y105.3 F12000.0
G01 X52.04 F12000.0
G01 X50.68 F12000.0
G01 Y105.44 F12000.0
G01 X51.04 F12000.0
G01 X52.41 F12000.0
G01 Y105.6 F12000.0
G01 Y107.6 F12000.0
G01 Y108.76 F12000.0
G01 X52.4 F12000.0
G01 X52.31 Y108.62 F12000.0
G01 X51.76 Y107.78 F12000.0
G01 X51.13 Y106.79 F12000.0
G01 X50.93 Y106.59 F12000.0
G01 X50.24 Y105.87 F12000.0
G01 X49.34 Y104.94 F12000.0
G01 X49.25 Y105.04 F12000.0
G01 X49.43 Y105.22 F12000.0
G01 X50.12 Y105.94 F12000.0
G01 X50.99 Y106.85 F12000.0
G01 X51.07 Y106.97 F12000.0
G01 X51.62 Y107.8 F12000.0
G01 X52.24 Y108.76 F12000.0
G01 F12000.0
M5
G00 X71.79 Y105.61 F12000.0
M3 F12000.0
G01 X71.02 Y105.22 F12000.0
G01 X70.5 F12000.0
G01 X70.29 Y105.6 F12000.0
G01 X70.42 Y106.32 F12000.0
G01 X70.86 Y107.13 F12000.0
G01 X71.5 Y107.83 F12000.0
G01 X71.63 Y107.62 F12000.0
G01 X72.31 Y106.57 F12000.0
G01 X72.5 Y106.37 F12000.0
G01 X72.48 Y106.36 F12000.0
G01 X71.79 Y105.61 F12000.0
G01 F12000.0
M5
G00 X72.6 Y106.54 F12000.0
M3 F12000.0
G01 X72.45 Y106.71 F12000.0
G01 X72.32 Y106.91 F12000.0
G01 X71.66 Y107.95 F12000.0
G01 X72.5 Y108.48 F12000.0
G01 X73.39 Y108.78 F12000.0
G01 X73.37 Y108.69 F12000.0
G01 X73.09 Y107.62 F12000.0
G01 X73.05 Y107.54 F12000.0
G01 X72.6 Y106.54 F12000.0
G01 F12000.0
M5
G00 X75.42 Y108.52 F12000.0
M3 F12000.0
G01 X74.6 Y108.96 F12000.0
G01 X73.62 Y109.02 F12000.0
G01 X73.63 Y110.0 F12000.0
G01 X73.36 Y110.76 F12000.0
G01 X73.21 Y110.64 F12000.0
G01 X73.44 Y109.94 F12000.0
G01 X73.42 Y108.99 F12000.0
G01 F12000.0
G01 X72.47 Y108.69 F12000.0
G01 X72.44 Y108.67 F12000.0
G01 X71.57 Y108.14 F12000.0
G01 X71.55 Y108.19 F12000.0
G01 X71.09 Y109.14 F12000.0
G01 X70.66 Y109.79 F12000.0
G01 X70.54 Y109.63 F12000.0
G01 X70.94 Y109.01 F12000.0
G01 X70.96 Y108.96 F12000.0
G01 X71.4 Y108.01 F12000.0
G01 X71.39 F12000.0
G01 X70.72 Y107.27 F12000.0
G01 F12000.0
G01 X70.24 Y106.38 F12000.0
G01 X70.1 Y105.53 F12000.0
G01 X70.38 Y105.06 F12000.0
G01 X71.01 Y105.02 F12000.0
G01 F12000.0
G01 X71.91 Y105.45 F12000.0
G01 X71.93 Y105.48 F12000.0
G01 X72.62 Y106.24 F12000.0
G01 X73.36 Y105.66 F12000.0
G01 X73.6 Y105.57 F12000.0
G01 Y105.77 F12000.0
G01 X73.4 Y105.85 F12000.0
G01 X72.73 Y106.4 F12000.0
G01 X72.79 Y106.53 F12000.0
G01 X73.27 Y107.56 F12000.0
G01 X73.31 Y107.71 F12000.0
G01 X73.59 Y108.82 F12000.0
G01 X74.52 Y108.78 F12000.0
G01 X75.28 Y108.38 F12000.0
G01 X75.71 Y107.84 F12000.0
G01 X75.92 Y107.23 F12000.0
G01 Y106.58 F12000.0
G01 X75.73 Y105.92 F12000.0
G01 X75.36 Y105.27 F12000.0
G01 X74.81 Y104.65 F12000.0
G01 X74.09 Y104.09 F12000.0
G01 X73.23 Y103.62 F12000.0
G01 X73.31 Y103.44 F12000.0
G01 X73.35 Y103.46 F12000.0
G01 X74.27 Y103.97 F12000.0
G01 X75.03 Y104.59 F12000.0
G01 X75.59 Y105.26 F12000.0
G01 X75.95 Y105.97 F12000.0
G01 X76.11 Y106.67 F12000.0
G01 X76.08 Y107.35 F12000.0
G01 X75.84 Y107.98 F12000.0
G01 X75.42 Y108.52 F12000.0
G01 F12000.0
M5
G00 X71.62 Y113.91 F12000.0
M3 F12000.0
G01 X71.53 Y114.01 F12000.0
G01 X70.76 Y114.84 F12000.0
G01 F12000.0
G01 X71.62 Y115.36 F12000.0
G01 Y115.14 F12000.0
G01 Y113.91 F12000.0
M5
G00 X74.78 Y117.09 F12000.0
M3 F12000.0
G01 X74.05 Y116.97 F12000.0
G01 X73.3 Y116.65 F12000.0
G01 X72.98 Y116.45 F12000.0
G01 X71.81 Y115.74 F12000.0
G01 Y116.07 F12000.0
G01 X71.82 Y117.4 F12000.0
G01 Y117.43 F12000.0
G01 X71.83 Y118.45 F12000.0
G01 X71.9 Y118.47 F12000.0
G01 X72.93 Y118.75 F12000.0
G01 X72.87 Y118.94 F12000.0
G01 X72.83 Y118.93 F12000.0
G01 X71.82 Y118.65 F12000.0
G01 X71.69 Y119.45 F12000.0
G01 X71.27 Y120.27 F12000.0
G01 X71.11 Y120.15 F12000.0
G01 X71.51 Y119.39 F12000.0
G01 X71.63 Y118.62 F12000.0
G01 X71.62 F12000.0
G01 X70.62 Y118.54 F12000.0
G01 X69.77 Y118.75 F12000.0
G01 X69.67 Y118.57 F12000.0
G01 X70.58 Y118.35 F12000.0
G01 X70.61 F12000.0
G01 X71.64 Y118.42 F12000.0
G01 Y118.41 F12000.0
G01 X71.63 Y117.4 F12000.0
G01 X71.62 Y117.0 F12000.0
G01 Y115.6 F12000.0
G01 X71.47 Y115.51 F12000.0
G01 X70.47 Y114.92 F12000.0
G01 X69.96 Y114.74 F12000.0
G01 X69.5 Y114.72 F12000.0
G01 X69.46 Y114.52 F12000.0
G01 X69.98 Y114.54 F12000.0
G01 X70.56 Y114.75 F12000.0
G01 X70.62 Y114.69 F12000.0
G01 X71.37 Y113.92 F12000.0
G01 X71.63 Y113.51 F12000.0
G01 X71.81 Y113.55 F12000.0
G01 Y114.02 F12000.0
G01 Y115.49 F12000.0
G01 X72.14 Y115.7 F12000.0
G01 X73.32 Y116.43 F12000.0
G01 X74.06 Y116.76 F12000.0
G01 X74.78 Y116.89 F12000.0
G01 X75.32 Y116.81 F12000.0
G01 X75.74 Y116.59 F12000.0
G01 X76.01 Y116.28 F12000.0
G01 X76.14 Y115.91 F12000.0
G01 X76.11 Y115.54 F12000.0
G01 X75.93 Y115.21 F12000.0
G01 X75.58 Y114.97 F12000.0
G01 X75.06 Y114.86 F12000.0
G01 X75.0 Y114.87 F12000.0
G01 X73.95 Y115.1 F12000.0
G01 X73.16 Y115.61 F12000.0
G01 X73.02 Y115.47 F12000.0
G01 X73.03 F12000.0
G01 X73.87 Y114.92 F12000.0
G01 X73.98 Y114.9 F12000.0
G01 X75.06 Y114.66 F12000.0
G01 X75.67 Y114.79 F12000.0
G01 X76.08 Y115.08 F12000.0
G01 X76.3 Y115.47 F12000.0
G01 X76.33 Y115.91 F12000.0
G01 X76.19 Y116.35 F12000.0
G01 X75.88 Y116.73 F12000.0
G01 X75.41 Y117.0 F12000.0
G01 X74.78 Y117.09 F12000.0
G01 F12000.0
M5
G00 X74.14 Y119.3 F12000.0
M3 F12000.0
G01 X74.22 Y119.13 F12000.0
G01 X74.93 Y119.36 F12000.0
G01 X75.53 Y119.42 F12000.0
G01 X76.42 Y119.27 F12000.0
G01 X75.73 Y119.04 F12000.0
G01 X75.79 Y118.86 F12000.0
G01 X75.8 F12000.0
G01 X76.76 Y119.17 F12000.0
G01 Y119.36 F12000.0
G01 X75.8 Y119.61 F12000.0
G01 X75.06 Y119.58 F12000.0
G01 X74.14 Y119.3 F12000.0
G01 F12000.0
M5
G00 X83.41 Y116.39 F12000.0
M3 F12000.0
G01 X83.33 Y116.03 F12000.0
G01 X83.03 Y114.69 F12000.0
G01 X83.07 Y115.11 F12000.0
G01 X83.03 Y115.59 F12000.0
G01 X82.93 Y117.06 F12000.0
G01 X82.96 Y117.4 F12000.0
G01 X83.08 Y118.39 F12000.0
G01 X83.23 Y119.73 F12000.0
G01 X83.03 Y119.77 F12000.0
G01 Y119.73 F12000.0
G01 X82.89 Y118.74 F12000.0
G01 X82.76 Y117.71 F12000.0
G01 Y117.34 F12000.0
G01 Y115.97 F12000.0
G01 X82.78 Y115.86 F12000.0
G01 X82.96 Y114.76 F12000.0
G01 X83.25 Y114.28 F12000.0
G01 X83.22 Y114.58 F12000.0
G01 X83.3 Y114.97 F12000.0
G01 X83.58 Y116.33 F12000.0
G01 X83.41 Y116.39 F12000.0
M5
G00 X87.47 Y119.15 F12000.0
M3 F12000.0
G01 X87.0 Y118.95 F12000.0
G01 Y119.04 F12000.0
G01 X86.93 Y120.12 F12000.0
G01 X87.53 Y119.64 F12000.0
G01 X88.07 Y119.51 F12000.0
G01 X87.47 Y119.15 F12000.0
G01 F12000.0
M5
G00 X88.35 Y119.66 F12000.0
M3 F12000.0
G01 X87.55 Y119.86 F12000.0
G01 X87.14 Y120.18 F12000.0
G01 X86.71 Y120.86 F12000.0
G01 Y120.46 F12000.0
G01 X86.73 Y120.17 F12000.0
G01 X86.8 Y118.88 F12000.0
G01 X86.77 Y118.87 F12000.0
G01 X85.75 Y118.69 F12000.0
G01 X85.24 Y118.78 F12000.0
G01 X84.83 Y119.08 F12000.0
G01 X84.67 Y118.96 F12000.0
G01 X85.13 Y118.62 F12000.0
G01 X85.68 Y118.5 F12000.0
G01 X85.75 Y118.51 F12000.0
G01 X86.81 Y118.67 F12000.0
G01 X86.83 Y118.41 F12000.0
G01 X86.88 Y117.41 F12000.0
G01 X86.94 Y116.15 F12000.0
G01 X86.86 Y115.36 F12000.0
G01 X86.52 Y114.69 F12000.0
G01 X85.91 Y114.12 F12000.0
G01 X85.89 Y114.11 F12000.0
G01 X85.0 Y113.62 F12000.0
G01 X85.07 Y113.45 F12000.0
G01 X85.12 Y113.47 F12000.0
G01 X86.04 Y113.97 F12000.0
G01 X86.69 Y114.59 F12000.0
G01 X87.05 Y115.3 F12000.0
G01 X87.14 Y116.15 F12000.0
G01 X87.12 Y116.45 F12000.0
G01 X87.08 Y117.45 F12000.0
G01 X87.01 Y118.74 F12000.0
G01 X87.55 Y118.97 F12000.0
G01 X88.17 Y119.34 F12000.0
G01 X88.35 Y119.52 F12000.0
G01 Y119.66 F12000.0
M5
G00 X83.85 Y124.29 F12000.0
M3 F12000.0
G01 X83.12 Y123.97 F12000.0
G01 X82.7 Y124.2 F12000.0
G01 X82.59 Y124.82 F12000.0
G01 X82.81 Y125.66 F12000.0
G01 X83.27 Y126.39 F12000.0
G01 X83.95 Y127.0 F12000.0
G01 X83.96 Y126.84 F12000.0
G01 X84.05 Y125.69 F12000.0
G01 X84.48 Y124.88 F12000.0
G01 X83.85 Y124.29 F12000.0
G01 F12000.0
M5
G00 X84.61 Y125.02 F12000.0
M3 F12000.0
G01 X84.22 Y125.82 F12000.0
G01 X84.21 Y125.97 F12000.0
G01 X84.15 Y127.13 F12000.0
G01 X84.34 Y127.2 F12000.0
G01 X85.48 Y127.63 F12000.0
G01 Y126.99 F12000.0
G01 X85.33 Y126.32 F12000.0
G01 X85.21 Y126.11 F12000.0
G01 X84.61 Y125.02 F12000.0
G01 F12000.0
M5
G00 X87.29 Y127.7 F12000.0
M3 F12000.0
G01 X86.46 Y127.87 F12000.0
G01 X85.64 Y127.85 F12000.0
G01 X85.52 Y128.2 F12000.0
G01 X85.34 Y128.12 F12000.0
G01 X85.44 Y127.82 F12000.0
G01 X85.27 Y127.76 F12000.0
G01 X84.17 Y127.35 F12000.0
G01 Y127.36 F12000.0
G01 X84.28 Y128.36 F12000.0
G01 X84.39 Y129.36 F12000.0
G01 X84.4 F12000.0
G01 X85.4 Y129.53 F12000.0
G01 X85.47 Y129.55 F12000.0
G01 X86.48 Y129.92 F12000.0
G01 X86.4 Y130.1 F12000.0
G01 X86.35 Y130.08 F12000.0
G01 X85.37 Y129.72 F12000.0
G01 X84.41 Y129.56 F12000.0
G01 X84.45 Y129.82 F12000.0
G01 X84.64 Y131.07 F12000.0
G01 X84.44 Y131.09 F12000.0
G01 X84.4 Y130.81 F12000.0
G01 X84.22 Y129.55 F12000.0
G01 X83.45 Y129.63 F12000.0
G01 X82.89 Y129.92 F12000.0
G01 X82.75 Y129.78 F12000.0
G01 X83.37 Y129.45 F12000.0
G01 X84.19 Y129.35 F12000.0
G01 X84.18 Y129.28 F12000.0
G01 X84.07 Y128.29 F12000.0
G01 X83.96 Y127.23 F12000.0
G01 X83.94 Y127.21 F12000.0
G01 X83.16 Y126.56 F12000.0
G01 X82.64 Y125.74 F12000.0
G01 X82.63 Y125.72 F12000.0
G01 X82.39 Y124.71 F12000.0
G01 X82.6 Y124.02 F12000.0
G01 X82.84 Y123.84 F12000.0
G01 X83.15 Y123.79 F12000.0
G01 X83.97 Y124.13 F12000.0
G01 X84.0 Y124.17 F12000.0
G01 X84.76 Y124.89 F12000.0
G01 X84.77 Y124.92 F12000.0
G01 X85.33 Y125.79 F12000.0
G01 F12000.0
G01 X85.64 Y126.75 F12000.0
G01 X85.67 Y127.67 F12000.0
G01 X86.45 Y127.68 F12000.0
G01 X87.23 Y127.52 F12000.0
G01 X87.81 Y127.19 F12000.0
G01 X88.21 Y126.7 F12000.0
G01 X88.39 Y126.08 F12000.0
G01 X88.32 Y125.37 F12000.0
G01 X87.96 Y124.63 F12000.0
G01 X87.3 Y123.89 F12000.0
G01 X87.21 Y123.83 F12000.0
G01 X86.29 Y123.21 F12000.0
G01 X86.06 Y123.11 F12000.0
G01 X84.92 Y122.61 F12000.0
G01 X84.98 Y122.44 F12000.0
G01 X85.23 Y122.55 F12000.0
G01 X86.4 Y123.05 F12000.0
G01 X86.51 Y123.13 F12000.0
G01 X87.44 Y123.78 F12000.0
G01 X87.45 Y123.8 F12000.0
G01 X88.12 Y124.57 F12000.0
G01 X88.48 Y125.37 F12000.0
G01 X88.55 Y126.13 F12000.0
G01 X88.35 Y126.81 F12000.0
G01 X87.92 Y127.35 F12000.0
G01 X87.29 Y127.7 F12000.0
G01 F12000.0
M5
G00 X84.42 Y107.81 F12000.0
M3 F12000.0
G01 X84.79 Y108.25 F12000.0
G01 X85.63 Y108.7 F12000.0
G01 X85.65 Y107.84 F12000.0
G01 X85.66 Y106.98 F12000.0
G01 X85.63 F12000.0
G01 X84.62 Y107.17 F12000.0
G01 X84.42 Y107.43 F12000.0
G01 Y107.81 F12000.0
G01 F12000.0
M5
G00 X84.52 Y103.76 F12000.0
M3 F12000.0
G01 X83.67 Y104.07 F12000.0
G01 X83.49 Y104.31 F12000.0
G01 Y104.58 F12000.0
G01 X83.75 Y104.85 F12000.0
G01 X84.26 Y105.01 F12000.0
G01 X84.46 Y105.0 F12000.0
G01 X85.66 Y104.95 F12000.0
G01 X85.65 Y104.03 F12000.0
G01 X85.3 Y103.77 F12000.0
G01 X84.52 Y103.76 F12000.0
G01 F12000.0
M5
G00 X87.97 Y104.38 F12000.0
M3 F12000.0
G01 X87.86 Y104.42 F12000.0
G01 X86.92 Y104.74 F12000.0
G01 X85.86 Y105.11 F12000.0
G01 Y105.44 F12000.0
G01 Y106.78 F12000.0
G01 X85.92 F12000.0
G01 X86.81 Y106.91 F12000.0
G01 X87.59 Y107.15 F12000.0
G01 X87.53 Y107.33 F12000.0
G01 X86.76 Y107.1 F12000.0
G01 X85.92 Y106.98 F12000.0
G01 X85.86 F12000.0
G01 X85.85 Y107.84 F12000.0
G01 X85.83 Y108.79 F12000.0
G01 X85.91 Y108.82 F12000.0
G01 X86.95 Y109.17 F12000.0
G01 X87.03 Y109.19 F12000.0
G01 X86.97 Y109.39 F12000.0
G01 X86.89 Y109.36 F12000.0
G01 X86.84 Y109.35 F12000.0
G01 X85.81 Y109.16 F12000.0
G01 X85.67 Y110.14 F12000.0
G01 X85.34 Y110.78 F12000.0
G01 X85.18 Y110.66 F12000.0
G01 X85.49 Y110.07 F12000.0
G01 X85.61 Y109.14 F12000.0
G01 X85.35 F12000.0
G01 X84.08 Y109.12 F12000.0
G01 X84.05 Y109.13 F12000.0
G01 X83.03 Y109.37 F12000.0
G01 X82.94 Y109.19 F12000.0
G01 X83.01 Y109.17 F12000.0
G01 X84.05 Y108.93 F12000.0
G01 X84.34 F12000.0
G01 X85.62 Y108.95 F12000.0
G01 Y108.92 F12000.0
G01 X85.58 Y108.9 F12000.0
G01 X84.66 Y108.4 F12000.0
G01 X84.22 Y107.85 F12000.0
G01 X84.25 Y107.3 F12000.0
G01 X84.56 Y106.98 F12000.0
G01 X85.06 Y106.82 F12000.0
G01 X85.66 Y106.78 F12000.0
G01 Y106.47 F12000.0
G01 Y105.16 F12000.0
G01 X84.86 Y105.25 F12000.0
G01 X84.15 Y105.19 F12000.0
G01 X83.6 Y104.98 F12000.0
G01 X83.31 Y104.63 F12000.0
G01 X83.3 Y104.28 F12000.0
G01 X83.5 Y103.97 F12000.0
G01 X83.53 Y103.96 F12000.0
G01 X84.48 Y103.56 F12000.0
G01 X85.43 Y103.61 F12000.0
G01 X85.73 Y103.78 F12000.0
G01 X85.85 Y104.03 F12000.0
G01 X85.86 Y104.91 F12000.0
G01 X85.93 Y104.89 F12000.0
G01 X86.88 Y104.56 F12000.0
G01 X87.89 Y104.2 F12000.0
G01 X87.97 Y104.38 F12000.0
M5
G00 X87.76 Y94.78 F12000.0
M3 F12000.0
G01 X87.52 Y94.68 F12000.0
G01 X86.36 Y94.2 F12000.0
G01 X86.3 Y94.19 F12000.0
G01 X85.27 Y93.96 F12000.0
G01 X84.5 Y94.07 F12000.0
G01 X84.05 Y94.52 F12000.0
G01 X84.03 Y94.71 F12000.0
G01 X83.91 Y95.89 F12000.0
G01 X83.93 Y96.37 F12000.0
G01 X84.01 Y97.86 F12000.0
G01 X84.02 Y98.32 F12000.0
G01 X84.04 Y99.78 F12000.0
G01 X83.93 Y100.53 F12000.0
G01 X83.68 Y101.03 F12000.0
G01 X83.54 Y100.89 F12000.0
G01 X83.76 Y100.42 F12000.0
G01 X83.86 Y99.7 F12000.0
G01 X83.85 Y99.25 F12000.0
G01 X83.81 Y97.8 F12000.0
G01 X83.79 Y97.32 F12000.0
G01 X83.72 Y95.84 F12000.0
G01 X83.74 Y95.64 F12000.0
G01 X83.87 Y94.44 F12000.0
G01 X84.37 Y93.91 F12000.0
G01 X85.19 Y93.77 F12000.0
G01 X85.28 Y93.78 F12000.0
G01 X86.35 Y94.0 F12000.0
G01 X86.63 Y94.11 F12000.0
G01 X87.83 Y94.6 F12000.0
G01 X87.76 Y94.78 F12000.0
M5
G00 X88.52 Y90.3 F12000.0
M3 F12000.0
G01 X88.4 Y90.44 F12000.0
G01 X88.33 Y90.41 F12000.0
G01 X88.06 Y90.34 F12000.0
G01 X86.82 Y90.0 F12000.0
G01 X86.55 Y89.95 F12000.0
G01 X85.56 Y89.78 F12000.0
G01 X84.31 Y89.56 F12000.0
G01 X84.24 F12000.0
G01 X83.17 Y89.53 F12000.0
G01 X82.32 Y89.72 F12000.0
G01 X82.24 Y89.54 F12000.0
G01 X83.13 Y89.34 F12000.0
G01 X83.22 F12000.0
G01 X84.3 Y89.36 F12000.0
G01 X84.6 Y89.41 F12000.0
G01 X85.58 Y89.58 F12000.0
G01 X86.86 Y89.8 F12000.0
G01 X87.66 Y90.0 F12000.0
G01 X87.64 Y89.98 F12000.0
G01 X86.83 Y89.35 F12000.0
G01 X86.75 Y89.27 F12000.0
G01 X85.99 Y88.46 F12000.0
G01 X85.92 Y88.35 F12000.0
G01 X85.35 Y87.38 F12000.0
G01 X85.33 Y87.26 F12000.0
G01 X85.13 Y86.15 F12000.0
G01 X85.24 Y85.56 F12000.0
G01 X85.48 Y85.08 F12000.0
G01 X85.49 Y85.07 F12000.0
G01 X86.22 Y84.38 F12000.0
G01 X87.09 Y83.97 F12000.0
G01 X87.83 Y83.78 F12000.0
G01 X87.87 Y83.98 F12000.0
G01 X87.15 Y84.16 F12000.0
G01 X86.34 Y84.54 F12000.0
G01 X85.65 Y85.18 F12000.0
G01 X85.43 Y85.63 F12000.0
G01 X85.33 Y86.17 F12000.0
G01 X85.4 Y86.93 F12000.0
G01 X85.67 Y87.63 F12000.0
G01 X85.82 Y87.84 F12000.0
G01 X86.58 Y88.84 F12000.0
G01 X86.71 Y88.96 F12000.0
G01 X87.61 Y89.73 F12000.0
G01 X88.35 Y90.19 F12000.0
G01 X88.52 Y90.3 F12000.0
G01 F12000.0
M5
G00 X75.07 Y84.34 F12000.0
M3 F12000.0
G01 X74.57 Y84.25 F12000.0
G01 X74.42 Y84.24 F12000.0
G01 X73.27 Y84.16 F12000.0
G01 X73.22 Y84.18 F12000.0
G01 X72.19 Y84.4 F12000.0
G01 X71.81 Y84.63 F12000.0
G01 X71.57 Y84.94 F12000.0
G01 X71.51 Y85.32 F12000.0
G01 X71.65 Y85.77 F12000.0
G01 X72.3 Y86.4 F12000.0
G01 X72.31 F12000.0
G01 X73.23 Y86.84 F12000.0
G01 X73.35 Y86.87 F12000.0
G01 X74.43 Y87.18 F12000.0
G01 Y87.39 F12000.0
G01 X73.8 Y87.34 F12000.0
G01 X73.32 Y87.52 F12000.0
G01 X73.01 Y87.91 F12000.0
G01 X72.86 Y88.52 F12000.0
G01 X72.87 Y88.7 F12000.0
G01 Y89.88 F12000.0
G01 X72.75 Y90.7 F12000.0
G01 X72.36 Y91.48 F12000.0
G01 X72.2 Y91.36 F12000.0
G01 X72.57 Y90.63 F12000.0
G01 X72.68 Y89.85 F12000.0
G01 Y89.67 F12000.0
G01 X72.67 Y88.5 F12000.0
G01 X72.96 Y87.61 F12000.0
G01 X73.62 Y87.18 F12000.0
G01 X73.47 Y87.12 F12000.0
G01 X72.4 Y86.68 F12000.0
G01 X71.85 Y86.32 F12000.0
G01 X71.47 Y85.87 F12000.0
G01 X71.3 Y85.34 F12000.0
G01 X71.37 Y84.9 F12000.0
G01 X71.63 Y84.54 F12000.0
G01 X72.05 Y84.27 F12000.0
G01 X72.16 Y84.24 F12000.0
G01 X73.23 Y83.98 F12000.0
G01 X73.42 Y83.99 F12000.0
G01 X74.61 Y84.05 F12000.0
G01 X75.11 Y84.14 F12000.0
G01 X75.07 Y84.34 F12000.0
M5
G00 X72.43 Y80.46 F12000.0
M3 F12000.0
G01 X72.55 Y80.31 F12000.0
G01 X73.3 Y80.53 F12000.0
G01 X73.92 Y80.5 F12000.0
G01 X74.0 Y80.49 F12000.0
G01 X74.03 Y80.69 F12000.0
G01 X73.95 Y80.7 F12000.0
G01 X73.13 Y80.95 F12000.0
G01 X73.08 Y80.98 F12000.0
G01 X72.12 Y81.44 F12000.0
G01 X72.03 Y81.28 F12000.0
G01 X72.16 Y81.22 F12000.0
G01 X73.19 Y80.72 F12000.0
G01 X72.43 Y80.46 F12000.0
G01 F12000.0
M5
G00 X73.92 Y79.09 F12000.0
M3 F12000.0
G01 X73.25 F12000.0
G01 X72.62 Y78.83 F12000.0
G01 X72.01 Y78.6 F12000.0
G01 X71.41 Y78.65 F12000.0
G01 X71.33 Y78.47 F12000.0
G01 X72.0 Y78.39 F12000.0
G01 X72.64 Y78.61 F12000.0
G01 X73.27 Y78.87 F12000.0
G01 X73.86 Y78.89 F12000.0
G01 X74.35 Y78.5 F12000.0
G01 X74.61 Y77.76 F12000.0
G01 X74.62 Y76.84 F12000.0
G01 X74.36 Y75.9 F12000.0
G01 X74.25 Y75.76 F12000.0
G01 X73.56 Y74.82 F12000.0
G01 X73.32 Y74.66 F12000.0
G01 X72.25 Y73.94 F12000.0
G01 X72.33 Y73.77 F12000.0
G01 X72.54 Y73.91 F12000.0
G01 X73.59 Y74.59 F12000.0
G01 X74.13 Y75.16 F12000.0
G01 X74.53 Y75.82 F12000.0
G01 X74.54 Y75.86 F12000.0
G01 X74.82 Y76.85 F12000.0
G01 X74.79 Y77.85 F12000.0
G01 X74.48 Y78.65 F12000.0
G01 X73.92 Y79.09 F12000.0
G01 F12000.0
M5
G00 X76.26 Y71.67 F12000.0
M3 F12000.0
G01 X76.03 Y71.78 F12000.0
G01 X74.88 Y72.28 F12000.0
G01 X74.84 Y72.08 F12000.0
G01 X75.03 Y72.0 F12000.0
G01 X76.14 Y71.52 F12000.0
G01 X76.26 Y71.67 F12000.0
M5
G00 X75.75 Y70.92 F12000.0
M3 F12000.0
G01 X75.52 Y71.02 F12000.0
G01 X74.37 Y71.53 F12000.0
G01 X74.33 Y71.33 F12000.0
G01 X74.52 Y71.24 F12000.0
G01 X75.63 Y70.76 F12000.0
G01 X75.75 Y70.92 F12000.0
M5
G00 X72.92 Y69.28 F12000.0
M3 F12000.0
G01 X73.63 Y69.81 F12000.0
G01 X74.16 Y70.0 F12000.0
G01 X74.45 Y70.02 F12000.0
G01 X74.43 Y70.03 F12000.0
G01 X74.47 Y70.21 F12000.0
G01 X74.39 Y70.22 F12000.0
G01 X73.33 Y70.4 F12000.0
G01 X72.96 Y70.52 F12000.0
G01 X71.64 Y70.94 F12000.0
G01 X71.56 Y70.76 F12000.0
G01 X71.68 Y70.72 F12000.0
G01 X72.75 Y70.33 F12000.0
G01 X72.79 Y70.32 F12000.0
G01 X73.82 Y70.11 F12000.0
G01 X73.34 Y69.87 F12000.0
G01 X72.78 Y69.42 F12000.0
G01 X72.92 Y69.28 F12000.0
M5
G00 X74.9 Y64.67 F12000.0
M3 F12000.0
G01 X74.82 F12000.0
G01 X73.74 Y64.62 F12000.0
G01 X73.56 Y64.65 F12000.0
G01 X72.39 Y64.84 F12000.0
G01 X71.83 Y65.1 F12000.0
G01 X71.44 Y65.47 F12000.0
G01 X71.3 Y65.97 F12000.0
G01 X71.47 Y66.63 F12000.0
G01 X71.3 Y66.7 F12000.0
G01 X71.09 Y65.96 F12000.0
G01 X71.23 Y65.39 F12000.0
G01 X71.65 Y64.97 F12000.0
G01 X72.25 Y64.69 F12000.0
G01 X72.48 Y64.65 F12000.0
G01 X73.7 Y64.43 F12000.0
G01 X73.81 Y64.44 F12000.0
G01 X74.92 Y64.47 F12000.0
G01 X74.9 Y64.67 F12000.0
M5
G00 X74.79 Y62.38 F12000.0
M3 F12000.0
G01 X74.75 Y62.18 F12000.0
G01 X74.94 Y62.1 F12000.0
G01 X76.05 Y61.62 F12000.0
G01 X76.17 Y61.78 F12000.0
G01 X75.94 Y61.88 F12000.0
G01 X74.79 Y62.38 F12000.0
G01 F12000.0
M5
G00 X74.23 Y61.43 F12000.0
M3 F12000.0
G01 X74.43 Y61.35 F12000.0
G01 X75.54 Y60.87 F12000.0
G01 X75.66 Y61.03 F12000.0
G01 X75.42 Y61.13 F12000.0
G01 X74.27 Y61.63 F12000.0
G01 X74.23 Y61.43 F12000.0
M5
G00 X75.64 Y60.09 F12000.0
M3 F12000.0
G01 X75.52 Y60.25 F12000.0
G01 X75.22 Y60.08 F12000.0
G01 X74.38 Y59.76 F12000.0
G01 X73.41 Y59.54 F12000.0
G01 X73.38 Y59.61 F12000.0
G01 X72.88 Y60.57 F12000.0
G01 X72.77 Y61.04 F12000.0
G01 X72.8 Y61.46 F12000.0
G01 X72.6 Y61.52 F12000.0
G01 X72.56 Y61.07 F12000.0
G01 X72.67 Y60.58 F12000.0
G01 X72.71 Y60.5 F12000.0
G01 X73.2 Y59.52 F12000.0
G01 X72.97 Y59.53 F12000.0
G01 X71.75 F12000.0
G01 X71.03 Y59.7 F12000.0
G01 X70.36 Y60.01 F12000.0
G01 X70.26 Y59.85 F12000.0
G01 X70.98 Y59.51 F12000.0
G01 X71.76 Y59.33 F12000.0
G01 X72.04 F12000.0
G01 X73.31 Y59.34 F12000.0
G01 X73.46 Y59.13 F12000.0
G01 X74.04 Y58.32 F12000.0
G01 X74.76 Y57.3 F12000.0
G01 X75.19 Y56.42 F12000.0
G01 X75.2 Y56.23 F12000.0
G01 X75.08 Y56.19 F12000.0
G01 X74.97 Y56.22 F12000.0
G01 X73.89 Y56.47 F12000.0
G01 X73.62 Y56.5 F12000.0
G01 X72.35 Y56.65 F12000.0
G01 X71.41 Y56.32 F12000.0
G01 X70.89 Y55.67 F12000.0
G01 X70.86 Y54.94 F12000.0
G01 X71.07 Y54.63 F12000.0
G01 X71.44 Y54.39 F12000.0
G01 X72.28 Y54.11 F12000.0
G01 X73.08 Y54.0 F12000.0
G01 X73.17 F12000.0
G01 X74.25 Y54.07 F12000.0
G01 X74.21 Y54.27 F12000.0
G01 X74.15 Y54.26 F12000.0
G01 X73.09 Y54.19 F12000.0
G01 X72.33 Y54.31 F12000.0
G01 X71.52 Y54.56 F12000.0
G01 X71.21 Y54.77 F12000.0
G01 X71.04 Y55.03 F12000.0
G01 X71.09 Y55.64 F12000.0
G01 X71.56 Y56.18 F12000.0
G01 X72.37 Y56.45 F12000.0
G01 X72.62 Y56.42 F12000.0
G01 X73.87 Y56.27 F12000.0
G01 X73.97 Y56.25 F12000.0
G01 X75.04 Y56.0 F12000.0
G01 X75.32 Y56.03 F12000.0
G01 X75.39 Y56.29 F12000.0
G01 X75.35 Y56.38 F12000.0
G01 X74.94 Y57.4 F12000.0
G01 X74.81 Y57.57 F12000.0
G01 X74.23 Y58.38 F12000.0
G01 X73.53 Y59.36 F12000.0
G01 X74.44 Y59.56 F12000.0
G01 X74.58 Y59.62 F12000.0
G01 X75.64 Y60.09 F12000.0
G01 F12000.0
M5
G00 X76.72 Y47.47 F12000.0
M3 F12000.0
G01 X76.36 Y48.24 F12000.0
G01 X75.73 Y48.89 F12000.0
G01 X74.88 Y49.28 F12000.0
G01 X74.86 F12000.0
G01 X73.83 Y49.27 F12000.0
G01 X73.87 Y49.07 F12000.0
G01 X74.84 Y49.09 F12000.0
G01 X75.63 Y48.74 F12000.0
G01 X76.2 Y48.15 F12000.0
G01 X76.52 Y47.43 F12000.0
G01 X76.72 Y47.47 F12000.0
M5
G00 X72.69 Y46.68 F12000.0
M3 F12000.0
G01 X72.03 Y46.42 F12000.0
G01 X71.46 Y46.44 F12000.0
G01 X70.96 Y46.68 F12000.0
G01 X70.54 Y47.1 F12000.0
G01 X70.48 Y47.22 F12000.0
G01 X69.97 Y48.23 F12000.0
G01 X69.95 Y48.32 F12000.0
G01 X69.77 Y49.4 F12000.0
G01 X69.58 F12000.0
G01 X69.6 Y49.28 F12000.0
G01 X69.79 Y48.17 F12000.0
G01 X69.88 Y48.0 F12000.0
G01 X70.42 Y46.95 F12000.0
G01 X70.88 Y46.5 F12000.0
G01 X71.43 Y46.23 F12000.0
G01 X72.06 Y46.21 F12000.0
G01 X72.79 Y46.5 F12000.0
G01 X72.69 Y46.68 F12000.0
M5
G00 X72.07 Y38.66 F12000.0
M3 F12000.0
G01 X72.44 Y39.1 F12000.0
G01 X73.28 Y39.56 F12000.0
G01 X73.31 Y38.69 F12000.0
G01 Y37.83 F12000.0
G01 X73.29 Y37.84 F12000.0
G01 X72.27 Y38.03 F12000.0
G01 X72.08 Y38.29 F12000.0
G01 X72.07 Y38.66 F12000.0
G01 F12000.0
M5
G00 X72.17 Y34.61 F12000.0
M3 F12000.0
G01 X71.33 Y34.93 F12000.0
G01 X71.14 Y35.16 F12000.0
G01 Y35.43 F12000.0
G01 X71.41 Y35.7 F12000.0
G01 X71.92 Y35.87 F12000.0
G01 X72.12 Y35.86 F12000.0
G01 X73.31 Y35.81 F12000.0
G01 Y34.89 F12000.0
G01 X72.95 Y34.63 F12000.0
G01 X72.17 Y34.61 F12000.0
G01 F12000.0
M5
G00 X75.63 Y35.23 F12000.0
M3 F12000.0
G01 X75.51 Y35.27 F12000.0
G01 X74.57 Y35.6 F12000.0
G01 X73.51 Y35.97 F12000.0
G01 Y36.3 F12000.0
G01 Y37.63 F12000.0
G01 X73.57 F12000.0
G01 X74.46 Y37.77 F12000.0
G01 X75.24 Y38.01 F12000.0
G01 X75.18 Y38.19 F12000.0
G01 X74.41 Y37.95 F12000.0
G01 X73.57 Y37.83 F12000.0
G01 X73.51 F12000.0
G01 X73.5 Y38.69 F12000.0
G01 X73.48 Y39.65 F12000.0
G01 X73.57 Y39.68 F12000.0
G01 X74.6 Y40.03 F12000.0
G01 X74.68 Y40.05 F12000.0
G01 X74.62 Y40.24 F12000.0
G01 X74.54 Y40.21 F12000.0
G01 X74.49 Y40.2 F12000.0
G01 X73.46 Y40.02 F12000.0
G01 X73.33 Y40.99 F12000.0
G01 X72.99 Y41.64 F12000.0
G01 X72.83 Y41.52 F12000.0
G01 X73.14 Y40.92 F12000.0
G01 X73.27 Y40.0 F12000.0
G01 X73.0 Y39.99 F12000.0
G01 X71.74 Y39.98 F12000.0
G01 X71.7 Y39.99 F12000.0
G01 X70.69 Y40.22 F12000.0
G01 X70.59 Y40.05 F12000.0
G01 X70.66 Y40.03 F12000.0
G01 X71.71 Y39.78 F12000.0
G01 X71.99 Y39.79 F12000.0
G01 X73.28 Y39.81 F12000.0
G01 Y39.78 F12000.0
G01 X73.23 Y39.75 F12000.0
G01 X72.31 Y39.25 F12000.0
G01 X71.87 Y38.7 F12000.0
G01 X71.91 Y38.16 F12000.0
G01 X72.21 Y37.83 F12000.0
G01 X72.71 Y37.68 F12000.0
G01 X73.31 Y37.63 F12000.0
G01 Y37.32 F12000.0
G01 Y36.01 F12000.0
G01 X72.52 Y36.11 F12000.0
G01 X71.8 Y36.05 F12000.0
G01 X71.25 Y35.83 F12000.0
G01 X70.96 Y35.49 F12000.0
G01 X70.95 Y35.13 F12000.0
G01 X71.15 Y34.82 F12000.0
G01 X71.18 Y34.81 F12000.0
G01 X72.13 Y34.41 F12000.0
G01 X73.09 Y34.46 F12000.0
G01 X73.39 Y34.64 F12000.0
G01 X73.5 Y34.89 F12000.0
G01 X73.51 Y35.77 F12000.0
G01 X73.59 Y35.74 F12000.0
G01 X74.53 Y35.41 F12000.0
G01 X75.55 Y35.06 F12000.0
G01 X75.63 Y35.23 F12000.0
M5
G00 X74.71 Y30.45 F12000.0
M3 F12000.0
G01 X74.66 F12000.0
G01 X73.62 Y30.34 F12000.0
G01 X73.4 Y31.25 F12000.0
G01 X73.37 Y31.29 F12000.0
G01 X72.77 Y32.14 F12000.0
G01 X72.63 Y32.0 F12000.0
G01 X72.64 F12000.0
G01 X73.22 Y31.17 F12000.0
G01 X73.42 Y30.31 F12000.0
G01 X73.4 F12000.0
G01 X72.4 Y30.21 F12000.0
G01 X71.39 Y30.11 F12000.0
G01 X70.49 Y30.13 F12000.0
G01 X69.82 Y30.31 F12000.0
G01 X69.72 Y30.13 F12000.0
G01 X70.43 Y29.94 F12000.0
G01 X71.36 Y29.92 F12000.0
G01 X71.4 F12000.0
G01 X72.39 Y30.02 F12000.0
G01 X73.43 Y30.12 F12000.0
G01 X73.44 Y29.16 F12000.0
G01 X72.88 Y29.14 F12000.0
G01 X72.34 Y28.8 F12000.0
G01 X71.92 Y28.26 F12000.0
G01 X71.76 Y27.67 F12000.0
G01 X71.86 Y27.08 F12000.0
G01 X72.14 Y26.67 F12000.0
G01 X72.56 Y26.46 F12000.0
G01 X73.08 Y26.48 F12000.0
G01 X73.43 Y26.73 F12000.0
G01 X73.6 Y27.22 F12000.0
G01 Y27.48 F12000.0
G01 X73.64 Y28.74 F12000.0
G01 X73.96 Y28.05 F12000.0
G01 X74.08 Y27.15 F12000.0
G01 X73.94 Y26.17 F12000.0
G01 X73.93 Y26.16 F12000.0
G01 X73.46 Y25.27 F12000.0
G01 X72.94 Y24.8 F12000.0
G01 X72.42 Y24.54 F12000.0
G01 X71.54 Y24.35 F12000.0
G01 X71.56 Y24.15 F12000.0
G01 X72.48 Y24.35 F12000.0
G01 X73.06 Y24.64 F12000.0
G01 X73.62 Y25.15 F12000.0
G01 X73.64 Y25.2 F12000.0
G01 X74.13 Y26.14 F12000.0
G01 X74.14 Y26.19 F12000.0
G01 X74.27 Y27.22 F12000.0
G01 Y27.23 F12000.0
G01 X74.11 Y28.22 F12000.0
G01 X73.73 Y28.95 F12000.0
G01 X73.64 Y29.04 F12000.0
G01 Y29.16 F12000.0
G01 X73.63 Y30.15 F12000.0
G01 X73.68 F12000.0
G01 X74.73 Y30.25 F12000.0
G01 X74.8 Y30.26 F12000.0
G01 X75.87 Y30.3 F12000.0
G01 X76.41 Y30.21 F12000.0
G01 X76.47 Y30.4 F12000.0
G01 X75.96 Y30.5 F12000.0
G01 X75.83 Y30.49 F12000.0
G01 X74.71 Y30.45 F12000.0
G01 F12000.0
M5
G00 X73.04 Y26.68 F12000.0
M3 F12000.0
G01 X72.6 Y26.66 F12000.0
G01 X72.26 Y26.83 F12000.0
G01 X72.04 Y27.17 F12000.0
G01 X71.96 Y27.67 F12000.0
G01 X72.11 Y28.24 F12000.0
G01 X72.5 Y28.7 F12000.0
G01 X72.99 Y28.96 F12000.0
G01 X73.44 Y28.93 F12000.0
G01 Y28.65 F12000.0
G01 X73.42 Y27.36 F12000.0
G01 X73.31 Y26.9 F12000.0
G01 X73.04 Y26.68 F12000.0
G01 F12000.0
M5
G00 X43.61 Y42.45 F12000.0
M3 F12000.0
G01 X43.3 Y42.43 F12000.0
G01 X43.05 Y42.56 F12000.0
G01 X42.84 Y43.16 F12000.0
G01 X42.95 Y43.56 F12000.0
G01 X43.22 Y43.89 F12000.0
G01 X43.57 Y44.08 F12000.0
G01 X43.89 Y44.06 F12000.0
G01 Y44.0 F12000.0
G01 X43.88 Y42.94 F12000.0
G01 X43.8 Y42.61 F12000.0
G01 X43.61 Y42.45 F12000.0
G01 F12000.0
M5
G00 X44.8 Y45.14 F12000.0
M3 F12000.0
G01 X44.02 Y45.07 F12000.0
G01 X43.87 Y45.71 F12000.0
G01 X43.41 Y46.35 F12000.0
G01 X43.31 Y46.25 F12000.0
G01 X43.74 Y45.66 F12000.0
G01 X43.88 Y45.05 F12000.0
G01 X43.65 Y45.02 F12000.0
G01 X42.43 Y44.9 F12000.0
G01 X42.37 Y44.91 F12000.0
G01 X41.31 Y45.04 F12000.0
G01 X41.24 Y44.91 F12000.0
G01 X41.75 Y44.78 F12000.0
G01 X42.41 Y44.76 F12000.0
G01 X42.65 Y44.78 F12000.0
G01 X43.89 Y44.91 F12000.0
G01 Y44.22 F12000.0
G01 X43.5 Y44.21 F12000.0
G01 X43.11 Y43.96 F12000.0
G01 X42.81 Y43.58 F12000.0
G01 X42.69 Y43.16 F12000.0
G01 X42.77 Y42.74 F12000.0
G01 X42.96 Y42.45 F12000.0
G01 X43.26 Y42.3 F12000.0
G01 X43.64 Y42.31 F12000.0
G01 X43.89 Y42.49 F12000.0
G01 X44.01 Y42.84 F12000.0
G01 Y42.88 F12000.0
G01 X44.03 Y43.92 F12000.0
G01 X44.27 Y43.43 F12000.0
G01 X44.35 Y42.78 F12000.0
G01 X44.25 Y42.08 F12000.0
G01 X43.91 Y41.44 F12000.0
G01 X43.16 Y40.92 F12000.0
G01 X42.54 Y40.78 F12000.0
G01 X42.55 Y40.64 F12000.0
G01 X43.21 Y40.79 F12000.0
G01 X43.62 Y40.99 F12000.0
G01 X44.02 Y41.36 F12000.0
G01 X44.39 Y42.07 F12000.0
G01 X44.49 Y42.84 F12000.0
G01 X44.38 Y43.55 F12000.0
G01 X44.1 Y44.07 F12000.0
G01 X44.03 Y44.14 F12000.0
G01 Y44.22 F12000.0
G01 Y44.93 F12000.0
G01 X44.82 Y45.0 F12000.0
G01 X44.92 F12000.0
G01 X46.02 Y44.97 F12000.0
G01 X46.06 Y45.11 F12000.0
G01 X45.93 F12000.0
G01 X44.8 Y45.15 F12000.0
G01 Y45.14 F12000.0
M5
G00 X45.46 Y48.56 F12000.0
M3 F12000.0
G01 X45.17 Y48.66 F12000.0
G01 X43.95 Y49.08 F12000.0
G01 Y49.18 F12000.0
G01 Y50.28 F12000.0
G01 X43.99 F12000.0
G01 X44.1 Y50.3 F12000.0
G01 X45.18 Y50.54 F12000.0
G01 X45.14 Y50.67 F12000.0
G01 X45.05 Y50.65 F12000.0
G01 X43.99 Y50.42 F12000.0
G01 X43.95 F12000.0
G01 X43.94 Y51.03 F12000.0
G01 X43.92 Y51.71 F12000.0
G01 X44.72 Y51.98 F12000.0
G01 X44.78 Y52.0 F12000.0
G01 X44.74 Y52.14 F12000.0
G01 X44.68 Y52.12 F12000.0
G01 X43.91 Y51.97 F12000.0
G01 X43.81 Y52.67 F12000.0
G01 X43.57 Y53.13 F12000.0
G01 X43.46 Y53.05 F12000.0
G01 X43.68 Y52.62 F12000.0
G01 X43.77 Y51.96 F12000.0
G01 X43.72 F12000.0
G01 X42.68 Y51.95 F12000.0
G01 X41.93 Y52.12 F12000.0
G01 X41.86 Y52.0 F12000.0
G01 X42.66 Y51.81 F12000.0
G01 X42.72 F12000.0
G01 X43.78 Y51.83 F12000.0
G01 Y51.81 F12000.0
G01 X43.09 Y51.43 F12000.0
G01 X42.77 Y51.04 F12000.0
G01 X42.8 Y50.65 F12000.0
G01 X43.02 Y50.42 F12000.0
G01 X43.8 Y50.28 F12000.0
G01 Y50.2 F12000.0
G01 Y49.12 F12000.0
G01 X43.77 F12000.0
G01 X42.72 Y49.14 F12000.0
G01 X42.33 Y48.99 F12000.0
G01 X42.13 Y48.74 F12000.0
G01 X42.11 Y48.49 F12000.0
G01 X42.26 Y48.27 F12000.0
G01 X42.96 Y47.97 F12000.0
G01 X43.64 Y48.01 F12000.0
G01 X43.94 Y48.31 F12000.0
G01 X43.95 Y48.94 F12000.0
G01 X44.2 Y48.85 F12000.0
G01 X45.4 Y48.43 F12000.0
G01 X45.46 Y48.56 F12000.0
M5
G00 X42.99 Y48.12 F12000.0
M3 F12000.0
G01 X42.38 Y48.34 F12000.0
G01 X42.25 Y48.7 F12000.0
G01 X42.44 Y48.89 F12000.0
G01 X42.81 Y49.01 F12000.0
G01 X43.8 Y48.97 F12000.0
G01 Y48.31 F12000.0
G01 X43.55 Y48.13 F12000.0
G01 X42.99 Y48.12 F12000.0
G01 F12000.0
M5
G00 X42.92 Y51.01 F12000.0
M3 F12000.0
G01 X43.18 Y51.32 F12000.0
G01 X43.78 Y51.65 F12000.0
G01 X43.8 Y51.03 F12000.0
G01 Y50.42 F12000.0
G01 X43.06 Y50.56 F12000.0
G01 X42.92 Y50.74 F12000.0
G01 Y51.01 F12000.0
G01 F12000.0
M5
G00 X45.3 Y55.81 F12000.0
M3 F12000.0
G01 X45.26 Y55.8 F12000.0
G01 X44.3 Y55.4 F12000.0
G01 X43.52 Y55.23 F12000.0
G01 X42.97 Y55.31 F12000.0
G01 X42.66 Y55.63 F12000.0
G01 X42.55 Y56.61 F12000.0
G01 X42.56 Y56.81 F12000.0
G01 X42.63 Y58.01 F12000.0
G01 Y58.2 F12000.0
G01 X42.65 Y59.39 F12000.0
G01 X42.57 Y59.92 F12000.0
G01 X42.39 Y60.28 F12000.0
G01 X42.29 Y60.18 F12000.0
G01 X42.45 Y59.85 F12000.0
G01 X42.52 Y59.33 F12000.0
G01 X42.51 Y59.15 F12000.0
G01 X42.48 Y57.97 F12000.0
G01 X42.47 Y57.77 F12000.0
G01 X42.41 Y56.57 F12000.0
G01 F12000.0
G01 X42.53 Y55.57 F12000.0
G01 X42.88 Y55.19 F12000.0
G01 X43.47 Y55.09 F12000.0
G01 X44.3 Y55.26 F12000.0
G01 X44.36 Y55.28 F12000.0
G01 X45.36 Y55.69 F12000.0
G01 X45.3 Y55.81 F12000.0
M5
G00 X43.8 Y63.74 F12000.0
M3 F12000.0
G01 X43.66 Y63.72 F12000.0
G01 X43.87 Y63.12 F12000.0
G01 X44.27 Y62.65 F12000.0
G01 X44.85 Y62.31 F12000.0
G01 X45.62 Y62.1 F12000.0
G01 X45.65 Y62.24 F12000.0
G01 X44.92 Y62.44 F12000.0
G01 X44.37 Y62.75 F12000.0
G01 X44.0 Y63.19 F12000.0
G01 X43.8 Y63.74 F12000.0
G01 F12000.0
M5
G00 X43.78 Y66.03 F12000.0
M3 F12000.0
G01 X43.74 Y66.16 F12000.0
G01 X43.71 Y66.15 F12000.0
G01 X42.73 Y65.85 F12000.0
G01 X42.77 Y66.65 F12000.0
G01 X42.51 Y67.48 F12000.0
G01 X42.39 Y67.41 F12000.0
G01 X42.64 Y66.61 F12000.0
G01 X42.58 Y65.83 F12000.0
G01 X42.0 Y65.84 F12000.0
G01 X41.42 Y66.04 F12000.0
G01 X41.35 Y65.91 F12000.0
G01 X41.95 Y65.7 F12000.0
G01 X42.54 Y65.69 F12000.0
G01 X42.41 Y65.2 F12000.0
G01 X42.36 Y65.04 F12000.0
G01 X42.04 Y64.09 F12000.0
G01 X41.66 Y62.98 F12000.0
G01 X41.4 Y62.38 F12000.0
G01 X41.53 Y62.32 F12000.0
G01 X41.79 Y62.92 F12000.0
G01 X41.85 Y63.1 F12000.0
G01 X42.17 Y64.04 F12000.0
G01 X42.56 Y65.16 F12000.0
G01 X42.69 Y65.71 F12000.0
G01 X42.76 Y65.73 F12000.0
G01 X43.78 Y66.03 F12000.0
G01 F12000.0
M5
G00 X44.62 Y65.89 F12000.0
M3 F12000.0
G01 Y65.75 F12000.0
G01 X45.41 Y65.53 F12000.0
G01 X45.84 Y65.11 F12000.0
G01 X45.39 Y65.22 F12000.0
G01 X44.77 Y65.14 F12000.0
G01 X44.83 Y65.01 F12000.0
G01 X45.55 Y65.05 F12000.0
G01 X45.9 Y64.93 F12000.0
G01 X46.0 Y64.99 F12000.0
G01 X45.87 Y65.31 F12000.0
G01 X45.55 Y65.6 F12000.0
G01 X44.62 Y65.89 F12000.0
G01 F12000.0
M5
G00 X43.36 Y70.85 F12000.0
M3 F12000.0
G01 X42.89 Y70.66 F12000.0
G01 X42.48 Y70.67 F12000.0
G01 X41.82 Y71.14 F12000.0
G01 X41.42 Y71.95 F12000.0
G01 X41.28 Y72.79 F12000.0
G01 X41.13 F12000.0
G01 X41.29 Y71.91 F12000.0
G01 X41.74 Y71.04 F12000.0
G01 X42.06 Y70.72 F12000.0
G01 X42.46 Y70.53 F12000.0
G01 X42.91 Y70.51 F12000.0
G01 X43.43 Y70.72 F12000.0
G01 X43.36 Y70.85 F12000.0
M5
G00 X46.24 Y71.41 F12000.0
M3 F12000.0
G01 X45.98 Y71.96 F12000.0
G01 X45.53 Y72.42 F12000.0
G01 X44.92 Y72.7 F12000.0
G01 X44.17 F12000.0
G01 X44.2 Y72.56 F12000.0
G01 X44.89 Y72.57 F12000.0
G01 X45.46 Y72.32 F12000.0
G01 X45.86 Y71.89 F12000.0
G01 X46.09 Y71.39 F12000.0
G01 X46.24 Y71.41 F12000.0
M5
G00 X54.12 Y69.92 F12000.0
M3 F12000.0
G01 X54.08 Y69.91 F12000.0
G01 X53.12 Y69.51 F12000.0
G01 X52.34 Y69.34 F12000.0
G01 X51.79 Y69.42 F12000.0
G01 X51.47 Y69.74 F12000.0
G01 X51.37 Y70.72 F12000.0
G01 X51.38 Y70.92 F12000.0
G01 X51.45 Y72.12 F12000.0
G01 Y72.31 F12000.0
G01 X51.47 Y73.5 F12000.0
G01 X51.39 Y74.04 F12000.0
G01 X51.21 Y74.39 F12000.0
G01 X51.11 Y74.29 F12000.0
G01 X51.27 Y73.96 F12000.0
G01 X51.34 Y73.44 F12000.0
G01 X51.33 Y73.26 F12000.0
G01 X51.3 Y72.09 F12000.0
G01 X51.29 Y71.88 F12000.0
G01 X51.23 Y70.68 F12000.0
G01 F12000.0
G01 X51.35 Y69.69 F12000.0
G01 X51.7 Y69.31 F12000.0
G01 X52.29 Y69.2 F12000.0
G01 X53.12 Y69.37 F12000.0
G01 X53.18 Y69.39 F12000.0
G01 X54.18 Y69.8 F12000.0
G01 X54.12 Y69.92 F12000.0
M5
G00 X53.73 Y61.74 F12000.0
M3 F12000.0
G01 X53.55 Y62.1 F12000.0
G01 X53.51 Y62.17 F12000.0
G01 X52.91 Y63.07 F12000.0
G01 X52.24 Y63.81 F12000.0
G01 X52.2 Y63.86 F12000.0
G01 X51.49 Y64.64 F12000.0
G01 X51.72 Y64.9 F12000.0
G01 X52.58 Y65.92 F12000.0
G01 X52.61 Y65.95 F12000.0
G01 X53.26 Y66.77 F12000.0
G01 X53.44 Y67.14 F12000.0
G01 X53.43 Y67.41 F12000.0
G01 X53.3 Y67.34 F12000.0
G01 X53.1 Y66.78 F12000.0
G01 X53.08 Y66.75 F12000.0
G01 X52.42 Y65.95 F12000.0
G01 X52.39 Y65.92 F12000.0
G01 X51.69 Y65.14 F12000.0
G01 X51.35 Y64.64 F12000.0
G01 X51.58 Y64.28 F12000.0
G01 X52.12 Y63.73 F12000.0
G01 F12000.0
G01 X52.79 Y62.99 F12000.0
G01 X52.83 Y62.93 F12000.0
G01 X53.42 Y62.03 F12000.0
G01 X53.6 Y61.67 F12000.0
G01 X53.73 Y61.74 F12000.0
M5
G00 X22.74 Y60.85 F12000.0
M3 F12000.0
G01 X22.69 Y60.84 F12000.0
G01 X21.68 Y60.53 F12000.0
G01 X21.58 Y60.47 F12000.0
G01 X20.62 Y59.88 F12000.0
G01 Y59.98 F12000.0
G01 X20.63 Y61.07 F12000.0
G01 X20.64 Y61.82 F12000.0
G01 X21.42 Y62.04 F12000.0
G01 X21.38 Y62.17 F12000.0
G01 X20.63 Y61.97 F12000.0
G01 X20.54 Y62.54 F12000.0
G01 X20.23 Y63.12 F12000.0
G01 X20.12 Y63.04 F12000.0
G01 X20.4 Y62.49 F12000.0
G01 X20.49 Y61.94 F12000.0
G01 X19.77 Y61.88 F12000.0
G01 X19.16 Y62.04 F12000.0
G01 X19.09 Y61.91 F12000.0
G01 X19.74 Y61.75 F12000.0
G01 X20.49 Y61.8 F12000.0
G01 Y61.07 F12000.0
G01 Y60.93 F12000.0
G01 X20.48 Y59.78 F12000.0
G01 X19.66 Y59.3 F12000.0
G01 X18.97 Y59.16 F12000.0
G01 X18.94 Y59.02 F12000.0
G01 X19.72 Y59.18 F12000.0
G01 X20.31 Y58.58 F12000.0
G01 X20.49 Y58.29 F12000.0
G01 X20.62 Y58.32 F12000.0
G01 Y58.51 F12000.0
G01 Y59.71 F12000.0
G01 X20.73 Y59.78 F12000.0
G01 X21.7 Y60.38 F12000.0
G01 X21.74 Y60.39 F12000.0
G01 X22.74 Y60.71 F12000.0
G01 X23.42 Y60.5 F12000.0
G01 X23.71 Y60.01 F12000.0
G01 X23.56 Y59.51 F12000.0
G01 X22.94 Y59.26 F12000.0
G01 X22.15 Y59.43 F12000.0
G01 X21.58 Y59.79 F12000.0
G01 X21.48 Y59.69 F12000.0
G01 X22.09 Y59.3 F12000.0
G01 X22.94 Y59.11 F12000.0
G01 X23.37 Y59.21 F12000.0
G01 X23.66 Y59.41 F12000.0
G01 X23.85 Y60.01 F12000.0
G01 X23.53 Y60.59 F12000.0
G01 X23.19 Y60.78 F12000.0
G01 X22.74 Y60.85 F12000.0
G01 F12000.0
M5
G00 X22.29 Y62.43 F12000.0
M3 F12000.0
G01 X22.34 Y62.3 F12000.0
G01 X23.28 Y62.52 F12000.0
G01 X23.91 Y62.41 F12000.0
G01 X23.42 Y62.24 F12000.0
G01 X23.46 Y62.11 F12000.0
G01 X24.16 Y62.33 F12000.0
G01 Y62.47 F12000.0
G01 X23.47 Y62.65 F12000.0
G01 X22.94 Y62.63 F12000.0
G01 X22.29 Y62.43 F12000.0
G01 F12000.0
M5
G00 X20.48 Y58.58 F12000.0
M3 F12000.0
G01 X19.87 Y59.24 F12000.0
G01 X20.48 Y59.62 F12000.0
G01 Y59.6 F12000.0
G01 Y58.58 F12000.0
M5
G00 X22.29 Y55.38 F12000.0
M3 F12000.0
G01 X22.34 Y55.25 F12000.0
G01 X23.28 Y55.46 F12000.0
G01 X23.91 Y55.35 F12000.0
G01 X23.42 Y55.19 F12000.0
G01 X23.46 Y55.06 F12000.0
G01 X24.16 Y55.28 F12000.0
G01 Y55.42 F12000.0
G01 X23.47 Y55.59 F12000.0
G01 X22.94 Y55.58 F12000.0
G01 X22.29 Y55.38 F12000.0
G01 F12000.0
M5
G00 X22.74 Y53.8 F12000.0
M3 F12000.0
G01 X22.69 Y53.78 F12000.0
G01 X21.68 Y53.48 F12000.0
G01 X21.58 Y53.41 F12000.0
G01 X20.62 Y52.83 F12000.0
G01 Y52.92 F12000.0
G01 X20.63 Y54.01 F12000.0
G01 X20.64 Y54.77 F12000.0
G01 X21.42 Y54.98 F12000.0
G01 X21.38 Y55.11 F12000.0
G01 X20.63 Y54.91 F12000.0
G01 X20.54 Y55.48 F12000.0
G01 X20.23 Y56.07 F12000.0
G01 X20.12 Y55.98 F12000.0
G01 X20.4 Y55.44 F12000.0
G01 X20.49 Y54.89 F12000.0
G01 X19.77 Y54.83 F12000.0
G01 X19.16 Y54.98 F12000.0
G01 X19.09 Y54.85 F12000.0
G01 X19.74 Y54.69 F12000.0
G01 X20.49 Y54.75 F12000.0
G01 Y54.01 F12000.0
G01 Y53.87 F12000.0
G01 X20.48 Y52.73 F12000.0
G01 X19.66 Y52.24 F12000.0
G01 X18.97 Y52.1 F12000.0
G01 X18.94 Y51.96 F12000.0
G01 X19.72 Y52.12 F12000.0
G01 X20.31 Y51.53 F12000.0
G01 X20.49 Y51.23 F12000.0
G01 X20.62 Y51.26 F12000.0
G01 Y51.46 F12000.0
G01 Y52.65 F12000.0
G01 X20.73 Y52.72 F12000.0
G01 X21.7 Y53.33 F12000.0
G01 X21.74 Y53.34 F12000.0
G01 X22.74 Y53.65 F12000.0
G01 X23.42 Y53.44 F12000.0
G01 X23.71 Y52.95 F12000.0
G01 X23.56 Y52.45 F12000.0
G01 X22.94 Y52.2 F12000.0
G01 X22.15 Y52.37 F12000.0
G01 X21.58 Y52.74 F12000.0
G01 X21.48 Y52.64 F12000.0
G01 X22.09 Y52.25 F12000.0
G01 X22.94 Y52.06 F12000.0
G01 X23.37 Y52.15 F12000.0
G01 X23.66 Y52.36 F12000.0
G01 X23.85 Y52.95 F12000.0
G01 X23.53 Y53.54 F12000.0
G01 X23.19 Y53.73 F12000.0
G01 X22.74 Y53.8 F12000.0
G01 F12000.0
M5
G00 X20.48 Y51.52 F12000.0
M3 F12000.0
G01 X19.87 Y52.19 F12000.0
G01 X20.48 Y52.56 F12000.0
G01 Y52.54 F12000.0
G01 Y51.52 F12000.0
M5
G00 X20.79 Y48.64 F12000.0
M3 F12000.0
G01 X20.84 Y48.5 F12000.0
G01 X20.88 F12000.0
G01 X21.91 Y48.55 F12000.0
G01 X21.9 F12000.0
G01 F12000.0
G01 X21.93 Y48.69 F12000.0
G01 X21.91 F12000.0
G01 F12000.0
G01 X21.31 Y48.86 F12000.0
G01 X20.58 Y49.31 F12000.0
G01 X20.5 Y49.19 F12000.0
G01 X21.3 Y48.71 F12000.0
G01 X20.79 Y48.64 F12000.0
G01 F12000.0
M5
G00 X23.65 Y44.49 F12000.0
M3 F12000.0
G01 X22.97 Y44.31 F12000.0
G01 X22.47 Y44.41 F12000.0
G01 X22.13 Y44.68 F12000.0
G01 X21.93 Y44.98 F12000.0
G01 X21.56 Y45.58 F12000.0
G01 X21.29 Y45.83 F12000.0
G01 X20.98 Y45.89 F12000.0
G01 X21.24 Y46.24 F12000.0
G01 X22.11 Y47.39 F12000.0
G01 X22.29 Y47.73 F12000.0
G01 X22.13 Y47.74 F12000.0
G01 X22.06 Y47.72 F12000.0
G01 X21.04 Y47.4 F12000.0
G01 X20.6 Y47.43 F12000.0
G01 X20.26 Y47.6 F12000.0
G01 X20.17 Y47.49 F12000.0
G01 X20.55 Y47.3 F12000.0
G01 X21.02 Y47.26 F12000.0
G01 X21.12 Y47.29 F12000.0
G01 X22.18 Y47.61 F12000.0
G01 X21.98 Y47.36 F12000.0
G01 X21.35 Y46.58 F12000.0
G01 X20.72 Y45.8 F12000.0
G01 X19.88 Y44.77 F12000.0
G01 X19.5 Y44.29 F12000.0
G01 X19.61 Y44.21 F12000.0
G01 X20.0 Y44.69 F12000.0
G01 X20.05 Y44.75 F12000.0
G01 X20.74 Y45.6 F12000.0
G01 Y45.59 F12000.0
G01 X21.0 Y45.75 F12000.0
G01 X21.25 Y45.69 F12000.0
G01 X21.8 Y44.93 F12000.0
G01 X22.02 Y44.6 F12000.0
G01 X22.4 Y44.3 F12000.0
G01 X22.96 Y44.17 F12000.0
G01 X23.71 Y44.36 F12000.0
G01 X23.65 Y44.49 F12000.0
M5
G00 X23.45 Y33.5 F12000.0
M3 F12000.0
G01 X23.39 Y33.62 F12000.0
G01 X23.24 Y33.57 F12000.0
G01 X22.14 Y33.21 F12000.0
G01 X22.13 Y33.24 F12000.0
G01 X21.61 Y34.14 F12000.0
G01 X22.48 Y34.54 F12000.0
G01 X22.41 Y34.67 F12000.0
G01 X21.55 Y34.27 F12000.0
G01 X21.27 Y34.92 F12000.0
G01 X21.25 Y35.35 F12000.0
G01 X21.12 Y35.42 F12000.0
G01 X21.13 Y34.94 F12000.0
G01 X21.43 Y34.24 F12000.0
G01 X20.82 Y34.2 F12000.0
G01 X20.16 Y34.41 F12000.0
G01 X20.08 Y34.29 F12000.0
G01 X20.83 Y34.05 F12000.0
G01 X21.49 Y34.1 F12000.0
G01 X21.5 Y34.08 F12000.0
G01 X22.01 Y33.18 F12000.0
G01 X21.84 Y33.16 F12000.0
G01 X20.68 Y33.01 F12000.0
G01 X20.05 Y33.08 F12000.0
G01 X19.49 Y33.31 F12000.0
G01 X19.42 Y33.18 F12000.0
G01 X20.02 Y32.94 F12000.0
G01 X20.69 Y32.87 F12000.0
G01 X20.89 Y32.89 F12000.0
G01 X22.08 Y33.05 F12000.0
G01 X22.14 Y32.95 F12000.0
G01 X22.7 Y31.98 F12000.0
G01 X22.82 Y31.46 F12000.0
G01 X22.32 F12000.0
G01 X21.57 Y31.59 F12000.0
G01 X20.8 Y31.61 F12000.0
G01 X20.2 Y31.3 F12000.0
G01 X20.08 Y30.85 F12000.0
G01 X20.32 Y30.41 F12000.0
G01 X20.86 Y30.06 F12000.0
G01 X21.6 Y29.88 F12000.0
G01 X21.89 Y29.86 F12000.0
G01 X21.91 Y30.0 F12000.0
G01 X21.61 Y30.03 F12000.0
G01 X20.95 Y30.18 F12000.0
G01 X20.46 Y30.47 F12000.0
G01 X20.23 Y30.84 F12000.0
G01 X20.32 Y31.22 F12000.0
G01 X20.86 Y31.48 F12000.0
G01 X21.6 Y31.44 F12000.0
G01 X22.34 Y31.31 F12000.0
G01 X22.88 Y31.33 F12000.0
G01 X22.96 Y31.53 F12000.0
G01 X22.84 Y31.93 F12000.0
G01 X22.77 Y32.07 F12000.0
G01 X22.21 Y33.09 F12000.0
G01 X22.36 Y33.13 F12000.0
G01 X23.45 Y33.5 F12000.0
G01 F12000.0
M5
G00 X23.99 Y24.47 F12000.0
M3 F12000.0
G01 X23.94 Y24.49 F12000.0
G01 X23.0 Y24.98 F12000.0
G01 X23.24 Y25.68 F12000.0
G01 X23.28 Y26.22 F12000.0
G01 X23.14 Y26.2 F12000.0
G01 X23.12 Y26.1 F12000.0
G01 X22.89 Y25.02 F12000.0
G01 X22.09 Y25.23 F12000.0
G01 X21.98 Y25.25 F12000.0
G01 X20.88 Y25.36 F12000.0
G01 X20.95 Y25.51 F12000.0
G01 X21.37 Y26.42 F12000.0
G01 X21.86 Y27.47 F12000.0
G01 X21.96 Y27.81 F12000.0
G01 X21.81 Y27.8 F12000.0
G01 X20.91 Y27.67 F12000.0
G01 X20.27 Y27.71 F12000.0
G01 X19.77 Y27.91 F12000.0
G01 X19.69 Y27.8 F12000.0
G01 X20.22 Y27.58 F12000.0
G01 X20.9 Y27.53 F12000.0
G01 X21.88 Y27.67 F12000.0
G01 X21.75 Y27.41 F12000.0
G01 X21.29 Y26.51 F12000.0
G01 X20.7 Y25.36 F12000.0
G01 X19.83 Y25.2 F12000.0
G01 X19.21 Y24.68 F12000.0
G01 X19.1 Y24.15 F12000.0
G01 X19.4 Y23.8 F12000.0
G01 X19.88 Y23.77 F12000.0
G01 X20.32 Y24.2 F12000.0
G01 X20.35 Y24.26 F12000.0
G01 X20.8 Y25.22 F12000.0
G01 X20.94 Y25.21 F12000.0
G01 X22.07 Y25.09 F12000.0
G01 X22.83 Y24.89 F12000.0
G01 X22.73 Y24.72 F12000.0
G01 X22.12 Y23.69 F12000.0
G01 X22.0 Y23.58 F12000.0
G01 X21.17 Y22.79 F12000.0
G01 X21.24 Y22.66 F12000.0
G01 X21.37 Y22.78 F12000.0
G01 X22.22 Y23.6 F12000.0
G01 X22.33 Y23.79 F12000.0
G01 X22.96 Y24.85 F12000.0
G01 X22.99 Y24.83 F12000.0
G01 X23.9 Y24.35 F12000.0
G01 X23.99 Y24.47 F12000.0
M5
G00 X20.19 Y24.25 F12000.0
M3 F12000.0
G01 X19.84 Y23.9 F12000.0
G01 X19.46 Y23.92 F12000.0
G01 X19.23 Y24.18 F12000.0
G01 X19.32 Y24.6 F12000.0
G01 X19.87 Y25.06 F12000.0
G01 X20.64 Y25.22 F12000.0
G01 X20.63 Y25.19 F12000.0
G01 X20.19 Y24.25 F12000.0
M5
G00 X22.29 Y20.1 F12000.0
M3 F12000.0
G01 X22.34 Y19.97 F12000.0
G01 X23.28 Y20.18 F12000.0
G01 X23.91 Y20.08 F12000.0
G01 X23.42 Y19.91 F12000.0
G01 X23.46 Y19.78 F12000.0
G01 X24.16 Y20.0 F12000.0
G01 Y20.14 F12000.0
G01 X23.47 Y20.32 F12000.0
G01 X22.94 Y20.3 F12000.0
G01 X22.29 Y20.1 F12000.0
G01 F12000.0
M5
G00 X22.74 Y18.52 F12000.0
M3 F12000.0
G01 X22.69 Y18.5 F12000.0
G01 X21.68 Y18.2 F12000.0
G01 X21.58 Y18.14 F12000.0
G01 X20.62 Y17.55 F12000.0
G01 Y17.64 F12000.0
G01 X20.63 Y18.74 F12000.0
G01 X20.64 Y19.49 F12000.0
G01 X21.42 Y19.7 F12000.0
G01 X21.38 Y19.84 F12000.0
G01 X20.63 Y19.63 F12000.0
G01 X20.54 Y20.2 F12000.0
G01 X20.23 Y20.79 F12000.0
G01 X20.12 Y20.7 F12000.0
G01 X20.4 Y20.16 F12000.0
G01 X20.49 Y19.61 F12000.0
G01 X19.77 Y19.55 F12000.0
G01 X19.16 Y19.7 F12000.0
G01 X19.09 Y19.57 F12000.0
G01 X19.74 Y19.41 F12000.0
G01 X20.49 Y19.47 F12000.0
G01 Y18.74 F12000.0
G01 Y18.59 F12000.0
G01 X20.48 Y17.45 F12000.0
G01 X19.66 Y16.97 F12000.0
G01 X18.97 Y16.82 F12000.0
G01 X18.94 Y16.68 F12000.0
G01 X19.72 Y16.84 F12000.0
G01 X20.31 Y16.25 F12000.0
G01 X20.49 Y15.96 F12000.0
G01 X20.62 Y15.98 F12000.0
G01 Y16.18 F12000.0
G01 Y17.37 F12000.0
G01 X20.73 Y17.44 F12000.0
G01 X21.7 Y18.05 F12000.0
G01 X21.74 Y18.06 F12000.0
G01 X22.74 Y18.38 F12000.0
G01 X23.42 Y18.16 F12000.0
G01 X23.71 Y17.67 F12000.0
G01 X23.56 Y17.17 F12000.0
G01 X22.94 Y16.92 F12000.0
G01 X22.15 Y17.09 F12000.0
G01 X21.58 Y17.46 F12000.0
G01 X21.48 Y17.36 F12000.0
G01 X22.09 Y16.97 F12000.0
G01 X22.94 Y16.78 F12000.0
G01 X23.37 Y16.87 F12000.0
G01 X23.66 Y17.08 F12000.0
G01 X23.85 Y17.68 F12000.0
G01 X23.53 Y18.26 F12000.0
G01 X23.19 Y18.45 F12000.0
G01 X22.74 Y18.52 F12000.0
G01 F12000.0
M5
G00 X20.48 Y16.25 F12000.0
M3 F12000.0
G01 X19.87 Y16.91 F12000.0
G01 X20.48 Y17.28 F12000.0
G01 Y17.26 F12000.0
G01 Y16.25 F12000.0
M5
G00 X72.89 Y96.05 F12000.0
M3 F12000.0
G01 X72.96 Y96.8 F12000.0
G01 X73.23 Y97.51 F12000.0
G01 X73.38 Y97.71 F12000.0
G01 X74.14 Y98.72 F12000.0
G01 X74.27 Y98.84 F12000.0
G01 X75.17 Y99.6 F12000.0
G01 X75.91 Y100.07 F12000.0
G01 X76.08 Y100.18 F12000.0
G01 X75.96 Y100.32 F12000.0
G01 X75.89 Y100.29 F12000.0
G01 X75.62 Y100.21 F12000.0
G01 X74.38 Y99.87 F12000.0
G01 X74.11 Y99.83 F12000.0
G01 X73.12 Y99.66 F12000.0
G01 X71.87 Y99.44 F12000.0
G01 X71.8 Y99.43 F12000.0
G01 X70.73 Y99.41 F12000.0
G01 X69.88 Y99.6 F12000.0
G01 X69.8 Y99.42 F12000.0
G01 X70.69 Y99.22 F12000.0
G01 X70.77 F12000.0
G01 X71.86 Y99.24 F12000.0
G01 X72.16 Y99.29 F12000.0
G01 X73.14 Y99.46 F12000.0
G01 X74.42 Y99.68 F12000.0
G01 X75.22 Y99.87 F12000.0
G01 X75.2 Y99.86 F12000.0
G01 X74.39 Y99.22 F12000.0
G01 X74.31 Y99.14 F12000.0
G01 X73.55 Y98.34 F12000.0
G01 X73.48 Y98.23 F12000.0
G01 X72.91 Y97.26 F12000.0
G01 X72.89 Y97.14 F12000.0
G01 X72.69 Y96.03 F12000.0
G01 X72.8 Y95.44 F12000.0
G01 X73.04 Y94.96 F12000.0
G01 X73.05 Y94.95 F12000.0
G01 X73.78 Y94.25 F12000.0
G01 X74.65 Y93.85 F12000.0
G01 X75.39 Y93.66 F12000.0
G01 X75.43 Y93.86 F12000.0
G01 X74.71 Y94.04 F12000.0
G01 X73.9 Y94.41 F12000.0
G01 X73.21 Y95.06 F12000.0
G01 X72.99 Y95.51 F12000.0
G01 X72.89 Y96.05 F12000.0
G01 F12000.0
M5
G00 X74.89 Y97.8 F12000.0
M3 F12000.0
G01 X75.09 Y97.72 F12000.0
G01 X76.2 Y97.24 F12000.0
G01 X76.32 Y97.4 F12000.0
G01 X76.08 Y97.5 F12000.0
G01 X74.94 Y98.0 F12000.0
G01 X74.89 Y97.8 F12000.0
M5
G00 X75.46 Y98.74 F12000.0
M3 F12000.0
G01 X75.42 Y98.54 F12000.0
G01 X75.61 Y98.46 F12000.0
G01 X76.71 Y97.99 F12000.0
G01 X76.83 Y98.15 F12000.0
G01 X76.6 Y98.24 F12000.0
G01 X75.46 Y98.74 F12000.0
G01 F12000.0
M5
;END perimeter

G00 X0 Y0

M5 ;Deactivate laser and set power to 0 (CUSTOM)
G1 X0 Y140
M02	;End of program
