
;Inkscape Lasertools G-code
;https://github.com/ChrisWag91/Inkscape-Lasertools-Plugin

G90	;Absolute programming
G21	;Programming in millimeters (mm)
M5
M03 S1 ;Activate laser and set power to 0 (CUSTOM)

; START infill strategy
G01 F6000.0
G00 X6.43 Y19.42 F6000.0
M3
G01 Y19.08 F6000.0
M5
G00 X6.53 Y19.26 F6000.0
M3
G01 Y19.77 F6000.0
M5
G00 X6.73 Y19.73 F6000.0
M3
G01 Y20.36 F6000.0
M5
G00 X6.93 Y20.24 F6000.0
M3
G01 Y20.91 F6000.0
M5
G00 X7.13 Y20.76 F6000.0
M3
G01 Y21.46 F6000.0
M5
G00 X7.33 Y21.43 F6000.0
M3
G01 Y22.0 F6000.0
M5
G00 X7.53 Y22.09 F6000.0
M3
G01 Y22.74 F6000.0
M5
G00 X7.73 Y22.75 F6000.0
M3
G01 Y23.48 F6000.0
M5
G00 X7.93 Y23.42 F6000.0
M3
G01 Y24.47 F6000.0
M5
G00 X8.13 Y24.25 F6000.0
M3
G01 Y25.74 F6000.0
M5
G00 X8.23 Y25.4 F6000.0
M3
G01 Y27.04 F6000.0
M5
G00 X8.33 Y26.56 F6000.0
M3
G01 Y28.33 F6000.0
M5
G00 X8.43 Y27.71 F6000.0
M3
G01 Y29.37 F6000.0
M5
G00 X8.53 Y29.34 F6000.0
M3
G01 Y30.41 F6000.0
M5
G00 X8.63 Y30.34 F6000.0
M3
G01 Y31.45 F6000.0
M5
G00 X8.83 Y31.51 F6000.0
M3
G01 Y31.97 F6000.0
M5
G00 X8.93 Y31.83 F6000.0
M3
G01 Y32.21 F6000.0
M5
G00 X9.03 Y32.14 F6000.0
M3
G01 Y32.46 F6000.0
M5
G00 X9.13 Y32.46 F6000.0
M3
G01 Y32.7 F6000.0
M5
G00 X9.23 Y32.72 F6000.0
M3
G01 Y32.94 F6000.0
M5
G00 X9.33 Y32.93 F6000.0
M3
G01 Y33.18 F6000.0
M5
G00 X9.43 Y33.15 F6000.0
M3
G01 Y33.43 F6000.0
M5
G00 X9.53 Y33.36 F6000.0
M3
G01 Y33.67 F6000.0
M5
G00 X9.63 Y33.58 F6000.0
M3
G01 Y33.91 F6000.0
M5
G00 X9.73 Y33.8 F6000.0
M3
G01 Y34.13 F6000.0
M5
G00 X9.83 Y34.01 F6000.0
M3
G01 Y34.33 F6000.0
M5
G00 X9.93 Y34.24 F6000.0
M3
G01 Y34.54 F6000.0
M5
G00 X10.03 Y34.46 F6000.0
M3
G01 Y34.74 F6000.0
M5
G00 X10.13 Y34.68 F6000.0
M3
G01 Y34.95 F6000.0
M5
G00 X10.23 Y34.91 F6000.0
M3
G01 Y35.15 F6000.0
M5
G00 X10.33 Y35.13 F6000.0
M3
G01 Y35.32 F6000.0
M5
G00 X10.43 Y35.35 F6000.0
M3
G01 Y35.46 F6000.0
M5
G00 X10.83 Y35.84 F6000.0
M3
G01 Y32.24 F6000.0
M5
G00 X10.93 Y32.16 F6000.0
M3
G01 Y40.64 F6000.0
M5
G00 X11.33 Y40.78 F6000.0
M3
G01 Y41.88 F6000.0
M5
G00 X11.43 Y42.03 F6000.0
M3
G01 Y41.2 F6000.0
M5
G00 X11.73 Y41.14 F6000.0
M3
G01 Y39.95 F6000.0
M5
G00 X11.83 Y39.9 F6000.0
M3
G01 Y41.37 F6000.0
M5
G00 X11.93 Y41.59 F6000.0
M3
G01 Y40.68 F6000.0
M5
G00 X12.03 Y40.95 F6000.0
M3
G01 Y41.82 F6000.0
M5
G00 X12.13 Y41.96 F6000.0
M3
G01 Y41.21 F6000.0
M5
G00 X12.23 Y41.48 F6000.0
M3
G01 Y42.06 F6000.0
M5
G00 X12.33 Y42.15 F6000.0
M3
G01 Y41.63 F6000.0
M5
G00 X12.43 Y41.75 F6000.0
M3
G01 Y42.25 F6000.0
M5
G00 X12.53 Y42.35 F6000.0
M3
G01 Y41.87 F6000.0
M5
G00 X12.63 Y41.99 F6000.0
M3
G01 Y42.44 F6000.0
M5
G00 X12.73 Y42.54 F6000.0
M3
G01 Y42.11 F6000.0
M5
G00 X12.83 Y42.22 F6000.0
M3
G01 Y42.63 F6000.0
M5
G00 X12.93 Y42.73 F6000.0
M3
G01 Y42.34 F6000.0
M5
G00 X13.03 Y42.46 F6000.0
M3
G01 Y42.83 F6000.0
M5
G00 X13.13 Y42.88 F6000.0
M3
G01 Y42.58 F6000.0
M5
G00 X13.23 Y42.68 F6000.0
M3
G01 Y42.92 F6000.0
M5
G00 X13.33 Y42.96 F6000.0
M3
G01 Y42.75 F6000.0
M5
G00 X13.43 Y42.83 F6000.0
M3
G01 Y43.0 F6000.0
M5
G00 X13.53 Y43.04 F6000.0
M3
G01 Y42.91 F6000.0
M5
G00 X13.83 Y43.01 F6000.0
M3
G01 Y43.15 F6000.0
M5
G00 X13.93 Y43.16 F6000.0
M3
G01 Y42.99 F6000.0
M5
G00 X14.03 Y42.97 F6000.0
M3
G01 Y43.14 F6000.0
M5
G00 X14.13 Y43.12 F6000.0
M3
G01 Y42.95 F6000.0
M5
G00 X14.23 Y42.91 F6000.0
M3
G01 Y43.11 F6000.0
M5
G00 X14.33 Y43.09 F6000.0
M3
G01 Y42.87 F6000.0
M5
G00 X14.43 Y42.83 F6000.0
M3
G01 Y43.07 F6000.0
M5
G00 X14.53 Y43.05 F6000.0
M3
G01 Y42.79 F6000.0
M5
G00 X14.63 Y42.75 F6000.0
M3
G01 Y43.03 F6000.0
M5
G00 X14.73 Y43.01 F6000.0
M3
G01 Y42.71 F6000.0
M5
G00 X14.83 Y42.67 F6000.0
M3
G01 Y42.97 F6000.0
M5
G00 X14.93 Y42.93 F6000.0
M3
G01 Y42.63 F6000.0
M5
G00 X15.03 Y42.59 F6000.0
M3
G01 Y42.89 F6000.0
M5
G00 X15.13 Y42.85 F6000.0
M3
G01 Y42.55 F6000.0
M5
G00 X15.23 Y42.51 F6000.0
M3
G01 Y42.81 F6000.0
M5
G00 X15.33 Y42.77 F6000.0
M3
G01 Y42.47 F6000.0
M5
G00 X15.43 Y42.43 F6000.0
M3
G01 Y42.73 F6000.0
M5
G00 X15.53 Y42.7 F6000.0
M3
G01 Y42.39 F6000.0
M5
G00 X15.63 Y42.34 F6000.0
M3
G01 Y42.66 F6000.0
M5
G00 X15.73 Y42.62 F6000.0
M3
G01 Y42.29 F6000.0
M5
G00 X15.83 Y42.25 F6000.0
M3
G01 Y42.58 F6000.0
M5
G00 X15.93 Y42.54 F6000.0
M3
G01 Y42.2 F6000.0
M5
G00 X16.03 Y42.15 F6000.0
M3
G01 Y42.5 F6000.0
M5
G00 X16.13 Y42.45 F6000.0
M3
G01 Y42.1 F6000.0
M5
G00 X16.23 Y42.05 F6000.0
M3
G01 Y42.4 F6000.0
M5
G00 X16.33 Y42.36 F6000.0
M3
G01 Y42.01 F6000.0
M5
G00 X16.43 Y41.96 F6000.0
M3
G01 Y42.31 F6000.0
M5
G00 X16.53 Y42.27 F6000.0
M3
G01 Y41.91 F6000.0
M5
G00 X16.53 Y41.71 F6000.0
M3
G01 Y40.94 F6000.0
M5
G00 X16.63 Y41.14 F6000.0
M3
G01 Y42.22 F6000.0
M5
G00 X16.73 Y42.18 F6000.0
M3
G01 Y41.29 F6000.0
M5
G00 X16.83 Y41.58 F6000.0
M3
G01 Y41.99 F6000.0
M5
G00 X16.43 Y41.44 F6000.0
M3
G01 Y40.66 F6000.0
M5
G00 X16.13 Y40.65 F6000.0
M3
G01 Y39.82 F6000.0
M5
G00 X16.03 Y39.68 F6000.0
M3
G01 Y40.39 F6000.0
M5
G00 X16.33 Y40.38 F6000.0
M3
G01 Y41.17 F6000.0
M5
G00 X16.23 Y40.91 F6000.0
M3
G01 Y40.1 F6000.0
M5
G00 X15.93 Y40.18 F6000.0
M3
G01 Y39.67 F6000.0
M5
G00 X15.83 Y39.66 F6000.0
M3
G01 Y40.01 F6000.0
M5
G00 X15.73 Y39.84 F6000.0
M3
G01 Y39.65 F6000.0
M5
G00 X15.63 Y39.64 F6000.0
M3
G01 Y39.8 F6000.0
M5
G00 X15.53 Y39.76 F6000.0
M3
G01 Y39.63 F6000.0
M5
G00 X15.33 Y39.62 F6000.0
M3
G01 Y39.73 F6000.0
M5
G00 X15.23 Y39.74 F6000.0
M3
G01 Y39.61 F6000.0
M5
G00 X15.13 Y39.61 F6000.0
M3
G01 Y39.76 F6000.0
M5
G00 X15.03 Y39.77 F6000.0
M3
G01 Y39.62 F6000.0
M5
G00 X14.93 Y39.62 F6000.0
M3
G01 Y39.78 F6000.0
M5
G00 X14.83 Y39.8 F6000.0
M3
G01 Y39.63 F6000.0
M5
G00 X14.73 Y39.63 F6000.0
M3
G01 Y39.81 F6000.0
M5
G00 X14.63 Y39.82 F6000.0
M3
G01 Y39.64 F6000.0
M5
G00 X14.53 Y39.64 F6000.0
M3
G01 Y39.83 F6000.0
M5
G00 X14.43 Y39.84 F6000.0
M3
G01 Y39.65 F6000.0
M5
G00 X14.33 Y39.66 F6000.0
M3
G01 Y39.86 F6000.0
M5
G00 X14.23 Y39.87 F6000.0
M3
G01 Y39.66 F6000.0
M5
G00 X14.13 Y39.67 F6000.0
M3
G01 Y39.88 F6000.0
M5
G00 X14.03 Y39.89 F6000.0
M3
G01 Y39.67 F6000.0
M5
G00 X13.93 Y39.68 F6000.0
M3
G01 Y39.9 F6000.0
M5
G00 X13.83 Y39.92 F6000.0
M3
G01 Y39.68 F6000.0
M5
G00 X13.73 Y39.69 F6000.0
M3
G01 Y39.93 F6000.0
M5
G00 X13.63 Y39.94 F6000.0
M3
G01 Y39.7 F6000.0
M5
G00 X13.53 Y39.7 F6000.0
M3
G01 Y39.95 F6000.0
M5
G00 X13.43 Y39.96 F6000.0
M3
G01 Y39.7 F6000.0
M5
G00 X13.33 Y39.71 F6000.0
M3
G01 Y39.97 F6000.0
M5
G00 X13.23 Y39.98 F6000.0
M3
G01 Y39.71 F6000.0
M5
G00 X13.13 Y39.71 F6000.0
M3
G01 Y39.99 F6000.0
M5
G00 X13.03 Y40.01 F6000.0
M3
G01 Y39.72 F6000.0
M5
G00 X12.93 Y39.72 F6000.0
M3
G01 Y40.02 F6000.0
M5
G00 X12.83 Y40.03 F6000.0
M3
G01 Y39.72 F6000.0
M5
G00 X12.73 Y39.73 F6000.0
M3
G01 Y40.04 F6000.0
M5
G00 X12.63 Y40.05 F6000.0
M3
G01 Y39.73 F6000.0
M5
G00 X12.53 Y39.73 F6000.0
M3
G01 Y40.06 F6000.0
M5
G00 X12.43 Y40.07 F6000.0
M3
G01 Y39.73 F6000.0
M5
G00 X12.33 Y39.74 F6000.0
M3
G01 Y40.08 F6000.0
M5
G00 X12.23 Y40.09 F6000.0
M3
G01 Y39.77 F6000.0
M5
G00 X12.13 Y39.8 F6000.0
M3
G01 Y40.1 F6000.0
M5
G00 X12.03 Y40.11 F6000.0
M3
G01 Y39.84 F6000.0
M5
G00 X11.93 Y39.87 F6000.0
M3
G01 Y40.12 F6000.0
M5
G00 X11.63 Y40.08 F6000.0
M3
G01 Y40.92 F6000.0
M5
G00 X11.53 Y40.49 F6000.0
M3
G01 Y40.21 F6000.0
M5
G00 X11.33 Y39.76 F6000.0
M3
G01 Y37.63 F6000.0
M5
G00 X11.43 Y37.54 F6000.0
M3
G01 Y39.16 F6000.0
M5
G00 X11.53 Y38.88 F6000.0
M3
G01 Y37.44 F6000.0
M5
G00 X11.63 Y37.35 F6000.0
M3
G01 Y38.64 F6000.0
M5
G00 X11.73 Y38.52 F6000.0
M3
G01 Y37.26 F6000.0
M5
G00 X11.83 Y37.16 F6000.0
M3
G01 Y38.4 F6000.0
M5
G00 X11.93 Y38.28 F6000.0
M3
G01 Y37.07 F6000.0
M5
G00 X12.03 Y36.98 F6000.0
M3
G01 Y38.17 F6000.0
M5
G00 X12.13 Y38.05 F6000.0
M3
G01 Y36.89 F6000.0
M5
G00 X12.23 Y36.82 F6000.0
M3
G01 Y37.93 F6000.0
M5
G00 X12.33 Y37.81 F6000.0
M3
G01 Y36.75 F6000.0
M5
G00 X12.43 Y36.67 F6000.0
M3
G01 Y37.7 F6000.0
M5
G00 X12.53 Y37.61 F6000.0
M3
G01 Y36.6 F6000.0
M5
G00 X12.63 Y36.53 F6000.0
M3
G01 Y37.52 F6000.0
M5
G00 X12.73 Y37.43 F6000.0
M3
G01 Y36.46 F6000.0
M5
G00 X12.83 Y36.38 F6000.0
M3
G01 Y37.35 F6000.0
M5
G00 X12.93 Y37.26 F6000.0
M3
G01 Y36.31 F6000.0
M5
G00 X13.03 Y36.24 F6000.0
M3
G01 Y37.17 F6000.0
M5
G00 X13.13 Y37.08 F6000.0
M3
G01 Y36.17 F6000.0
M5
G00 X13.23 Y36.09 F6000.0
M3
G01 Y36.99 F6000.0
M5
G00 X13.33 Y36.91 F6000.0
M3
G01 Y36.02 F6000.0
M5
G00 X13.43 Y35.95 F6000.0
M3
G01 Y36.84 F6000.0
M5
G00 X13.53 Y36.78 F6000.0
M3
G01 Y35.88 F6000.0
M5
G00 X13.63 Y35.8 F6000.0
M3
G01 Y36.72 F6000.0
M5
G00 X13.73 Y36.65 F6000.0
M3
G01 Y35.73 F6000.0
M5
G00 X13.83 Y35.68 F6000.0
M3
G01 Y36.6 F6000.0
M5
G00 X13.93 Y36.55 F6000.0
M3
G01 Y35.64 F6000.0
M5
G00 X14.03 Y35.6 F6000.0
M3
G01 Y36.5 F6000.0
M5
G00 X14.13 Y36.45 F6000.0
M3
G01 Y35.57 F6000.0
M5
G00 X14.23 Y35.53 F6000.0
M3
G01 Y36.4 F6000.0
M5
G00 X14.33 Y36.35 F6000.0
M3
G01 Y35.49 F6000.0
M5
G00 X14.43 Y35.45 F6000.0
M3
G01 Y36.29 F6000.0
M5
G00 X14.53 Y36.24 F6000.0
M3
G01 Y35.41 F6000.0
M5
G00 X14.63 Y35.38 F6000.0
M3
G01 Y36.19 F6000.0
M5
G00 X14.73 Y36.14 F6000.0
M3
G01 Y35.34 F6000.0
M5
G00 X14.83 Y35.3 F6000.0
M3
G01 Y36.09 F6000.0
M5
G00 X14.93 Y36.04 F6000.0
M3
G01 Y35.26 F6000.0
M5
G00 X15.03 Y35.22 F6000.0
M3
G01 Y35.99 F6000.0
M5
G00 X15.13 Y35.95 F6000.0
M3
G01 Y35.19 F6000.0
M5
G00 X15.23 Y35.15 F6000.0
M3
G01 Y35.92 F6000.0
M5
G00 X15.33 Y35.88 F6000.0
M3
G01 Y35.11 F6000.0
M5
G00 X15.43 Y35.07 F6000.0
M3
G01 Y35.85 F6000.0
M5
G00 X15.53 Y35.81 F6000.0
M3
G01 Y35.04 F6000.0
M5
G00 X15.63 Y35.01 F6000.0
M3
G01 Y35.78 F6000.0
M5
G00 X15.73 Y35.75 F6000.0
M3
G01 Y34.99 F6000.0
M5
G00 X15.83 Y34.96 F6000.0
M3
G01 Y35.71 F6000.0
M5
G00 X15.93 Y35.68 F6000.0
M3
G01 Y34.94 F6000.0
M5
G00 X16.03 Y34.91 F6000.0
M3
G01 Y35.64 F6000.0
M5
G00 X16.13 Y35.61 F6000.0
M3
G01 Y34.89 F6000.0
M5
G00 X16.23 Y34.87 F6000.0
M3
G01 Y35.58 F6000.0
M5
G00 X16.33 Y35.54 F6000.0
M3
G01 Y34.84 F6000.0
M5
G00 X16.43 Y34.82 F6000.0
M3
G01 Y35.51 F6000.0
M5
G00 X16.53 Y35.47 F6000.0
M3
G01 Y34.79 F6000.0
M5
G00 X16.63 Y34.77 F6000.0
M3
G01 Y35.44 F6000.0
M5
G00 X16.73 Y35.41 F6000.0
M3
G01 Y34.75 F6000.0
M5
G00 X16.83 Y34.72 F6000.0
M3
G01 Y35.37 F6000.0
M5
G00 X16.93 Y35.34 F6000.0
M3
G01 Y34.7 F6000.0
M5
G00 X17.03 Y34.67 F6000.0
M3
G01 Y35.31 F6000.0
M5
G00 X17.13 Y35.29 F6000.0
M3
G01 Y34.65 F6000.0
M5
G00 X17.23 Y34.63 F6000.0
M3
G01 Y35.27 F6000.0
M5
G00 X17.33 Y35.24 F6000.0
M3
G01 Y34.6 F6000.0
M5
G00 X17.43 Y34.58 F6000.0
M3
G01 Y35.22 F6000.0
M5
G00 X17.53 Y35.2 F6000.0
M3
G01 Y34.56 F6000.0
M5
G00 X17.63 Y34.53 F6000.0
M3
G01 Y35.17 F6000.0
M5
G00 X17.73 Y35.15 F6000.0
M3
G01 Y34.45 F6000.0
M5
G00 X17.83 Y34.37 F6000.0
M3
G01 Y35.12 F6000.0
M5
G00 X17.93 Y35.1 F6000.0
M3
G01 Y32.92 F6000.0
M5
G00 X17.63 Y32.93 F6000.0
M3
G01 Y31.49 F6000.0
M5
G00 X17.43 Y31.74 F6000.0
M3
G01 Y29.01 F6000.0
M5
G00 X17.93 Y29.39 F6000.0
M3
G01 Y26.84 F6000.0
M5
G00 X17.73 Y27.16 F6000.0
M3
G01 Y23.65 F6000.0
M5
G00 X17.43 Y23.8 F6000.0
M3
G01 Y20.52 F6000.0
M5
G00 X17.13 Y20.41 F6000.0
M3
G01 Y19.17 F6000.0
M5
G00 X17.03 Y18.94 F6000.0
M3
G01 Y19.87 F6000.0
M5
G00 X17.33 Y19.98 F6000.0
M3
G01 Y22.49 F6000.0
M5
G00 X17.63 Y22.05 F6000.0
M3
G01 Y26.04 F6000.0
M5
G00 X17.23 Y26.39 F6000.0
M3
G01 Y30.83 F6000.0
M5
G00 X17.13 Y30.63 F6000.0
M3
G01 Y24.95 F6000.0
M5
G00 X17.53 Y24.92 F6000.0
M3
G01 Y21.07 F6000.0
M5
G00 X17.23 Y21.19 F6000.0
M3
G01 Y19.43 F6000.0
M5
G00 X16.93 Y19.32 F6000.0
M3
G01 Y18.71 F6000.0
M5
G00 X16.83 Y18.78 F6000.0
M3
G01 Y18.54 F6000.0
M5
G00 X16.33 Y19.57 F6000.0
M3
G01 Y19.87 F6000.0
M5
G00 X16.43 Y19.73 F6000.0
M3
G01 Y20.51 F6000.0
M5
G00 X16.73 Y20.64 F6000.0
M3
G01 Y22.88 F6000.0
M5
G00 X17.03 Y23.52 F6000.0
M3
G01 Y28.18 F6000.0
M5
G00 X17.33 Y27.7 F6000.0
M3
G01 Y31.21 F6000.0
M5
G00 X17.03 Y30.63 F6000.0
M3
G01 Y29.81 F6000.0
M5
G00 X16.93 Y29.84 F6000.0
M3
G01 Y30.63 F6000.0
M5
G00 X16.83 Y30.63 F6000.0
M3
G01 Y29.87 F6000.0
M5
G00 X16.73 Y29.89 F6000.0
M3
G01 Y30.63 F6000.0
M5
G00 X16.63 Y30.65 F6000.0
M3
G01 Y29.92 F6000.0
M5
G00 X16.53 Y29.95 F6000.0
M3
G01 Y30.68 F6000.0
M5
G00 X16.43 Y30.71 F6000.0
M3
G01 Y29.98 F6000.0
M5
G00 X16.33 Y30.01 F6000.0
M3
G01 Y30.74 F6000.0
M5
G00 X16.23 Y30.77 F6000.0
M3
G01 Y30.04 F6000.0
M5
G00 X16.13 Y30.07 F6000.0
M3
G01 Y30.8 F6000.0
M5
G00 X16.03 Y30.83 F6000.0
M3
G01 Y30.1 F6000.0
M5
G00 X15.93 Y30.12 F6000.0
M3
G01 Y30.86 F6000.0
M5
G00 X15.83 Y30.89 F6000.0
M3
G01 Y30.15 F6000.0
M5
G00 X15.73 Y30.18 F6000.0
M3
G01 Y30.92 F6000.0
M5
G00 X15.63 Y30.95 F6000.0
M3
G01 Y30.21 F6000.0
M5
G00 X15.53 Y30.24 F6000.0
M3
G01 Y30.98 F6000.0
M5
G00 X15.43 Y31.01 F6000.0
M3
G01 Y30.27 F6000.0
M5
G00 X15.33 Y30.3 F6000.0
M3
G01 Y31.05 F6000.0
M5
G00 X15.23 Y31.09 F6000.0
M3
G01 Y30.33 F6000.0
M5
G00 X15.13 Y30.36 F6000.0
M3
G01 Y31.13 F6000.0
M5
G00 X15.03 Y31.16 F6000.0
M3
G01 Y30.39 F6000.0
M5
G00 X14.93 Y30.42 F6000.0
M3
G01 Y31.2 F6000.0
M5
G00 X14.83 Y31.24 F6000.0
M3
G01 Y30.46 F6000.0
M5
G00 X14.73 Y30.49 F6000.0
M3
G01 Y31.28 F6000.0
M5
G00 X14.63 Y31.32 F6000.0
M3
G01 Y30.53 F6000.0
M5
G00 X14.53 Y30.56 F6000.0
M3
G01 Y31.36 F6000.0
M5
G00 X14.43 Y31.4 F6000.0
M3
G01 Y30.6 F6000.0
M5
G00 X14.33 Y30.63 F6000.0
M3
G01 Y31.44 F6000.0
M5
G00 X14.23 Y31.48 F6000.0
M3
G01 Y30.67 F6000.0
M5
G00 X14.13 Y30.7 F6000.0
M3
G01 Y31.51 F6000.0
M5
G00 X14.03 Y31.55 F6000.0
M3
G01 Y30.73 F6000.0
M5
G00 X13.93 Y30.77 F6000.0
M3
G01 Y31.59 F6000.0
M5
G00 X13.83 Y31.63 F6000.0
M3
G01 Y30.8 F6000.0
M5
G00 X13.73 Y30.84 F6000.0
M3
G01 Y31.67 F6000.0
M5
G00 X13.63 Y31.71 F6000.0
M3
G01 Y30.87 F6000.0
M5
G00 X13.53 Y30.91 F6000.0
M3
G01 Y31.75 F6000.0
M5
G00 X13.43 Y31.79 F6000.0
M3
G01 Y30.94 F6000.0
M5
G00 X13.33 Y30.98 F6000.0
M3
G01 Y31.83 F6000.0
M5
G00 X13.23 Y31.87 F6000.0
M3
G01 Y31.01 F6000.0
M5
G00 X13.13 Y31.05 F6000.0
M3
G01 Y31.9 F6000.0
M5
G00 X13.03 Y31.94 F6000.0
M3
G01 Y31.08 F6000.0
M5
G00 X12.93 Y31.12 F6000.0
M3
G01 Y31.98 F6000.0
M5
G00 X12.83 Y32.02 F6000.0
M3
G01 Y31.15 F6000.0
M5
G00 X12.73 Y31.19 F6000.0
M3
G01 Y32.06 F6000.0
M5
G00 X12.63 Y32.1 F6000.0
M3
G01 Y31.22 F6000.0
M5
G00 X12.53 Y31.26 F6000.0
M3
G01 Y32.14 F6000.0
M5
G00 X12.43 Y32.19 F6000.0
M3
G01 Y31.29 F6000.0
M5
G00 X12.33 Y31.33 F6000.0
M3
G01 Y32.24 F6000.0
M5
G00 X12.23 Y32.29 F6000.0
M3
G01 Y31.36 F6000.0
M5
G00 X12.13 Y31.41 F6000.0
M3
G01 Y32.34 F6000.0
M5
G00 X12.03 Y32.39 F6000.0
M3
G01 Y31.47 F6000.0
M5
G00 X11.93 Y31.52 F6000.0
M3
G01 Y32.44 F6000.0
M5
G00 X11.83 Y32.49 F6000.0
M3
G01 Y31.57 F6000.0
M5
G00 X11.73 Y31.62 F6000.0
M3
G01 Y32.06 F6000.0
M5
G00 X11.73 Y32.08 F6000.0
M3
G01 Y32.54 F6000.0
M5
G00 X11.63 Y32.59 F6000.0
M3
G01 Y32.18 F6000.0
M5
G00 X11.53 Y32.18 F6000.0
M3
G01 Y31.73 F6000.0
M5
G00 X11.43 Y31.78 F6000.0
M3
G01 Y32.3 F6000.0
M5
G00 X11.43 Y32.36 F6000.0
M3
G01 Y32.69 F6000.0
M5
G00 X11.53 Y32.64 F6000.0
M3
G01 Y32.28 F6000.0
M5
G00 X11.63 Y32.08 F6000.0
M3
G01 Y31.67 F6000.0
M5
G00 X11.33 Y31.83 F6000.0
M3
G01 Y32.74 F6000.0
M5
G00 X11.23 Y32.83 F6000.0
M3
G01 Y31.91 F6000.0
M5
G00 X11.13 Y31.99 F6000.0
M3
G01 Y32.95 F6000.0
M5
G00 X10.53 Y32.79 F6000.0
M3
G01 Y33.27 F6000.0
M5
G00 X10.63 Y33.3 F6000.0
M3
G01 Y32.58 F6000.0
M5
G00 X10.73 Y32.36 F6000.0
M3
G01 Y33.39 F6000.0
M5
G00 X11.03 Y32.07 F6000.0
M3
G01 Y41.26 F6000.0
M5
G00 X11.13 Y41.49 F6000.0
M3
G01 Y34.62 F6000.0
M5
G00 X12.53 Y34.96 F6000.0
M3
G01 Y35.12 F6000.0
M5
G00 X12.63 Y35.08 F6000.0
M3
G01 Y34.9 F6000.0
M5
G00 X12.73 Y34.84 F6000.0
M3
G01 Y35.04 F6000.0
M5
G00 X12.83 Y35. F6000.0
M3
G01 Y34.78 F6000.0
M5
G00 X12.93 Y34.71 F6000.0
M3
G01 Y34.96 F6000.0
M5
G00 X13.03 Y34.92 F6000.0
M3
G01 Y34.65 F6000.0
M5
G00 X13.13 Y34.59 F6000.0
M3
G01 Y34.88 F6000.0
M5
G00 X13.23 Y34.84 F6000.0
M3
G01 Y34.53 F6000.0
M5
G00 X13.33 Y34.47 F6000.0
M3
G01 Y34.8 F6000.0
M5
G00 X13.43 Y34.76 F6000.0
M3
G01 Y34.41 F6000.0
M5
G00 X13.53 Y34.35 F6000.0
M3
G01 Y34.72 F6000.0
M5
G00 X13.63 Y34.68 F6000.0
M3
G01 Y34.29 F6000.0
M5
G00 X13.73 Y34.23 F6000.0
M3
G01 Y34.64 F6000.0
M5
G00 X13.83 Y34.6 F6000.0
M3
G01 Y34.17 F6000.0
M5
G00 X13.93 Y34.11 F6000.0
M3
G01 Y34.56 F6000.0
M5
G00 X14.03 Y34.52 F6000.0
M3
G01 Y34.05 F6000.0
M5
G00 X14.13 Y34.02 F6000.0
M3
G01 Y34.48 F6000.0
M5
G00 X14.23 Y34.44 F6000.0
M3
G01 Y33.98 F6000.0
M5
G00 X14.33 Y33.95 F6000.0
M3
G01 Y34.4 F6000.0
M5
G00 X14.43 Y34.36 F6000.0
M3
G01 Y33.91 F6000.0
M5
G00 X14.53 Y33.88 F6000.0
M3
G01 Y34.32 F6000.0
M5
G00 X14.63 Y34.28 F6000.0
M3
G01 Y33.84 F6000.0
M5
G00 X14.73 Y33.8 F6000.0
M3
G01 Y34.24 F6000.0
M5
G00 X14.83 Y34.2 F6000.0
M3
G01 Y33.77 F6000.0
M5
G00 X14.93 Y33.73 F6000.0
M3
G01 Y34.16 F6000.0
M5
G00 X15.03 Y34.12 F6000.0
M3
G01 Y33.7 F6000.0
M5
G00 X15.13 Y33.66 F6000.0
M3
G01 Y34.08 F6000.0
M5
G00 X15.23 Y34.04 F6000.0
M3
G01 Y33.63 F6000.0
M5
G00 X15.33 Y33.59 F6000.0
M3
G01 Y34.0 F6000.0
M5
G00 X15.43 Y33.96 F6000.0
M3
G01 Y33.55 F6000.0
M5
G00 X15.53 Y33.52 F6000.0
M3
G01 Y33.92 F6000.0
M5
G00 X15.63 Y33.88 F6000.0
M3
G01 Y33.49 F6000.0
M5
G00 X15.73 Y33.47 F6000.0
M3
G01 Y33.84 F6000.0
M5
G00 X15.83 Y33.8 F6000.0
M3
G01 Y33.46 F6000.0
M5
G00 X15.93 Y33.45 F6000.0
M3
G01 Y33.76 F6000.0
M5
G00 X16.03 Y33.72 F6000.0
M3
G01 Y33.44 F6000.0
M5
G00 X16.13 Y33.43 F6000.0
M3
G01 Y33.68 F6000.0
M5
G00 X16.23 Y33.65 F6000.0
M3
G01 Y33.41 F6000.0
M5
G00 X16.33 Y33.4 F6000.0
M3
G01 Y33.61 F6000.0
M5
G00 X16.43 Y33.57 F6000.0
M3
G01 Y33.39 F6000.0
M5
G00 X16.53 Y33.38 F6000.0
M3
G01 Y33.53 F6000.0
M5
G00 X16.63 Y33.49 F6000.0
M3
G01 Y33.37 F6000.0
M5
G00 X17.73 Y33.53 F6000.0
M3
G01 Y31.97 F6000.0
M5
G00 X17.53 Y32.33 F6000.0
M3
G01 Y30.32 F6000.0
M5
G00 X18.03 Y30.19 F6000.0
M3
G01 Y28.42 F6000.0
M5
G00 X17.83 Y28.27 F6000.0
M3
G01 Y25.25 F6000.0
M5
G00 X16.93 Y25.98 F6000.0
M3
G01 Y22.08 F6000.0
M5
G00 X16.63 Y21.79 F6000.0
M3
G01 Y20.26 F6000.0
M5
G00 X16.53 Y19.99 F6000.0
M3
G01 Y21.15 F6000.0
M5
G00 X16.83 Y21.25 F6000.0
M3
G01 Y24.34 F6000.0
M5
G00 X18.13 Y29.34 F6000.0
M3
G01 Y30.73 F6000.0
M5
G00 X18.23 Y31.27 F6000.0
M3
G01 Y29.51 F6000.0
M5
G00 X18.33 Y29.52 F6000.0
M3
G01 Y31.81 F6000.0
M5
G00 X18.43 Y31.53 F6000.0
M3
G01 Y32.35 F6000.0
M5
G00 X18.53 Y32.22 F6000.0
M3
G01 Y32.89 F6000.0
M5
G00 X18.63 Y32.68 F6000.0
M3
G01 Y33.43 F6000.0
M5
G00 X18.73 Y33.21 F6000.0
M3
G01 Y33.97 F6000.0
M5
G00 X18.93 Y33.93 F6000.0
M3
G01 Y35.04 F6000.0
M5
G00 X19.23 Y35.13 F6000.0
M3
G01 Y34.51 F6000.0
M5
G00 X19.33 Y34.52 F6000.0
M3
G01 Y35.07 F6000.0
M5
G00 X19.43 Y35.02 F6000.0
M3
G01 Y34.53 F6000.0
M5
G00 X19.53 Y34.53 F6000.0
M3
G01 Y34.96 F6000.0
M5
G00 X19.63 Y34.92 F6000.0
M3
G01 Y34.54 F6000.0
M5
G00 X19.73 Y34.54 F6000.0
M3
G01 Y34.91 F6000.0
M5
G00 X19.83 Y34.9 F6000.0
M3
G01 Y34.55 F6000.0
M5
G00 X19.93 Y34.56 F6000.0
M3
G01 Y34.9 F6000.0
M5
G00 X20.03 Y34.89 F6000.0
M3
G01 Y34.56 F6000.0
M5
G00 X20.13 Y34.57 F6000.0
M3
G01 Y34.88 F6000.0
M5
G00 X20.23 Y34.88 F6000.0
M3
G01 Y34.58 F6000.0
M5
G00 X20.33 Y34.58 F6000.0
M3
G01 Y34.87 F6000.0
M5
G00 X20.43 Y34.87 F6000.0
M3
G01 Y34.59 F6000.0
M5
G00 X20.53 Y34.6 F6000.0
M3
G01 Y34.86 F6000.0
M5
G00 X20.63 Y34.86 F6000.0
M3
G01 Y34.6 F6000.0
M5
G00 X20.73 Y34.61 F6000.0
M3
G01 Y34.86 F6000.0
M5
G00 X20.83 Y34.87 F6000.0
M3
G01 Y34.61 F6000.0
M5
G00 X20.93 Y34.61 F6000.0
M3
G01 Y34.88 F6000.0
M5
G00 X21.03 Y34.88 F6000.0
M3
G01 Y34.61 F6000.0
M5
G00 X21.13 Y34.6 F6000.0
M3
G01 Y34.89 F6000.0
M5
G00 X21.23 Y34.9 F6000.0
M3
G01 Y34.6 F6000.0
M5
G00 X21.33 Y34.59 F6000.0
M3
G01 Y34.9 F6000.0
M5
G00 X21.43 Y34.91 F6000.0
M3
G01 Y34.59 F6000.0
M5
G00 X21.53 Y34.59 F6000.0
M3
G01 Y34.92 F6000.0
M5
G00 X21.63 Y34.92 F6000.0
M3
G01 Y34.58 F6000.0
M5
G00 X21.73 Y34.58 F6000.0
M3
G01 Y34.93 F6000.0
M5
G00 X21.83 Y34.94 F6000.0
M3
G01 Y34.57 F6000.0
M5
G00 X21.83 Y34.48 F6000.0
M3
G01 Y34.33 F6000.0
M5
G00 X21.73 Y34.33 F6000.0
M3
G01 Y34.47 F6000.0
M5
G00 X21.63 Y34.46 F6000.0
M3
G01 Y34.33 F6000.0
M5
G00 X21.53 Y34.33 F6000.0
M3
G01 Y34.45 F6000.0
M5
G00 X21.43 Y34.44 F6000.0
M3
G01 Y34.33 F6000.0
M5
G00 X21.93 Y34.34 F6000.0
M3
G01 Y34.5 F6000.0
M5
G00 X21.93 Y34.57 F6000.0
M3
G01 Y34.95 F6000.0
M5
G00 X22.03 Y34.96 F6000.0
M3
G01 Y34.56 F6000.0
M5
G00 X22.03 Y34.51 F6000.0
M3
G01 Y34.34 F6000.0
M5
G00 X22.13 Y34.34 F6000.0
M3
G01 Y34.52 F6000.0
M5
G00 X22.13 Y34.56 F6000.0
M3
G01 Y34.98 F6000.0
M5
G00 X22.23 Y35. F6000.0
M3
G01 Y34.56 F6000.0
M5
G00 X22.23 Y34.53 F6000.0
M3
G01 Y34.34 F6000.0
M5
G00 X22.33 Y34.34 F6000.0
M3
G01 Y34.54 F6000.0
M5
G00 X22.33 Y34.55 F6000.0
M3
G01 Y35.02 F6000.0
M5
G00 X22.43 Y35.04 F6000.0
M3
G01 Y34.34 F6000.0
M5
G00 X22.53 Y34.35 F6000.0
M3
G01 Y35.05 F6000.0
M5
G00 X22.63 Y35.07 F6000.0
M3
G01 Y34.35 F6000.0
M5
G00 X22.73 Y34.35 F6000.0
M3
G01 Y35.09 F6000.0
M5
G00 X22.83 Y35.11 F6000.0
M3
G01 Y34.35 F6000.0
M5
G00 X22.93 Y34.35 F6000.0
M3
G01 Y35.13 F6000.0
M5
G00 X23.03 Y35.14 F6000.0
M3
G01 Y34.35 F6000.0
M5
G00 X23.13 Y34.35 F6000.0
M3
G01 Y34.58 F6000.0
M5
G00 X23.13 Y34.66 F6000.0
M3
G01 Y35.16 F6000.0
M5
G00 X23.23 Y35.19 F6000.0
M3
G01 Y34.69 F6000.0
M5
G00 X23.23 Y34.6 F6000.0
M3
G01 Y34.36 F6000.0
M5
G00 X23.33 Y34.36 F6000.0
M3
G01 Y34.61 F6000.0
M5
G00 X23.33 Y34.72 F6000.0
M3
G01 Y35.22 F6000.0
M5
G00 X23.43 Y35.25 F6000.0
M3
G01 Y34.75 F6000.0
M5
G00 X23.43 Y34.64 F6000.0
M3
G01 Y34.36 F6000.0
M5
G00 X23.53 Y34.36 F6000.0
M3
G01 Y34.67 F6000.0
M5
G00 X23.53 Y34.78 F6000.0
M3
G01 Y35.28 F6000.0
M5
G00 X23.63 Y35.32 F6000.0
M3
G01 Y34.78 F6000.0
M5
G00 X23.63 Y34.71 F6000.0
M3
G01 Y34.36 F6000.0
M5
G00 X23.73 Y34.36 F6000.0
M3
G01 Y34.74 F6000.0
M5
G00 X23.73 Y34.76 F6000.0
M3
G01 Y35.35 F6000.0
M5
G00 X23.83 Y35.38 F6000.0
M3
G01 Y32.95 F6000.0
M5
G00 X23.93 Y33.49 F6000.0
M3
G01 Y35.42 F6000.0
M5
G00 X24.03 Y35.52 F6000.0
M3
G01 Y34.02 F6000.0
M5
G00 X23.63 Y33.96 F6000.0
M3
G01 Y31.46 F6000.0
M5
G00 X23.63 Y31.09 F6000.0
M3
G01 Y30.01 F6000.0
M5
G00 X23.53 Y29.98 F6000.0
M3
G01 Y31.06 F6000.0
M5
G00 X23.43 Y31.03 F6000.0
M3
G01 Y29.95 F6000.0
M5
G00 X23.33 Y29.93 F6000.0
M3
G01 Y31.0 F6000.0
M5
G00 X23.23 Y30.97 F6000.0
M3
G01 Y29.91 F6000.0
M5
G00 X23.13 Y29.89 F6000.0
M3
G01 Y30.94 F6000.0
M5
G00 X23.03 Y30.91 F6000.0
M3
G01 Y30.38 F6000.0
M5
G00 X23.03 Y30.35 F6000.0
M3
G01 Y29.87 F6000.0
M5
G00 X22.93 Y29.85 F6000.0
M3
G01 Y30.31 F6000.0
M5
G00 X22.93 Y30.38 F6000.0
M3
G01 Y30.87 F6000.0
M5
G00 X22.83 Y30.84 F6000.0
M3
G01 Y30.38 F6000.0
M5
G00 X22.83 Y30.32 F6000.0
M3
G01 Y29.83 F6000.0
M5
G00 X22.73 Y29.81 F6000.0
M3
G01 Y30.81 F6000.0
M5
G00 X22.63 Y30.78 F6000.0
M3
G01 Y29.79 F6000.0
M5
G00 X22.53 Y29.77 F6000.0
M3
G01 Y30.75 F6000.0
M5
G00 X22.43 Y30.73 F6000.0
M3
G01 Y29.75 F6000.0
M5
G00 X22.33 Y29.73 F6000.0
M3
G01 Y30.71 F6000.0
M5
G00 X22.23 Y30.7 F6000.0
M3
G01 Y29.71 F6000.0
M5
G00 X22.13 Y29.69 F6000.0
M3
G01 Y30.68 F6000.0
M5
G00 X22.03 Y30.66 F6000.0
M3
G01 Y29.67 F6000.0
M5
G00 X21.93 Y29.66 F6000.0
M3
G01 Y30.65 F6000.0
M5
G00 X21.83 Y30.63 F6000.0
M3
G01 Y29.65 F6000.0
M5
G00 X21.73 Y29.65 F6000.0
M3
G01 Y30.62 F6000.0
M5
G00 X21.63 Y30.6 F6000.0
M3
G01 Y29.64 F6000.0
M5
G00 X21.53 Y29.64 F6000.0
M3
G01 Y30.58 F6000.0
M5
G00 X21.43 Y30.57 F6000.0
M3
G01 Y29.63 F6000.0
M5
G00 X21.33 Y29.63 F6000.0
M3
G01 Y30.55 F6000.0
M5
G00 X21.23 Y30.54 F6000.0
M3
G01 Y29.62 F6000.0
M5
G00 X21.13 Y29.61 F6000.0
M3
G01 Y30.52 F6000.0
M5
G00 X21.03 Y30.5 F6000.0
M3
G01 Y29.61 F6000.0
M5
G00 X20.93 Y29.6 F6000.0
M3
G01 Y30.49 F6000.0
M5
G00 X20.83 Y30.47 F6000.0
M3
G01 Y29.6 F6000.0
M5
G00 X20.73 Y29.59 F6000.0
M3
G01 Y30.46 F6000.0
M5
G00 X20.63 Y30.44 F6000.0
M3
G01 Y29.59 F6000.0
M5
G00 X20.53 Y29.58 F6000.0
M3
G01 Y30.42 F6000.0
M5
G00 X20.43 Y30.41 F6000.0
M3
G01 Y29.57 F6000.0
M5
G00 X20.33 Y29.57 F6000.0
M3
G01 Y30.39 F6000.0
M5
G00 X20.23 Y30.38 F6000.0
M3
G01 Y29.56 F6000.0
M5
G00 X20.13 Y29.56 F6000.0
M3
G01 Y30.36 F6000.0
M5
G00 X20.03 Y30.35 F6000.0
M3
G01 Y29.56 F6000.0
M5
G00 X19.93 Y29.55 F6000.0
M3
G01 Y30.35 F6000.0
M5
G00 X19.83 Y30.35 F6000.0
M3
G01 Y29.55 F6000.0
M5
G00 X19.73 Y29.55 F6000.0
M3
G01 Y30.35 F6000.0
M5
G00 X19.63 Y30.35 F6000.0
M3
G01 Y29.55 F6000.0
M5
G00 X19.53 Y29.54 F6000.0
M3
G01 Y30.35 F6000.0
M5
G00 X19.43 Y30.35 F6000.0
M3
G01 Y29.54 F6000.0
M5
G00 X19.33 Y29.54 F6000.0
M3
G01 Y30.35 F6000.0
M5
G00 X19.23 Y30.35 F6000.0
M3
G01 Y29.54 F6000.0
M5
G00 X19.13 Y29.53 F6000.0
M3
G01 Y30.35 F6000.0
M5
G00 X19.03 Y30.35 F6000.0
M3
G01 Y29.53 F6000.0
M5
G00 X18.93 Y29.53 F6000.0
M3
G01 Y30.35 F6000.0
M5
G00 X18.83 Y30.35 F6000.0
M3
G01 Y29.53 F6000.0
M5
G00 X18.73 Y29.52 F6000.0
M3
G01 Y30.35 F6000.0
M5
G00 X18.63 Y30.35 F6000.0
M3
G01 Y29.52 F6000.0
M5
G00 X18.53 Y29.52 F6000.0
M3
G01 Y30.35 F6000.0
M5
G00 X18.43 Y30.35 F6000.0
M3
G01 Y29.52 F6000.0
M5
G00 X18.63 Y32.22 F6000.0
M3
G01 Y32.67 F6000.0
M5
G00 X18.73 Y32.63 F6000.0
M3
G01 Y32.22 F6000.0
M5
G00 X18.83 Y32.22 F6000.0
M3
G01 Y32.6 F6000.0
M5
G00 X18.93 Y32.57 F6000.0
M3
G01 Y32.22 F6000.0
M5
G00 X19.03 Y32.22 F6000.0
M3
G01 Y32.54 F6000.0
M5
G00 X19.13 Y32.52 F6000.0
M3
G01 Y32.22 F6000.0
M5
G00 X19.23 Y32.22 F6000.0
M3
G01 Y32.51 F6000.0
M5
G00 X19.33 Y32.51 F6000.0
M3
G01 Y32.22 F6000.0
M5
G00 X19.43 Y32.22 F6000.0
M3
G01 Y32.5 F6000.0
M5
G00 X19.53 Y32.5 F6000.0
M3
G01 Y32.22 F6000.0
M5
G00 X19.63 Y32.22 F6000.0
M3
G01 Y32.5 F6000.0
M5
G00 X19.73 Y32.49 F6000.0
M3
G01 Y32.22 F6000.0
M5
G00 X19.83 Y32.22 F6000.0
M3
G01 Y32.49 F6000.0
M5
G00 X19.93 Y32.48 F6000.0
M3
G01 Y32.22 F6000.0
M5
G00 X20.03 Y32.22 F6000.0
M3
G01 Y32.48 F6000.0
M5
G00 X20.13 Y32.47 F6000.0
M3
G01 Y32.22 F6000.0
M5
G00 X20.23 Y32.22 F6000.0
M3
G01 Y32.48 F6000.0
M5
G00 X20.33 Y32.48 F6000.0
M3
G01 Y32.22 F6000.0
M5
G00 X20.43 Y32.22 F6000.0
M3
G01 Y32.49 F6000.0
M5
G00 X20.53 Y32.5 F6000.0
M3
G01 Y32.22 F6000.0
M5
G00 X20.63 Y32.22 F6000.0
M3
G01 Y32.51 F6000.0
M5
G00 X20.73 Y32.52 F6000.0
M3
G01 Y32.23 F6000.0
M5
G00 X20.83 Y32.23 F6000.0
M3
G01 Y32.53 F6000.0
M5
G00 X20.93 Y32.53 F6000.0
M3
G01 Y32.23 F6000.0
M5
G00 X21.03 Y32.24 F6000.0
M3
G01 Y32.54 F6000.0
M5
G00 X21.13 Y32.55 F6000.0
M3
G01 Y32.24 F6000.0
M5
G00 X21.23 Y32.25 F6000.0
M3
G01 Y32.56 F6000.0
M5
G00 X21.33 Y32.57 F6000.0
M3
G01 Y32.25 F6000.0
M5
G00 X21.43 Y32.25 F6000.0
M3
G01 Y32.58 F6000.0
M5
G00 X21.53 Y32.58 F6000.0
M3
G01 Y32.26 F6000.0
M5
G00 X21.63 Y32.26 F6000.0
M3
G01 Y32.59 F6000.0
M5
G00 X21.73 Y32.6 F6000.0
M3
G01 Y32.27 F6000.0
M5
G00 X21.83 Y32.27 F6000.0
M3
G01 Y32.61 F6000.0
M5
G00 X21.93 Y32.62 F6000.0
M3
G01 Y32.27 F6000.0
M5
G00 X22.03 Y32.28 F6000.0
M3
G01 Y32.63 F6000.0
M5
G00 X22.13 Y32.63 F6000.0
M3
G01 Y32.28 F6000.0
M5
G00 X22.23 Y32.29 F6000.0
M3
G01 Y32.64 F6000.0
M5
G00 X22.33 Y32.65 F6000.0
M3
G01 Y32.29 F6000.0
M5
G00 X22.43 Y32.29 F6000.0
M3
G01 Y32.66 F6000.0
M5
G00 X22.53 Y32.67 F6000.0
M3
G01 Y32.3 F6000.0
M5
G00 X22.63 Y32.3 F6000.0
M3
G01 Y32.67 F6000.0
M5
G00 X22.73 Y32.69 F6000.0
M3
G01 Y32.31 F6000.0
M5
G00 X22.83 Y32.31 F6000.0
M3
G01 Y32.71 F6000.0
M5
G00 X22.93 Y32.73 F6000.0
M3
G01 Y32.31 F6000.0
M5
G00 X23.03 Y32.32 F6000.0
M3
G01 Y32.76 F6000.0
M5
G00 X23.13 Y32.78 F6000.0
M3
G01 Y32.33 F6000.0
M5
G00 X23.23 Y32.34 F6000.0
M3
G01 Y32.8 F6000.0
M5
G00 X23.33 Y32.82 F6000.0
M3
G01 Y32.34 F6000.0
M5
G00 X23.43 Y32.07 F6000.0
M3
G01 Y33.19 F6000.0
M5
G00 X23.53 Y33.57 F6000.0
M3
G01 Y31.76 F6000.0
M5
G00 X23.93 Y31.63 F6000.0
M3
G01 Y30.09 F6000.0
M5
G00 X24.03 Y30.11 F6000.0
M3
G01 Y31.47 F6000.0
M5
G00 X24.13 Y31.3 F6000.0
M3
G01 Y30.14 F6000.0
M5
G00 X24.23 Y30.17 F6000.0
M3
G01 Y31.13 F6000.0
M5
G00 X24.33 Y30.96 F6000.0
M3
G01 Y30.19 F6000.0
M5
G00 X24.43 Y30.22 F6000.0
M3
G01 Y30.8 F6000.0
M5
G00 X24.53 Y30.64 F6000.0
M3
G01 Y30.25 F6000.0
M5
G00 X24.63 Y30.17 F6000.0
M3
G01 Y30.48 F6000.0
M5
G00 X24.73 Y30.32 F6000.0
M3
G01 Y30.0 F6000.0
M5
G00 X24.93 Y30. F6000.0
M3
G01 Y29.6 F6000.0
M5
G00 X25.13 Y29.68 F6000.0
M3
G01 Y29.14 F6000.0
M5
G00 X25.23 Y28.91 F6000.0
M3
G01 Y29.52 F6000.0
M5
G00 X25.33 Y29.31 F6000.0
M3
G01 Y28.69 F6000.0
M5
G00 X25.43 Y28.46 F6000.0
M3
G01 Y29.09 F6000.0
M5
G00 X25.53 Y28.87 F6000.0
M3
G01 Y28.23 F6000.0
M5
G00 X25.83 Y28.21 F6000.0
M3
G01 Y27.57 F6000.0
M5
G00 X25.73 Y27.79 F6000.0
M3
G01 Y28.43 F6000.0
M5
G00 X25.63 Y28.65 F6000.0
M3
G01 Y28.01 F6000.0
M5
G00 X25.93 Y27.99 F6000.0
M3
G01 Y27.35 F6000.0
M5
G00 X26.03 Y27.14 F6000.0
M3
G01 Y27.82 F6000.0
M5
G00 X26.13 Y27.65 F6000.0
M3
G01 Y26.92 F6000.0
M5
G00 X26.23 Y26.8 F6000.0
M3
G01 Y27.48 F6000.0
M5
G00 X26.33 Y27.3 F6000.0
M3
G01 Y26.68 F6000.0
M5
G00 X26.43 Y26.56 F6000.0
M3
G01 Y27.13 F6000.0
M5
G00 X26.53 Y26.96 F6000.0
M3
G01 Y26.44 F6000.0
M5
G00 X26.63 Y26.32 F6000.0
M3
G01 Y26.83 F6000.0
M5
G00 X26.73 Y26.72 F6000.0
M3
G01 Y26.2 F6000.0
M5
G00 X26.83 Y26.09 F6000.0
M3
G01 Y26.62 F6000.0
M5
G00 X26.93 Y26.51 F6000.0
M3
G01 Y25.97 F6000.0
M5
G00 X27.03 Y25.89 F6000.0
M3
G01 Y26.4 F6000.0
M5
G00 X27.13 Y26.3 F6000.0
M3
G01 Y25.81 F6000.0
M5
G00 X27.23 Y25.73 F6000.0
M3
G01 Y26.19 F6000.0
M5
G00 X27.33 Y26.08 F6000.0
M3
G01 Y25.65 F6000.0
M5
G00 X27.43 Y25.57 F6000.0
M3
G01 Y25.98 F6000.0
M5
G00 X27.53 Y25.87 F6000.0
M3
G01 Y25.49 F6000.0
M5
G00 X27.63 Y25.41 F6000.0
M3
G01 Y25.76 F6000.0
M5
G00 X27.73 Y25.68 F6000.0
M3
G01 Y25.33 F6000.0
M5
G00 X27.83 Y25.25 F6000.0
M3
G01 Y25.61 F6000.0
M5
G00 X27.93 Y25.53 F6000.0
M3
G01 Y25.17 F6000.0
M5
G00 X28.03 Y25.08 F6000.0
M3
G01 Y25.45 F6000.0
M5
G00 X28.13 Y25.37 F6000.0
M3
G01 Y25.0 F6000.0
M5
G00 X28.23 Y24.92 F6000.0
M3
G01 Y25.29 F6000.0
M5
G00 X28.33 Y25.21 F6000.0
M3
G01 Y24.84 F6000.0
M5
G00 X28.43 Y24.76 F6000.0
M3
G01 Y25.13 F6000.0
M5
G00 X28.53 Y25.05 F6000.0
M3
G01 Y24.68 F6000.0
M5
G00 X28.63 Y24.6 F6000.0
M3
G01 Y24.97 F6000.0
M5
G00 X28.73 Y24.89 F6000.0
M3
G01 Y24.53 F6000.0
M5
G00 X28.83 Y24.47 F6000.0
M3
G01 Y24.81 F6000.0
M5
G00 X28.93 Y24.73 F6000.0
M3
G01 Y24.4 F6000.0
M5
G00 X29.03 Y24.34 F6000.0
M3
G01 Y24.65 F6000.0
M5
G00 X29.13 Y24.57 F6000.0
M3
G01 Y24.27 F6000.0
M5
G00 X29.23 Y24.2 F6000.0
M3
G01 Y24.5 F6000.0
M5
G00 X29.33 Y24.44 F6000.0
M3
G01 Y24.14 F6000.0
M5
G00 X29.43 Y24.07 F6000.0
M3
G01 Y24.37 F6000.0
M5
G00 X29.53 Y24.3 F6000.0
M3
G01 Y24.01 F6000.0
M5
G00 X29.63 Y23.94 F6000.0
M3
G01 Y24.24 F6000.0
M5
G00 X29.73 Y24.17 F6000.0
M3
G01 Y23.87 F6000.0
M5
G00 X29.83 Y23.81 F6000.0
M3
G01 Y24.11 F6000.0
M5
G00 X29.93 Y24.04 F6000.0
M3
G01 Y23.74 F6000.0
M5
G00 X30.03 Y23.68 F6000.0
M3
G01 Y23.98 F6000.0
M5
G00 X30.13 Y23.91 F6000.0
M3
G01 Y23.61 F6000.0
M5
G00 X30.23 Y23.54 F6000.0
M3
G01 Y23.84 F6000.0
M5
G00 X30.33 Y23.78 F6000.0
M3
G01 Y23.48 F6000.0
M5
G00 X30.43 Y23.41 F6000.0
M3
G01 Y23.71 F6000.0
M5
G00 X30.53 Y23.65 F6000.0
M3
G01 Y23.35 F6000.0
M5
G00 X30.63 Y23.28 F6000.0
M3
G01 Y23.58 F6000.0
M5
G00 X30.73 Y23.52 F6000.0
M3
G01 Y23.21 F6000.0
M5
G00 X30.83 Y23.15 F6000.0
M3
G01 Y23.45 F6000.0
M5
G00 X30.93 Y23.39 F6000.0
M3
G01 Y23.08 F6000.0
M5
G00 X31.03 Y23.02 F6000.0
M3
G01 Y23.32 F6000.0
M5
G00 X31.13 Y23.25 F6000.0
M3
G01 Y22.95 F6000.0
M5
G00 X31.23 Y22.88 F6000.0
M3
G01 Y23.19 F6000.0
M5
G00 X31.33 Y23.13 F6000.0
M3
G01 Y22.82 F6000.0
M5
G00 X31.43 Y22.75 F6000.0
M3
G01 Y23.07 F6000.0
M5
G00 X31.53 Y23.01 F6000.0
M3
G01 Y22.69 F6000.0
M5
G00 X31.63 Y22.62 F6000.0
M3
G01 Y22.95 F6000.0
M5
G00 X31.73 Y22.89 F6000.0
M3
G01 Y22.55 F6000.0
M5
G00 X31.83 Y22.49 F6000.0
M3
G01 Y22.84 F6000.0
M5
G00 X31.93 Y22.78 F6000.0
M3
G01 Y22.42 F6000.0
M5
G00 X32.03 Y22.36 F6000.0
M3
G01 Y22.72 F6000.0
M5
G00 X32.13 Y22.66 F6000.0
M3
G01 Y22.29 F6000.0
M5
G00 X32.23 Y22.23 F6000.0
M3
G01 Y22.6 F6000.0
M5
G00 X32.33 Y22.54 F6000.0
M3
G01 Y22.17 F6000.0
M5
G00 X32.43 Y22.11 F6000.0
M3
G01 Y22.48 F6000.0
M5
G00 X32.53 Y22.43 F6000.0
M3
G01 Y22.05 F6000.0
M5
G00 X32.63 Y21.99 F6000.0
M3
G01 Y22.37 F6000.0
M5
G00 X32.73 Y22.31 F6000.0
M3
G01 Y21.94 F6000.0
M5
G00 X32.83 Y21.88 F6000.0
M3
G01 Y22.25 F6000.0
M5
G00 X32.93 Y22.19 F6000.0
M3
G01 Y21.82 F6000.0
M5
G00 X33.03 Y21.76 F6000.0
M3
G01 Y22.13 F6000.0
M5
G00 X33.13 Y22.07 F6000.0
M3
G01 Y21.7 F6000.0
M5
G00 X33.23 Y21.64 F6000.0
M3
G01 Y22.02 F6000.0
M5
G00 X33.33 Y21.96 F6000.0
M3
G01 Y21.58 F6000.0
M5
G00 X33.43 Y21.52 F6000.0
M3
G01 Y21.9 F6000.0
M5
G00 X33.53 Y21.84 F6000.0
M3
G01 Y21.46 F6000.0
M5
G00 X33.63 Y21.4 F6000.0
M3
G01 Y21.78 F6000.0
M5
G00 X33.73 Y21.72 F6000.0
M3
G01 Y21.35 F6000.0
M5
G00 X33.83 Y21.29 F6000.0
M3
G01 Y21.66 F6000.0
M5
G00 X33.93 Y21.61 F6000.0
M3
G01 Y21.23 F6000.0
M5
G00 X34.03 Y21.17 F6000.0
M3
G01 Y21.55 F6000.0
M5
G00 X34.13 Y21.49 F6000.0
M3
G01 Y21.11 F6000.0
M5
G00 X34.23 Y21.05 F6000.0
M3
G01 Y21.43 F6000.0
M5
G00 X34.33 Y21.37 F6000.0
M3
G01 Y20.99 F6000.0
M5
G00 X34.43 Y20.93 F6000.0
M3
G01 Y21.31 F6000.0
M5
G00 X34.53 Y21.26 F6000.0
M3
G01 Y20.87 F6000.0
M5
G00 X34.63 Y20.81 F6000.0
M3
G01 Y21.2 F6000.0
M5
G00 X34.73 Y21.14 F6000.0
M3
G01 Y20.75 F6000.0
M5
G00 X34.83 Y20.7 F6000.0
M3
G01 Y21.09 F6000.0
M5
G00 X34.93 Y21.04 F6000.0
M3
G01 Y20.64 F6000.0
M5
G00 X35.03 Y20.59 F6000.0
M3
G01 Y20.99 F6000.0
M5
G00 X35.13 Y20.94 F6000.0
M3
G01 Y20.54 F6000.0
M5
G00 X35.23 Y20.5 F6000.0
M3
G01 Y20.89 F6000.0
M5
G00 X35.33 Y20.84 F6000.0
M3
G01 Y20.45 F6000.0
M5
G00 X35.43 Y20.41 F6000.0
M3
G01 Y20.79 F6000.0
M5
G00 X35.53 Y20.74 F6000.0
M3
G01 Y20.36 F6000.0
M5
G00 X35.63 Y20.31 F6000.0
M3
G01 Y20.69 F6000.0
M5
G00 X35.73 Y20.64 F6000.0
M3
G01 Y20.27 F6000.0
M5
G00 X35.83 Y20.22 F6000.0
M3
G01 Y20.59 F6000.0
M5
G00 X35.93 Y20.54 F6000.0
M3
G01 Y20.18 F6000.0
M5
G00 X36.03 Y20.13 F6000.0
M3
G01 Y20.49 F6000.0
M5
G00 X36.13 Y20.45 F6000.0
M3
G01 Y20.09 F6000.0
M5
G00 X36.23 Y20.04 F6000.0
M3
G01 Y20.4 F6000.0
M5
G00 X36.33 Y20.35 F6000.0
M3
G01 Y20.0 F6000.0
M5
G00 X36.43 Y19.95 F6000.0
M3
G01 Y20.3 F6000.0
M5
G00 X36.53 Y20.25 F6000.0
M3
G01 Y19.91 F6000.0
M5
G00 X36.63 Y19.86 F6000.0
M3
G01 Y20.2 F6000.0
M5
G00 X36.73 Y20.15 F6000.0
M3
G01 Y19.82 F6000.0
M5
G00 X36.83 Y19.77 F6000.0
M3
G01 Y20.1 F6000.0
M5
G00 X36.93 Y20.05 F6000.0
M3
G01 Y19.73 F6000.0
M5
G00 X37.03 Y19.68 F6000.0
M3
G01 Y20.0 F6000.0
M5
G00 X37.13 Y19.95 F6000.0
M3
G01 Y19.64 F6000.0
M5
G00 X37.23 Y19.59 F6000.0
M3
G01 Y19.9 F6000.0
M5
G00 X37.33 Y19.85 F6000.0
M3
G01 Y19.55 F6000.0
M5
G00 X37.43 Y19.5 F6000.0
M3
G01 Y19.8 F6000.0
M5
G00 X37.53 Y19.74 F6000.0
M3
G01 Y19.46 F6000.0
M5
G00 X37.63 Y19.41 F6000.0
M3
G01 Y19.67 F6000.0
M5
G00 X37.73 Y19.61 F6000.0
M3
G01 Y19.37 F6000.0
M5
G00 X37.83 Y19.32 F6000.0
M3
G01 Y19.55 F6000.0
M5
G00 X37.93 Y19.48 F6000.0
M3
G01 Y19.28 F6000.0
M5
G00 X38.03 Y19.23 F6000.0
M3
G01 Y19.42 F6000.0
M5
G00 X38.13 Y19.36 F6000.0
M3
G01 Y19.19 F6000.0
M5
G00 X38.23 Y19.13 F6000.0
M3
G01 Y19.29 F6000.0
M5
G00 X38.33 Y19.23 F6000.0
M3
G01 Y19.08 F6000.0
M5
G00 X38.43 Y19.03 F6000.0
M3
G01 Y19.15 F6000.0
M5
G00 X39.63 Y19.28 F6000.0
M3
G01 Y18.76 F6000.0
M5
G00 X39.73 Y18.84 F6000.0
M3
G01 Y19.87 F6000.0
M5
G00 X39.73 Y20.33 F6000.0
M3
G01 Y20.72 F6000.0
M5
G00 X39.83 Y20.69 F6000.0
M3
G01 Y19.21 F6000.0
M5
G00 X39.93 Y19.58 F6000.0
M3
G01 Y20.66 F6000.0
M5
G00 X40.03 Y20.62 F6000.0
M3
G01 Y20.06 F6000.0
M5
G00 X40.13 Y20.18 F6000.0
M3
G01 Y20.59 F6000.0
M5
G00 X40.23 Y20.56 F6000.0
M3
G01 Y20.21 F6000.0
M5
G00 X40.33 Y20.23 F6000.0
M3
G01 Y20.53 F6000.0
M5
G00 X40.43 Y20.5 F6000.0
M3
G01 Y19.3 F6000.0
M5
G00 X40.33 Y18.99 F6000.0
M3
G01 Y19.64 F6000.0
M5
G00 X40.53 Y19.65 F6000.0
M3
G01 Y20.47 F6000.0
M5
G00 X40.63 Y20.44 F6000.0
M3
G01 Y20.01 F6000.0
M5
G00 X40.73 Y20.03 F6000.0
M3
G01 Y20.4 F6000.0
M5
G00 X40.83 Y20.37 F6000.0
M3
G01 Y19.99 F6000.0
M5
G00 X40.93 Y19.96 F6000.0
M3
G01 Y20.34 F6000.0
M5
G00 X41.03 Y20.31 F6000.0
M3
G01 Y19.92 F6000.0
M5
G00 X41.13 Y19.88 F6000.0
M3
G01 Y20.26 F6000.0
M5
G00 X41.23 Y20.2 F6000.0
M3
G01 Y19.84 F6000.0
M5
G00 X41.33 Y19.8 F6000.0
M3
G01 Y20.15 F6000.0
M5
G00 X41.43 Y20.09 F6000.0
M3
G01 Y19.77 F6000.0
M5
G00 X41.53 Y19.73 F6000.0
M3
G01 Y20.04 F6000.0
M5
G00 X41.63 Y19.99 F6000.0
M3
G01 Y19.69 F6000.0
M5
G00 X41.73 Y19.65 F6000.0
M3
G01 Y19.93 F6000.0
M5
G00 X41.83 Y19.88 F6000.0
M3
G01 Y19.62 F6000.0
M5
G00 X41.93 Y19.57 F6000.0
M3
G01 Y19.82 F6000.0
M5
G00 X42.03 Y19.77 F6000.0
M3
G01 Y19.53 F6000.0
M5
G00 X42.13 Y19.48 F6000.0
M3
G01 Y19.72 F6000.0
M5
G00 X42.23 Y19.66 F6000.0
M3
G01 Y19.43 F6000.0
M5
G00 X42.33 Y19.38 F6000.0
M3
G01 Y19.61 F6000.0
M5
G00 X42.43 Y19.55 F6000.0
M3
G01 Y19.34 F6000.0
M5
G00 X42.53 Y19.29 F6000.0
M3
G01 Y19.5 F6000.0
M5
G00 X42.63 Y19.41 F6000.0
M3
G01 Y19.24 F6000.0
M5
G00 X42.73 Y19.2 F6000.0
M3
G01 Y19.32 F6000.0
M5
G00 X44.23 Y18.71 F6000.0
M3
G01 Y18.6 F6000.0
M5
G00 X44.33 Y18.64 F6000.0
M3
G01 Y18.78 F6000.0
M5
G00 X44.43 Y18.86 F6000.0
M3
G01 Y18.68 F6000.0
M5
G00 X44.53 Y18.72 F6000.0
M3
G01 Y18.94 F6000.0
M5
G00 X44.63 Y19.01 F6000.0
M3
G01 Y18.76 F6000.0
M5
G00 X44.73 Y18.81 F6000.0
M3
G01 Y19.09 F6000.0
M5
G00 X44.83 Y19.17 F6000.0
M3
G01 Y18.86 F6000.0
M5
G00 X44.93 Y18.92 F6000.0
M3
G01 Y19.24 F6000.0
M5
G00 X45.03 Y19.32 F6000.0
M3
G01 Y18.97 F6000.0
M5
G00 X45.13 Y19.02 F6000.0
M3
G01 Y19.4 F6000.0
M5
G00 X45.23 Y19.47 F6000.0
M3
G01 Y19.08 F6000.0
M5
G00 X45.33 Y19.13 F6000.0
M3
G01 Y19.56 F6000.0
M5
G00 X45.43 Y19.65 F6000.0
M3
G01 Y19.18 F6000.0
M5
G00 X45.53 Y19.24 F6000.0
M3
G01 Y19.73 F6000.0
M5
G00 X45.63 Y19.82 F6000.0
M3
G01 Y19.29 F6000.0
M5
G00 X45.73 Y19.34 F6000.0
M3
G01 Y19.91 F6000.0
M5
G00 X45.83 Y20. F6000.0
M3
G01 Y19.4 F6000.0
M5
G00 X45.93 Y19.48 F6000.0
M3
G01 Y20.09 F6000.0
M5
G00 X46.03 Y20.18 F6000.0
M3
G01 Y19.56 F6000.0
M5
G00 X46.13 Y19.65 F6000.0
M3
G01 Y20.27 F6000.0
M5
G00 X46.23 Y20.36 F6000.0
M3
G01 Y19.74 F6000.0
M5
G00 X46.33 Y19.83 F6000.0
M3
G01 Y20.45 F6000.0
M5
G00 X46.43 Y20.54 F6000.0
M3
G01 Y19.91 F6000.0
M5
G00 X46.53 Y20. F6000.0
M3
G01 Y20.63 F6000.0
M5
G00 X46.63 Y20.72 F6000.0
M3
G01 Y20.09 F6000.0
M5
G00 X46.73 Y20.18 F6000.0
M3
G01 Y20.81 F6000.0
M5
G00 X46.83 Y20.9 F6000.0
M3
G01 Y20.27 F6000.0
M5
G00 X46.93 Y20.35 F6000.0
M3
G01 Y20.99 F6000.0
M5
G00 X47.03 Y21.12 F6000.0
M3
G01 Y20.44 F6000.0
M5
G00 X47.13 Y20.58 F6000.0
M3
G01 Y21.25 F6000.0
M5
G00 X47.23 Y21.38 F6000.0
M3
G01 Y20.72 F6000.0
M5
G00 X47.33 Y20.87 F6000.0
M3
G01 Y21.52 F6000.0
M5
G00 X47.43 Y21.65 F6000.0
M3
G01 Y21.01 F6000.0
M5
G00 X47.53 Y21.16 F6000.0
M3
G01 Y21.78 F6000.0
M5
G00 X47.63 Y21.91 F6000.0
M3
G01 Y21.3 F6000.0
M5
G00 X47.73 Y21.45 F6000.0
M3
G01 Y22.05 F6000.0
M5
G00 X47.83 Y22.18 F6000.0
M3
G01 Y21.59 F6000.0
M5
G00 X47.93 Y21.74 F6000.0
M3
G01 Y22.31 F6000.0
M5
G00 X48.03 Y22.5 F6000.0
M3
G01 Y21.88 F6000.0
M5
G00 X48.13 Y22.05 F6000.0
M3
G01 Y22.71 F6000.0
M5
G00 X48.23 Y22.91 F6000.0
M3
G01 Y22.22 F6000.0
M5
G00 X48.43 Y22.27 F6000.0
M3
G01 Y21.05 F6000.0
M5
G00 X48.03 Y21.05 F6000.0
M3
G01 Y19.95 F6000.0
M5
G00 X47.93 Y19.78 F6000.0
M3
G01 Y20.75 F6000.0
M5
G00 X48.33 Y20.74 F6000.0
M3
G01 Y21.96 F6000.0
M5
G00 X48.23 Y21.66 F6000.0
M3
G01 Y20.43 F6000.0
M5
G00 X47.83 Y20.44 F6000.0
M3
G01 Y19.62 F6000.0
M5
G00 X47.73 Y19.45 F6000.0
M3
G01 Y20.23 F6000.0
M5
G00 X47.63 Y20.05 F6000.0
M3
G01 Y19.28 F6000.0
M5
G00 X47.53 Y19.19 F6000.0
M3
G01 Y19.87 F6000.0
M5
G00 X47.43 Y19.7 F6000.0
M3
G01 Y19.11 F6000.0
M5
G00 X47.33 Y19.02 F6000.0
M3
G01 Y19.52 F6000.0
M5
G00 X47.23 Y19.34 F6000.0
M3
G01 Y18.93 F6000.0
M5
G00 X47.13 Y18.85 F6000.0
M3
G01 Y19.16 F6000.0
M5
G00 X47.03 Y18.98 F6000.0
M3
G01 Y18.76 F6000.0
M5
G00 X46.93 Y18.71 F6000.0
M3
G01 Y18.82 F6000.0
M5
G00 X48.13 Y20.12 F6000.0
M3
G01 Y21.36 F6000.0
M5
G00 X48.53 Y21.36 F6000.0
M3
G01 Y23.53 F6000.0
M5
G00 X48.63 Y23.74 F6000.0
M3
G01 Y21.68 F6000.0
M5
G00 X48.73 Y22.15 F6000.0
M3
G01 Y23.95 F6000.0
M5
G00 X48.83 Y24.15 F6000.0
M3
G01 Y22.72 F6000.0
M5
G00 X48.43 Y22.56 F6000.0
M3
G01 Y23.33 F6000.0
M5
G00 X48.33 Y23.12 F6000.0
M3
G01 Y22.39 F6000.0
M5
G00 X48.93 Y23.28 F6000.0
M3
G01 Y24.36 F6000.0
M5
G00 X49.03 Y24.57 F6000.0
M3
G01 Y23.72 F6000.0
M5
G00 X49.13 Y24.08 F6000.0
M3
G01 Y24.82 F6000.0
M5
G00 X49.23 Y25.08 F6000.0
M3
G01 Y24.28 F6000.0
M5
G00 X49.33 Y24.49 F6000.0
M3
G01 Y25.33 F6000.0
M5
G00 X49.43 Y25.58 F6000.0
M3
G01 Y24.7 F6000.0
M5
G00 X49.53 Y24.9 F6000.0
M3
G01 Y25.84 F6000.0
M5
G00 X49.63 Y26.09 F6000.0
M3
G01 Y25.11 F6000.0
M5
G00 X49.73 Y25.29 F6000.0
M3
G01 Y26.34 F6000.0
M5
G00 X49.83 Y26.6 F6000.0
M3
G01 Y25.48 F6000.0
M5
G00 X49.93 Y25.66 F6000.0
M3
G01 Y26.85 F6000.0
M5
G00 X50.33 Y26.56 F6000.0
M3
G01 Y29.31 F6000.0
M5
G00 X50.03 Y29.3 F6000.0
M3
G01 Y31.25 F6000.0
M5
G00 X49.73 Y31.17 F6000.0
M3
G01 Y32.04 F6000.0
M5
G00 X49.83 Y31.8 F6000.0
M3
G01 Y30.76 F6000.0
M5
G00 X50.13 Y30.75 F6000.0
M3
G01 Y26.03 F6000.0
M5
G00 X50.03 Y25.85 F6000.0
M3
G01 Y27.64 F6000.0
M5
G00 X50.23 Y26.22 F6000.0
M3
G01 Y30.25 F6000.0
M5
G00 X49.93 Y30.03 F6000.0
M3
G01 Y31.56 F6000.0
M5
G00 X49.63 Y31.41 F6000.0
M3
G01 Y32.28 F6000.0
M5
G00 X49.53 Y32.52 F6000.0
M3
G01 Y31.66 F6000.0
M5
G00 X49.43 Y31.9 F6000.0
M3
G01 Y32.77 F6000.0
M5
G00 X49.33 Y32.95 F6000.0
M3
G01 Y32.15 F6000.0
M5
G00 X49.23 Y32.4 F6000.0
M3
G01 Y33.11 F6000.0
M5
G00 X49.13 Y33.27 F6000.0
M3
G01 Y32.64 F6000.0
M5
G00 X49.03 Y32.87 F6000.0
M3
G01 Y33.43 F6000.0
M5
G00 X48.93 Y33.59 F6000.0
M3
G01 Y33.03 F6000.0
M5
G00 X48.83 Y33.19 F6000.0
M3
G01 Y33.75 F6000.0
M5
G00 X48.73 Y33.91 F6000.0
M3
G01 Y33.35 F6000.0
M5
G00 X48.63 Y33.5 F6000.0
M3
G01 Y34.07 F6000.0
M5
G00 X48.53 Y34.23 F6000.0
M3
G01 Y33.66 F6000.0
M5
G00 X48.43 Y33.82 F6000.0
M3
G01 Y34.38 F6000.0
M5
G00 X48.33 Y34.51 F6000.0
M3
G01 Y33.98 F6000.0
M5
G00 X48.23 Y34.13 F6000.0
M3
G01 Y34.63 F6000.0
M5
G00 X48.13 Y34.75 F6000.0
M3
G01 Y34.29 F6000.0
M5
G00 X48.03 Y34.45 F6000.0
M3
G01 Y34.87 F6000.0
M5
G00 X47.93 Y35. F6000.0
M3
G01 Y34.61 F6000.0
M5
G00 X47.83 Y34.75 F6000.0
M3
G01 Y35.12 F6000.0
M5
G00 X47.73 Y35.24 F6000.0
M3
G01 Y34.86 F6000.0
M5
G00 X47.63 Y34.98 F6000.0
M3
G01 Y35.37 F6000.0
M5
G00 X47.53 Y35.49 F6000.0
M3
G01 Y35.09 F6000.0
M5
G00 X47.43 Y35.21 F6000.0
M3
G01 Y35.6 F6000.0
M5
G00 X47.33 Y35.69 F6000.0
M3
G01 Y35.32 F6000.0
M5
G00 X47.23 Y35.43 F6000.0
M3
G01 Y35.79 F6000.0
M5
G00 X47.13 Y35.89 F6000.0
M3
G01 Y35.55 F6000.0
M5
G00 X47.03 Y35.66 F6000.0
M3
G01 Y35.98 F6000.0
M5
G00 X46.93 Y36.08 F6000.0
M3
G01 Y35.77 F6000.0
M5
G00 X46.83 Y35.89 F6000.0
M3
G01 Y36.17 F6000.0
M5
G00 X46.73 Y36.27 F6000.0
M3
G01 Y36.0 F6000.0
M5
G00 X46.63 Y36.12 F6000.0
M3
G01 Y36.36 F6000.0
M5
G00 X46.53 Y36.46 F6000.0
M3
G01 Y36.23 F6000.0
M5
G00 X46.43 Y36.31 F6000.0
M3
G01 Y36.55 F6000.0
M5
G00 X46.33 Y36.62 F6000.0
M3
G01 Y36.38 F6000.0
M5
G00 X46.23 Y36.45 F6000.0
M3
G01 Y36.69 F6000.0
M5
G00 X46.13 Y36.76 F6000.0
M3
G01 Y36.52 F6000.0
M5
G00 X46.03 Y36.59 F6000.0
M3
G01 Y36.83 F6000.0
M5
G00 X45.93 Y36.9 F6000.0
M3
G01 Y36.66 F6000.0
M5
G00 X45.83 Y36.73 F6000.0
M3
G01 Y36.97 F6000.0
M5
G00 X45.73 Y37.04 F6000.0
M3
G01 Y36.8 F6000.0
M5
G00 X45.63 Y36.87 F6000.0
M3
G01 Y37.11 F6000.0
M5
G00 X45.53 Y37.18 F6000.0
M3
G01 Y36.94 F6000.0
M5
G00 X45.43 Y37.01 F6000.0
M3
G01 Y37.22 F6000.0
M5
G00 X45.33 Y37.26 F6000.0
M3
G01 Y37.07 F6000.0
M5
G00 X45.23 Y37.14 F6000.0
M3
G01 Y37.29 F6000.0
M5
G00 X45.13 Y37.32 F6000.0
M3
G01 Y37.19 F6000.0
M5
G00 X45.03 Y37.24 F6000.0
M3
G01 Y37.35 F6000.0
M5
G00 X43.33 Y37.39 F6000.0
M3
G01 Y37.5 F6000.0
M5
G00 X43.23 Y37.5 F6000.0
M3
G01 Y37.37 F6000.0
M5
G00 X43.13 Y37.35 F6000.0
M3
G01 Y37.49 F6000.0
M5
G00 X43.03 Y37.49 F6000.0
M3
G01 Y37.33 F6000.0
M5
G00 X42.93 Y37.31 F6000.0
M3
G01 Y37.48 F6000.0
M5
G00 X42.83 Y37.48 F6000.0
M3
G01 Y37.29 F6000.0
M5
G00 X42.73 Y37.27 F6000.0
M3
G01 Y37.48 F6000.0
M5
G00 X42.63 Y37.47 F6000.0
M3
G01 Y37.25 F6000.0
M5
G00 X42.53 Y37.23 F6000.0
M3
G01 Y37.47 F6000.0
M5
G00 X42.43 Y37.46 F6000.0
M3
G01 Y37.21 F6000.0
M5
G00 X42.33 Y37.2 F6000.0
M3
G01 Y37.46 F6000.0
M5
G00 X42.23 Y37.46 F6000.0
M3
G01 Y37.18 F6000.0
M5
G00 X42.13 Y37.16 F6000.0
M3
G01 Y37.45 F6000.0
M5
G00 X41.83 Y37.47 F6000.0
M3
G01 Y37.1 F6000.0
M5
G00 X41.73 Y37.08 F6000.0
M3
G01 Y37.44 F6000.0
M5
G00 X41.63 Y37.41 F6000.0
M3
G01 Y37.06 F6000.0
M5
G00 X41.53 Y37.04 F6000.0
M3
G01 Y37.38 F6000.0
M5
G00 X41.43 Y37.35 F6000.0
M3
G01 Y37.02 F6000.0
M5
G00 X41.33 Y37.01 F6000.0
M3
G01 Y37.32 F6000.0
M5
G00 X41.23 Y37.29 F6000.0
M3
G01 Y36.99 F6000.0
M5
G00 X41.13 Y36.97 F6000.0
M3
G01 Y37.25 F6000.0
M5
G00 X41.03 Y37.22 F6000.0
M3
G01 Y36.95 F6000.0
M5
G00 X40.93 Y36.93 F6000.0
M3
G01 Y37.19 F6000.0
M5
G00 X40.83 Y37.16 F6000.0
M3
G01 Y36.89 F6000.0
M5
G00 X40.73 Y36.85 F6000.0
M3
G01 Y37.12 F6000.0
M5
G00 X40.63 Y37.09 F6000.0
M3
G01 Y36.81 F6000.0
M5
G00 X40.53 Y36.78 F6000.0
M3
G01 Y37.05 F6000.0
M5
G00 X40.43 Y37.01 F6000.0
M3
G01 Y36.74 F6000.0
M5
G00 X40.33 Y36.7 F6000.0
M3
G01 Y36.97 F6000.0
M5
G00 X40.23 Y36.94 F6000.0
M3
G01 Y36.66 F6000.0
M5
G00 X40.13 Y36.62 F6000.0
M3
G01 Y36.9 F6000.0
M5
G00 X40.03 Y36.86 F6000.0
M3
G01 Y36.59 F6000.0
M5
G00 X39.93 Y36.55 F6000.0
M3
G01 Y36.83 F6000.0
M5
G00 X39.83 Y36.79 F6000.0
M3
G01 Y36.51 F6000.0
M5
G00 X39.73 Y36.46 F6000.0
M3
G01 Y36.75 F6000.0
M5
G00 X39.63 Y36.72 F6000.0
M3
G01 Y36.4 F6000.0
M5
G00 X39.53 Y36.34 F6000.0
M3
G01 Y36.68 F6000.0
M5
G00 X39.43 Y36.64 F6000.0
M3
G01 Y36.28 F6000.0
M5
G00 X39.33 Y36.23 F6000.0
M3
G01 Y36.6 F6000.0
M5
G00 X39.23 Y36.53 F6000.0
M3
G01 Y36.17 F6000.0
M5
G00 X39.13 Y36.11 F6000.0
M3
G01 Y36.46 F6000.0
M5
G00 X39.03 Y36.39 F6000.0
M3
G01 Y36.05 F6000.0
M5
G00 X38.93 Y35.99 F6000.0
M3
G01 Y36.32 F6000.0
M5
G00 X38.83 Y36.24 F6000.0
M3
G01 Y35.89 F6000.0
M5
G00 X38.73 Y35.78 F6000.0
M3
G01 Y36.17 F6000.0
M5
G00 X38.63 Y36.1 F6000.0
M3
G01 Y35.66 F6000.0
M5
G00 X38.53 Y35.55 F6000.0
M3
G01 Y36.03 F6000.0
M5
G00 X38.43 Y35.96 F6000.0
M3
G01 Y35.43 F6000.0
M5
G00 X38.33 Y35.32 F6000.0
M3
G01 Y35.88 F6000.0
M5
G00 X38.23 Y35.73 F6000.0
M3
G01 Y35.2 F6000.0
M5
G00 X38.13 Y35.09 F6000.0
M3
G01 Y35.56 F6000.0
M5
G00 X38.03 Y35.4 F6000.0
M3
G01 Y34.86 F6000.0
M5
G00 X37.73 Y34.9 F6000.0
M3
G01 Y33.92 F6000.0
M5
G00 X37.53 Y33.82 F6000.0
M3
G01 Y33.14 F6000.0
M5
G00 X37.63 Y33.61 F6000.0
M3
G01 Y34.38 F6000.0
M5
G00 X37.83 Y34.24 F6000.0
M3
G01 Y35.06 F6000.0
M5
G00 X37.93 Y35.23 F6000.0
M3
G01 Y34.55 F6000.0
M5
G00 X37.23 Y35.54 F6000.0
M3
G01 Y35.66 F6000.0
M5
G00 X37.13 Y35.68 F6000.0
M3
G01 Y35.51 F6000.0
M5
G00 X37.03 Y35.49 F6000.0
M3
G01 Y35.71 F6000.0
M5
G00 X36.93 Y35.74 F6000.0
M3
G01 Y35.47 F6000.0
M5
G00 X36.83 Y35.45 F6000.0
M3
G01 Y35.77 F6000.0
M5
G00 X36.73 Y35.79 F6000.0
M3
G01 Y35.44 F6000.0
M5
G00 X36.63 Y35.42 F6000.0
M3
G01 Y35.81 F6000.0
M5
G00 X36.53 Y35.83 F6000.0
M3
G01 Y35.41 F6000.0
M5
G00 X36.43 Y35.39 F6000.0
M3
G01 Y35.84 F6000.0
M5
G00 X36.33 Y35.85 F6000.0
M3
G01 Y35.38 F6000.0
M5
G00 X36.23 Y35.36 F6000.0
M3
G01 Y35.86 F6000.0
M5
G00 X36.13 Y35.87 F6000.0
M3
G01 Y35.35 F6000.0
M5
G00 X36.03 Y35.33 F6000.0
M3
G01 Y35.88 F6000.0
M5
G00 X36.03 Y35.97 F6000.0
M3
G01 Y36.76 F6000.0
M5
G00 X36.33 Y36.71 F6000.0
M3
G01 Y38.81 F6000.0
M5
G00 X36.33 Y39.45 F6000.0
M3
G01 Y39.99 F6000.0
M5
G00 X36.13 Y39.97 F6000.0
M3
G01 Y40.37 F6000.0
M5
G00 X36.13 Y40.43 F6000.0
M3
G01 Y40.85 F6000.0
M5
G00 X36.23 Y40.85 F6000.0
M3
G01 Y40.44 F6000.0
M5
G00 X36.33 Y40.45 F6000.0
M3
G01 Y40.86 F6000.0
M5
G00 X36.43 Y40.86 F6000.0
M3
G01 Y40.46 F6000.0
M5
G00 X36.53 Y40.46 F6000.0
M3
G01 Y40.86 F6000.0
M5
G00 X36.63 Y40.86 F6000.0
M3
G01 Y40.47 F6000.0
M5
G00 X36.73 Y40.48 F6000.0
M3
G01 Y40.86 F6000.0
M5
G00 X36.83 Y40.85 F6000.0
M3
G01 Y40.49 F6000.0
M5
G00 X36.93 Y40.48 F6000.0
M3
G01 Y40.85 F6000.0
M5
G00 X37.03 Y40.85 F6000.0
M3
G01 Y40.47 F6000.0
M5
G00 X37.13 Y40.45 F6000.0
M3
G01 Y40.85 F6000.0
M5
G00 X37.23 Y40.85 F6000.0
M3
G01 Y40.44 F6000.0
M5
G00 X37.33 Y40.43 F6000.0
M3
G01 Y40.84 F6000.0
M5
G00 X37.43 Y40.81 F6000.0
M3
G01 Y40.42 F6000.0
M5
G00 X37.53 Y40.41 F6000.0
M3
G01 Y40.79 F6000.0
M5
G00 X37.63 Y40.77 F6000.0
M3
G01 Y40.37 F6000.0
M5
G00 X37.73 Y40.33 F6000.0
M3
G01 Y40.75 F6000.0
M5
G00 X37.83 Y40.73 F6000.0
M3
G01 Y40.29 F6000.0
M5
G00 X37.93 Y40.25 F6000.0
M3
G01 Y40.71 F6000.0
M5
G00 X38.03 Y40.65 F6000.0
M3
G01 Y40.21 F6000.0
M5
G00 X38.13 Y40.17 F6000.0
M3
G01 Y40.59 F6000.0
M5
G00 X38.23 Y40.53 F6000.0
M3
G01 Y40.1 F6000.0
M5
G00 X38.33 Y40.03 F6000.0
M3
G01 Y40.47 F6000.0
M5
G00 X38.43 Y40.41 F6000.0
M3
G01 Y39.96 F6000.0
M5
G00 X38.53 Y39.88 F6000.0
M3
G01 Y40.33 F6000.0
M5
G00 X38.63 Y40.23 F6000.0
M3
G01 Y39.81 F6000.0
M5
G00 X38.73 Y39.71 F6000.0
M3
G01 Y40.13 F6000.0
M5
G00 X38.83 Y40.03 F6000.0
M3
G01 Y39.6 F6000.0
M5
G00 X38.93 Y39.48 F6000.0
M3
G01 Y39.94 F6000.0
M5
G00 X39.03 Y39.84 F6000.0
M3
G01 Y39.36 F6000.0
M5
G00 X39.13 Y39.24 F6000.0
M3
G01 Y39.72 F6000.0
M5
G00 X39.23 Y39.6 F6000.0
M3
G01 Y39.14 F6000.0
M5
G00 X39.33 Y39.05 F6000.0
M3
G01 Y39.48 F6000.0
M5
G00 X39.43 Y39.36 F6000.0
M3
G01 Y38.95 F6000.0
M5
G00 X39.53 Y38.85 F6000.0
M3
G01 Y39.24 F6000.0
M5
G00 X39.63 Y39.12 F6000.0
M3
G01 Y38.75 F6000.0
M5
G00 X39.73 Y38.76 F6000.0
M3
G01 Y39.0 F6000.0
M5
G00 X39.83 Y38.67 F6000.0
M3
G01 Y38.35 F6000.0
M5
G00 X39.93 Y38.18 F6000.0
M3
G01 Y38.66 F6000.0
M5
G00 X40.03 Y38.51 F6000.0
M3
G01 Y38.02 F6000.0
M5
G00 X40.13 Y37.86 F6000.0
M3
G01 Y38.32 F6000.0
M5
G00 X40.23 Y38.11 F6000.0
M3
G01 Y37.74 F6000.0
M5
G00 X40.33 Y37.61 F6000.0
M3
G01 Y37.89 F6000.0
M5
G00 X40.43 Y37.66 F6000.0
M3
G01 Y37.48 F6000.0
M5
G00 X41.03 Y37.77 F6000.0
M3
G01 Y39.11 F6000.0
M5
G00 X40.83 Y39.09 F6000.0
M3
G01 Y44.73 F6000.0
M5
G00 X41.13 Y44.7 F6000.0
M3
G01 Y46.55 F6000.0
M5
G00 X41.33 Y46.25 F6000.0
M3
G01 Y47.52 F6000.0
M5
G00 X41.53 Y47.38 F6000.0
M3
G01 Y48.45 F6000.0
M5
G00 X41.73 Y48.39 F6000.0
M3
G01 Y49.13 F6000.0
M5
G00 X41.93 Y49.07 F6000.0
M3
G01 Y49.81 F6000.0
M5
G00 X42.13 Y49.76 F6000.0
M3
G01 Y50.49 F6000.0
M5
G00 X42.33 Y50.44 F6000.0
M3
G01 Y51.16 F6000.0
M5
G00 X42.53 Y51.07 F6000.0
M3
G01 Y51.83 F6000.0
M5
G00 X42.83 Y51.77 F6000.0
M3
G01 Y52.62 F6000.0
M5
G00 X42.73 Y52.36 F6000.0
M3
G01 Y51.54 F6000.0
M5
G00 X42.43 Y51.5 F6000.0
M3
G01 Y50.78 F6000.0
M5
G00 X42.23 Y50.83 F6000.0
M3
G01 Y50.1 F6000.0
M5
G00 X42.03 Y50.15 F6000.0
M3
G01 Y49.41 F6000.0
M5
G00 X41.83 Y49.47 F6000.0
M3
G01 Y48.73 F6000.0
M5
G00 X41.63 Y48.79 F6000.0
M3
G01 Y47.94 F6000.0
M5
G00 X41.43 Y48.01 F6000.0
M3
G01 Y46.81 F6000.0
M5
G00 X41.23 Y47.04 F6000.0
M3
G01 Y45.69 F6000.0
M5
G00 X40.93 Y45.58 F6000.0
M3
G01 Y38.31 F6000.0
M5
G00 X42.03 Y38.24 F6000.0
M3
G01 Y37.14 F6000.0
M5
G00 X41.93 Y37.12 F6000.0
M3
G01 Y46.49 F6000.0
M5
G00 X42.23 Y46.87 F6000.0
M3
G01 Y48.45 F6000.0
M5
G00 X42.53 Y48.57 F6000.0
M3
G01 Y49.55 F6000.0
M5
G00 X42.83 Y49.66 F6000.0
M3
G01 Y50.64 F6000.0
M5
G00 X43.13 Y50.64 F6000.0
M3
G01 Y51.46 F6000.0
M5
G00 X43.43 Y51.49 F6000.0
M3
G01 Y52.25 F6000.0
M5
G00 X43.33 Y51.99 F6000.0
M3
G01 Y51.2 F6000.0
M5
G00 X43.03 Y51.2 F6000.0
M3
G01 Y50.35 F6000.0
M5
G00 X42.73 Y50.28 F6000.0
M3
G01 Y49.3 F6000.0
M5
G00 X42.43 Y49.19 F6000.0
M3
G01 Y48.21 F6000.0
M5
G00 X42.33 Y47.85 F6000.0
M3
G01 Y48.83 F6000.0
M5
G00 X42.63 Y48.94 F6000.0
M3
G01 Y49.91 F6000.0
M5
G00 X42.93 Y50.02 F6000.0
M3
G01 Y50.93 F6000.0
M5
G00 X43.23 Y50.92 F6000.0
M3
G01 Y51.72 F6000.0
M5
G00 X43.53 Y51.77 F6000.0
M3
G01 Y52.51 F6000.0
M5
G00 X43.63 Y52.78 F6000.0
M3
G01 Y52.05 F6000.0
M5
G00 X43.73 Y52.34 F6000.0
M3
G01 Y53.04 F6000.0
M5
G00 X43.83 Y53.26 F6000.0
M3
G01 Y52.6 F6000.0
M5
G00 X43.93 Y52.83 F6000.0
M3
G01 Y53.46 F6000.0
M5
G00 X44.03 Y53.67 F6000.0
M3
G01 Y53.06 F6000.0
M5
G00 X44.13 Y53.01 F6000.0
M3
G01 Y53.87 F6000.0
M5
G00 X44.23 Y54.08 F6000.0
M3
G01 Y52.94 F6000.0
M5
G00 X44.33 Y52.88 F6000.0
M3
G01 Y53.27 F6000.0
M5
G00 X44.43 Y53.22 F6000.0
M3
G01 Y52.82 F6000.0
M5
G00 X44.53 Y52.76 F6000.0
M3
G01 Y53.17 F6000.0
M5
G00 X44.63 Y53.11 F6000.0
M3
G01 Y52.69 F6000.0
M5
G00 X44.73 Y52.63 F6000.0
M3
G01 Y53.06 F6000.0
M5
G00 X44.83 Y53. F6000.0
M3
G01 Y52.57 F6000.0
M5
G00 X44.93 Y52.5 F6000.0
M3
G01 Y52.95 F6000.0
M5
G00 X45.03 Y52.9 F6000.0
M3
G01 Y52.44 F6000.0
M5
G00 X45.13 Y52.38 F6000.0
M3
G01 Y52.84 F6000.0
M5
G00 X45.23 Y52.79 F6000.0
M3
G01 Y52.33 F6000.0
M5
G00 X45.33 Y52.27 F6000.0
M3
G01 Y52.73 F6000.0
M5
G00 X45.43 Y52.68 F6000.0
M3
G01 Y52.22 F6000.0
M5
G00 X45.53 Y52.16 F6000.0
M3
G01 Y52.63 F6000.0
M5
G00 X45.63 Y52.57 F6000.0
M3
G01 Y52.1 F6000.0
M5
G00 X45.73 Y52.05 F6000.0
M3
G01 Y52.52 F6000.0
M5
G00 X45.83 Y52.46 F6000.0
M3
G01 Y51.99 F6000.0
M5
G00 X45.93 Y51.94 F6000.0
M3
G01 Y52.41 F6000.0
M5
G00 X46.03 Y52.35 F6000.0
M3
G01 Y51.88 F6000.0
M5
G00 X46.13 Y51.83 F6000.0
M3
G01 Y52.3 F6000.0
M5
G00 X46.23 Y52.25 F6000.0
M3
G01 Y51.77 F6000.0
M5
G00 X46.33 Y51.72 F6000.0
M3
G01 Y52.19 F6000.0
M5
G00 X46.43 Y52.14 F6000.0
M3
G01 Y51.66 F6000.0
M5
G00 X46.53 Y51.61 F6000.0
M3
G01 Y52.08 F6000.0
M5
G00 X46.63 Y52.03 F6000.0
M3
G01 Y51.55 F6000.0
M5
G00 X46.73 Y51.49 F6000.0
M3
G01 Y51.98 F6000.0
M5
G00 X46.83 Y51.92 F6000.0
M3
G01 Y51.44 F6000.0
M5
G00 X46.93 Y51.38 F6000.0
M3
G01 Y51.87 F6000.0
M5
G00 X47.03 Y51.81 F6000.0
M3
G01 Y51.33 F6000.0
M5
G00 X47.13 Y51.27 F6000.0
M3
G01 Y51.76 F6000.0
M5
G00 X47.23 Y51.71 F6000.0
M3
G01 Y51.22 F6000.0
M5
G00 X47.33 Y51.16 F6000.0
M3
G01 Y51.65 F6000.0
M5
G00 X47.43 Y51.6 F6000.0
M3
G01 Y51.12 F6000.0
M5
G00 X47.53 Y51.08 F6000.0
M3
G01 Y51.54 F6000.0
M5
G00 X47.63 Y51.49 F6000.0
M3
G01 Y51.04 F6000.0
M5
G00 X47.73 Y50.99 F6000.0
M3
G01 Y51.43 F6000.0
M5
G00 X47.83 Y51.38 F6000.0
M3
G01 Y50.95 F6000.0
M5
G00 X47.93 Y50.91 F6000.0
M3
G01 Y51.33 F6000.0
M5
G00 X48.03 Y51.27 F6000.0
M3
G01 Y50.86 F6000.0
M5
G00 X48.13 Y50.82 F6000.0
M3
G01 Y51.22 F6000.0
M5
G00 X48.23 Y51.17 F6000.0
M3
G01 Y50.78 F6000.0
M5
G00 X48.33 Y50.74 F6000.0
M3
G01 Y51.14 F6000.0
M5
G00 X48.43 Y51.1 F6000.0
M3
G01 Y50.69 F6000.0
M5
G00 X48.53 Y50.65 F6000.0
M3
G01 Y51.07 F6000.0
M5
G00 X48.63 Y51.03 F6000.0
M3
G01 Y50.61 F6000.0
M5
G00 X48.73 Y50.56 F6000.0
M3
G01 Y50.99 F6000.0
M5
G00 X48.83 Y50.96 F6000.0
M3
G01 Y50.52 F6000.0
M5
G00 X48.93 Y50.48 F6000.0
M3
G01 Y50.92 F6000.0
M5
G00 X49.03 Y50.89 F6000.0
M3
G01 Y50.43 F6000.0
M5
G00 X49.13 Y50.39 F6000.0
M3
G01 Y50.85 F6000.0
M5
G00 X49.23 Y50.81 F6000.0
M3
G01 Y50.34 F6000.0
M5
G00 X49.33 Y50.3 F6000.0
M3
G01 Y50.78 F6000.0
M5
G00 X49.43 Y50.74 F6000.0
M3
G01 Y50.25 F6000.0
M5
G00 X49.53 Y50.21 F6000.0
M3
G01 Y50.7 F6000.0
M5
G00 X49.63 Y50.67 F6000.0
M3
G01 Y50.17 F6000.0
M5
G00 X49.73 Y50.14 F6000.0
M3
G01 Y50.63 F6000.0
M5
G00 X49.83 Y50.61 F6000.0
M3
G01 Y50.12 F6000.0
M5
G00 X49.93 Y50.09 F6000.0
M3
G01 Y50.58 F6000.0
M5
G00 X50.03 Y50.56 F6000.0
M3
G01 Y50.06 F6000.0
M5
G00 X50.13 Y50.04 F6000.0
M3
G01 Y50.54 F6000.0
M5
G00 X50.23 Y50.51 F6000.0
M3
G01 Y50.01 F6000.0
M5
G00 X50.33 Y49.99 F6000.0
M3
G01 Y50.49 F6000.0
M5
G00 X50.43 Y50.47 F6000.0
M3
G01 Y49.97 F6000.0
M5
G00 X50.53 Y49.94 F6000.0
M3
G01 Y50.44 F6000.0
M5
G00 X50.63 Y50.42 F6000.0
M3
G01 Y49.92 F6000.0
M5
G00 X50.73 Y49.9 F6000.0
M3
G01 Y50.4 F6000.0
M5
G00 X50.83 Y50.37 F6000.0
M3
G01 Y49.87 F6000.0
M5
G00 X50.93 Y49.85 F6000.0
M3
G01 Y50.35 F6000.0
M5
G00 X51.03 Y50.33 F6000.0
M3
G01 Y49.82 F6000.0
M5
G00 X51.13 Y49.8 F6000.0
M3
G01 Y50.3 F6000.0
M5
G00 X51.23 Y50.28 F6000.0
M3
G01 Y49.77 F6000.0
M5
G00 X51.33 Y49.75 F6000.0
M3
G01 Y50.26 F6000.0
M5
G00 X51.43 Y50.23 F6000.0
M3
G01 Y49.72 F6000.0
M5
G00 X51.53 Y49.65 F6000.0
M3
G01 Y50.21 F6000.0
M5
G00 X51.63 Y50.2 F6000.0
M3
G01 Y49.38 F6000.0
M5
G00 X51.73 Y49.07 F6000.0
M3
G01 Y50.19 F6000.0
M5
G00 X51.83 Y50.17 F6000.0
M3
G01 Y48.69 F6000.0
M5
G00 X51.93 Y48.34 F6000.0
M3
G01 Y49.61 F6000.0
M5
G00 X51.93 Y49.7 F6000.0
M3
G01 Y50.16 F6000.0
M5
G00 X52.03 Y50.15 F6000.0
M3
G01 Y49.69 F6000.0
M5
G00 X52.13 Y49.69 F6000.0
M3
G01 Y50.13 F6000.0
M5
G00 X52.23 Y50.12 F6000.0
M3
G01 Y49.68 F6000.0
M5
G00 X52.33 Y49.67 F6000.0
M3
G01 Y50.11 F6000.0
M5
G00 X52.43 Y50.1 F6000.0
M3
G01 Y49.67 F6000.0
M5
G00 X52.53 Y49.66 F6000.0
M3
G01 Y50.08 F6000.0
M5
G00 X52.63 Y50.07 F6000.0
M3
G01 Y49.65 F6000.0
M5
G00 X52.73 Y49.65 F6000.0
M3
G01 Y50.06 F6000.0
M5
G00 X52.83 Y50.04 F6000.0
M3
G01 Y49.64 F6000.0
M5
G00 X52.93 Y49.63 F6000.0
M3
G01 Y50.03 F6000.0
M5
G00 X53.03 Y50.02 F6000.0
M3
G01 Y49.63 F6000.0
M5
G00 X53.13 Y49.62 F6000.0
M3
G01 Y50.0 F6000.0
M5
G00 X53.23 Y49.99 F6000.0
M3
G01 Y49.62 F6000.0
M5
G00 X53.33 Y49.61 F6000.0
M3
G01 Y49.98 F6000.0
M5
G00 X53.43 Y49.97 F6000.0
M3
G01 Y49.61 F6000.0
M5
G00 X53.53 Y49.6 F6000.0
M3
G01 Y49.96 F6000.0
M5
G00 X53.63 Y49.96 F6000.0
M3
G01 Y49.6 F6000.0
M5
G00 X53.73 Y49.59 F6000.0
M3
G01 Y49.96 F6000.0
M5
G00 X53.83 Y49.95 F6000.0
M3
G01 Y49.59 F6000.0
M5
G00 X53.93 Y49.58 F6000.0
M3
G01 Y49.95 F6000.0
M5
G00 X54.03 Y49.94 F6000.0
M3
G01 Y49.58 F6000.0
M5
G00 X54.13 Y49.58 F6000.0
M3
G01 Y49.94 F6000.0
M5
G00 X54.23 Y49.93 F6000.0
M3
G01 Y49.57 F6000.0
M5
G00 X54.33 Y49.57 F6000.0
M3
G01 Y49.93 F6000.0
M5
G00 X54.43 Y49.93 F6000.0
M3
G01 Y49.56 F6000.0
M5
G00 X54.53 Y49.56 F6000.0
M3
G01 Y49.92 F6000.0
M5
G00 X54.63 Y49.92 F6000.0
M3
G01 Y49.55 F6000.0
M5
G00 X54.73 Y49.55 F6000.0
M3
G01 Y49.91 F6000.0
M5
G00 X54.83 Y49.91 F6000.0
M3
G01 Y49.54 F6000.0
M5
G00 X54.93 Y49.54 F6000.0
M3
G01 Y49.91 F6000.0
M5
G00 X55.03 Y49.9 F6000.0
M3
G01 Y49.53 F6000.0
M5
G00 X55.13 Y49.53 F6000.0
M3
G01 Y49.9 F6000.0
M5
G00 X55.23 Y49.89 F6000.0
M3
G01 Y49.52 F6000.0
M5
G00 X55.33 Y49.52 F6000.0
M3
G01 Y49.89 F6000.0
M5
G00 X55.43 Y49.89 F6000.0
M3
G01 Y49.52 F6000.0
M5
G00 X55.53 Y49.51 F6000.0
M3
G01 Y49.89 F6000.0
M5
G00 X55.63 Y49.9 F6000.0
M3
G01 Y49.51 F6000.0
M5
G00 X55.73 Y49.5 F6000.0
M3
G01 Y49.9 F6000.0
M5
G00 X55.83 Y49.91 F6000.0
M3
G01 Y49.5 F6000.0
M5
G00 X55.93 Y49.5 F6000.0
M3
G01 Y49.92 F6000.0
M5
G00 X56.03 Y49.92 F6000.0
M3
G01 Y49.51 F6000.0
M5
G00 X56.13 Y49.52 F6000.0
M3
G01 Y49.93 F6000.0
M5
G00 X56.23 Y49.93 F6000.0
M3
G01 Y49.52 F6000.0
M5
G00 X56.33 Y49.53 F6000.0
M3
G01 Y49.94 F6000.0
M5
G00 X56.43 Y49.94 F6000.0
M3
G01 Y49.54 F6000.0
M5
G00 X56.53 Y49.54 F6000.0
M3
G01 Y49.95 F6000.0
M5
G00 X56.63 Y49.96 F6000.0
M3
G01 Y49.55 F6000.0
M5
G00 X56.73 Y49.56 F6000.0
M3
G01 Y49.96 F6000.0
M5
G00 X56.83 Y49.97 F6000.0
M3
G01 Y49.56 F6000.0
M5
G00 X56.93 Y49.57 F6000.0
M3
G01 Y49.97 F6000.0
M5
G00 X57.03 Y49.98 F6000.0
M3
G01 Y49.58 F6000.0
M5
G00 X57.13 Y49.59 F6000.0
M3
G01 Y49.99 F6000.0
M5
G00 X57.23 Y49.99 F6000.0
M3
G01 Y49.59 F6000.0
M5
G00 X57.33 Y49.6 F6000.0
M3
G01 Y50.0 F6000.0
M5
G00 X57.43 Y50. F6000.0
M3
G01 Y49.61 F6000.0
M5
G00 X57.53 Y49.61 F6000.0
M3
G01 Y50.01 F6000.0
M5
G00 X57.63 Y50.01 F6000.0
M3
G01 Y49.62 F6000.0
M5
G00 X57.73 Y49.63 F6000.0
M3
G01 Y50.02 F6000.0
M5
G00 X57.83 Y50.03 F6000.0
M3
G01 Y49.64 F6000.0
M5
G00 X57.93 Y49.64 F6000.0
M3
G01 Y50.03 F6000.0
M5
G00 X58.03 Y50.04 F6000.0
M3
G01 Y49.65 F6000.0
M5
G00 X58.13 Y49.66 F6000.0
M3
G01 Y50.04 F6000.0
M5
G00 X58.23 Y50.05 F6000.0
M3
G01 Y49.66 F6000.0
M5
G00 X58.33 Y49.67 F6000.0
M3
G01 Y50.06 F6000.0
M5
G00 X58.43 Y50.07 F6000.0
M3
G01 Y49.68 F6000.0
M5
G00 X58.53 Y49.68 F6000.0
M3
G01 Y50.09 F6000.0
M5
G00 X58.63 Y50.11 F6000.0
M3
G01 Y49.69 F6000.0
M5
G00 X58.73 Y49.72 F6000.0
M3
G01 Y50.13 F6000.0
M5
G00 X58.83 Y50.15 F6000.0
M3
G01 Y49.74 F6000.0
M5
G00 X58.93 Y49.76 F6000.0
M3
G01 Y50.17 F6000.0
M5
G00 X59.03 Y50.19 F6000.0
M3
G01 Y49.79 F6000.0
M5
G00 X59.13 Y49.81 F6000.0
M3
G01 Y50.21 F6000.0
M5
G00 X59.23 Y50.23 F6000.0
M3
G01 Y49.84 F6000.0
M5
G00 X59.33 Y49.86 F6000.0
M3
G01 Y50.25 F6000.0
M5
G00 X59.43 Y50.27 F6000.0
M3
G01 Y49.89 F6000.0
M5
G00 X59.53 Y49.91 F6000.0
M3
G01 Y50.29 F6000.0
M5
G00 X59.63 Y50.3 F6000.0
M3
G01 Y49.93 F6000.0
M5
G00 X59.73 Y49.96 F6000.0
M3
G01 Y50.32 F6000.0
M5
G00 X59.83 Y50.34 F6000.0
M3
G01 Y49.98 F6000.0
M5
G00 X59.93 Y50.01 F6000.0
M3
G01 Y50.36 F6000.0
M5
G00 X60.03 Y50.38 F6000.0
M3
G01 Y50.03 F6000.0
M5
G00 X60.13 Y50.06 F6000.0
M3
G01 Y50.4 F6000.0
M5
G00 X60.23 Y50.42 F6000.0
M3
G01 Y50.08 F6000.0
M5
G00 X60.33 Y50.1 F6000.0
M3
G01 Y50.44 F6000.0
M5
G00 X60.43 Y50.46 F6000.0
M3
G01 Y50.13 F6000.0
M5
G00 X60.53 Y50.15 F6000.0
M3
G01 Y50.48 F6000.0
M5
G00 X60.63 Y50.5 F6000.0
M3
G01 Y50.18 F6000.0
M5
G00 X60.73 Y50.2 F6000.0
M3
G01 Y50.52 F6000.0
M5
G00 X60.83 Y50.54 F6000.0
M3
G01 Y50.23 F6000.0
M5
G00 X60.93 Y50.25 F6000.0
M3
G01 Y50.56 F6000.0
M5
G00 X61.03 Y50.59 F6000.0
M3
G01 Y50.27 F6000.0
M5
G00 X61.13 Y50.31 F6000.0
M3
G01 Y50.63 F6000.0
M5
G00 X61.23 Y50.67 F6000.0
M3
G01 Y50.35 F6000.0
M5
G00 X61.33 Y50.38 F6000.0
M3
G01 Y50.7 F6000.0
M5
G00 X61.43 Y50.74 F6000.0
M3
G01 Y50.42 F6000.0
M5
G00 X61.53 Y50.46 F6000.0
M3
G01 Y50.78 F6000.0
M5
G00 X61.63 Y50.82 F6000.0
M3
G01 Y50.5 F6000.0
M5
G00 X61.73 Y50.54 F6000.0
M3
G01 Y50.85 F6000.0
M5
G00 X61.83 Y50.89 F6000.0
M3
G01 Y50.57 F6000.0
M5
G00 X61.93 Y50.61 F6000.0
M3
G01 Y50.93 F6000.0
M5
G00 X62.03 Y50.97 F6000.0
M3
G01 Y50.65 F6000.0
M5
G00 X62.13 Y50.69 F6000.0
M3
G01 Y51.0 F6000.0
M5
G00 X62.23 Y51.04 F6000.0
M3
G01 Y50.73 F6000.0
M5
G00 X62.33 Y50.76 F6000.0
M3
G01 Y51.08 F6000.0
M5
G00 X62.43 Y51.12 F6000.0
M3
G01 Y50.8 F6000.0
M5
G00 X62.53 Y50.84 F6000.0
M3
G01 Y51.15 F6000.0
M5
G00 X62.63 Y51.19 F6000.0
M3
G01 Y50.88 F6000.0
M5
G00 X62.73 Y50.92 F6000.0
M3
G01 Y51.23 F6000.0
M5
G00 X62.83 Y51.27 F6000.0
M3
G01 Y50.95 F6000.0
M5
G00 X62.93 Y50.99 F6000.0
M3
G01 Y51.3 F6000.0
M5
G00 X63.03 Y51.34 F6000.0
M3
G01 Y51.03 F6000.0
M5
G00 X63.13 Y51.07 F6000.0
M3
G01 Y51.38 F6000.0
M5
G00 X63.23 Y51.44 F6000.0
M3
G01 Y51.11 F6000.0
M5
G00 X63.33 Y51.16 F6000.0
M3
G01 Y51.5 F6000.0
M5
G00 X63.43 Y51.56 F6000.0
M3
G01 Y51.22 F6000.0
M5
G00 X63.53 Y51.28 F6000.0
M3
G01 Y51.63 F6000.0
M5
G00 X63.63 Y51.69 F6000.0
M3
G01 Y51.33 F6000.0
M5
G00 X63.73 Y51.39 F6000.0
M3
G01 Y51.76 F6000.0
M5
G00 X63.83 Y51.82 F6000.0
M3
G01 Y51.44 F6000.0
M5
G00 X63.93 Y51.5 F6000.0
M3
G01 Y51.88 F6000.0
M5
G00 X64.03 Y51.95 F6000.0
M3
G01 Y51.56 F6000.0
M5
G00 X64.13 Y51.61 F6000.0
M3
G01 Y52.01 F6000.0
M5
G00 X64.23 Y52.07 F6000.0
M3
G01 Y51.67 F6000.0
M5
G00 X64.33 Y51.73 F6000.0
M3
G01 Y52.14 F6000.0
M5
G00 X64.43 Y52.2 F6000.0
M3
G01 Y51.78 F6000.0
M5
G00 X64.53 Y51.84 F6000.0
M3
G01 Y52.27 F6000.0
M5
G00 X64.63 Y52.33 F6000.0
M3
G01 Y51.9 F6000.0
M5
G00 X64.73 Y51.95 F6000.0
M3
G01 Y52.39 F6000.0
M5
G00 X64.83 Y52.46 F6000.0
M3
G01 Y52.01 F6000.0
M5
G00 X64.93 Y52.08 F6000.0
M3
G01 Y52.52 F6000.0
M5
G00 X65.03 Y52.6 F6000.0
M3
G01 Y52.18 F6000.0
M5
G00 X65.13 Y52.28 F6000.0
M3
G01 Y52.68 F6000.0
M5
G00 X65.23 Y52.76 F6000.0
M3
G01 Y52.38 F6000.0
M5
G00 X65.33 Y52.48 F6000.0
M3
G01 Y52.83 F6000.0
M5
G00 X65.43 Y52.91 F6000.0
M3
G01 Y52.59 F6000.0
M5
G00 X65.53 Y52.69 F6000.0
M3
G01 Y52.99 F6000.0
M5
G00 X65.63 Y53.07 F6000.0
M3
G01 Y52.79 F6000.0
M5
G00 X65.73 Y52.89 F6000.0
M3
G01 Y53.15 F6000.0
M5
G00 X65.83 Y53.22 F6000.0
M3
G01 Y53.0 F6000.0
M5
G00 X66.03 Y52.82 F6000.0
M3
G01 Y50.41 F6000.0
M5
G00 X65.63 Y50.34 F6000.0
M3
G01 Y48.73 F6000.0
M5
G00 X65.73 Y48.74 F6000.0
M3
G01 Y51.0 F6000.0
M5
G00 X66.13 Y50.89 F6000.0
M3
G01 Y53.41 F6000.0
M5
G00 X66.63 Y53.44 F6000.0
M3
G01 Y56.35 F6000.0
M5
G00 X67.03 Y56.07 F6000.0
M3
G01 Y60.25 F6000.0
M5
G00 X67.43 Y60.94 F6000.0
M3
G01 Y75.0 F6000.0
M5
G00 X67.23 Y75.05 F6000.0
M3
G01 Y76.76 F6000.0
M5
G00 X67.13 Y76.6 F6000.0
M3
G01 Y77.64 F6000.0
M5
G00 X67.03 Y77.88 F6000.0
M3
G01 Y78.52 F6000.0
M5
G00 X66.93 Y78.78 F6000.0
M3
G01 Y79.39 F6000.0
M5
G00 X66.83 Y79.67 F6000.0
M3
G01 Y79.78 F6000.0
M5
G00 X66.73 Y80.28 F6000.0
M3
G01 Y80.52 F6000.0
M5
G00 X62.63 Y80.51 F6000.0
M3
G01 Y79.9 F6000.0
M5
G00 X62.53 Y80.1 F6000.0
M3
G01 Y80.7 F6000.0
M5
G00 X62.43 Y80.88 F6000.0
M3
G01 Y80.3 F6000.0
M5
G00 X62.33 Y80.47 F6000.0
M3
G01 Y81.04 F6000.0
M5
G00 X62.23 Y81.21 F6000.0
M3
G01 Y80.62 F6000.0
M5
G00 X62.13 Y80.78 F6000.0
M3
G01 Y81.37 F6000.0
M5
G00 X62.03 Y81.54 F6000.0
M3
G01 Y80.93 F6000.0
M5
G00 X61.93 Y81.09 F6000.0
M3
G01 Y81.7 F6000.0
M5
G00 X61.83 Y81.87 F6000.0
M3
G01 Y81.24 F6000.0
M5
G00 X61.73 Y81.4 F6000.0
M3
G01 Y82.03 F6000.0
M5
G00 X61.63 Y82.2 F6000.0
M3
G01 Y81.55 F6000.0
M5
G00 X61.53 Y81.71 F6000.0
M3
G01 Y82.36 F6000.0
M5
G00 X61.43 Y82.52 F6000.0
M3
G01 Y81.87 F6000.0
M5
G00 X61.33 Y82.02 F6000.0
M3
G01 Y82.66 F6000.0
M5
G00 X61.23 Y82.79 F6000.0
M3
G01 Y82.18 F6000.0
M5
G00 X61.13 Y82.33 F6000.0
M3
G01 Y82.93 F6000.0
M5
G00 X61.03 Y83.06 F6000.0
M3
G01 Y82.49 F6000.0
M5
G00 X60.93 Y82.64 F6000.0
M3
G01 Y83.2 F6000.0
M5
G00 X60.83 Y83.33 F6000.0
M3
G01 Y82.8 F6000.0
M5
G00 X60.73 Y82.95 F6000.0
M3
G01 Y83.47 F6000.0
M5
G00 X60.63 Y83.6 F6000.0
M3
G01 Y83.11 F6000.0
M5
G00 X60.53 Y83.26 F6000.0
M3
G01 Y83.74 F6000.0
M5
G00 X60.43 Y83.87 F6000.0
M3
G01 Y83.42 F6000.0
M5
G00 X60.33 Y83.57 F6000.0
M3
G01 Y84.01 F6000.0
M5
G00 X60.23 Y84.14 F6000.0
M3
G01 Y83.73 F6000.0
M5
G00 X60.13 Y83.88 F6000.0
M3
G01 Y84.28 F6000.0
M5
G00 X60.03 Y84.41 F6000.0
M3
G01 Y84.03 F6000.0
M5
G00 X59.93 Y84.17 F6000.0
M3
G01 Y84.52 F6000.0
M5
G00 X59.83 Y84.62 F6000.0
M3
G01 Y84.32 F6000.0
M5
G00 X59.73 Y84.47 F6000.0
M3
G01 Y84.72 F6000.0
M5
G00 X59.63 Y84.82 F6000.0
M3
G01 Y84.62 F6000.0
M5
G00 X59.53 Y84.76 F6000.0
M3
G01 Y84.93 F6000.0
M5
G00 X59.43 Y84.91 F6000.0
M3
G01 Y85.03 F6000.0
M5
G00 X59.33 Y80.02 F6000.0
M3
G01 Y79.39 F6000.0
M5
G00 X59.23 Y79.5 F6000.0
M3
G01 Y80.11 F6000.0
M5
G00 X59.13 Y80.2 F6000.0
M3
G01 Y79.59 F6000.0
M5
G00 X59.03 Y79.68 F6000.0
M3
G01 Y80.29 F6000.0
M5
G00 X58.93 Y80.39 F6000.0
M3
G01 Y79.77 F6000.0
M5
G00 X58.83 Y79.86 F6000.0
M3
G01 Y80.48 F6000.0
M5
G00 X58.73 Y80.57 F6000.0
M3
G01 Y79.96 F6000.0
M5
G00 X58.63 Y80.05 F6000.0
M3
G01 Y80.66 F6000.0
M5
G00 X58.53 Y80.75 F6000.0
M3
G01 Y80.14 F6000.0
M5
G00 X58.43 Y80.23 F6000.0
M3
G01 Y80.84 F6000.0
M5
G00 X58.33 Y80.93 F6000.0
M3
G01 Y80.33 F6000.0
M5
G00 X58.23 Y80.42 F6000.0
M3
G01 Y81.03 F6000.0
M5
G00 X58.13 Y81.12 F6000.0
M3
G01 Y80.51 F6000.0
M5
G00 X58.03 Y80.6 F6000.0
M3
G01 Y81.21 F6000.0
M5
G00 X57.93 Y81.3 F6000.0
M3
G01 Y80.69 F6000.0
M5
G00 X57.83 Y80.79 F6000.0
M3
G01 Y81.39 F6000.0
M5
G00 X57.73 Y81.48 F6000.0
M3
G01 Y80.88 F6000.0
M5
G00 X57.63 Y80.97 F6000.0
M3
G01 Y81.57 F6000.0
M5
G00 X57.53 Y81.67 F6000.0
M3
G01 Y81.06 F6000.0
M5
G00 X57.43 Y81.15 F6000.0
M3
G01 Y81.76 F6000.0
M5
G00 X57.33 Y81.85 F6000.0
M3
G01 Y81.25 F6000.0
M5
G00 X57.23 Y81.34 F6000.0
M3
G01 Y81.93 F6000.0
M5
G00 X57.13 Y82.01 F6000.0
M3
G01 Y81.43 F6000.0
M5
G00 X57.03 Y81.52 F6000.0
M3
G01 Y82.09 F6000.0
M5
G00 X56.93 Y82.17 F6000.0
M3
G01 Y81.62 F6000.0
M5
G00 X56.83 Y81.71 F6000.0
M3
G01 Y82.24 F6000.0
M5
G00 X56.73 Y82.32 F6000.0
M3
G01 Y81.8 F6000.0
M5
G00 X56.63 Y81.89 F6000.0
M3
G01 Y82.4 F6000.0
M5
G00 X56.53 Y82.48 F6000.0
M3
G01 Y81.98 F6000.0
M5
G00 X56.43 Y82.08 F6000.0
M3
G01 Y82.56 F6000.0
M5
G00 X56.33 Y82.63 F6000.0
M3
G01 Y82.17 F6000.0
M5
G00 X56.23 Y82.25 F6000.0
M3
G01 Y82.71 F6000.0
M5
G00 X56.13 Y82.79 F6000.0
M3
G01 Y82.33 F6000.0
M5
G00 X56.03 Y82.41 F6000.0
M3
G01 Y82.87 F6000.0
M5
G00 X55.93 Y82.95 F6000.0
M3
G01 Y82.49 F6000.0
M5
G00 X55.83 Y82.57 F6000.0
M3
G01 Y83.03 F6000.0
M5
G00 X55.73 Y83.1 F6000.0
M3
G01 Y82.65 F6000.0
M5
G00 X55.63 Y82.73 F6000.0
M3
G01 Y83.18 F6000.0
M5
G00 X55.53 Y83.26 F6000.0
M3
G01 Y82.81 F6000.0
M5
G00 X55.43 Y82.89 F6000.0
M3
G01 Y83.34 F6000.0
M5
G00 X55.33 Y83.42 F6000.0
M3
G01 Y82.98 F6000.0
M5
G00 X55.23 Y83.06 F6000.0
M3
G01 Y83.49 F6000.0
M5
G00 X55.13 Y83.57 F6000.0
M3
G01 Y83.14 F6000.0
M5
G00 X55.03 Y83.22 F6000.0
M3
G01 Y83.65 F6000.0
M5
G00 X54.93 Y83.73 F6000.0
M3
G01 Y83.3 F6000.0
M5
G00 X54.83 Y83.38 F6000.0
M3
G01 Y83.81 F6000.0
M5
G00 X54.73 Y83.89 F6000.0
M3
G01 Y83.46 F6000.0
M5
G00 X54.63 Y83.54 F6000.0
M3
G01 Y83.97 F6000.0
M5
G00 X54.53 Y84.05 F6000.0
M3
G01 Y83.62 F6000.0
M5
G00 X54.43 Y83.68 F6000.0
M3
G01 Y84.12 F6000.0
M5
G00 X54.33 Y84.2 F6000.0
M3
G01 Y83.74 F6000.0
M5
G00 X54.23 Y83.8 F6000.0
M3
G01 Y84.28 F6000.0
M5
G00 X54.13 Y84.36 F6000.0
M3
G01 Y83.86 F6000.0
M5
G00 X54.03 Y83.92 F6000.0
M3
G01 Y84.44 F6000.0
M5
G00 X53.93 Y84.52 F6000.0
M3
G01 Y83.97 F6000.0
M5
G00 X53.83 Y84.03 F6000.0
M3
G01 Y84.59 F6000.0
M5
G00 X53.73 Y84.65 F6000.0
M3
G01 Y84.09 F6000.0
M5
G00 X53.63 Y84.15 F6000.0
M3
G01 Y84.71 F6000.0
M5
G00 X53.53 Y84.78 F6000.0
M3
G01 Y84.21 F6000.0
M5
G00 X53.43 Y84.27 F6000.0
M3
G01 Y84.84 F6000.0
M5
G00 X53.33 Y84.9 F6000.0
M3
G01 Y84.32 F6000.0
M5
G00 X53.23 Y84.38 F6000.0
M3
G01 Y84.96 F6000.0
M5
G00 X53.13 Y85.02 F6000.0
M3
G01 Y84.44 F6000.0
M5
G00 X53.03 Y84.5 F6000.0
M3
G01 Y85.11 F6000.0
M5
G00 X52.93 Y85.19 F6000.0
M3
G01 Y84.56 F6000.0
M5
G00 X52.83 Y84.61 F6000.0
M3
G01 Y85.28 F6000.0
M5
G00 X52.73 Y85.24 F6000.0
M3
G01 Y84.67 F6000.0
M5
G00 X52.53 Y84.67 F6000.0
M3
G01 Y83.87 F6000.0
M5
G00 X52.33 Y83.98 F6000.0
M3
G01 Y83.12 F6000.0
M5
G00 X52.13 Y83.29 F6000.0
M3
G01 Y82.37 F6000.0
M5
G00 X51.83 Y82.29 F6000.0
M3
G01 Y81.25 F6000.0
M5
G00 X51.53 Y81.3 F6000.0
M3
G01 Y80.34 F6000.0
M5
G00 X51.23 Y80.3 F6000.0
M3
G01 Y79.52 F6000.0
M5
G00 X50.93 Y79.5 F6000.0
M3
G01 Y78.7 F6000.0
M5
G00 X50.83 Y78.42 F6000.0
M3
G01 Y79.27 F6000.0
M5
G00 X51.13 Y79.24 F6000.0
M3
G01 Y79.97 F6000.0
M5
G00 X51.03 Y79.73 F6000.0
M3
G01 Y78.97 F6000.0
M5
G00 X50.73 Y79.04 F6000.0
M3
G01 Y78.15 F6000.0
M5
G00 X50.63 Y77.88 F6000.0
M3
G01 Y78.81 F6000.0
M5
G00 X50.53 Y78.58 F6000.0
M3
G01 Y77.66 F6000.0
M5
G00 X50.43 Y77.44 F6000.0
M3
G01 Y78.35 F6000.0
M5
G00 X50.33 Y78.12 F6000.0
M3
G01 Y77.23 F6000.0
M5
G00 X50.23 Y77.01 F6000.0
M3
G01 Y77.89 F6000.0
M5
G00 X50.13 Y77.66 F6000.0
M3
G01 Y76.79 F6000.0
M5
G00 X50.03 Y76.58 F6000.0
M3
G01 Y77.43 F6000.0
M5
G00 X49.93 Y77.21 F6000.0
M3
G01 Y76.36 F6000.0
M5
G00 X49.83 Y76.14 F6000.0
M3
G01 Y77.02 F6000.0
M5
G00 X49.73 Y76.83 F6000.0
M3
G01 Y75.93 F6000.0
M5
G00 X49.63 Y75.71 F6000.0
M3
G01 Y76.64 F6000.0
M5
G00 X49.53 Y76.45 F6000.0
M3
G01 Y75.49 F6000.0
M5
G00 X49.43 Y75.28 F6000.0
M3
G01 Y76.25 F6000.0
M5
G00 X49.33 Y76.06 F6000.0
M3
G01 Y75.08 F6000.0
M5
G00 X49.23 Y74.91 F6000.0
M3
G01 Y75.87 F6000.0
M5
G00 X49.13 Y75.68 F6000.0
M3
G01 Y74.75 F6000.0
M5
G00 X49.03 Y74.58 F6000.0
M3
G01 Y75.48 F6000.0
M5
G00 X48.93 Y75.29 F6000.0
M3
G01 Y74.42 F6000.0
M5
G00 X48.83 Y74.26 F6000.0
M3
G01 Y75.1 F6000.0
M5
G00 X48.73 Y74.91 F6000.0
M3
G01 Y74.09 F6000.0
M5
G00 X48.63 Y73.93 F6000.0
M3
G01 Y74.71 F6000.0
M5
G00 X48.53 Y74.52 F6000.0
M3
G01 Y73.76 F6000.0
M5
G00 X48.43 Y73.6 F6000.0
M3
G01 Y74.33 F6000.0
M5
G00 X48.33 Y74.14 F6000.0
M3
G01 Y73.44 F6000.0
M5
G00 X48.23 Y73.27 F6000.0
M3
G01 Y73.95 F6000.0
M5
G00 X48.13 Y73.76 F6000.0
M3
G01 Y73.11 F6000.0
M5
G00 X48.03 Y72.95 F6000.0
M3
G01 Y73.58 F6000.0
M5
G00 X47.93 Y73.39 F6000.0
M3
G01 Y72.8 F6000.0
M5
G00 X47.83 Y72.65 F6000.0
M3
G01 Y73.2 F6000.0
M5
G00 X47.73 Y73.01 F6000.0
M3
G01 Y72.5 F6000.0
M5
G00 X47.63 Y72.35 F6000.0
M3
G01 Y72.82 F6000.0
M5
G00 X47.53 Y72.68 F6000.0
M3
G01 Y72.2 F6000.0
M5
G00 X47.43 Y71.89 F6000.0
M3
G01 Y72.54 F6000.0
M5
G00 X47.33 Y72.51 F6000.0
M3
G01 Y69.88 F6000.0
M5
G00 X47.53 Y70.24 F6000.0
M3
G01 Y68.58 F6000.0
M5
G00 X47.53 Y68.48 F6000.0
M3
G01 Y67.96 F6000.0
M5
G00 X47.63 Y67.98 F6000.0
M3
G01 Y69.58 F6000.0
M5
G00 X47.43 Y69.23 F6000.0
M3
G01 Y70.9 F6000.0
M5
G00 X47.23 Y71. F6000.0
M3
G01 Y72.93 F6000.0
M5
G00 X47.23 Y73.17 F6000.0
M3
G01 Y76.57 F6000.0
M5
G00 X47.33 Y76.42 F6000.0
M3
G01 Y74.76 F6000.0
M5
G00 X47.13 Y75.43 F6000.0
M3
G01 Y72.4 F6000.0
M5
G00 X44.13 Y72.36 F6000.0
M3
G01 Y71.21 F6000.0
M5
G00 X44.13 Y70.88 F6000.0
M3
G01 Y70.52 F6000.0
M5
G00 X43.93 Y70.56 F6000.0
M3
G01 Y70.21 F6000.0
M5
G00 X43.73 Y70.24 F6000.0
M3
G01 Y69.89 F6000.0
M5
G00 X43.53 Y69.91 F6000.0
M3
G01 Y69.38 F6000.0
M5
G00 X43.63 Y69.65 F6000.0
M3
G01 Y70.08 F6000.0
M5
G00 X43.83 Y70.05 F6000.0
M3
G01 Y70.4 F6000.0
M5
G00 X44.03 Y70.37 F6000.0
M3
G01 Y70.72 F6000.0
M5
G00 X44.23 Y70.68 F6000.0
M3
G01 Y72.0 F6000.0
M5
G00 X44.33 Y71.66 F6000.0
M3
G01 Y70.77 F6000.0
M5
G00 X44.43 Y70.65 F6000.0
M3
G01 Y71.41 F6000.0
M5
G00 X44.53 Y71.16 F6000.0
M3
G01 Y70.42 F6000.0
M5
G00 X44.83 Y70.42 F6000.0
M3
G01 Y69.71 F6000.0
M5
G00 X44.73 Y69.95 F6000.0
M3
G01 Y70.67 F6000.0
M5
G00 X44.63 Y70.92 F6000.0
M3
G01 Y70.19 F6000.0
M5
G00 X44.93 Y70.17 F6000.0
M3
G01 Y69.48 F6000.0
M5
G00 X45.03 Y69.24 F6000.0
M3
G01 Y69.92 F6000.0
M5
G00 X45.13 Y69.67 F6000.0
M3
G01 Y69.03 F6000.0
M5
G00 X45.43 Y69.04 F6000.0
M3
G01 Y68.4 F6000.0
M5
G00 X45.33 Y68.61 F6000.0
M3
G01 Y69.2 F6000.0
M5
G00 X45.23 Y69.43 F6000.0
M3
G01 Y68.82 F6000.0
M5
G00 X45.53 Y68.88 F6000.0
M3
G01 Y68.19 F6000.0
M5
G00 X45.53 Y68.02 F6000.0
M3
G01 Y66.64 F6000.0
M5
G00 X45.63 Y66.57 F6000.0
M3
G01 Y68.71 F6000.0
M5
G00 X45.73 Y68.55 F6000.0
M3
G01 Y66.49 F6000.0
M5
G00 X45.83 Y66.41 F6000.0
M3
G01 Y68.38 F6000.0
M5
G00 X45.93 Y68.22 F6000.0
M3
G01 Y66.31 F6000.0
M5
G00 X46.03 Y66.19 F6000.0
M3
G01 Y68.05 F6000.0
M5
G00 X46.13 Y68.04 F6000.0
M3
G01 Y66.06 F6000.0
M5
G00 X46.23 Y65.93 F6000.0
M3
G01 Y68.06 F6000.0
M5
G00 X46.33 Y68.08 F6000.0
M3
G01 Y65.75 F6000.0
M5
G00 X46.63 Y65.79 F6000.0
M3
G01 Y64.2 F6000.0
M5
G00 X46.73 Y63.87 F6000.0
M3
G01 Y65.35 F6000.0
M5
G00 X46.43 Y65.21 F6000.0
M3
G01 Y68.1 F6000.0
M5
G00 X46.53 Y68.12 F6000.0
M3
G01 Y64.7 F6000.0
M5
G00 X46.83 Y64.9 F6000.0
M3
G01 Y63.64 F6000.0
M5
G00 X46.93 Y63.41 F6000.0
M3
G01 Y64.56 F6000.0
M5
G00 X47.03 Y64.32 F6000.0
M3
G01 Y63.18 F6000.0
M5
G00 X47.13 Y63.01 F6000.0
M3
G01 Y64.08 F6000.0
M5
G00 X47.23 Y63.83 F6000.0
M3
G01 Y62.88 F6000.0
M5
G00 X47.33 Y62.75 F6000.0
M3
G01 Y63.63 F6000.0
M5
G00 X47.43 Y63.48 F6000.0
M3
G01 Y62.62 F6000.0
M5
G00 X47.53 Y62.49 F6000.0
M3
G01 Y63.34 F6000.0
M5
G00 X47.63 Y63.19 F6000.0
M3
G01 Y62.36 F6000.0
M5
G00 X47.73 Y62.28 F6000.0
M3
G01 Y63.04 F6000.0
M5
G00 X47.83 Y62.89 F6000.0
M3
G01 Y62.21 F6000.0
M5
G00 X47.93 Y62.13 F6000.0
M3
G01 Y62.8 F6000.0
M5
G00 X48.03 Y62.71 F6000.0
M3
G01 Y62.06 F6000.0
M5
G00 X48.13 Y61.98 F6000.0
M3
G01 Y62.61 F6000.0
M5
G00 X48.23 Y62.52 F6000.0
M3
G01 Y61.91 F6000.0
M5
G00 X48.33 Y61.84 F6000.0
M3
G01 Y62.43 F6000.0
M5
G00 X48.43 Y62.34 F6000.0
M3
G01 Y61.81 F6000.0
M5
G00 X48.53 Y61.78 F6000.0
M3
G01 Y62.27 F6000.0
M5
G00 X48.63 Y62.23 F6000.0
M3
G01 Y61.75 F6000.0
M5
G00 X48.73 Y61.72 F6000.0
M3
G01 Y62.18 F6000.0
M5
G00 X48.83 Y62.14 F6000.0
M3
G01 Y61.69 F6000.0
M5
G00 X48.93 Y61.67 F6000.0
M3
G01 Y62.1 F6000.0
M5
G00 X49.03 Y62.06 F6000.0
M3
G01 Y61.64 F6000.0
M5
G00 X49.13 Y61.61 F6000.0
M3
G01 Y62.02 F6000.0
M5
G00 X49.23 Y61.98 F6000.0
M3
G01 Y61.58 F6000.0
M5
G00 X49.33 Y61.55 F6000.0
M3
G01 Y61.94 F6000.0
M5
G00 X49.43 Y61.9 F6000.0
M3
G01 Y61.52 F6000.0
M5
G00 X49.53 Y61.49 F6000.0
M3
G01 Y61.86 F6000.0
M5
G00 X49.63 Y61.82 F6000.0
M3
G01 Y61.46 F6000.0
M5
G00 X49.73 Y61.43 F6000.0
M3
G01 Y61.77 F6000.0
M5
G00 X49.83 Y61.73 F6000.0
M3
G01 Y61.4 F6000.0
M5
G00 X49.93 Y61.37 F6000.0
M3
G01 Y61.69 F6000.0
M5
G00 X50.03 Y61.65 F6000.0
M3
G01 Y61.34 F6000.0
M5
G00 X50.13 Y61.31 F6000.0
M3
G01 Y61.63 F6000.0
M5
G00 X50.23 Y61.61 F6000.0
M3
G01 Y61.29 F6000.0
M5
G00 X50.33 Y61.28 F6000.0
M3
G01 Y61.59 F6000.0
M5
G00 X50.43 Y61.56 F6000.0
M3
G01 Y61.27 F6000.0
M5
G00 X50.53 Y61.26 F6000.0
M3
G01 Y61.54 F6000.0
M5
G00 X50.63 Y61.52 F6000.0
M3
G01 Y61.25 F6000.0
M5
G00 X50.73 Y61.24 F6000.0
M3
G01 Y61.49 F6000.0
M5
G00 X50.83 Y61.47 F6000.0
M3
G01 Y61.23 F6000.0
M5
G00 X50.93 Y61.22 F6000.0
M3
G01 Y61.45 F6000.0
M5
G00 X51.03 Y61.43 F6000.0
M3
G01 Y61.21 F6000.0
M5
G00 X51.13 Y61.19 F6000.0
M3
G01 Y61.46 F6000.0
M5
G00 X51.13 Y61.56 F6000.0
M3
G01 Y62.23 F6000.0
M5
G00 X51.23 Y62.15 F6000.0
M3
G01 Y61.18 F6000.0
M5
G00 X51.33 Y61.17 F6000.0
M3
G01 Y62.07 F6000.0
M5
G00 X51.43 Y61.99 F6000.0
M3
G01 Y61.16 F6000.0
M5
G00 X51.53 Y61.15 F6000.0
M3
G01 Y61.91 F6000.0
M5
G00 X51.63 Y61.83 F6000.0
M3
G01 Y61.14 F6000.0
M5
G00 X51.73 Y61.13 F6000.0
M3
G01 Y61.74 F6000.0
M5
G00 X51.83 Y61.69 F6000.0
M3
G01 Y61.12 F6000.0
M5
G00 X51.93 Y61.11 F6000.0
M3
G01 Y61.65 F6000.0
M5
G00 X52.03 Y61.61 F6000.0
M3
G01 Y61.1 F6000.0
M5
G00 X52.13 Y61.09 F6000.0
M3
G01 Y61.57 F6000.0
M5
G00 X52.23 Y61.53 F6000.0
M3
G01 Y61.08 F6000.0
M5
G00 X52.33 Y61.06 F6000.0
M3
G01 Y61.49 F6000.0
M5
G00 X52.43 Y61.47 F6000.0
M3
G01 Y61.05 F6000.0
M5
G00 X52.53 Y61.04 F6000.0
M3
G01 Y61.47 F6000.0
M5
G00 X52.63 Y61.48 F6000.0
M3
G01 Y61.03 F6000.0
M5
G00 X52.73 Y61.02 F6000.0
M3
G01 Y61.48 F6000.0
M5
G00 X52.83 Y61.48 F6000.0
M3
G01 Y61.01 F6000.0
M5
G00 X52.93 Y61.01 F6000.0
M3
G01 Y61.49 F6000.0
M5
G00 X53.03 Y61.52 F6000.0
M3
G01 Y61.02 F6000.0
M5
G00 X53.13 Y61.02 F6000.0
M3
G01 Y61.56 F6000.0
M5
G00 X53.23 Y61.61 F6000.0
M3
G01 Y61.02 F6000.0
M5
G00 X53.33 Y61.02 F6000.0
M3
G01 Y61.66 F6000.0
M5
G00 X53.43 Y61.71 F6000.0
M3
G01 Y61.02 F6000.0
M5
G00 X53.53 Y61.02 F6000.0
M3
G01 Y61.76 F6000.0
M5
G00 X53.63 Y61.85 F6000.0
M3
G01 Y61.02 F6000.0
M5
G00 X53.73 Y61.02 F6000.0
M3
G01 Y61.36 F6000.0
M5
G00 X53.73 Y61.4 F6000.0
M3
G01 Y61.98 F6000.0
M5
G00 X53.83 Y62.11 F6000.0
M3
G01 Y61.54 F6000.0
M5
G00 X53.83 Y61.33 F6000.0
M3
G01 Y61.02 F6000.0
M5
G00 X53.93 Y61.02 F6000.0
M3
G01 Y61.31 F6000.0
M5
G00 X54.03 Y61.29 F6000.0
M3
G01 Y61.02 F6000.0
M5
G00 X54.13 Y61.02 F6000.0
M3
G01 Y61.27 F6000.0
M5
G00 X54.23 Y61.27 F6000.0
M3
G01 Y61.02 F6000.0
M5
G00 X54.33 Y61.03 F6000.0
M3
G01 Y61.27 F6000.0
M5
G00 X54.43 Y61.28 F6000.0
M3
G01 Y61.03 F6000.0
M5
G00 X54.53 Y61.03 F6000.0
M3
G01 Y61.28 F6000.0
M5
G00 X54.63 Y61.28 F6000.0
M3
G01 Y61.03 F6000.0
M5
G00 X54.73 Y61.03 F6000.0
M3
G01 Y61.28 F6000.0
M5
G00 X54.83 Y61.29 F6000.0
M3
G01 Y61.03 F6000.0
M5
G00 X54.93 Y61.03 F6000.0
M3
G01 Y61.29 F6000.0
M5
G00 X55.03 Y61.29 F6000.0
M3
G01 Y61.03 F6000.0
M5
G00 X55.13 Y61.03 F6000.0
M3
G01 Y61.3 F6000.0
M5
G00 X55.23 Y61.31 F6000.0
M3
G01 Y61.03 F6000.0
M5
G00 X55.33 Y61.03 F6000.0
M3
G01 Y61.32 F6000.0
M5
G00 X55.43 Y61.34 F6000.0
M3
G01 Y61.03 F6000.0
M5
G00 X55.53 Y61.05 F6000.0
M3
G01 Y61.35 F6000.0
M5
G00 X55.63 Y61.37 F6000.0
M3
G01 Y61.07 F6000.0
M5
G00 X55.73 Y61.09 F6000.0
M3
G01 Y61.39 F6000.0
M5
G00 X55.83 Y61.4 F6000.0
M3
G01 Y61.1 F6000.0
M5
G00 X55.93 Y61.12 F6000.0
M3
G01 Y61.42 F6000.0
M5
G00 X56.03 Y61.43 F6000.0
M3
G01 Y61.14 F6000.0
M5
G00 X56.13 Y61.16 F6000.0
M3
G01 Y61.45 F6000.0
M5
G00 X56.23 Y61.46 F6000.0
M3
G01 Y61.18 F6000.0
M5
G00 X56.33 Y61.19 F6000.0
M3
G01 Y61.48 F6000.0
M5
G00 X56.43 Y61.5 F6000.0
M3
G01 Y61.21 F6000.0
M5
G00 X56.53 Y61.23 F6000.0
M3
G01 Y61.51 F6000.0
M5
G00 X56.63 Y61.53 F6000.0
M3
G01 Y61.25 F6000.0
M5
G00 X56.73 Y61.27 F6000.0
M3
G01 Y61.54 F6000.0
M5
G00 X56.83 Y61.56 F6000.0
M3
G01 Y61.28 F6000.0
M5
G00 X56.93 Y61.3 F6000.0
M3
G01 Y61.57 F6000.0
M5
G00 X57.03 Y61.59 F6000.0
M3
G01 Y61.32 F6000.0
M5
G00 X57.13 Y61.34 F6000.0
M3
G01 Y61.6 F6000.0
M5
G00 X57.23 Y61.63 F6000.0
M3
G01 Y61.36 F6000.0
M5
G00 X57.33 Y61.37 F6000.0
M3
G01 Y61.69 F6000.0
M5
G00 X57.43 Y61.74 F6000.0
M3
G01 Y61.39 F6000.0
M5
G00 X57.53 Y61.45 F6000.0
M3
G01 Y61.79 F6000.0
M5
G00 X57.63 Y61.85 F6000.0
M3
G01 Y61.5 F6000.0
M5
G00 X57.73 Y61.56 F6000.0
M3
G01 Y61.9 F6000.0
M5
G00 X57.83 Y62.01 F6000.0
M3
G01 Y61.61 F6000.0
M5
G00 X57.93 Y61.67 F6000.0
M3
G01 Y62.12 F6000.0
M5
G00 X58.03 Y62.23 F6000.0
M3
G01 Y61.72 F6000.0
M5
G00 X58.13 Y61.78 F6000.0
M3
G01 Y62.34 F6000.0
M5
G00 X58.23 Y62.5 F6000.0
M3
G01 Y61.83 F6000.0
M5
G00 X58.33 Y61.88 F6000.0
M3
G01 Y62.73 F6000.0
M5
G00 X58.43 Y62.95 F6000.0
M3
G01 Y61.94 F6000.0
M5
G00 X58.53 Y61.99 F6000.0
M3
G01 Y63.17 F6000.0
M5
G00 X58.63 Y63.39 F6000.0
M3
G01 Y62.1 F6000.0
M5
G00 X58.73 Y62.25 F6000.0
M3
G01 Y63.61 F6000.0
M5
G00 X58.83 Y63.83 F6000.0
M3
G01 Y62.39 F6000.0
M5
G00 X58.93 Y62.54 F6000.0
M3
G01 Y64.05 F6000.0
M5
G00 X59.03 Y64.27 F6000.0
M3
G01 Y62.69 F6000.0
M5
G00 X59.13 Y62.84 F6000.0
M3
G01 Y64.49 F6000.0
M5
G00 X59.23 Y64.78 F6000.0
M3
G01 Y62.98 F6000.0
M5
G00 X59.33 Y63.13 F6000.0
M3
G01 Y65.08 F6000.0
M5
G00 X59.43 Y65.39 F6000.0
M3
G01 Y63.31 F6000.0
M5
G00 X59.53 Y63.48 F6000.0
M3
G01 Y65.69 F6000.0
M5
G00 X59.53 Y66.7 F6000.0
M3
G01 Y68.01 F6000.0
M5
G00 X59.63 Y67.98 F6000.0
M3
G01 Y63.66 F6000.0
M5
G00 X59.73 Y63.83 F6000.0
M3
G01 Y67.95 F6000.0
M5
G00 X59.83 Y67.92 F6000.0
M3
G01 Y63.98 F6000.0
M5
G00 X59.93 Y64.09 F6000.0
M3
G01 Y67.89 F6000.0
M5
G00 X60.03 Y67.86 F6000.0
M3
G01 Y64.2 F6000.0
M5
G00 X60.13 Y64.32 F6000.0
M3
G01 Y67.83 F6000.0
M5
G00 X60.23 Y67.79 F6000.0
M3
G01 Y64.43 F6000.0
M5
G00 X60.33 Y64.5 F6000.0
M3
G01 Y67.76 F6000.0
M5
G00 X60.43 Y67.73 F6000.0
M3
G01 Y64.56 F6000.0
M5
G00 X60.53 Y64.63 F6000.0
M3
G01 Y67.69 F6000.0
M5
G00 X60.63 Y67.66 F6000.0
M3
G01 Y64.69 F6000.0
M5
G00 X60.73 Y64.75 F6000.0
M3
G01 Y67.62 F6000.0
M5
G00 X60.83 Y67.59 F6000.0
M3
G01 Y64.81 F6000.0
M5
G00 X60.93 Y64.86 F6000.0
M3
G01 Y67.56 F6000.0
M5
G00 X61.03 Y67.52 F6000.0
M3
G01 Y64.9 F6000.0
M5
G00 X61.13 Y64.93 F6000.0
M3
G01 Y67.49 F6000.0
M5
G00 X61.23 Y67.46 F6000.0
M3
G01 Y64.97 F6000.0
M5
G00 X61.33 Y65.01 F6000.0
M3
G01 Y67.42 F6000.0
M5
G00 X61.43 Y67.39 F6000.0
M3
G01 Y65.05 F6000.0
M5
G00 X61.53 Y65.09 F6000.0
M3
G01 Y67.4 F6000.0
M5
G00 X61.63 Y67.41 F6000.0
M3
G01 Y65.12 F6000.0
M5
G00 X61.73 Y65.16 F6000.0
M3
G01 Y67.42 F6000.0
M5
G00 X61.83 Y67.42 F6000.0
M3
G01 Y65.19 F6000.0
M5
G00 X61.93 Y65.22 F6000.0
M3
G01 Y67.43 F6000.0
M5
G00 X62.03 Y67.44 F6000.0
M3
G01 Y65.25 F6000.0
M5
G00 X62.13 Y65.27 F6000.0
M3
G01 Y67.44 F6000.0
M5
G00 X62.23 Y67.45 F6000.0
M3
G01 Y65.3 F6000.0
M5
G00 X62.33 Y65.33 F6000.0
M3
G01 Y67.46 F6000.0
M5
G00 X62.43 Y67.46 F6000.0
M3
G01 Y65.36 F6000.0
M5
G00 X62.53 Y65.39 F6000.0
M3
G01 Y67.47 F6000.0
M5
G00 X62.63 Y67.48 F6000.0
M3
G01 Y65.41 F6000.0
M5
G00 X62.73 Y65.44 F6000.0
M3
G01 Y67.49 F6000.0
M5
G00 X62.83 Y67.49 F6000.0
M3
G01 Y65.47 F6000.0
M5
G00 X62.93 Y65.5 F6000.0
M3
G01 Y67.51 F6000.0
M5
G00 X63.03 Y67.53 F6000.0
M3
G01 Y65.53 F6000.0
M5
G00 X63.13 Y65.55 F6000.0
M3
G01 Y67.55 F6000.0
M5
G00 X63.23 Y67.57 F6000.0
M3
G01 Y65.58 F6000.0
M5
G00 X63.33 Y65.61 F6000.0
M3
G01 Y67.59 F6000.0
M5
G00 X63.43 Y67.61 F6000.0
M3
G01 Y65.64 F6000.0
M5
G00 X63.53 Y65.66 F6000.0
M3
G01 Y67.64 F6000.0
M5
G00 X63.63 Y67.66 F6000.0
M3
G01 Y65.69 F6000.0
M5
G00 X63.73 Y65.72 F6000.0
M3
G01 Y67.68 F6000.0
M5
G00 X63.83 Y67.7 F6000.0
M3
G01 Y65.75 F6000.0
M5
G00 X63.93 Y65.78 F6000.0
M3
G01 Y67.72 F6000.0
M5
G00 X64.03 Y67.74 F6000.0
M3
G01 Y65.8 F6000.0
M5
G00 X64.13 Y65.83 F6000.0
M3
G01 Y67.76 F6000.0
M5
G00 X64.23 Y67.78 F6000.0
M3
G01 Y65.86 F6000.0
M5
G00 X64.33 Y65.89 F6000.0
M3
G01 Y67.8 F6000.0
M5
G00 X64.43 Y67.82 F6000.0
M3
G01 Y65.92 F6000.0
M5
G00 X64.53 Y65.94 F6000.0
M3
G01 Y67.84 F6000.0
M5
G00 X64.63 Y67.86 F6000.0
M3
G01 Y65.97 F6000.0
M5
G00 X64.73 Y66. F6000.0
M3
G01 Y67.88 F6000.0
M5
G00 X64.83 Y67.9 F6000.0
M3
G01 Y66.03 F6000.0
M5
G00 X64.93 Y66.06 F6000.0
M3
G01 Y67.92 F6000.0
M5
G00 X65.03 Y67.94 F6000.0
M3
G01 Y66.08 F6000.0
M5
G00 X65.13 Y66.11 F6000.0
M3
G01 Y67.96 F6000.0
M5
G00 X65.23 Y67.98 F6000.0
M3
G01 Y66.13 F6000.0
M5
G00 X65.33 Y66.15 F6000.0
M3
G01 Y68.0 F6000.0
M5
G00 X65.43 Y68.02 F6000.0
M3
G01 Y66.17 F6000.0
M5
G00 X65.53 Y66.19 F6000.0
M3
G01 Y68.04 F6000.0
M5
G00 X65.63 Y68.06 F6000.0
M3
G01 Y66.21 F6000.0
M5
G00 X65.73 Y66.23 F6000.0
M3
G01 Y68.08 F6000.0
M5
G00 X65.83 Y68.1 F6000.0
M3
G01 Y66.25 F6000.0
M5
G00 X65.93 Y66.27 F6000.0
M3
G01 Y68.13 F6000.0
M5
G00 X66.03 Y68.15 F6000.0
M3
G01 Y66.29 F6000.0
M5
G00 X66.13 Y66.31 F6000.0
M3
G01 Y68.17 F6000.0
M5
G00 X66.23 Y68.19 F6000.0
M3
G01 Y66.33 F6000.0
M5
G00 X66.33 Y66.35 F6000.0
M3
G01 Y68.21 F6000.0
M5
G00 X66.43 Y68.23 F6000.0
M3
G01 Y66.37 F6000.0
M5
G00 X66.53 Y66.39 F6000.0
M3
G01 Y68.25 F6000.0
M5
G00 X66.63 Y68.27 F6000.0
M3
G01 Y66.41 F6000.0
M5
G00 X66.73 Y66.43 F6000.0
M3
G01 Y68.29 F6000.0
M5
G00 X66.83 Y68.31 F6000.0
M3
G01 Y66.45 F6000.0
M5
G00 X66.93 Y66.47 F6000.0
M3
G01 Y68.33 F6000.0
M5
G00 X66.93 Y68.8 F6000.0
M3
G01 Y69.51 F6000.0
M5
G00 X66.83 Y69.75 F6000.0
M3
G01 Y69.0 F6000.0
M5
G00 X66.73 Y69.2 F6000.0
M3
G01 Y69.96 F6000.0
M5
G00 X66.63 Y70.13 F6000.0
M3
G01 Y69.41 F6000.0
M5
G00 X66.53 Y69.64 F6000.0
M3
G01 Y70.31 F6000.0
M5
G00 X66.43 Y70.48 F6000.0
M3
G01 Y69.88 F6000.0
M5
G00 X66.33 Y70.12 F6000.0
M3
G01 Y70.65 F6000.0
M5
G00 X66.13 Y70.6 F6000.0
M3
G01 Y71.0 F6000.0
M5
G00 X66.03 Y71.18 F6000.0
M3
G01 Y70.79 F6000.0
M5
G00 X65.93 Y70.91 F6000.0
M3
G01 Y71.35 F6000.0
M5
G00 X65.83 Y71.53 F6000.0
M3
G01 Y71.04 F6000.0
M5
G00 X65.73 Y71.17 F6000.0
M3
G01 Y71.7 F6000.0
M5
G00 X65.63 Y71.85 F6000.0
M3
G01 Y71.29 F6000.0
M5
G00 X65.53 Y71.42 F6000.0
M3
G01 Y72.0 F6000.0
M5
G00 X65.43 Y72.15 F6000.0
M3
G01 Y71.55 F6000.0
M5
G00 X65.33 Y71.7 F6000.0
M3
G01 Y72.3 F6000.0
M5
G00 X65.23 Y72.45 F6000.0
M3
G01 Y71.86 F6000.0
M5
G00 X65.13 Y72.01 F6000.0
M3
G01 Y72.6 F6000.0
M5
G00 X65.03 Y72.75 F6000.0
M3
G01 Y72.17 F6000.0
M5
G00 X64.93 Y72.33 F6000.0
M3
G01 Y72.9 F6000.0
M5
G00 X64.83 Y73.05 F6000.0
M3
G01 Y72.49 F6000.0
M5
G00 X64.73 Y72.65 F6000.0
M3
G01 Y73.2 F6000.0
M5
G00 X64.63 Y73.35 F6000.0
M3
G01 Y72.8 F6000.0
M5
G00 X64.53 Y72.96 F6000.0
M3
G01 Y73.5 F6000.0
M5
G00 X64.43 Y73.65 F6000.0
M3
G01 Y73.12 F6000.0
M5
G00 X64.33 Y73.28 F6000.0
M3
G01 Y73.8 F6000.0
M5
G00 X64.23 Y73.95 F6000.0
M3
G01 Y73.44 F6000.0
M5
G00 X64.13 Y73.59 F6000.0
M3
G01 Y74.1 F6000.0
M5
G00 X64.03 Y74.25 F6000.0
M3
G01 Y73.73 F6000.0
M5
G00 X63.93 Y73.86 F6000.0
M3
G01 Y74.4 F6000.0
M5
G00 X63.83 Y74.55 F6000.0
M3
G01 Y74.0 F6000.0
M5
G00 X63.73 Y74.14 F6000.0
M3
G01 Y74.7 F6000.0
M5
G00 X63.63 Y74.85 F6000.0
M3
G01 Y74.27 F6000.0
M5
G00 X63.53 Y74.41 F6000.0
M3
G01 Y75.0 F6000.0
M5
G00 X63.43 Y75.15 F6000.0
M3
G01 Y74.55 F6000.0
M5
G00 X63.33 Y74.68 F6000.0
M3
G01 Y75.3 F6000.0
M5
G00 X63.23 Y75.45 F6000.0
M3
G01 Y74.82 F6000.0
M5
G00 X63.13 Y74.96 F6000.0
M3
G01 Y75.6 F6000.0
M5
G00 X63.03 Y75.75 F6000.0
M3
G01 Y75.09 F6000.0
M5
G00 X62.93 Y75.23 F6000.0
M3
G01 Y75.9 F6000.0
M5
G00 X62.83 Y76.02 F6000.0
M3
G01 Y75.37 F6000.0
M5
G00 X62.73 Y75.5 F6000.0
M3
G01 Y76.14 F6000.0
M5
G00 X62.63 Y76.27 F6000.0
M3
G01 Y75.64 F6000.0
M5
G00 X62.53 Y75.76 F6000.0
M3
G01 Y76.39 F6000.0
M5
G00 X62.43 Y76.51 F6000.0
M3
G01 Y75.88 F6000.0
M5
G00 X62.33 Y76. F6000.0
M3
G01 Y76.64 F6000.0
M5
G00 X62.23 Y76.76 F6000.0
M3
G01 Y76.12 F6000.0
M5
G00 X62.13 Y76.25 F6000.0
M3
G01 Y76.89 F6000.0
M5
G00 X62.03 Y77.01 F6000.0
M3
G01 Y76.37 F6000.0
M5
G00 X61.93 Y76.49 F6000.0
M3
G01 Y77.13 F6000.0
M5
G00 X61.83 Y77.26 F6000.0
M3
G01 Y76.61 F6000.0
M5
G00 X61.73 Y76.73 F6000.0
M3
G01 Y77.38 F6000.0
M5
G00 X61.63 Y77.5 F6000.0
M3
G01 Y76.85 F6000.0
M5
G00 X61.53 Y76.97 F6000.0
M3
G01 Y77.63 F6000.0
M5
G00 X61.43 Y77.75 F6000.0
M3
G01 Y77.09 F6000.0
M5
G00 X61.33 Y77.21 F6000.0
M3
G01 Y77.88 F6000.0
M5
G00 X61.23 Y78. F6000.0
M3
G01 Y77.33 F6000.0
M5
G00 X61.13 Y77.45 F6000.0
M3
G01 Y78.11 F6000.0
M5
G00 X61.03 Y78.21 F6000.0
M3
G01 Y77.57 F6000.0
M5
G00 X60.93 Y77.69 F6000.0
M3
G01 Y78.32 F6000.0
M5
G00 X60.83 Y78.43 F6000.0
M3
G01 Y77.8 F6000.0
M5
G00 X60.73 Y77.91 F6000.0
M3
G01 Y78.53 F6000.0
M5
G00 X60.63 Y78.64 F6000.0
M3
G01 Y78.01 F6000.0
M5
G00 X60.53 Y78.12 F6000.0
M3
G01 Y78.74 F6000.0
M5
G00 X60.43 Y78.85 F6000.0
M3
G01 Y78.22 F6000.0
M5
G00 X60.33 Y78.33 F6000.0
M3
G01 Y78.96 F6000.0
M5
G00 X60.23 Y79.06 F6000.0
M3
G01 Y78.44 F6000.0
M5
G00 X60.13 Y78.54 F6000.0
M3
G01 Y79.17 F6000.0
M5
G00 X60.03 Y79.28 F6000.0
M3
G01 Y78.65 F6000.0
M5
G00 X59.93 Y78.75 F6000.0
M3
G01 Y79.38 F6000.0
M5
G00 X59.83 Y79.49 F6000.0
M3
G01 Y78.86 F6000.0
M5
G00 X59.73 Y78.97 F6000.0
M3
G01 Y79.59 F6000.0
M5
G00 X59.63 Y79.7 F6000.0
M3
G01 Y79.07 F6000.0
M5
G00 X59.53 Y79.18 F6000.0
M3
G01 Y79.81 F6000.0
M5
G00 X59.43 Y79.91 F6000.0
M3
G01 Y79.29 F6000.0
M5
G00 X56.03 Y79.2 F6000.0
M3
G01 Y78.75 F6000.0
M5
G00 X56.13 Y78.62 F6000.0
M3
G01 Y79.06 F6000.0
M5
G00 X56.23 Y78.9 F6000.0
M3
G01 Y78.5 F6000.0
M5
G00 X56.33 Y78.38 F6000.0
M3
G01 Y78.74 F6000.0
M5
G00 X56.43 Y78.59 F6000.0
M3
G01 Y78.25 F6000.0
M5
G00 X56.63 Y78.27 F6000.0
M3
G01 Y77.62 F6000.0
M5
G00 X56.53 Y77.67 F6000.0
M3
G01 Y78.02 F6000.0
M5
G00 X56.53 Y78.13 F6000.0
M3
G01 Y78.43 F6000.0
M5
G00 X56.43 Y78. F6000.0
M3
G01 Y77.73 F6000.0
M5
G00 X56.33 Y77.79 F6000.0
M3
G01 Y78.07 F6000.0
M5
G00 X56.23 Y78.13 F6000.0
M3
G01 Y77.85 F6000.0
M5
G00 X56.13 Y77.91 F6000.0
M3
G01 Y78.2 F6000.0
M5
G00 X56.03 Y78.26 F6000.0
M3
G01 Y77.97 F6000.0
M5
G00 X55.93 Y78.03 F6000.0
M3
G01 Y78.32 F6000.0
M5
G00 X55.83 Y78.39 F6000.0
M3
G01 Y78.09 F6000.0
M5
G00 X55.73 Y78.15 F6000.0
M3
G01 Y78.45 F6000.0
M5
G00 X55.63 Y78.51 F6000.0
M3
G01 Y78.21 F6000.0
M5
G00 X55.53 Y78.26 F6000.0
M3
G01 Y78.57 F6000.0
M5
G00 X55.43 Y78.62 F6000.0
M3
G01 Y78.31 F6000.0
M5
G00 X55.33 Y78.37 F6000.0
M3
G01 Y78.67 F6000.0
M5
G00 X55.23 Y78.72 F6000.0
M3
G01 Y78.42 F6000.0
M5
G00 X55.13 Y78.48 F6000.0
M3
G01 Y78.78 F6000.0
M5
G00 X55.03 Y78.83 F6000.0
M3
G01 Y78.53 F6000.0
M5
G00 X54.93 Y78.59 F6000.0
M3
G01 Y78.88 F6000.0
M5
G00 X54.83 Y78.94 F6000.0
M3
G01 Y78.64 F6000.0
M5
G00 X54.73 Y78.69 F6000.0
M3
G01 Y78.99 F6000.0
M5
G00 X54.63 Y79.04 F6000.0
M3
G01 Y78.75 F6000.0
M5
G00 X54.53 Y78.8 F6000.0
M3
G01 Y79.1 F6000.0
M5
G00 X54.43 Y79.15 F6000.0
M3
G01 Y78.86 F6000.0
M5
G00 X54.33 Y78.91 F6000.0
M3
G01 Y79.2 F6000.0
M5
G00 X54.23 Y79.25 F6000.0
M3
G01 Y78.97 F6000.0
M5
G00 X54.13 Y79.02 F6000.0
M3
G01 Y79.31 F6000.0
M5
G00 X54.03 Y79.36 F6000.0
M3
G01 Y79.07 F6000.0
M5
G00 X53.93 Y79.13 F6000.0
M3
G01 Y79.42 F6000.0
M5
G00 X53.83 Y79.48 F6000.0
M3
G01 Y79.18 F6000.0
M5
G00 X53.73 Y79.24 F6000.0
M3
G01 Y79.53 F6000.0
M5
G00 X53.63 Y79.59 F6000.0
M3
G01 Y79.29 F6000.0
M5
G00 X53.53 Y79.35 F6000.0
M3
G01 Y79.65 F6000.0
M5
G00 X53.43 Y79.71 F6000.0
M3
G01 Y79.41 F6000.0
M5
G00 X53.33 Y79.47 F6000.0
M3
G01 Y79.76 F6000.0
M5
G00 X53.23 Y79.82 F6000.0
M3
G01 Y79.53 F6000.0
M5
G00 X53.13 Y79.59 F6000.0
M3
G01 Y80.1 F6000.0
M5
G00 X53.23 Y80.17 F6000.0
M3
G01 Y79.88 F6000.0
M5
G00 X53.33 Y80.02 F6000.0
M3
G01 Y80.2 F6000.0
M5
G00 X53.43 Y80.24 F6000.0
M3
G01 Y80.05 F6000.0
M5
G00 X53.53 Y80.08 F6000.0
M3
G01 Y80.28 F6000.0
M5
G00 X53.63 Y80.32 F6000.0
M3
G01 Y80.11 F6000.0
M5
G00 X53.73 Y80.12 F6000.0
M3
G01 Y80.36 F6000.0
M5
G00 X53.83 Y80.39 F6000.0
M3
G01 Y80.11 F6000.0
M5
G00 X53.93 Y80.1 F6000.0
M3
G01 Y80.38 F6000.0
M5
G00 X54.03 Y80.37 F6000.0
M3
G01 Y80.09 F6000.0
M5
G00 X54.13 Y80.08 F6000.0
M3
G01 Y80.36 F6000.0
M5
G00 X54.23 Y80.35 F6000.0
M3
G01 Y80.07 F6000.0
M5
G00 X54.33 Y80.07 F6000.0
M3
G01 Y80.34 F6000.0
M5
G00 X54.43 Y80.33 F6000.0
M3
G01 Y80.06 F6000.0
M5
G00 X54.53 Y80.05 F6000.0
M3
G01 Y80.32 F6000.0
M5
G00 X54.63 Y80.28 F6000.0
M3
G01 Y80.01 F6000.0
M5
G00 X54.73 Y79.95 F6000.0
M3
G01 Y80.23 F6000.0
M5
G00 X54.83 Y80.17 F6000.0
M3
G01 Y79.89 F6000.0
M5
G00 X54.93 Y79.83 F6000.0
M3
G01 Y80.12 F6000.0
M5
G00 X55.03 Y80.06 F6000.0
M3
G01 Y79.77 F6000.0
M5
G00 X55.13 Y79.7 F6000.0
M3
G01 Y80.01 F6000.0
M5
G00 X55.23 Y79.95 F6000.0
M3
G01 Y79.64 F6000.0
M5
G00 X55.33 Y79.58 F6000.0
M3
G01 Y79.9 F6000.0
M5
G00 X55.43 Y79.8 F6000.0
M3
G01 Y79.49 F6000.0
M5
G00 X55.53 Y79.36 F6000.0
M3
G01 Y79.7 F6000.0
M5
G00 X55.63 Y79.6 F6000.0
M3
G01 Y79.24 F6000.0
M5
G00 X55.73 Y79.12 F6000.0
M3
G01 Y79.5 F6000.0
M5
G00 X55.83 Y79.4 F6000.0
M3
G01 Y78.99 F6000.0
M5
G00 X55.93 Y78.87 F6000.0
M3
G01 Y79.3 F6000.0
M5
G00 X56.73 Y78.1 F6000.0
M3
G01 Y77.56 F6000.0
M5
G00 X56.83 Y77.5 F6000.0
M3
G01 Y77.89 F6000.0
M5
G00 X56.93 Y77.68 F6000.0
M3
G01 Y77.44 F6000.0
M5
G00 X54.93 Y75.07 F6000.0
M3
G01 Y74.76 F6000.0
M5
G00 X54.73 Y74.71 F6000.0
M3
G01 Y74.31 F6000.0
M5
G00 X54.83 Y74.51 F6000.0
M3
G01 Y74.96 F6000.0
M5
G00 X54.43 Y73.87 F6000.0
M3
G01 Y72.8 F6000.0
M5
G00 X54.33 Y72.74 F6000.0
M3
G01 Y73.96 F6000.0
M5
G00 X54.23 Y74.05 F6000.0
M3
G01 Y72.68 F6000.0
M5
G00 X54.13 Y72.61 F6000.0
M3
G01 Y74.14 F6000.0
M5
G00 X54.03 Y74.23 F6000.0
M3
G01 Y72.55 F6000.0
M5
G00 X53.93 Y72.49 F6000.0
M3
G01 Y74.32 F6000.0
M5
G00 X53.83 Y74.41 F6000.0
M3
G01 Y72.43 F6000.0
M5
G00 X53.73 Y72.36 F6000.0
M3
G01 Y74.49 F6000.0
M5
G00 X53.63 Y74.58 F6000.0
M3
G01 Y72.3 F6000.0
M5
G00 X53.53 Y72.28 F6000.0
M3
G01 Y74.66 F6000.0
M5
G00 X53.43 Y74.74 F6000.0
M3
G01 Y72.26 F6000.0
M5
G00 X53.33 Y72.24 F6000.0
M3
G01 Y74.82 F6000.0
M5
G00 X53.03 Y74.96 F6000.0
M3
G01 Y72.18 F6000.0
M5
G00 X53.13 Y72.2 F6000.0
M3
G01 Y75.1 F6000.0
M5
G00 X52.93 Y74.94 F6000.0
M3
G01 Y72.17 F6000.0
M5
G00 X52.83 Y72.15 F6000.0
M3
G01 Y74.93 F6000.0
M5
G00 X52.73 Y74.91 F6000.0
M3
G01 Y72.13 F6000.0
M5
G00 X52.63 Y72.14 F6000.0
M3
G01 Y74.9 F6000.0
M5
G00 X52.53 Y74.88 F6000.0
M3
G01 Y72.16 F6000.0
M5
G00 X52.43 Y72.18 F6000.0
M3
G01 Y74.87 F6000.0
M5
G00 X52.33 Y74.85 F6000.0
M3
G01 Y72.2 F6000.0
M5
G00 X52.23 Y72.22 F6000.0
M3
G01 Y74.84 F6000.0
M5
G00 X52.13 Y74.82 F6000.0
M3
G01 Y72.24 F6000.0
M5
G00 X52.03 Y72.26 F6000.0
M3
G01 Y74.81 F6000.0
M5
G00 X51.93 Y74.79 F6000.0
M3
G01 Y72.28 F6000.0
M5
G00 X51.83 Y72.3 F6000.0
M3
G01 Y74.78 F6000.0
M5
G00 X51.73 Y74.72 F6000.0
M3
G01 Y72.36 F6000.0
M5
G00 X51.63 Y72.43 F6000.0
M3
G01 Y74.63 F6000.0
M5
G00 X51.53 Y74.54 F6000.0
M3
G01 Y72.5 F6000.0
M5
G00 X51.43 Y72.57 F6000.0
M3
G01 Y74.45 F6000.0
M5
G00 X51.33 Y74.37 F6000.0
M3
G01 Y72.64 F6000.0
M5
G00 X51.23 Y72.71 F6000.0
M3
G01 Y74.28 F6000.0
M5
G00 X51.13 Y74.19 F6000.0
M3
G01 Y72.78 F6000.0
M5
G00 X51.03 Y72.86 F6000.0
M3
G01 Y74.02 F6000.0
M5
G00 X50.93 Y73.84 F6000.0
M3
G01 Y72.94 F6000.0
M5
G00 X50.83 Y73.03 F6000.0
M3
G01 Y73.66 F6000.0
M5
G00 X50.73 Y73.49 F6000.0
M3
G01 Y73.11 F6000.0
M5
G00 X50.63 Y73.13 F6000.0
M3
G01 Y73.31 F6000.0
M5
G00 X50.53 Y73.13 F6000.0
M3
G01 Y72.92 F6000.0
M5
G00 X50.43 Y72.89 F6000.0
M3
G01 Y72.7 F6000.0
M5
G00 X50.33 Y72.61 F6000.0
M3
G01 Y72.34 F6000.0
M5
G00 X50.23 Y72.33 F6000.0
M3
G01 Y71.95 F6000.0
M5
G00 X50.13 Y72.05 F6000.0
M3
G01 Y71.55 F6000.0
M5
G00 X50.03 Y71.77 F6000.0
M3
G01 Y70.95 F6000.0
M5
G00 X49.83 Y70.94 F6000.0
M3
G01 Y69.62 F6000.0
M5
G00 X49.53 Y69.55 F6000.0
M3
G01 Y66.84 F6000.0
M5
G00 X49.73 Y67.38 F6000.0
M3
G01 Y64.98 F6000.0
M5
G00 X49.83 Y64.54 F6000.0
M3
G01 Y65.44 F6000.0
M5
G00 X49.63 Y65.74 F6000.0
M3
G01 Y69.97 F6000.0
M5
G00 X49.73 Y70.46 F6000.0
M3
G01 Y68.96 F6000.0
M5
G00 X49.73 Y68.96 F6000.0
M3
G01 Y68.42 F6000.0
M5
G00 X49.83 Y68.42 F6000.0
M3
G01 Y68.83 F6000.0
M5
G00 X49.93 Y68.81 F6000.0
M3
G01 Y68.42 F6000.0
M5
G00 X50.03 Y68.42 F6000.0
M3
G01 Y68.8 F6000.0
M5
G00 X50.13 Y68.78 F6000.0
M3
G01 Y68.41 F6000.0
M5
G00 X50.23 Y68.41 F6000.0
M3
G01 Y68.77 F6000.0
M5
G00 X50.33 Y68.77 F6000.0
M3
G01 Y68.41 F6000.0
M5
G00 X50.43 Y68.41 F6000.0
M3
G01 Y68.77 F6000.0
M5
G00 X50.53 Y68.77 F6000.0
M3
G01 Y68.41 F6000.0
M5
G00 X50.63 Y68.41 F6000.0
M3
G01 Y68.77 F6000.0
M5
G00 X50.73 Y68.77 F6000.0
M3
G01 Y68.41 F6000.0
M5
G00 X50.83 Y68.41 F6000.0
M3
G01 Y68.77 F6000.0
M5
G00 X50.93 Y68.77 F6000.0
M3
G01 Y68.4 F6000.0
M5
G00 X51.03 Y68.4 F6000.0
M3
G01 Y68.77 F6000.0
M5
G00 X51.13 Y68.77 F6000.0
M3
G01 Y68.4 F6000.0
M5
G00 X51.23 Y68.4 F6000.0
M3
G01 Y68.77 F6000.0
M5
G00 X51.33 Y68.77 F6000.0
M3
G01 Y68.4 F6000.0
M5
G00 X51.43 Y68.4 F6000.0
M3
G01 Y68.77 F6000.0
M5
G00 X51.53 Y68.77 F6000.0
M3
G01 Y68.4 F6000.0
M5
G00 X51.63 Y68.4 F6000.0
M3
G01 Y68.77 F6000.0
M5
G00 X51.73 Y68.77 F6000.0
M3
G01 Y68.39 F6000.0
M5
G00 X51.83 Y68.39 F6000.0
M3
G01 Y68.77 F6000.0
M5
G00 X51.93 Y68.77 F6000.0
M3
G01 Y68.39 F6000.0
M5
G00 X52.03 Y68.39 F6000.0
M3
G01 Y68.77 F6000.0
M5
G00 X52.13 Y68.77 F6000.0
M3
G01 Y68.39 F6000.0
M5
G00 X52.23 Y68.39 F6000.0
M3
G01 Y68.77 F6000.0
M5
G00 X52.33 Y68.77 F6000.0
M3
G01 Y68.39 F6000.0
M5
G00 X52.43 Y68.39 F6000.0
M3
G01 Y68.77 F6000.0
M5
G00 X52.53 Y68.77 F6000.0
M3
G01 Y68.38 F6000.0
M5
G00 X52.63 Y68.38 F6000.0
M3
G01 Y68.78 F6000.0
M5
G00 X52.73 Y68.78 F6000.0
M3
G01 Y68.38 F6000.0
M5
G00 X52.83 Y68.38 F6000.0
M3
G01 Y68.78 F6000.0
M5
G00 X52.93 Y68.78 F6000.0
M3
G01 Y68.38 F6000.0
M5
G00 X53.03 Y68.38 F6000.0
M3
G01 Y68.78 F6000.0
M5
G00 X53.13 Y68.78 F6000.0
M3
G01 Y68.38 F6000.0
M5
G00 X53.23 Y68.38 F6000.0
M3
G01 Y68.78 F6000.0
M5
G00 X53.33 Y68.79 F6000.0
M3
G01 Y68.37 F6000.0
M5
G00 X53.43 Y68.37 F6000.0
M3
G01 Y68.79 F6000.0
M5
G00 X53.53 Y68.79 F6000.0
M3
G01 Y68.37 F6000.0
M5
G00 X53.63 Y68.37 F6000.0
M3
G01 Y68.79 F6000.0
M5
G00 X53.73 Y68.79 F6000.0
M3
G01 Y68.37 F6000.0
M5
G00 X53.83 Y68.37 F6000.0
M3
G01 Y68.79 F6000.0
M5
G00 X53.93 Y68.8 F6000.0
M3
G01 Y68.37 F6000.0
M5
G00 X54.03 Y68.37 F6000.0
M3
G01 Y68.8 F6000.0
M5
G00 X54.13 Y68.8 F6000.0
M3
G01 Y68.36 F6000.0
M5
G00 X54.23 Y68.36 F6000.0
M3
G01 Y68.8 F6000.0
M5
G00 X54.33 Y68.8 F6000.0
M3
G01 Y68.36 F6000.0
M5
G00 X54.43 Y68.36 F6000.0
M3
G01 Y68.8 F6000.0
M5
G00 X54.53 Y68.8 F6000.0
M3
G01 Y68.36 F6000.0
M5
G00 X54.63 Y68.36 F6000.0
M3
G01 Y68.81 F6000.0
M5
G00 X54.73 Y68.81 F6000.0
M3
G01 Y68.36 F6000.0
M5
G00 X54.83 Y68.36 F6000.0
M3
G01 Y68.81 F6000.0
M5
G00 X54.93 Y68.81 F6000.0
M3
G01 Y68.35 F6000.0
M5
G00 X55.03 Y68.35 F6000.0
M3
G01 Y68.81 F6000.0
M5
G00 X55.13 Y68.81 F6000.0
M3
G01 Y68.35 F6000.0
M5
G00 X55.23 Y68.35 F6000.0
M3
G01 Y68.81 F6000.0
M5
G00 X55.33 Y68.82 F6000.0
M3
G01 Y68.35 F6000.0
M5
G00 X55.83 Y68.32 F6000.0
M3
G01 Y68.68 F6000.0
M5
G00 X55.73 Y68.68 F6000.0
M3
G01 Y68.06 F6000.0
M5
G00 X55.93 Y68.32 F6000.0
M3
G01 Y68.68 F6000.0
M5
G00 X56.03 Y68.68 F6000.0
M3
G01 Y68.32 F6000.0
M5
G00 X56.13 Y68.31 F6000.0
M3
G01 Y68.68 F6000.0
M5
G00 X56.23 Y68.68 F6000.0
M3
G01 Y68.31 F6000.0
M5
G00 X56.33 Y68.31 F6000.0
M3
G01 Y68.67 F6000.0
M5
G00 X56.43 Y68.66 F6000.0
M3
G01 Y68.31 F6000.0
M5
G00 X56.53 Y68.3 F6000.0
M3
G01 Y68.65 F6000.0
M5
G00 X56.63 Y68.63 F6000.0
M3
G01 Y68.3 F6000.0
M5
G00 X56.73 Y68.3 F6000.0
M3
G01 Y68.62 F6000.0
M5
G00 X56.83 Y68.61 F6000.0
M3
G01 Y68.29 F6000.0
M5
G00 X56.93 Y68.28 F6000.0
M3
G01 Y68.59 F6000.0
M5
G00 X57.03 Y68.58 F6000.0
M3
G01 Y68.27 F6000.0
M5
G00 X57.13 Y68.26 F6000.0
M3
G01 Y68.57 F6000.0
M5
G00 X57.23 Y68.55 F6000.0
M3
G01 Y68.24 F6000.0
M5
G00 X57.33 Y68.23 F6000.0
M3
G01 Y68.54 F6000.0
M5
G00 X57.43 Y68.53 F6000.0
M3
G01 Y68.22 F6000.0
M5
G00 X57.53 Y68.21 F6000.0
M3
G01 Y68.52 F6000.0
M5
G00 X57.63 Y68.5 F6000.0
M3
G01 Y68.2 F6000.0
M5
G00 X57.73 Y68.18 F6000.0
M3
G01 Y68.49 F6000.0
M5
G00 X57.83 Y68.48 F6000.0
M3
G01 Y68.17 F6000.0
M5
G00 X57.93 Y68.16 F6000.0
M3
G01 Y68.46 F6000.0
M5
G00 X58.03 Y68.45 F6000.0
M3
G01 Y68.13 F6000.0
M5
G00 X58.13 Y68.09 F6000.0
M3
G01 Y68.44 F6000.0
M5
G00 X58.23 Y68.42 F6000.0
M3
G01 Y68.05 F6000.0
M5
G00 X58.33 Y68.01 F6000.0
M3
G01 Y68.39 F6000.0
M5
G00 X58.43 Y68.36 F6000.0
M3
G01 Y67.97 F6000.0
M5
G00 X58.53 Y67.93 F6000.0
M3
G01 Y68.33 F6000.0
M5
G00 X58.63 Y68.29 F6000.0
M3
G01 Y67.89 F6000.0
M5
G00 X58.73 Y67.85 F6000.0
M3
G01 Y68.26 F6000.0
M5
G00 X58.83 Y68.23 F6000.0
M3
G01 Y67.78 F6000.0
M5
G00 X58.93 Y67.68 F6000.0
M3
G01 Y68.2 F6000.0
M5
G00 X59.03 Y68.17 F6000.0
M3
G01 Y67.58 F6000.0
M5
G00 X59.13 Y67.48 F6000.0
M3
G01 Y68.14 F6000.0
M5
G00 X59.23 Y68.11 F6000.0
M3
G01 Y67.38 F6000.0
M5
G00 X59.33 Y67.28 F6000.0
M3
G01 Y68.08 F6000.0
M5
G00 X59.43 Y68.04 F6000.0
M3
G01 Y66.99 F6000.0
M5
G00 X55.63 Y66.97 F6000.0
M3
G01 Y69.49 F6000.0
M5
G00 X55.33 Y69.42 F6000.0
M3
G01 Y71.54 F6000.0
M5
G00 X55.13 Y71.52 F6000.0
M3
G01 Y72.33 F6000.0
M5
G00 X54.93 Y72.48 F6000.0
M3
G01 Y73.01 F6000.0
M5
G00 X54.83 Y72.88 F6000.0
M3
G01 Y73.18 F6000.0
M5
G00 X54.73 Y73.07 F6000.0
M3
G01 Y73.36 F6000.0
M5
G00 X54.63 Y73.54 F6000.0
M3
G01 Y72.97 F6000.0
M5
G00 X54.53 Y72.88 F6000.0
M3
G01 Y73.72 F6000.0
M5
G00 X55.03 Y72.68 F6000.0
M3
G01 Y72.0 F6000.0
M5
G00 X55.23 Y71.98 F6000.0
M3
G01 Y70.59 F6000.0
M5
G00 X55.43 Y70.9 F6000.0
M3
G01 Y65.44 F6000.0
M5
G00 X55.13 Y65.65 F6000.0
M3
G01 Y64.16 F6000.0
M5
G00 X54.83 Y64.35 F6000.0
M3
G01 Y63.26 F6000.0
M5
G00 X54.93 Y63.51 F6000.0
M3
G01 Y64.76 F6000.0
M5
G00 X55.23 Y64.58 F6000.0
M3
G01 Y66.56 F6000.0
M5
G00 X55.53 Y66.21 F6000.0
M3
G01 Y70.26 F6000.0
M5
G00 X55.33 Y67.74 F6000.0
M3
G01 Y65.0 F6000.0
M5
G00 X55.03 Y65.17 F6000.0
M3
G01 Y63.76 F6000.0
M5
G00 X54.73 Y63.93 F6000.0
M3
G01 Y63.0 F6000.0
M5
G00 X54.63 Y62.75 F6000.0
M3
G01 Y63.66 F6000.0
M5
G00 X54.53 Y63.42 F6000.0
M3
G01 Y62.52 F6000.0
M5
G00 X54.43 Y62.38 F6000.0
M3
G01 Y63.17 F6000.0
M5
G00 X54.33 Y62.93 F6000.0
M3
G01 Y62.24 F6000.0
M5
G00 X54.23 Y62.1 F6000.0
M3
G01 Y62.68 F6000.0
M5
G00 X54.13 Y62.49 F6000.0
M3
G01 Y61.95 F6000.0
M5
G00 X54.03 Y61.81 F6000.0
M3
G01 Y62.36 F6000.0
M5
G00 X53.93 Y62.24 F6000.0
M3
G01 Y61.68 F6000.0
M5
G00 X51.03 Y61.69 F6000.0
M3
G01 Y62.35 F6000.0
M5
G00 X50.93 Y62.47 F6000.0
M3
G01 Y61.83 F6000.0
M5
G00 X50.83 Y61.96 F6000.0
M3
G01 Y62.59 F6000.0
M5
G00 X50.73 Y62.7 F6000.0
M3
G01 Y62.13 F6000.0
M5
G00 X50.63 Y62.31 F6000.0
M3
G01 Y62.82 F6000.0
M5
G00 X50.53 Y62.94 F6000.0
M3
G01 Y62.49 F6000.0
M5
G00 X50.43 Y62.67 F6000.0
M3
G01 Y63.11 F6000.0
M5
G00 X50.23 Y63.03 F6000.0
M3
G01 Y63.53 F6000.0
M5
G00 X50.33 Y63.32 F6000.0
M3
G01 Y62.85 F6000.0
M5
G00 X50.13 Y63.22 F6000.0
M3
G01 Y63.73 F6000.0
M5
G00 X50.03 Y63.66 F6000.0
M3
G01 Y64.1 F6000.0
M5
G00 X49.93 Y64.1 F6000.0
M3
G01 Y64.6 F6000.0
M5
G00 X48.53 Y64.67 F6000.0
M3
G01 Y64.25 F6000.0
M5
G00 X48.63 Y64.21 F6000.0
M3
G01 Y65.44 F6000.0
M5
G00 X48.43 Y65.43 F6000.0
M3
G01 Y66.16 F6000.0
M5
G00 X48.23 Y66.15 F6000.0
M3
G01 Y66.94 F6000.0
M5
G00 X48.03 Y66.82 F6000.0
M3
G01 Y67.72 F6000.0
M5
G00 X48.03 Y68.06 F6000.0
M3
G01 Y68.48 F6000.0
M5
G00 X47.93 Y68.47 F6000.0
M3
G01 Y67.15 F6000.0
M5
G00 X48.13 Y67.33 F6000.0
M3
G01 Y66.48 F6000.0
M5
G00 X48.33 Y66.55 F6000.0
M3
G01 Y65.81 F6000.0
M5
G00 X48.53 Y65.8 F6000.0
M3
G01 Y64.81 F6000.0
M5
G00 X48.43 Y64.76 F6000.0
M3
G01 Y64.33 F6000.0
M5
G00 X48.33 Y64.42 F6000.0
M3
G01 Y64.85 F6000.0
M5
G00 X48.23 Y64.94 F6000.0
M3
G01 Y64.51 F6000.0
M5
G00 X48.13 Y64.6 F6000.0
M3
G01 Y65.03 F6000.0
M5
G00 X48.03 Y65.11 F6000.0
M3
G01 Y64.68 F6000.0
M5
G00 X47.93 Y64.77 F6000.0
M3
G01 Y65.22 F6000.0
M5
