
;Inkscape Lasertools G-code
;https://github.com/ChrisWag91/Inkscape-Lasertools-Plugin

G90	;Absolute programming
G21	;Programming in millimeters (mm)
M5
M03 S1 ;Activate laser and set power to 0 (CUSTOM)

; START perimeter strategy
G01 F6000.0
M5
G00 X56.97 Y20.39 F6000.0
M3 F6000.0
G01 X56.92 Y20.45 F6000.0
G01 X56.32 Y21.25 F6000.0
G01 X55.67 Y22.12 F6000.0
G01 X55.58 Y22.29 F6000.0
G01 X55.05 Y23.35 F6000.0
G01 X54.7 Y24.15 F6000.0
G01 X54.29 Y24.72 F6000.0
G01 X53.74 Y25.17 F6000.0
G01 X52.95 Y25.59 F6000.0
G01 X52.19 Y25.99 F6000.0
G01 X52.11 Y26.08 F6000.0
G01 X52.23 Y26.11 F6000.0
G01 X52.3 Y26.09 F6000.0
G01 X53.34 Y25.86 F6000.0
G01 X53.41 Y25.82 F6000.0
G01 X54.35 Y25.3 F6000.0
G01 X54.8 Y24.93 F6000.0
G01 X55.27 Y25.34 F6000.0
G01 X55.62 Y25.78 F6000.0
G01 X55.55 Y26.32 F6000.0
G01 X55.36 Y26.73 F6000.0
G01 X54.97 Y27.65 F6000.0
G01 X54.39 Y28.98 F6000.0
G01 X54.31 Y29.13 F6000.0
G01 X53.88 Y30.03 F6000.0
G01 X53.38 Y31.08 F6000.0
G01 X53.36 Y31.03 F6000.0
G01 X53.07 Y30.02 F6000.0
G01 X52.93 Y29.64 F6000.0
G01 X52.46 Y28.31 F6000.0
G01 X52.39 Y28.2 F6000.0
G01 X51.79 Y27.24 F6000.0
G01 X51.4 Y26.79 F6000.0
G01 X51.79 Y25.96 F6000.0
G01 X51.85 Y25.77 F6000.0
G01 X52.14 Y24.82 F6000.0
G01 X52.49 Y23.67 F6000.0
G01 X52.51 Y23.46 F6000.0
G01 X52.6 Y22.46 F6000.0
G01 X52.71 Y21.25 F6000.0
G01 X52.69 Y21.13 F6000.0
G01 X52.51 Y20.02 F6000.0
G01 X52.48 Y20.24 F6000.0
G01 X52.3 Y21.45 F6000.0
G01 X52.27 Y21.76 F6000.0
G01 X52.16 Y22.76 F6000.0
G01 X52.01 Y24.07 F6000.0
G01 X51.91 Y24.41 F6000.0
G01 X51.51 Y25.72 F6000.0
G01 X51.02 Y26.52 F6000.0
G01 X50.88 Y26.69 F6000.0
G01 X50.61 Y27.16 F6000.0
G01 X50.41 Y27.53 F6000.0
G01 X50.75 Y27.38 F6000.0
G01 X51.05 Y27.2 F6000.0
G01 X51.37 Y27.44 F6000.0
G01 X51.58 Y27.87 F6000.0
G01 X52.03 Y28.77 F6000.0
G01 X52.7 Y30.09 F6000.0
G01 X53.04 Y30.81 F6000.0
G01 X53.11 Y31.28 F6000.0
G01 X52.85 Y31.83 F6000.0
G01 X52.81 Y31.9 F6000.0
G01 X52.21 Y32.8 F6000.0
G01 X52.05 Y33.07 F6000.0
G01 X51.55 Y33.93 F6000.0
G01 X51.05 Y34.8 F6000.0
G01 X50.4 Y35.93 F6000.0
G01 X50.33 Y36.1 F6000.0
G01 X49.94 Y37.02 F6000.0
G01 X49.55 Y37.94 F6000.0
G01 X49.09 Y39.03 F6000.0
G01 X48.98 Y39.45 F6000.0
G01 X48.74 Y40.43 F6000.0
G01 X48.4 Y41.82 F6000.0
G01 X48.37 Y42.03 F6000.0
G01 X48.23 Y43.02 F6000.0
G01 X48.08 Y44.01 F6000.0
G01 X47.91 Y45.21 F6000.0
G01 X47.9 Y45.33 F6000.0
G01 X47.84 Y46.33 F6000.0
G01 X47.77 Y47.33 F6000.0
G01 X47.69 Y48.45 F6000.0
G01 X47.7 Y48.63 F6000.0
G01 X47.76 Y49.62 F6000.0
G01 X47.82 Y50.8 F6000.0
G01 X47.92 Y51.15 F6000.0
G01 X48.01 Y50.47 F6000.0
G01 X48.02 Y50.25 F6000.0
G01 X48.15 Y48.25 F6000.0
G01 X48.23 Y47.03 F6000.0
G01 X48.25 Y46.86 F6000.0
G01 X48.35 Y45.87 F6000.0
G01 X48.44 Y44.87 F6000.0
G01 X48.54 Y43.88 F6000.0
G01 X48.65 Y42.72 F6000.0
G01 X48.73 Y42.4 F6000.0
G01 X48.95 Y41.43 F6000.0
G01 X49.17 Y40.45 F6000.0
G01 X49.47 Y39.16 F6000.0
G01 X49.6 Y38.8 F6000.0
G01 X50.08 Y37.51 F6000.0
G01 X50.26 Y37.14 F6000.0
G01 X50.85 Y35.86 F6000.0
G01 X50.88 Y35.81 F6000.0
G01 X51.39 Y34.95 F6000.0
G01 X51.9 Y34.09 F6000.0
G01 X52.41 Y33.23 F6000.0
G01 X52.95 Y32.33 F6000.0
G01 X53.01 Y32.23 F6000.0
G01 X54.01 Y30.49 F6000.0
G01 X54.56 Y29.53 F6000.0
G01 X54.76 Y29.11 F6000.0
G01 X55.18 Y28.21 F6000.0
G01 X55.8 Y26.89 F6000.0
G01 X56.15 Y26.12 F6000.0
G01 X56.47 Y26.34 F6000.0
G01 X57.63 Y27.14 F6000.0
G01 X57.53 Y27.34 F6000.0
G01 X57.39 Y27.54 F6000.0
G01 X57.43 Y27.73 F6000.0
G01 X58.09 Y28.22 F6000.0
G01 X58.14 Y28.26 F6000.0
G01 X58.97 Y28.91 F6000.0
G01 X59.21 Y29.56 F6000.0
G01 X59.25 Y30.17 F6000.0
G01 X59.1 Y30.67 F6000.0
G01 X58.77 Y31.01 F6000.0
G01 X57.9 Y31.11 F6000.0
G01 X57.69 Y31.09 F6000.0
G01 X56.49 Y30.94 F6000.0
G01 X56.08 Y30.86 F6000.0
G01 F6000.0
G01 X55.78 Y31.83 F6000.0
G01 F6000.0
G01 X55.49 Y32.8 F6000.0
G01 X55.59 Y32.89 F6000.0
G01 X56.43 Y33.66 F6000.0
G01 X56.62 Y33.88 F6000.0
G01 X57.48 Y34.85 F6000.0
G01 X57.52 Y35.37 F6000.0
G01 X57.3 Y35.75 F6000.0
G01 X56.92 Y35.93 F6000.0
G01 X56.47 Y35.81 F6000.0
G01 X56.41 Y35.73 F6000.0
G01 X55.7 Y34.89 F6000.0
G01 Y34.88 F6000.0
G01 X55.05 Y34.11 F6000.0
G01 X54.4 Y34.17 F6000.0
G01 X54.39 Y34.18 F6000.0
G01 X53.56 Y34.77 F6000.0
G01 X52.96 Y35.34 F6000.0
G01 X53.55 Y35.66 F6000.0
G01 X54.15 Y36.14 F6000.0
G01 X54.16 Y36.16 F6000.0
G01 X54.79 Y36.97 F6000.0
G01 X55.34 Y37.71 F6000.0
G01 X55.86 Y38.15 F6000.0
G01 X56.45 Y38.37 F6000.0
G01 X57.24 Y38.42 F6000.0
G01 X58.11 Y38.32 F6000.0
G01 X58.8 Y38.03 F6000.0
G01 X59.29 Y37.57 F6000.0
G01 X59.59 Y36.98 F6000.0
G01 X59.68 Y36.28 F6000.0
G01 X59.55 Y35.49 F6000.0
G01 X59.21 Y34.65 F6000.0
G01 X59.19 Y34.63 F6000.0
G01 X58.63 Y33.78 F6000.0
G01 X58.24 Y33.12 F6000.0
G01 X58.93 Y32.95 F6000.0
G01 X59.81 Y32.61 F6000.0
G01 X60.06 Y32.37 F6000.0
G01 X60.07 Y32.17 F6000.0
G01 X60.22 Y32.13 F6000.0
G01 X60.47 Y32.38 F6000.0
G01 X60.76 Y33.09 F6000.0
G01 X60.98 Y33.95 F6000.0
G01 X60.88 Y34.54 F6000.0
G01 X60.8 Y34.96 F6000.0
G01 X60.56 Y36.37 F6000.0
G01 X60.55 Y36.65 F6000.0
G01 X60.49 Y37.94 F6000.0
G01 X60.81 Y38.2 F6000.0
G01 X61.4 Y38.39 F6000.0
G01 X62.05 Y38.46 F6000.0
G01 X62.52 Y38.37 F6000.0
G01 X63.07 Y39.12 F6000.0
G01 X63.27 Y39.45 F6000.0
G01 X63.96 Y40.66 F6000.0
G01 X64.17 Y40.96 F6000.0
G01 X64.97 Y42.07 F6000.0
G01 X65.13 Y42.28 F6000.0
G01 X65.88 Y43.3 F6000.0
G01 X65.98 Y43.42 F6000.0
G01 X66.72 Y44.3 F6000.0
G01 X66.96 Y44.55 F6000.0
G01 X67.92 Y45.49 F6000.0
G01 X68.09 Y45.64 F6000.0
G01 X69.03 Y46.44 F6000.0
G01 X69.61 Y46.74 F6000.0
G01 Y46.73 F6000.0
G01 X68.87 Y46.03 F6000.0
G01 X68.56 Y45.72 F6000.0
G01 X67.85 Y45.01 F6000.0
G01 X66.83 Y43.99 F6000.0
G01 X66.69 Y43.81 F6000.0
G01 X66.73 Y43.78 F6000.0
G01 X66.75 Y43.79 F6000.0
G01 X67.63 Y44.31 F6000.0
G01 X67.87 Y44.43 F6000.0
G01 X69.02 Y44.99 F6000.0
G01 X68.85 Y44.85 F6000.0
G01 X67.92 Y44.08 F6000.0
G01 X67.62 Y43.83 F6000.0
G01 X66.56 Y42.94 F6000.0
G01 X66.35 Y42.72 F6000.0
G01 X65.44 Y41.78 F6000.0
G01 X65.22 Y41.48 F6000.0
G01 X64.38 Y40.4 F6000.0
G01 X64.34 Y40.33 F6000.0
G01 X63.79 Y39.5 F6000.0
G01 X63.21 Y38.59 F6000.0
G01 X63.04 Y38.25 F6000.0
G01 X63.13 Y38.16 F6000.0
G01 X63.42 Y38.33 F6000.0
G01 X64.02 Y38.9 F6000.0
G01 X64.13 Y38.96 F6000.0
G01 X65.07 Y39.58 F6000.0
G01 X65.23 Y39.66 F6000.0
G01 X66.28 Y40.2 F6000.0
G01 X66.35 Y40.23 F6000.0
G01 X67.36 Y40.6 F6000.0
G01 X67.52 Y40.63 F6000.0
G01 X68.66 Y40.81 F6000.0
G01 X68.82 Y40.8 F6000.0
G01 X69.98 Y40.76 F6000.0
G01 X70.14 Y40.73 F6000.0
G01 X71.28 Y40.48 F6000.0
G01 X71.44 Y40.41 F6000.0
G01 X72.53 Y39.97 F6000.0
G01 X72.7 Y39.86 F6000.0
G01 X73.72 Y39.24 F6000.0
G01 X73.88 Y39.1 F6000.0
G01 X74.81 Y38.31 F6000.0
G01 X74.97 Y38.13 F6000.0
G01 X75.78 Y37.2 F6000.0
G01 X75.92 Y36.98 F6000.0
G01 X76.6 Y35.91 F6000.0
G01 X76.63 Y35.83 F6000.0
G01 X77.0 Y34.91 F6000.0
G01 X77.4 Y33.9 F6000.0
G01 X77.46 Y33.48 F6000.0
G01 X77.61 Y32.5 F6000.0
G01 X77.83 Y31.09 F6000.0
G01 X77.88 Y30.71 F6000.0
G01 X78.02 Y29.72 F6000.0
G01 X78.21 Y28.34 F6000.0
G01 F6000.0
G01 X78.54 Y27.39 F6000.0
G01 X78.87 Y26.45 F6000.0
G01 X79.04 Y26.07 F6000.0
G01 X79.61 Y24.78 F6000.0
G01 X79.63 Y24.69 F6000.0
G01 X79.92 Y23.63 F6000.0
G01 X80.08 Y22.79 F6000.0
G01 X80.27 Y23.08 F6000.0
G01 X81.0 Y24.22 F6000.0
G01 X81.24 Y24.56 F6000.0
G01 X81.82 Y25.38 F6000.0
G01 X82.39 Y26.19 F6000.0
G01 X82.97 Y27.01 F6000.0
G01 X83.55 Y27.83 F6000.0
G01 X84.13 Y28.64 F6000.0
G01 X84.7 Y29.46 F6000.0
G01 X85.52 Y30.62 F6000.0
G01 X85.65 Y30.71 F6000.0
G01 X85.62 Y30.56 F6000.0
G01 X85.57 Y30.49 F6000.0
G01 X85.03 Y29.55 F6000.0
G01 X84.76 Y29.13 F6000.0
G01 X84.22 Y28.29 F6000.0
G01 X83.68 Y27.45 F6000.0
G01 X83.13 Y26.61 F6000.0
G01 X82.59 Y25.77 F6000.0
G01 X81.78 Y24.52 F6000.0
G01 X81.58 Y24.24 F6000.0
G01 X81.01 Y23.42 F6000.0
G01 X80.44 Y22.59 F6000.0
G01 X79.87 Y21.77 F6000.0
G01 X79.1 Y20.67 F6000.0
G01 X79.07 Y20.64 F6000.0
G01 X78.39 Y19.84 F6000.0
G01 X78.05 Y19.69 F6000.0
G01 X78.36 Y20.25 F6000.0
G01 X78.48 Y20.42 F6000.0
G01 X79.18 Y21.41 F6000.0
G01 X79.64 Y22.08 F6000.0
G01 X79.62 Y22.2 F6000.0
G01 X79.42 Y23.3 F6000.0
G01 X79.34 Y23.56 F6000.0
G01 X79.05 Y24.52 F6000.0
G01 X78.68 Y25.74 F6000.0
G01 X78.62 Y25.91 F6000.0
G01 X78.29 Y26.85 F6000.0
G01 X77.91 Y27.96 F6000.0
G01 Y27.97 F6000.0
G01 X77.79 Y28.96 F6000.0
G01 X77.67 Y29.95 F6000.0
G01 X77.56 Y30.95 F6000.0
G01 X77.5 Y31.38 F6000.0
G01 X77.39 Y32.38 F6000.0
G01 X77.22 Y33.81 F6000.0
G01 X77.07 Y34.22 F6000.0
G01 X76.59 Y35.58 F6000.0
G01 X76.56 Y35.64 F6000.0
G01 X76.01 Y36.48 F6000.0
G01 X75.43 Y37.38 F6000.0
G01 X75.42 Y37.39 F6000.0
G01 X74.7 Y38.08 F6000.0
G01 X73.96 Y38.78 F6000.0
G01 X73.94 Y38.79 F6000.0
G01 X73.07 Y39.28 F6000.0
G01 X72.18 Y39.77 F6000.0
G01 X72.09 Y39.8 F6000.0
G01 X71.13 Y40.07 F6000.0
G01 X70.08 Y40.37 F6000.0
G01 X69.75 Y40.39 F6000.0
G01 X68.43 Y40.49 F6000.0
G01 X68.14 Y40.43 F6000.0
G01 X66.87 Y40.21 F6000.0
G01 X66.53 Y40.06 F6000.0
G01 X65.28 Y39.5 F6000.0
G01 X65.25 Y39.48 F6000.0
G01 X64.42 Y38.91 F6000.0
G01 X63.57 Y38.33 F6000.0
G01 X62.95 Y37.74 F6000.0
G01 X62.45 Y36.87 F6000.0
G01 X62.42 Y36.78 F6000.0
G01 X61.52 Y33.92 F6000.0
G01 X61.19 Y32.87 F6000.0
G01 X61.07 Y32.5 F6000.0
G01 X60.77 Y31.55 F6000.0
G01 X60.35 Y30.23 F6000.0
G01 X60.04 Y29.53 F6000.0
G01 X59.82 Y29.29 F6000.0
G01 X59.58 Y29.03 F6000.0
G01 X59.59 Y28.77 F6000.0
G01 X59.72 Y28.89 F6000.0
G01 X61.96 Y30.89 F6000.0
G01 X62.84 Y31.67 F6000.0
G01 X62.94 Y31.76 F6000.0
G01 X64.4 Y33.13 F6000.0
G01 X65.13 Y33.81 F6000.0
G01 X65.95 Y34.58 F6000.0
G01 X66.35 Y34.86 F6000.0
G01 X65.9 Y34.29 F6000.0
G01 X65.78 Y34.16 F6000.0
G01 X64.38 Y32.73 F6000.0
G01 X63.68 Y32.02 F6000.0
G01 X62.28 Y30.59 F6000.0
G01 X61.45 Y29.75 F6000.0
G01 X61.28 Y29.61 F6000.0
G01 X60.51 Y28.97 F6000.0
G01 X59.74 Y28.33 F6000.0
G01 X58.79 Y27.55 F6000.0
G01 X58.58 Y27.39 F6000.0
G01 X57.78 Y26.79 F6000.0
G01 X56.98 Y26.2 F6000.0
G01 X56.17 Y25.6 F6000.0
G01 X55.16 Y24.85 F6000.0
G01 X55.03 Y24.6 F6000.0
G01 X55.23 Y23.95 F6000.0
G01 X55.34 Y23.71 F6000.0
G01 X55.86 Y22.56 F6000.0
G01 X55.98 Y22.39 F6000.0
G01 X56.68 Y21.42 F6000.0
G01 X56.76 Y21.31 F6000.0
G01 X57.39 Y20.36 F6000.0
G01 X57.59 Y19.68 F6000.0
G01 X56.97 Y20.39 F6000.0
G01 F6000.0
M5
G00 X60.14 Y30.97 F6000.0
M3 F6000.0
G01 X60.24 Y31.66 F6000.0
G01 X59.93 Y32.02 F6000.0
G01 X59.07 Y32.46 F6000.0
G01 X58.97 Y32.47 F6000.0
G01 X57.87 Y32.6 F6000.0
G01 X57.27 Y32.64 F6000.0
G01 X57.1 Y32.8 F6000.0
G01 X57.29 Y33.0 F6000.0
G01 X57.97 Y33.58 F6000.0
G01 X58.11 Y33.77 F6000.0
G01 X58.84 Y34.79 F6000.0
G01 X59.14 Y35.46 F6000.0
G01 X59.22 Y36.15 F6000.0
G01 X59.11 Y36.93 F6000.0
G01 X58.76 Y37.47 F6000.0
G01 X58.17 Y37.79 F6000.0
G01 X57.32 Y37.9 F6000.0
G01 X56.73 Y37.83 F6000.0
G01 X56.25 Y37.6 F6000.0
G01 X56.07 Y37.37 F6000.0
G01 X55.26 Y36.37 F6000.0
G01 X54.82 Y35.77 F6000.0
G01 X54.56 Y35.6 F6000.0
G01 X54.48 Y35.62 F6000.0
G01 X54.51 Y35.54 F6000.0
G01 X54.49 Y35.38 F6000.0
G01 X54.27 Y35.23 F6000.0
G01 X53.95 Y34.96 F6000.0
G01 X54.27 Y34.72 F6000.0
G01 X54.8 Y34.64 F6000.0
G01 X55.26 Y35.25 F6000.0
G01 X55.32 Y35.32 F6000.0
G01 X56.03 Y36.15 F6000.0
G01 X56.87 Y36.44 F6000.0
G01 X57.52 Y36.22 F6000.0
G01 X57.69 Y36.03 F6000.0
G01 X57.67 Y35.86 F6000.0
G01 X57.77 Y35.8 F6000.0
G01 X57.94 Y35.69 F6000.0
G01 X58.01 Y35.33 F6000.0
G01 X57.82 Y34.38 F6000.0
G01 X57.7 Y34.25 F6000.0
G01 X56.92 Y33.37 F6000.0
G01 X56.91 Y33.36 F6000.0
G01 X56.16 Y32.69 F6000.0
G01 X56.27 Y32.05 F6000.0
G01 X56.47 Y31.56 F6000.0
G01 X57.37 Y31.64 F6000.0
G01 X57.48 F6000.0
G01 X58.6 Y31.63 F6000.0
G01 X59.33 Y31.12 F6000.0
G01 X59.75 Y30.46 F6000.0
G01 X59.79 Y30.23 F6000.0
G01 X59.89 Y30.26 F6000.0
G01 X60.14 Y30.97 F6000.0
G01 F6000.0
M5
G00 X61.68 Y35.68 F6000.0
M3 F6000.0
G01 X61.77 Y35.94 F6000.0
G01 X62.22 Y37.13 F6000.0
G01 X62.53 Y37.99 F6000.0
G01 X61.67 Y38.05 F6000.0
G01 X60.81 Y37.98 F6000.0
G01 X61.01 Y37.04 F6000.0
G01 X61.04 Y36.79 F6000.0
G01 X61.21 Y35.55 F6000.0
G01 X61.34 Y35.01 F6000.0
G01 X61.68 Y35.68 F6000.0
G01 F6000.0
M5
G00 X62.84 Y43.59 F6000.0
M3 F6000.0
G01 X63.12 Y43.75 F6000.0
G01 X64.26 Y44.39 F6000.0
G01 X64.48 Y44.55 F6000.0
G01 X65.52 Y45.29 F6000.0
G01 X65.74 Y45.48 F6000.0
G01 X66.7 Y46.34 F6000.0
G01 X66.96 Y46.61 F6000.0
G01 X67.89 Y47.61 F6000.0
G01 X68.17 Y47.92 F6000.0
G01 X69.12 Y48.96 F6000.0
G01 X69.11 Y48.94 F6000.0
G01 X68.57 Y48.09 F6000.0
G01 X68.03 Y47.23 F6000.0
G01 X67.76 Y46.94 F6000.0
G01 X66.83 Y45.91 F6000.0
G01 X66.61 Y45.72 F6000.0
G01 X65.62 Y44.87 F6000.0
G01 X65.4 Y44.72 F6000.0
G01 X64.33 Y44.05 F6000.0
G01 X64.05 Y43.92 F6000.0
G01 X62.85 Y43.39 F6000.0
G01 X61.94 Y43.09 F6000.0
G01 X61.95 Y43.1 F6000.0
G01 X62.84 Y43.59 F6000.0
G01 F6000.0
M5
G00 X57.47 Y46.04 F6000.0
M3 F6000.0
G01 X57.25 Y46.28 F6000.0
G01 X56.35 Y47.24 F6000.0
G01 X56.19 Y47.38 F6000.0
G01 X55.26 Y48.17 F6000.0
G01 X55.24 Y48.18 F6000.0
G01 X54.56 Y48.95 F6000.0
G01 X54.65 F6000.0
G01 X55.06 Y48.59 F6000.0
G01 X55.43 Y48.28 F6000.0
G01 X56.56 Y47.33 F6000.0
G01 X57.3 Y46.68 F6000.0
G01 X57.8 Y46.0 F6000.0
G01 X58.15 Y45.25 F6000.0
G01 X58.13 Y45.27 F6000.0
G01 X57.47 Y46.04 F6000.0
G01 F6000.0
M5
G00 X53.52 Y44.02 F6000.0
M3 F6000.0
G01 X53.5 Y44.05 F6000.0
G01 X52.88 Y44.83 F6000.0
G01 X52.24 Y45.64 F6000.0
G01 X52.19 Y45.76 F6000.0
G01 X51.76 Y46.67 F6000.0
G01 X51.28 Y47.7 F6000.0
G01 X51.23 Y47.81 F6000.0
G01 X50.81 Y48.85 F6000.0
G01 X50.69 Y49.09 F6000.0
G01 X50.79 Y49.15 F6000.0
G01 X51.12 Y48.85 F6000.0
G01 X51.15 Y48.8 F6000.0
G01 X51.66 Y47.87 F6000.0
G01 X51.99 Y47.12 F6000.0
G01 Y47.11 F6000.0
G01 X52.49 Y46.24 F6000.0
G01 X53.0 Y45.37 F6000.0
G01 Y45.36 F6000.0
G01 X53.51 Y44.51 F6000.0
G01 X54.03 Y43.64 F6000.0
G01 X53.52 Y44.02 F6000.0
G01 F6000.0
M5
G00 X42.63 Y39.31 F6000.0
M3 F6000.0
G01 X42.56 Y39.79 F6000.0
G01 X42.34 Y41.26 F6000.0
G01 X42.32 Y41.62 F6000.0
G01 X42.28 Y42.62 F6000.0
G01 X42.24 Y43.61 F6000.0
G01 X42.18 Y44.97 F6000.0
G01 X42.2 Y45.36 F6000.0
G01 X42.29 Y46.75 F6000.0
G01 X42.33 Y46.97 F6000.0
G01 X42.53 Y48.19 F6000.0
G01 X42.69 Y48.62 F6000.0
G01 X43.18 Y49.99 F6000.0
G01 X43.51 Y50.61 F6000.0
G01 X43.74 Y50.8 F6000.0
G01 X43.79 Y50.92 F6000.0
G01 X43.99 Y51.31 F6000.0
G01 X44.55 Y51.95 F6000.0
G01 X44.74 Y52.1 F6000.0
G01 X45.7 Y52.89 F6000.0
G01 X45.92 Y52.92 F6000.0
G01 X45.95 Y52.85 F6000.0
G01 X45.32 Y52.22 F6000.0
G01 X45.25 Y52.15 F6000.0
G01 X44.5 Y51.35 F6000.0
G01 X44.43 Y51.25 F6000.0
G01 X43.82 Y50.31 F6000.0
G01 X43.75 Y50.17 F6000.0
G01 X43.27 Y49.11 F6000.0
G01 X43.21 Y48.92 F6000.0
G01 X42.85 Y47.78 F6000.0
G01 X42.81 Y47.53 F6000.0
G01 X42.58 Y46.3 F6000.0
G01 X42.56 Y46.0 F6000.0
G01 X42.45 Y44.7 F6000.0
G01 X42.46 Y44.43 F6000.0
G01 X42.51 Y43.43 F6000.0
G01 X42.55 Y42.43 F6000.0
G01 X42.61 Y41.15 F6000.0
G01 Y41.14 F6000.0
G01 X42.7 Y40.15 F6000.0
G01 X42.78 Y39.14 F6000.0
G01 X42.63 Y39.31 F6000.0
G01 F6000.0
M5
G00 X40.05 Y39.17 F6000.0
M3 F6000.0
G01 X39.75 Y39.67 F6000.0
G01 X39.76 Y39.92 F6000.0
G01 X39.91 Y39.91 F6000.0
G01 X40.11 Y39.54 F6000.0
G01 X40.45 Y38.79 F6000.0
G01 X40.5 Y38.59 F6000.0
G01 X40.05 Y39.17 F6000.0
G01 F6000.0
M5
G00 X37.22 Y29.86 F6000.0
M3 F6000.0
G01 X36.8 Y30.64 F6000.0
G01 X36.63 Y31.47 F6000.0
G01 X36.72 Y32.26 F6000.0
G01 X37.06 Y32.95 F6000.0
G01 X37.2 Y33.06 F6000.0
G01 X38.16 Y33.75 F6000.0
G01 X38.53 Y33.89 F6000.0
G01 X39.83 Y34.39 F6000.0
G01 X39.87 F6000.0
G01 X40.86 Y34.48 F6000.0
G01 X41.9 Y34.58 F6000.0
G01 X42.39 Y34.53 F6000.0
G01 X43.88 Y34.38 F6000.0
G01 X44.05 Y34.3 F6000.0
G01 X45.15 Y33.84 F6000.0
G01 X45.31 Y33.73 F6000.0
G01 X46.32 Y33.07 F6000.0
G01 X46.6 Y32.8 F6000.0
G01 X46.48 Y32.78 F6000.0
G01 X46.17 Y32.92 F6000.0
G01 X44.95 Y33.49 F6000.0
G01 X44.65 Y33.65 F6000.0
G01 X43.46 Y34.26 F6000.0
G01 X43.12 F6000.0
G01 X41.78 F6000.0
G01 X41.51 Y34.25 F6000.0
G01 X40.25 Y34.2 F6000.0
G01 X40.22 Y34.19 F6000.0
G01 X39.23 Y33.95 F6000.0
G01 X38.98 Y33.84 F6000.0
G01 X37.83 Y33.3 F6000.0
G01 X37.79 Y33.26 F6000.0
G01 X37.06 Y32.5 F6000.0
G01 X36.9 Y32.02 F6000.0
G01 X36.89 Y31.48 F6000.0
G01 X36.95 Y31.3 F6000.0
G01 X37.29 Y30.17 F6000.0
G01 X37.58 Y29.43 F6000.0
G01 X37.22 Y29.86 F6000.0
G01 F6000.0
M5
G00 X30.67 Y32. F6000.0
M3 F6000.0
G01 X30.54 Y32.1 F6000.0
G01 X29.6 Y32.8 F6000.0
G01 X29.05 Y33.49 F6000.0
G01 X29.24 Y33.48 F6000.0
G01 X29.74 Y33.15 F6000.0
G01 X29.97 Y33.01 F6000.0
G01 X31.04 Y32.35 F6000.0
G01 X31.1 Y32.32 F6000.0
G01 X32.09 Y31.93 F6000.0
G01 X32.16 Y31.89 F6000.0
G01 X32.02 Y31.81 F6000.0
G01 X31.5 Y31.69 F6000.0
G01 X30.67 Y32.0 F6000.0
G01 F6000.0
M5
G00 X27.72 Y38.19 F6000.0
M3 F6000.0
G01 X26.91 Y38.41 F6000.0
G01 X26.88 F6000.0
G01 X25.85 Y38.44 F6000.0
G01 X25.75 F6000.0
G01 X24.66 Y38.51 F6000.0
G01 X24.61 Y38.52 F6000.0
G01 X23.6 Y38.76 F6000.0
G01 X22.85 Y39.14 F6000.0
G01 X22.56 Y39.57 F6000.0
G01 X22.68 Y39.74 F6000.0
G01 X22.95 Y39.56 F6000.0
G01 X22.96 F6000.0
G01 X23.78 Y38.98 F6000.0
G01 X24.72 Y38.69 F6000.0
G01 X24.88 Y38.71 F6000.0
G01 X26.04 Y38.87 F6000.0
G01 X26.24 Y38.94 F6000.0
G01 X27.38 Y39.36 F6000.0
G01 X28.19 Y39.76 F6000.0
G01 X27.71 Y39.31 F6000.0
G01 X27.05 Y38.79 F6000.0
G01 X26.94 Y38.71 F6000.0
G01 X27.01 Y38.61 F6000.0
G01 X27.56 Y38.41 F6000.0
G01 X28.01 Y38.35 F6000.0
G01 X29.46 Y38.16 F6000.0
G01 X29.69 Y38.2 F6000.0
G01 X30.9 Y38.38 F6000.0
G01 X31.12 Y38.5 F6000.0
G01 X32.2 Y39.12 F6000.0
G01 X32.4 Y39.28 F6000.0
G01 X33.41 Y40.03 F6000.0
G01 X33.42 Y39.99 F6000.0
G01 X33.15 Y39.67 F6000.0
G01 X32.94 Y39.49 F6000.0
G01 X31.98 Y38.65 F6000.0
G01 X31.75 Y38.56 F6000.0
G01 X30.62 Y38.05 F6000.0
G01 X30.39 Y38.03 F6000.0
G01 X29.16 Y37.89 F6000.0
G01 X28.93 Y37.94 F6000.0
G01 X27.72 Y38.19 F6000.0
G01 F6000.0
M5
G00 X28.58 Y40.07 F6000.0
M3 F6000.0
G01 X28.44 Y40.48 F6000.0
G01 Y40.98 F6000.0
G01 X28.58 Y41.43 F6000.0
G01 X28.83 Y41.73 F6000.0
G01 X29.04 Y41.85 F6000.0
G01 X28.88 Y41.64 F6000.0
G01 X28.7 Y41.26 F6000.0
G01 X28.64 Y40.76 F6000.0
G01 X28.71 Y40.3 F6000.0
G01 X28.91 Y40.02 F6000.0
G01 X29.35 Y40.05 F6000.0
G01 X30.79 Y40.14 F6000.0
G01 X30.98 Y40.18 F6000.0
G01 X31.96 Y40.39 F6000.0
G01 X33.12 Y40.63 F6000.0
G01 X33.79 Y41.02 F6000.0
G01 X34.25 Y41.59 F6000.0
G01 X34.52 Y42.38 F6000.0
G01 Y42.4 F6000.0
G01 X34.6 Y43.42 F6000.0
G01 X34.73 Y44.31 F6000.0
G01 X34.87 Y44.14 F6000.0
G01 X34.95 Y43.56 F6000.0
G01 X34.94 Y43.35 F6000.0
G01 X34.89 Y42.14 F6000.0
G01 X34.56 Y41.28 F6000.0
G01 X33.92 Y40.67 F6000.0
G01 X33.85 Y40.64 F6000.0
G01 X32.85 Y40.25 F6000.0
G01 X32.54 Y40.19 F6000.0
G01 X31.24 Y39.95 F6000.0
G01 X31.23 F6000.0
G01 X30.24 Y39.85 F6000.0
G01 X29.23 Y39.76 F6000.0
G01 X28.81 Y39.85 F6000.0
G01 X28.58 Y40.07 F6000.0
G01 F6000.0
M5
G00 X26.45 Y44.55 F6000.0
M3 F6000.0
G01 X26.2 Y44.92 F6000.0
G01 X25.39 Y46.12 F6000.0
G01 X25.22 Y46.51 F6000.0
G01 X24.63 Y47.81 F6000.0
G01 X24.44 Y48.79 F6000.0
G01 Y48.77 F6000.0
G01 X24.87 Y47.85 F6000.0
G01 X25.02 Y47.54 F6000.0
G01 X25.46 Y46.64 F6000.0
G01 X26.05 Y45.44 F6000.0
G01 X26.14 Y45.28 F6000.0
G01 X26.75 Y44.25 F6000.0
G01 X26.45 Y44.55 F6000.0
G01 F6000.0
M5
G00 X20.77 Y40.28 F6000.0
M3 F6000.0
G01 X20.57 Y40.41 F6000.0
G01 X20.44 Y40.28 F6000.0
G01 X20.65 Y40.15 F6000.0
G01 X20.77 Y40.28 F6000.0
G01 F6000.0
M5
G00 X19.12 Y44.5 F6000.0
M3 F6000.0
G01 X20.11 Y44.58 F6000.0
G01 X20.15 Y45.21 F6000.0
G01 X20.18 Y45.84 F6000.0
G01 X19.28 F6000.0
G01 X19.07 Y45.81 F6000.0
G01 X17.87 Y45.65 F6000.0
G01 X17.14 Y45.3 F6000.0
G01 X17.42 Y44.71 F6000.0
G01 X17.68 Y44.36 F6000.0
G01 X17.91 Y44.33 F6000.0
G01 X18.02 Y44.34 F6000.0
G01 X19.12 Y44.5 F6000.0
G01 F6000.0
M5
G00 X15.69 Y41.08 F6000.0
M3 F6000.0
G01 X15.95 Y41.51 F6000.0
G01 X16.28 Y42.39 F6000.0
G01 X16.56 Y43.13 F6000.0
G01 X16.46 Y43.17 F6000.0
G01 X15.46 Y43.65 F6000.0
G01 X15.22 Y43.75 F6000.0
G01 X14.06 Y44.21 F6000.0
G01 X13.67 Y44.29 F6000.0
G01 X13.14 Y43.89 F6000.0
G01 X13.0 Y43.72 F6000.0
G01 X12.22 Y42.79 F6000.0
G01 X12.21 Y42.76 F6000.0
G01 X11.84 Y41.79 F6000.0
G01 Y41.37 F6000.0
G01 X12.12 Y41.34 F6000.0
G01 X13.4 Y41.21 F6000.0
G01 X13.74 Y41.17 F6000.0
G01 X15.08 Y41.01 F6000.0
G01 X15.38 Y40.96 F6000.0
G01 X15.69 Y41.08 F6000.0
G01 F6000.0
M5
G00 X13.56 Y40.94 F6000.0
M3 F6000.0
G01 X13.43 Y40.95 F6000.0
G01 X12.3 Y40.98 F6000.0
G01 X11.72 Y41.17 F6000.0
G01 X11.48 Y41.47 F6000.0
G01 X11.5 Y41.97 F6000.0
G01 X11.56 Y42.1 F6000.0
G01 X12.03 Y43.15 F6000.0
G01 X12.16 Y43.28 F6000.0
G01 X13.02 Y44.1 F6000.0
G01 X13.84 Y44.42 F6000.0
G01 X14.69 Y44.26 F6000.0
G01 X14.83 Y44.2 F6000.0
G01 X15.91 Y43.78 F6000.0
G01 X16.71 Y43.42 F6000.0
G01 X16.87 Y43.06 F6000.0
G01 X16.7 Y42.55 F6000.0
G01 X16.53 Y42.29 F6000.0
G01 X16.46 Y42.08 F6000.0
G01 X16.05 Y40.93 F6000.0
G01 X15.18 Y40.85 F6000.0
G01 X14.87 Y40.87 F6000.0
G01 X13.56 Y40.94 F6000.0
G01 F6000.0
M5
G00 X18.06 Y36.51 F6000.0
M3 F6000.0
G01 X17.97 Y36.66 F6000.0
G01 X17.7 Y36.71 F6000.0
G01 X16.94 Y36.81 F6000.0
G01 X16.09 Y37.1 F6000.0
G01 X15.7 Y37.33 F6000.0
G01 X14.46 Y38.07 F6000.0
G01 X13.93 Y38.59 F6000.0
G01 X13.88 Y39.01 F6000.0
G01 X14.37 Y39.41 F6000.0
G01 X14.44 Y39.45 F6000.0
G01 X15.43 Y39.9 F6000.0
G01 X15.46 Y39.91 F6000.0
G01 X16.44 Y40.22 F6000.0
G01 X16.34 Y40.16 F6000.0
G01 X15.36 Y39.59 F6000.0
G01 X15.21 Y39.5 F6000.0
G01 X14.22 Y38.87 F6000.0
G01 X14.61 Y38.4 F6000.0
G01 X14.66 Y38.38 F6000.0
G01 X15.56 Y37.84 F6000.0
G01 X15.7 Y37.78 F6000.0
G01 X16.75 Y37.34 F6000.0
G01 X16.81 Y37.33 F6000.0
G01 X17.84 Y37.08 F6000.0
G01 X18.22 Y37.19 F6000.0
G01 X18.6 Y38.1 F6000.0
G01 X18.63 Y38.16 F6000.0
G01 X18.98 Y39.17 F6000.0
G01 X18.29 Y39.25 F6000.0
G01 X18.26 F6000.0
G01 X17.28 Y39.55 F6000.0
G01 X16.68 Y40.1 F6000.0
G01 X16.69 Y40.21 F6000.0
G01 X16.97 Y40.1 F6000.0
G01 X17.9 Y39.76 F6000.0
G01 X18.55 Y39.67 F6000.0
G01 X17.98 Y40.07 F6000.0
G01 X17.14 Y40.57 F6000.0
G01 X16.76 Y41.03 F6000.0
G01 X16.62 Y41.49 F6000.0
G01 X16.67 Y41.94 F6000.0
G01 F6000.0
G01 X17.26 Y42.76 F6000.0
G01 X17.37 Y42.82 F6000.0
G01 X18.36 Y43.36 F6000.0
G01 X18.58 Y43.39 F6000.0
G01 X19.8 Y43.59 F6000.0
G01 X20.12 Y43.64 F6000.0
G01 X20.16 Y43.89 F6000.0
G01 X19.99 Y44.14 F6000.0
G01 X19.23 Y44.15 F6000.0
G01 X19.11 Y44.13 F6000.0
G01 X17.99 Y43.98 F6000.0
G01 X17.53 Y43.86 F6000.0
G01 X17.46 Y43.98 F6000.0
G01 X17.14 Y44.66 F6000.0
G01 X16.88 Y45.11 F6000.0
G01 X16.89 Y45.45 F6000.0
G01 X17.19 Y45.72 F6000.0
G01 X17.83 Y45.97 F6000.0
G01 X18.66 Y46.24 F6000.0
G01 X17.74 Y46.16 F6000.0
G01 X17.71 Y46.15 F6000.0
G01 X16.73 Y45.97 F6000.0
G01 X15.71 Y45.78 F6000.0
G01 X15.27 Y45.6 F6000.0
G01 X13.9 Y45.06 F6000.0
G01 X13.59 Y44.85 F6000.0
G01 X12.45 Y44.09 F6000.0
G01 X12.29 Y43.9 F6000.0
G01 X11.51 Y42.94 F6000.0
G01 X11.48 Y42.79 F6000.0
G01 X11.21 Y41.68 F6000.0
G01 X11.22 Y41.58 F6000.0
G01 X11.36 Y40.5 F6000.0
G01 X11.58 Y39.91 F6000.0
G01 X11.65 Y39.82 F6000.0
G01 X12.37 Y38.97 F6000.0
G01 X12.45 Y38.9 F6000.0
G01 X13.28 Y38.16 F6000.0
G01 X13.69 Y37.91 F6000.0
G01 X13.9 Y37.79 F6000.0
G01 X15.01 Y37.23 F6000.0
G01 Y37.22 F6000.0
G01 X15.96 Y36.9 F6000.0
G01 X16.91 Y36.58 F6000.0
G01 X16.94 Y36.57 F6000.0
G01 X17.93 Y36.34 F6000.0
G01 X18.05 Y36.38 F6000.0
G01 X18.06 Y36.51 F6000.0
G01 F6000.0
M5
G00 X15.58 Y34.73 F6000.0
M3 F6000.0
G01 X15.25 Y34.85 F6000.0
G01 X13.97 Y35.31 F6000.0
G01 X13.66 Y35.49 F6000.0
G01 X12.5 Y36.2 F6000.0
G01 X12.24 Y36.45 F6000.0
G01 X12.37 Y36.41 F6000.0
G01 X12.7 Y36.28 F6000.0
G01 X13.62 Y35.91 F6000.0
G01 X15.48 Y35.17 F6000.0
G01 X16.74 Y34.68 F6000.0
G01 X16.8 Y34.62 F6000.0
G01 X16.56 F6000.0
G01 X15.58 Y34.73 F6000.0
G01 F6000.0
M5
G00 X17.32 Y32.57 F6000.0
M3 F6000.0
G01 X17.35 Y32.75 F6000.0
G01 X17.52 Y33.73 F6000.0
G01 X17.71 Y34.89 F6000.0
G01 X17.83 Y35.58 F6000.0
G01 X17.57 Y35.79 F6000.0
G01 X17.03 Y35.91 F6000.0
G01 X16.75 Y35.98 F6000.0
G01 X15.49 Y36.28 F6000.0
G01 X15.08 Y36.44 F6000.0
G01 X13.73 Y36.95 F6000.0
G01 X13.71 Y36.97 F6000.0
G01 X12.9 Y37.56 F6000.0
G01 X12.06 Y38.16 F6000.0
G01 X12.0 Y38.22 F6000.0
G01 X11.21 Y38.96 F6000.0
G01 Y38.85 F6000.0
G01 X11.18 Y37.85 F6000.0
G01 X11.15 Y36.74 F6000.0
G01 X11.13 Y36.53 F6000.0
G01 X11.07 Y35.53 F6000.0
G01 X11.0 Y34.32 F6000.0
G01 X11.26 Y34.0 F6000.0
G01 X11.45 Y33.91 F6000.0
G01 X12.53 Y33.37 F6000.0
G01 X12.54 F6000.0
G01 X13.47 Y33.0 F6000.0
G01 X14.41 Y32.64 F6000.0
G01 X15.35 Y32.27 F6000.0
G01 X15.53 Y32.22 F6000.0
G01 X16.67 Y31.87 F6000.0
G01 X17.14 Y31.88 F6000.0
G01 X17.32 Y32.57 F6000.0
G01 F6000.0
M5
G00 X22.48 Y31.99 F6000.0
M3 F6000.0
G01 X22.61 Y32.03 F6000.0
G01 X23.7 Y32.38 F6000.0
G01 X23.56 Y32.81 F6000.0
G01 X23.36 Y33.43 F6000.0
G01 X23.29 Y33.6 F6000.0
G01 X22.99 Y33.56 F6000.0
G01 X22.77 F6000.0
G01 X21.77 Y33.52 F6000.0
G01 X20.56 Y33.47 F6000.0
G01 X20.52 F6000.0
G01 X19.52 F6000.0
G01 X18.49 F6000.0
G01 X18.37 Y32.57 F6000.0
G01 X18.32 Y31.59 F6000.0
G01 X18.68 F6000.0
G01 X20.05 Y31.6 F6000.0
G01 X20.27 Y31.64 F6000.0
G01 X21.26 Y31.79 F6000.0
G01 X22.48 Y31.99 F6000.0
G01 F6000.0
M5
G00 X23.05 Y31.62 F6000.0
M3 F6000.0
G01 X22.8 Y31.63 F6000.0
G01 X22.74 Y31.58 F6000.0
G01 X22.88 Y31.55 F6000.0
G01 X23.05 Y31.62 F6000.0
G01 F6000.0
M5
G00 X22.63 Y33.92 F6000.0
M3 F6000.0
G01 X23.3 Y34.07 F6000.0
G01 X23.5 Y34.84 F6000.0
G01 X23.7 Y35.61 F6000.0
G01 X23.67 F6000.0
G01 X22.67 Y35.59 F6000.0
G01 X21.64 Y35.58 F6000.0
G01 X21.45 F6000.0
G01 X20.25 Y35.57 F6000.0
G01 X20.35 Y35.59 F6000.0
G01 X20.93 Y35.63 F6000.0
G01 X21.15 Y35.66 F6000.0
G01 X22.36 Y35.8 F6000.0
G01 X22.07 Y35.81 F6000.0
G01 X20.79 Y35.86 F6000.0
G01 X20.5 Y35.84 F6000.0
G01 X19.2 Y35.76 F6000.0
G01 X19.07 Y35.61 F6000.0
G01 X18.78 Y34.91 F6000.0
G01 Y34.9 F6000.0
G01 X18.59 Y33.91 F6000.0
G01 X19.05 Y33.77 F6000.0
G01 X19.1 Y33.76 F6000.0
G01 X20.14 Y33.72 F6000.0
G01 X20.39 Y33.74 F6000.0
G01 X21.39 Y33.82 F6000.0
G01 X22.63 Y33.92 F6000.0
G01 F6000.0
M5
G00 X23.74 Y36. F6000.0
M3 F6000.0
G01 X23.53 Y36.04 F6000.0
G01 X23.09 Y35.91 F6000.0
G01 X23.03 Y35.82 F6000.0
G01 X23.29 Y35.86 F6000.0
G01 X23.74 Y36.0 F6000.0
G01 F6000.0
M5
G00 X23.16 Y36.42 F6000.0
M3 F6000.0
G01 X23.88 Y36.66 F6000.0
G01 X24.13 Y36.89 F6000.0
G01 X24.12 Y37.05 F6000.0
G01 X23.93 Y36.98 F6000.0
G01 X23.9 Y36.97 F6000.0
G01 X22.94 Y36.58 F6000.0
G01 X22.9 Y36.57 F6000.0
G01 X21.88 Y36.44 F6000.0
G01 X21.17 Y36.5 F6000.0
G01 X20.89 Y36.92 F6000.0
G01 X20.87 Y37.03 F6000.0
G01 X20.64 Y38.12 F6000.0
G01 X20.43 Y39.03 F6000.0
G01 X20.35 Y39.18 F6000.0
G01 X20.43 Y39.24 F6000.0
G01 X20.45 Y39.25 F6000.0
G01 X21.42 Y39.59 F6000.0
G01 X21.96 Y40.03 F6000.0
G01 X21.86 Y40.1 F6000.0
G01 X21.75 Y40.0 F6000.0
G01 X21.64 Y39.91 F6000.0
G01 X21.17 Y39.81 F6000.0
G01 X20.61 Y39.63 F6000.0
G01 X20.39 Y39.61 F6000.0
G01 X20.19 Y39.39 F6000.0
G01 X20.12 Y39.2 F6000.0
G01 X19.69 Y38.06 F6000.0
G01 X19.58 Y37.7 F6000.0
G01 X19.19 Y36.38 F6000.0
G01 X19.58 Y36.16 F6000.0
G01 X20.58 Y36.1 F6000.0
G01 X20.72 Y36.11 F6000.0
G01 X21.87 Y36.19 F6000.0
G01 X22.02 Y36.22 F6000.0
G01 X23.16 Y36.42 F6000.0
G01 F6000.0
M5
G00 X11.71 Y33.31 F6000.0
M3 F6000.0
G01 X11.48 Y33.55 F6000.0
G01 X11.31 Y33.66 F6000.0
G01 X11.43 Y33.5 F6000.0
G01 X11.63 Y33.28 F6000.0
G01 X11.71 Y33.31 F6000.0
G01 F6000.0
M5
G00 X6.29 Y20.32 F6000.0
M3 F6000.0
G01 X6.56 Y21.25 F6000.0
G01 X6.59 Y21.33 F6000.0
G01 X6.93 Y22.27 F6000.0
G01 X7.31 Y23.28 F6000.0
G01 X7.42 Y23.73 F6000.0
G01 X7.8 Y25.14 F6000.0
G01 X7.88 Y25.6 F6000.0
G01 X8.1 Y27.05 F6000.0
G01 X8.11 Y27.18 F6000.0
G01 X8.19 Y28.17 F6000.0
G01 X8.27 Y29.29 F6000.0
G01 X8.29 Y29.53 F6000.0
G01 X8.38 Y30.52 F6000.0
G01 X8.48 Y31.52 F6000.0
G01 X8.6 Y32.74 F6000.0
G01 X8.73 Y33.07 F6000.0
G01 X9.11 Y34.0 F6000.0
G01 X9.63 Y35.25 F6000.0
G01 X9.71 Y35.42 F6000.0
G01 X10.24 Y36.49 F6000.0
G01 X10.51 Y36.87 F6000.0
G01 X10.36 Y36.52 F6000.0
G01 X9.79 Y35.25 F6000.0
G01 X9.67 Y35.0 F6000.0
G01 X9.13 Y33.83 F6000.0
G01 X9.09 Y33.69 F6000.0
G01 X8.74 Y32.59 F6000.0
G01 X8.71 Y32.36 F6000.0
G01 X8.53 Y31.13 F6000.0
G01 Y31.11 F6000.0
G01 X8.47 Y30.11 F6000.0
G01 X8.41 Y29.1 F6000.0
G01 X8.37 Y28.67 F6000.0
G01 X8.28 Y27.67 F6000.0
G01 X8.2 Y26.68 F6000.0
G01 X8.07 Y25.26 F6000.0
G01 X8.0 Y25.02 F6000.0
G01 X7.71 Y24.06 F6000.0
G01 X7.42 Y23.1 F6000.0
G01 X7.06 Y21.9 F6000.0
G01 X6.98 Y21.71 F6000.0
G01 X6.53 Y20.58 F6000.0
G01 X6.36 Y20.28 F6000.0
G01 X6.29 Y20.32 F6000.0
G01 F6000.0
M5
G00 X16.78 Y19.96 F6000.0
M3 F6000.0
G01 X16.79 Y20.02 F6000.0
G01 X16.97 Y21.0 F6000.0
G01 X17.16 Y22.04 F6000.0
G01 X17.17 Y22.09 F6000.0
G01 X17.24 Y23.09 F6000.0
G01 X17.32 Y24.09 F6000.0
G01 X17.4 Y25.14 F6000.0
G01 Y25.16 F6000.0
G01 X17.58 Y27.15 F6000.0
G01 X17.67 Y28.15 F6000.0
G01 X17.85 Y30.14 F6000.0
G01 X17.94 Y31.15 F6000.0
G01 X17.96 Y31.27 F6000.0
G01 X18.14 Y32.25 F6000.0
G01 X18.33 Y33.23 F6000.0
G01 X18.51 Y34.22 F6000.0
G01 X18.69 Y35.2 F6000.0
G01 X18.89 Y36.29 F6000.0
G01 X18.93 Y36.4 F6000.0
G01 X19.2 Y37.36 F6000.0
G01 X19.5 Y38.44 F6000.0
G01 X19.67 Y38.87 F6000.0
G01 X20.18 Y40.24 F6000.0
G01 X20.32 Y40.51 F6000.0
G01 X20.93 Y41.66 F6000.0
G01 X21.02 Y41.78 F6000.0
G01 X21.73 Y42.67 F6000.0
G01 X22.16 Y43.02 F6000.0
G01 X21.67 Y42.35 F6000.0
G01 X21.17 Y41.59 F6000.0
G01 X21.04 Y41.31 F6000.0
G01 X21.07 Y41.25 F6000.0
G01 X21.38 Y41.05 F6000.0
G01 X21.93 Y40.31 F6000.0
G01 X22.3 Y39.76 F6000.0
G01 X21.69 Y39.38 F6000.0
G01 X20.89 Y39.09 F6000.0
G01 X20.75 Y39.03 F6000.0
G01 X20.78 Y38.86 F6000.0
G01 X20.79 Y38.82 F6000.0
G01 X21.04 Y37.82 F6000.0
G01 Y37.81 F6000.0
G01 X21.3 Y36.84 F6000.0
G01 X21.66 Y36.73 F6000.0
G01 X22.34 Y36.76 F6000.0
G01 X22.57 Y36.81 F6000.0
G01 X23.76 Y37.11 F6000.0
G01 X24.17 Y37.37 F6000.0
G01 X24.15 Y37.63 F6000.0
G01 X24.02 Y38.19 F6000.0
G01 X24.07 Y38.32 F6000.0
G01 X24.29 Y37.94 F6000.0
G01 X24.79 Y37.18 F6000.0
G01 X24.81 Y37.16 F6000.0
G01 X25.52 Y36.42 F6000.0
G01 X25.57 Y36.38 F6000.0
G01 X26.39 Y35.71 F6000.0
G01 X26.43 Y35.69 F6000.0
G01 X27.33 Y35.15 F6000.0
G01 X27.48 Y35.06 F6000.0
G01 X28.37 Y34.6 F6000.0
G01 X29.42 Y34.06 F6000.0
G01 X29.45 Y34.04 F6000.0
G01 X30.4 Y33.64 F6000.0
G01 X31.3 Y33.53 F6000.0
G01 X32.22 Y33.76 F6000.0
G01 X32.3 Y33.8 F6000.0
G01 X33.26 Y34.32 F6000.0
G01 X33.78 Y34.73 F6000.0
G01 X34.01 Y35.11 F6000.0
G01 X34.02 Y35.13 F6000.0
G01 X34.46 Y36.06 F6000.0
G01 X34.47 Y36.07 F6000.0
G01 X35.21 Y36.77 F6000.0
G01 X35.63 Y37.14 F6000.0
G01 X35.94 Y37.72 F6000.0
G01 X36.03 Y38.19 F6000.0
G01 X36.29 Y39.64 F6000.0
G01 Y39.65 F6000.0
G01 X36.3 Y40.66 F6000.0
G01 X36.1 Y41.21 F6000.0
G01 X35.5 Y41.85 F6000.0
G01 X35.33 Y41.97 F6000.0
G01 X35.36 Y42.04 F6000.0
G01 X36.28 Y42.11 F6000.0
G01 X37.22 Y42.1 F6000.0
G01 X37.89 Y41.96 F6000.0
G01 X38.45 Y41.62 F6000.0
G01 X39.04 Y41.04 F6000.0
G01 X39.05 Y41.03 F6000.0
G01 X39.7 Y40.24 F6000.0
G01 X39.74 Y40.06 F6000.0
G01 X39.64 Y39.95 F6000.0
G01 X39.11 Y40.47 F6000.0
G01 X38.64 Y41.02 F6000.0
G01 X38.1 Y41.42 F6000.0
G01 X37.49 Y41.66 F6000.0
G01 X36.81 Y41.73 F6000.0
G01 X36.06 Y41.68 F6000.0
G01 X36.34 Y41.14 F6000.0
G01 X36.56 Y40.55 F6000.0
G01 Y40.53 F6000.0
G01 Y39.51 F6000.0
G01 Y39.5 F6000.0
G01 X36.45 Y38.49 F6000.0
G01 X36.23 Y37.75 F6000.0
G01 X35.96 Y37.14 F6000.0
G01 X36.63 Y37.06 F6000.0
G01 X37.44 Y36.84 F6000.0
G01 X36.84 Y36.71 F6000.0
G01 X36.83 Y36.7 F6000.0
G01 X35.83 Y36.56 F6000.0
G01 X35.06 Y36.09 F6000.0
G01 X34.53 Y35.3 F6000.0
G01 X34.5 Y35.22 F6000.0
G01 X34.2 Y34.17 F6000.0
G01 Y33.83 F6000.0
G01 X34.18 Y32.5 F6000.0
G01 X34.23 Y32.29 F6000.0
G01 X34.49 Y31.1 F6000.0
G01 X34.85 Y30.59 F6000.0
G01 X35.27 Y30.29 F6000.0
G01 X35.7 Y30.23 F6000.0
G01 X36.13 Y30.42 F6000.0
G01 X36.5 Y30.61 F6000.0
G01 X36.22 Y30.29 F6000.0
G01 X35.76 Y30.01 F6000.0
G01 X35.32 Y29.96 F6000.0
G01 X34.91 Y30.12 F6000.0
G01 X34.55 Y30.46 F6000.0
G01 X34.48 Y30.61 F6000.0
G01 X34.01 Y31.66 F6000.0
G01 X33.97 Y32.05 F6000.0
G01 X33.81 Y33.43 F6000.0
G01 Y33.44 F6000.0
G01 X33.74 Y34.46 F6000.0
G01 X33.28 Y34.01 F6000.0
G01 X32.78 Y33.61 F6000.0
G01 X32.02 Y33.33 F6000.0
G01 X31.21 Y33.18 F6000.0
G01 X30.46 Y33.24 F6000.0
G01 X29.71 Y33.51 F6000.0
G01 X28.9 Y34.01 F6000.0
G01 X28.75 Y34.09 F6000.0
G01 X27.88 Y34.59 F6000.0
G01 X26.86 Y35.18 F6000.0
G01 X26.77 Y35.23 F6000.0
G01 X25.81 Y35.77 F6000.0
G01 X25.09 Y36.38 F6000.0
G01 X24.45 Y36.92 F6000.0
G01 X24.39 Y36.71 F6000.0
G01 X24.05 Y35.55 F6000.0
G01 X23.98 Y35.21 F6000.0
G01 X23.73 Y33.88 F6000.0
G01 X23.84 Y32.96 F6000.0
G01 X23.87 Y32.92 F6000.0
G01 X24.41 Y32.01 F6000.0
G01 X24.54 Y31.81 F6000.0
G01 X25.2 Y30.76 F6000.0
G01 X25.34 Y30.45 F6000.0
G01 X25.89 Y29.24 F6000.0
G01 X25.96 Y29.13 F6000.0
G01 X26.52 Y28.15 F6000.0
G01 X26.71 Y27.95 F6000.0
G01 X27.59 Y27.01 F6000.0
G01 X27.98 Y26.71 F6000.0
G01 X29.14 Y25.78 F6000.0
G01 X29.35 Y25.64 F6000.0
G01 X30.19 Y25.1 F6000.0
G01 X31.23 Y24.41 F6000.0
G01 X31.66 Y24.16 F6000.0
G01 X32.52 Y23.66 F6000.0
G01 X33.38 Y23.15 F6000.0
G01 X34.67 Y22.4 F6000.0
G01 X34.69 Y22.39 F6000.0
G01 X35.58 Y21.95 F6000.0
G01 X36.48 Y21.5 F6000.0
G01 X37.38 Y21.05 F6000.0
G01 X37.46 Y21.0 F6000.0
G01 X38.38 Y20.42 F6000.0
G01 X38.53 Y20.2 F6000.0
G01 X38.05 Y20.46 F6000.0
G01 X37.94 Y20.5 F6000.0
G01 X36.92 Y20.96 F6000.0
G01 X36.84 Y21.0 F6000.0
G01 X35.92 Y21.41 F6000.0
G01 X34.93 Y21.86 F6000.0
G01 X34.8 Y21.94 F6000.0
G01 X33.94 Y22.45 F6000.0
G01 X33.08 Y22.95 F6000.0
G01 X32.09 Y23.54 F6000.0
G01 X32.01 Y23.59 F6000.0
G01 X31.18 Y24.14 F6000.0
G01 X30.34 Y24.69 F6000.0
G01 X29.51 Y25.24 F6000.0
G01 X28.59 Y25.85 F6000.0
G01 X28.52 Y25.91 F6000.0
G01 X27.74 Y26.54 F6000.0
G01 X26.88 Y27.23 F6000.0
G01 X26.81 Y27.31 F6000.0
G01 X26.1 Y28.16 F6000.0
G01 X26.02 Y28.32 F6000.0
G01 X25.54 Y29.38 F6000.0
G01 X25.36 Y29.78 F6000.0
G01 X24.79 Y31.09 F6000.0
G01 X24.54 Y31.51 F6000.0
G01 X24.41 Y31.47 F6000.0
G01 X23.32 Y31.18 F6000.0
G01 X23.12 Y31.14 F6000.0
G01 X21.95 Y30.91 F6000.0
G01 X21.53 Y30.89 F6000.0
G01 X20.11 Y30.81 F6000.0
G01 X19.62 Y30.79 F6000.0
G01 X18.13 Y30.76 F6000.0
G01 X18.03 Y30.26 F6000.0
G01 X18.01 Y29.92 F6000.0
G01 X17.95 Y28.92 F6000.0
G01 X17.88 Y27.92 F6000.0
G01 X17.8 Y26.58 F6000.0
G01 X17.77 Y26.1 F6000.0
G01 X17.71 Y25.11 F6000.0
G01 X17.64 Y24.11 F6000.0
G01 X17.55 Y22.63 F6000.0
G01 Y22.61 F6000.0
G01 X17.37 Y21.63 F6000.0
G01 X17.18 Y20.62 F6000.0
G01 X16.85 Y19.84 F6000.0
G01 X16.75 Y19.74 F6000.0
G01 X16.78 Y19.96 F6000.0
G01 F6000.0
M5
G00 X40.24 Y20.56 F6000.0
M3 F6000.0
G01 X40.37 Y21.38 F6000.0
G01 X40.29 Y21.48 F6000.0
G01 X40.1 Y21.44 F6000.0
G01 X39.95 Y21.25 F6000.0
G01 X39.9 Y20.85 F6000.0
G01 X39.69 Y20.09 F6000.0
G01 X39.53 Y19.95 F6000.0
G01 X39.56 Y20.36 F6000.0
G01 X39.72 Y21.25 F6000.0
G01 X39.71 Y21.57 F6000.0
G01 X39.39 Y21.7 F6000.0
G01 X38.78 Y22.01 F6000.0
G01 X38.22 Y22.61 F6000.0
G01 X37.81 Y23.36 F6000.0
G01 X37.65 Y24.13 F6000.0
G01 X37.91 Y25.08 F6000.0
G01 X38.1 Y25.53 F6000.0
G01 X37.89 Y25.81 F6000.0
G01 X37.4 Y26.47 F6000.0
G01 X37.13 Y27.28 F6000.0
G01 X37.12 Y28.09 F6000.0
G01 X37.38 Y28.79 F6000.0
G01 X38.05 Y29.51 F6000.0
G01 X38.07 Y29.52 F6000.0
G01 X38.92 Y30.06 F6000.0
G01 X38.96 Y30.07 F6000.0
G01 X39.94 Y30.42 F6000.0
G01 X39.98 F6000.0
G01 X41.02 Y30.55 F6000.0
G01 X41.81 Y30.47 F6000.0
G01 X42.62 Y30.23 F6000.0
G01 X42.71 Y30.18 F6000.0
G01 X43.59 Y29.69 F6000.0
G01 X44.55 Y29.15 F6000.0
G01 X44.74 Y29.01 F6000.0
G01 X45.74 Y28.28 F6000.0
G01 X46.18 Y27.84 F6000.0
G01 X46.13 Y27.87 F6000.0
G01 X45.26 Y28.37 F6000.0
G01 X44.33 Y28.9 F6000.0
G01 X43.91 Y29.14 F6000.0
G01 X42.62 Y29.89 F6000.0
G01 X42.38 Y29.96 F6000.0
G01 X41.19 Y30.32 F6000.0
G01 X41.03 Y30.31 F6000.0
G01 X39.88 Y30.2 F6000.0
G01 X39.66 Y30.1 F6000.0
G01 X38.53 Y29.56 F6000.0
G01 X37.83 Y28.96 F6000.0
G01 X37.46 Y28.27 F6000.0
G01 X37.42 Y27.47 F6000.0
G01 X37.71 Y26.58 F6000.0
G01 Y26.57 F6000.0
G01 X38.22 Y25.7 F6000.0
G01 X38.44 Y25.69 F6000.0
G01 X38.79 Y25.88 F6000.0
G01 X39.42 Y26.13 F6000.0
G01 F6000.0
G01 X40.43 Y26.18 F6000.0
G01 X41.37 Y26.12 F6000.0
G01 X42.15 Y25.88 F6000.0
G01 X42.9 Y25.41 F6000.0
G01 X42.96 Y25.36 F6000.0
G01 X43.77 Y24.64 F6000.0
G01 X43.79 Y24.61 F6000.0
G01 X44.5 Y23.86 F6000.0
G01 X44.31 Y23.99 F6000.0
G01 X43.3 Y24.69 F6000.0
G01 X42.98 Y24.91 F6000.0
G01 X41.82 Y25.66 F6000.0
G01 X41.59 Y25.69 F6000.0
G01 X40.36 Y25.85 F6000.0
G01 X40.12 Y25.81 F6000.0
G01 X38.9 Y25.6 F6000.0
G01 X38.27 Y25.12 F6000.0
G01 X37.97 Y24.44 F6000.0
G01 X38.01 Y23.63 F6000.0
G01 X38.4 Y22.76 F6000.0
G01 X38.79 Y22.28 F6000.0
G01 X39.24 Y22.11 F6000.0
G01 X39.64 Y21.98 F6000.0
G01 X40.99 Y21.56 F6000.0
G01 X41.3 Y21.39 F6000.0
G01 X42.48 Y20.75 F6000.0
G01 X43.01 Y20.29 F6000.0
G01 X42.88 Y20.36 F6000.0
G01 X41.85 Y20.84 F6000.0
G01 X41.7 Y20.9 F6000.0
G01 X40.61 Y21.31 F6000.0
G01 X40.41 Y20.6 F6000.0
G01 X40.17 Y19.85 F6000.0
G01 X40.24 Y20.56 F6000.0
G01 F6000.0
M5
G00 X44.07 Y19.86 F6000.0
M3 F6000.0
G01 X44.25 Y20.0 F6000.0
G01 X45.23 Y20.75 F6000.0
G01 X45.32 Y20.82 F6000.0
G01 X46.06 Y21.49 F6000.0
G01 X46.89 Y22.23 F6000.0
G01 X47.1 Y22.51 F6000.0
G01 X47.91 Y23.58 F6000.0
G01 X48.01 Y23.78 F6000.0
G01 X48.45 Y24.68 F6000.0
G01 X48.98 Y25.79 F6000.0
G01 X49.11 Y26.11 F6000.0
G01 X49.48 Y27.04 F6000.0
G01 X49.97 Y28.3 F6000.0
G01 X49.99 Y28.76 F6000.0
G01 X50.04 Y30.22 F6000.0
G01 X50.03 Y30.24 F6000.0
G01 X49.9 Y31.23 F6000.0
G01 X49.76 Y32.25 F6000.0
G01 X49.57 Y32.71 F6000.0
G01 X49.01 Y34.09 F6000.0
G01 X48.95 Y34.18 F6000.0
G01 X48.42 Y35.03 F6000.0
G01 X47.83 Y35.96 F6000.0
G01 X47.8 Y35.99 F6000.0
G01 X47.14 Y36.74 F6000.0
G01 X46.46 Y37.52 F6000.0
G01 X46.23 Y37.68 F6000.0
G01 X45.17 Y38.41 F6000.0
G01 X44.75 Y38.6 F6000.0
G01 X44.72 Y38.68 F6000.0
G01 X45.46 Y38.45 F6000.0
G01 X45.53 Y38.4 F6000.0
G01 X46.41 Y37.78 F6000.0
G01 X46.57 Y37.64 F6000.0
G01 X47.44 Y36.8 F6000.0
G01 X47.61 Y36.59 F6000.0
G01 X48.42 Y35.6 F6000.0
G01 X48.62 Y35.27 F6000.0
G01 X49.36 Y34.09 F6000.0
G01 X49.47 Y33.83 F6000.0
G01 X49.97 Y32.64 F6000.0
G01 X50.02 Y32.35 F6000.0
G01 X50.28 Y31.09 F6000.0
G01 X50.29 Y30.7 F6000.0
G01 X50.34 Y29.31 F6000.0
G01 X50.33 Y28.98 F6000.0
G01 X50.29 Y27.64 F6000.0
G01 X50.18 Y27.44 F6000.0
G01 X49.59 Y26.36 F6000.0
G01 X49.55 Y26.26 F6000.0
G01 X49.06 Y25.25 F6000.0
G01 X48.9 Y24.56 F6000.0
G01 X48.85 Y24.29 F6000.0
G01 X48.63 Y23.04 F6000.0
G01 X48.51 Y22.67 F6000.0
G01 X48.09 Y21.36 F6000.0
G01 X47.59 Y20.52 F6000.0
G01 X46.98 Y20.0 F6000.0
G01 X46.79 Y19.92 F6000.0
G01 X46.92 Y20.11 F6000.0
G01 X47.1 Y20.42 F6000.0
G01 X47.77 Y21.61 F6000.0
G01 X47.78 Y21.64 F6000.0
G01 X48.09 Y22.59 F6000.0
G01 X48.41 Y23.57 F6000.0
G01 X48.4 Y23.82 F6000.0
G01 X47.98 Y23.11 F6000.0
G01 X47.78 Y22.82 F6000.0
G01 X47.01 Y21.7 F6000.0
G01 X46.79 Y21.51 F6000.0
G01 X45.82 Y20.66 F6000.0
G01 X45.65 Y20.57 F6000.0
G01 X44.59 Y20.0 F6000.0
G01 X44.12 Y19.81 F6000.0
G01 X44.03 Y19.8 F6000.0
G01 X44.07 Y19.86 F6000.0
G01 F6000.0
M5
G00 X34.56 Y52.56 F6000.0
M3 F6000.0
G01 X34.55 Y52.58 F6000.0
G01 X34.18 Y53.51 F6000.0
G01 X33.81 Y54.47 F6000.0
G01 X33.76 Y54.67 F6000.0
G01 X33.54 Y55.65 F6000.0
G01 X33.27 Y56.82 F6000.0
G01 X33.25 Y56.99 F6000.0
G01 X33.17 Y57.99 F6000.0
G01 X33.1 Y58.99 F6000.0
G01 X33.02 Y59.98 F6000.0
G01 X32.93 Y61.15 F6000.0
G01 Y61.27 F6000.0
G01 X32.97 Y65.27 F6000.0
G01 X32.99 Y66.38 F6000.0
G01 X33.0 Y66.83 F6000.0
G01 X33.05 Y68.28 F6000.0
G01 X33.03 Y68.49 F6000.0
G01 X32.93 Y69.69 F6000.0
G01 X32.92 Y69.78 F6000.0
G01 X32.86 Y70.78 F6000.0
G01 X32.8 Y71.78 F6000.0
G01 X32.74 Y72.78 F6000.0
G01 X32.67 Y73.87 F6000.0
G01 X32.68 Y74.24 F6000.0
G01 X32.69 Y75.24 F6000.0
G01 X32.71 Y76.24 F6000.0
G01 X32.73 Y77.6 F6000.0
G01 X32.79 Y77.92 F6000.0
G01 X32.84 Y77.88 F6000.0
G01 Y77.64 F6000.0
G01 X32.87 Y76.41 F6000.0
G01 Y76.39 F6000.0
G01 X32.91 Y75.39 F6000.0
G01 X32.94 Y74.4 F6000.0
G01 X32.98 Y73.4 F6000.0
G01 X33.01 Y72.38 F6000.0
G01 X33.06 Y71.93 F6000.0
G01 X33.23 Y70.49 F6000.0
G01 X33.25 Y70.62 F6000.0
G01 X33.42 Y71.73 F6000.0
G01 Y71.74 F6000.0
G01 X33.57 Y72.73 F6000.0
G01 X33.88 Y74.7 F6000.0
G01 X34.04 Y75.7 F6000.0
G01 X34.03 Y75.56 F6000.0
G01 X33.96 Y74.56 F6000.0
G01 X33.89 Y73.56 F6000.0
G01 X33.82 Y72.42 F6000.0
G01 X33.8 Y72.16 F6000.0
G01 X33.73 Y71.16 F6000.0
G01 X33.54 Y68.17 F6000.0
G01 X33.45 Y66.91 F6000.0
G01 Y66.53 F6000.0
G01 X33.41 Y64.53 F6000.0
G01 X33.39 Y63.53 F6000.0
G01 X33.37 Y62.16 F6000.0
G01 X33.39 Y61.71 F6000.0
G01 X33.44 Y60.71 F6000.0
G01 X33.49 Y59.71 F6000.0
G01 X33.56 Y58.26 F6000.0
G01 X33.63 Y57.77 F6000.0
G01 X33.79 Y56.78 F6000.0
G01 X34.02 Y55.3 F6000.0
G01 X34.03 Y55.27 F6000.0
G01 X34.36 Y54.33 F6000.0
G01 X34.7 Y53.35 F6000.0
G01 X34.77 Y53.21 F6000.0
G01 X35.32 Y52.19 F6000.0
G01 X35.27 Y52.06 F6000.0
G01 X34.97 Y51.93 F6000.0
G01 X34.56 Y52.56 F6000.0
G01 F6000.0
M5
G00 X43.24 Y58.84 F6000.0
M3 F6000.0
G01 X42.89 Y59.2 F6000.0
G01 X42.87 Y59.57 F6000.0
G01 X42.94 Y59.44 F6000.0
G01 X43.3 Y59.08 F6000.0
G01 X44.07 Y58.77 F6000.0
G01 X44.17 Y58.72 F6000.0
G01 X43.94 Y58.7 F6000.0
G01 X43.24 Y58.84 F6000.0
G01 F6000.0
M5
G00 X43.31 Y60.37 F6000.0
M3 F6000.0
G01 X42.81 Y60.59 F6000.0
G01 X42.82 Y60.82 F6000.0
G01 X42.84 Y62.05 F6000.0
G01 Y62.28 F6000.0
G01 X42.87 Y63.51 F6000.0
G01 Y63.3 F6000.0
G01 X42.91 Y62.09 F6000.0
G01 X42.92 Y61.88 F6000.0
G01 X42.95 Y60.67 F6000.0
G01 X43.44 Y60.54 F6000.0
G01 X43.5 Y60.53 F6000.0
G01 X44.53 Y60.29 F6000.0
G01 X45.13 Y60.16 F6000.0
G01 X44.47 Y60.15 F6000.0
G01 X44.38 Y60.17 F6000.0
G01 X43.31 Y60.37 F6000.0
G01 F6000.0
M5
G00 X45.39 Y60. F6000.0
M3 F6000.0
G01 X45.24 Y60.09 F6000.0
G01 X45.33 Y60.12 F6000.0
G01 X45.72 Y60.0 F6000.0
G01 X45.78 Y59.88 F6000.0
G01 X45.39 Y60.0 F6000.0
G01 F6000.0
M5
G00 X46.38 Y59.6 F6000.0
M3 F6000.0
G01 X46.34 Y59.73 F6000.0
G01 X46.58 Y59.6 F6000.0
G01 X46.62 Y59.48 F6000.0
G01 X46.38 Y59.6 F6000.0
G01 F6000.0
M5
G00 X46.14 Y59.21 F6000.0
M3 F6000.0
G01 X46.21 Y59.37 F6000.0
G01 Y59.04 F6000.0
G01 X46.14 Y59.21 F6000.0
G01 F6000.0
M5
G00 X46.48 Y58.09 F6000.0
M3 F6000.0
G01 X46.12 Y58.51 F6000.0
G01 X46.15 Y58.66 F6000.0
G01 X46.28 Y58.5 F6000.0
G01 X46.87 Y58.2 F6000.0
G01 X47.26 F6000.0
G01 X47.5 Y58.56 F6000.0
G01 X47.7 Y59.01 F6000.0
G01 X47.63 Y58.61 F6000.0
G01 X47.5 Y58.05 F6000.0
G01 X47.14 Y57.89 F6000.0
G01 X46.48 Y58.09 F6000.0
G01 F6000.0
M5
G00 X47.58 Y59.3 F6000.0
M3 F6000.0
G01 X48.22 Y59.85 F6000.0
G01 X48.66 Y60.33 F6000.0
G01 X48.24 Y59.77 F6000.0
G01 X47.6 Y59.22 F6000.0
G01 X47.46 Y59.24 F6000.0
G01 X47.58 Y59.3 F6000.0
G01 F6000.0
M5
G00 X45.59 Y63.18 F6000.0
M3 F6000.0
G01 X45.73 Y63.31 F6000.0
G01 X45.79 Y63.18 F6000.0
G01 X45.65 Y63.04 F6000.0
G01 X45.59 Y63.18 F6000.0
G01 F6000.0
M5
G00 X44.48 Y63.29 F6000.0
M3 F6000.0
G01 X44.45 Y63.54 F6000.0
G01 X44.61 Y63.53 F6000.0
G01 X44.64 Y63.29 F6000.0
G01 X44.57 Y63.19 F6000.0
G01 X44.48 Y63.29 F6000.0
G01 F6000.0
M5
G00 X41.56 Y64.77 F6000.0
M3 F6000.0
G01 X42.37 Y65.33 F6000.0
G01 X42.4 Y65.37 F6000.0
G01 X42.99 Y66.23 F6000.0
G01 X43.02 Y66.36 F6000.0
G01 X43.27 Y67.48 F6000.0
G01 X43.28 Y68.34 F6000.0
G01 X42.61 Y67.86 F6000.0
G01 X41.87 Y67.49 F6000.0
G01 X41.8 Y67.45 F6000.0
G01 X41.7 Y67.37 F6000.0
G01 X40.86 Y66.64 F6000.0
G01 X40.66 Y66.53 F6000.0
G01 X39.58 Y65.96 F6000.0
G01 X39.49 Y66.04 F6000.0
G01 X39.59 Y66.27 F6000.0
G01 X39.64 Y66.32 F6000.0
G01 X40.32 Y67.15 F6000.0
G01 X40.43 Y67.28 F6000.0
G01 X41.09 Y68.03 F6000.0
G01 X41.86 Y68.91 F6000.0
G01 X42.41 Y69.66 F6000.0
G01 Y69.94 F6000.0
G01 X42.26 Y70.02 F6000.0
G01 X41.38 Y70.49 F6000.0
G01 X40.35 Y71.03 F6000.0
G01 X39.45 Y71.39 F6000.0
G01 X39.0 Y71.45 F6000.0
G01 X39.02 Y71.28 F6000.0
G01 X39.2 Y70.13 F6000.0
G01 X39.34 Y69.69 F6000.0
G01 X39.81 Y68.31 F6000.0
G01 X40.07 Y67.7 F6000.0
G01 X40.02 Y67.62 F6000.0
G01 X39.95 Y67.74 F6000.0
G01 X39.38 Y68.73 F6000.0
G01 X39.27 Y69.12 F6000.0
G01 X38.88 Y70.47 F6000.0
G01 X38.66 Y71.37 F6000.0
G01 X38.46 Y71.65 F6000.0
G01 X38.35 Y71.47 F6000.0
G01 X38.34 Y70.89 F6000.0
G01 X38.38 Y70.61 F6000.0
G01 X38.52 Y69.62 F6000.0
G01 X38.69 Y68.36 F6000.0
G01 X38.71 Y68.23 F6000.0
G01 X38.85 Y67.11 F6000.0
G01 X38.83 Y66.38 F6000.0
G01 X38.71 Y65.75 F6000.0
G01 X38.74 Y65.37 F6000.0
G01 X38.98 Y65.15 F6000.0
G01 X39.47 Y64.97 F6000.0
G01 X39.63 Y64.93 F6000.0
G01 X40.76 Y64.66 F6000.0
G01 X41.56 Y64.77 F6000.0
G01 F6000.0
M5
G00 X41.29 Y66.48 F6000.0
M3 F6000.0
G01 X41.16 Y66.58 F6000.0
G01 X41.46 Y66.61 F6000.0
G01 X41.87 Y66.7 F6000.0
G01 X42.22 Y66.94 F6000.0
G01 X42.55 Y67.14 F6000.0
G01 X42.21 Y66.67 F6000.0
G01 X41.73 Y66.36 F6000.0
G01 X41.29 Y66.48 F6000.0
G01 F6000.0
M5
G00 X42.22 Y68.11 F6000.0
M3 F6000.0
G01 X42.4 Y68.26 F6000.0
G01 X43.34 Y69.08 F6000.0
G01 X43.1 Y69.44 F6000.0
G01 X42.94 Y69.54 F6000.0
G01 X42.76 Y69.46 F6000.0
G01 X42.66 Y69.34 F6000.0
G01 X41.91 Y68.47 F6000.0
G01 X41.77 Y68.28 F6000.0
G01 X41.04 Y67.28 F6000.0
G01 X41.22 Y67.41 F6000.0
G01 X42.22 Y68.11 F6000.0
G01 F6000.0
M5
G00 X44.99 Y70.5 F6000.0
M3 F6000.0
G01 X44.89 Y70.74 F6000.0
G01 X44.4 Y71.89 F6000.0
G01 X44.27 Y72.04 F6000.0
G01 X44.23 Y71.99 F6000.0
G01 X43.66 Y71.09 F6000.0
G01 X43.63 Y71.01 F6000.0
G01 X43.26 Y69.98 F6000.0
G01 X43.68 Y69.64 F6000.0
G01 X44.01 Y69.55 F6000.0
G01 X44.31 Y69.66 F6000.0
G01 X44.52 Y69.77 F6000.0
G01 X44.43 Y69.64 F6000.0
G01 X44.39 Y69.35 F6000.0
G01 X45.01 Y69.27 F6000.0
G01 X45.57 F6000.0
G01 X45.49 Y69.43 F6000.0
G01 X44.99 Y70.5 F6000.0
M5
G00 X48.38 Y66.78 F6000.0
M3 F6000.0
G01 X48.3 Y67.05 F6000.0
G01 X48.01 Y68.01 F6000.0
G01 X47.64 Y69.24 F6000.0
G01 X47.18 Y69.15 F6000.0
G01 X46.7 Y68.7 F6000.0
G01 X46.58 Y68.27 F6000.0
G01 X46.94 Y67.68 F6000.0
G01 X47.12 Y67.44 F6000.0
G01 X47.93 Y66.42 F6000.0
G01 X48.52 Y65.9 F6000.0
G01 X48.38 Y66.78 F6000.0
G01 F6000.0
M5
G00 X51.15 Y62.73 F6000.0
M3 F6000.0
G01 X50.77 Y63.25 F6000.0
G01 X50.68 Y63.41 F6000.0
G01 X50.1 Y64.44 F6000.0
G01 X50.09 Y64.48 F6000.0
G01 X49.87 Y65.45 F6000.0
G01 X49.64 Y66.46 F6000.0
G01 X49.63 Y66.62 F6000.0
G01 X49.54 Y67.62 F6000.0
G01 X49.43 Y68.78 F6000.0
G01 X49.39 Y69.52 F6000.0
G01 X49.2 Y69.62 F6000.0
G01 X48.47 Y69.47 F6000.0
G01 X47.91 Y69.28 F6000.0
G01 X48.02 Y68.87 F6000.0
G01 X48.37 Y67.5 F6000.0
G01 X48.42 Y67.32 F6000.0
G01 X48.74 Y66.17 F6000.0
G01 X48.78 Y65.52 F6000.0
G01 X48.68 Y65.43 F6000.0
G01 X48.49 Y65.49 F6000.0
G01 X47.85 Y66.06 F6000.0
G01 X47.7 Y66.23 F6000.0
G01 X46.87 Y67.15 F6000.0
G01 X46.5 Y67.61 F6000.0
G01 X46.58 Y67.08 F6000.0
G01 X46.6 Y67.0 F6000.0
G01 X46.84 Y65.94 F6000.0
G01 X46.85 Y65.91 F6000.0
G01 X47.25 Y64.95 F6000.0
G01 X47.79 Y64.14 F6000.0
G01 X48.46 Y63.53 F6000.0
G01 X48.76 Y63.41 F6000.0
G01 X49.98 Y62.91 F6000.0
G01 X50.0 Y62.9 F6000.0
G01 X50.99 Y62.67 F6000.0
G01 X51.15 Y62.73 F6000.0
G01 F6000.0
M5
G00 X53.53 Y63.02 F6000.0
M3 F6000.0
G01 X54.14 Y63.8 F6000.0
G01 X54.22 Y63.99 F6000.0
G01 X54.68 Y65.12 F6000.0
G01 X54.76 Y65.45 F6000.0
G01 X55.08 Y66.77 F6000.0
G01 X55.12 Y67.16 F6000.0
G01 X55.27 Y68.54 F6000.0
G01 X55.28 Y68.57 F6000.0
G01 X55.32 Y69.6 F6000.0
G01 X54.9 F6000.0
G01 X53.9 Y69.61 F6000.0
G01 X52.49 Y69.63 F6000.0
G01 X52.07 Y69.64 F6000.0
G01 X51.07 Y69.65 F6000.0
G01 X49.66 Y69.67 F6000.0
G01 X49.67 Y69.19 F6000.0
G01 X49.73 Y67.71 F6000.0
G01 X49.74 Y67.44 F6000.0
G01 X49.83 Y66.17 F6000.0
G01 X49.84 Y66.11 F6000.0
G01 X50.05 Y65.07 F6000.0
G01 X50.45 Y64.24 F6000.0
G01 X51.08 Y63.49 F6000.0
G01 X51.73 Y62.97 F6000.0
G01 X52.34 Y62.72 F6000.0
G01 X52.94 Y62.74 F6000.0
G01 X53.53 Y63.02 F6000.0
G01 F6000.0
M5
G00 X57.17 Y62.86 F6000.0
M3 F6000.0
G01 X57.7 Y63.16 F6000.0
G01 X58.15 Y63.65 F6000.0
G01 X58.21 Y63.79 F6000.0
G01 X58.62 Y64.7 F6000.0
G01 X59.1 Y65.75 F6000.0
G01 X59.16 Y65.91 F6000.0
G01 X59.52 Y67.03 F6000.0
G01 X59.56 Y67.76 F6000.0
G01 X59.29 Y68.53 F6000.0
G01 X58.75 Y69.07 F6000.0
G01 X57.91 Y69.41 F6000.0
G01 X57.83 Y69.42 F6000.0
G01 X56.76 Y69.54 F6000.0
G01 X56.74 F6000.0
G01 X55.72 Y69.57 F6000.0
G01 X55.71 Y69.51 F6000.0
G01 X55.62 Y68.46 F6000.0
G01 X55.57 Y68.04 F6000.0
G01 X55.39 Y66.63 F6000.0
G01 X55.31 Y66.32 F6000.0
G01 X55.01 Y65.04 F6000.0
G01 X54.94 Y64.88 F6000.0
G01 X54.51 Y63.79 F6000.0
G01 X53.94 Y62.99 F6000.0
G01 X53.66 Y62.61 F6000.0
G01 X54.11 Y62.51 F6000.0
G01 X54.12 F6000.0
G01 X55.14 Y62.55 F6000.0
G01 X55.17 F6000.0
G01 X56.15 Y62.7 F6000.0
G01 X57.17 Y62.86 F6000.0
G01 F6000.0
M5
G00 X62.8 Y68.74 F6000.0
M3 F6000.0
G01 X62.94 Y68.77 F6000.0
G01 X65.88 Y69.37 F6000.0
G01 X66.99 Y69.6 F6000.0
G01 X66.96 Y69.91 F6000.0
G01 X66.56 Y70.72 F6000.0
G01 X66.5 Y70.87 F6000.0
G01 X66.06 Y71.94 F6000.0
G01 X66.02 Y72.0 F6000.0
G01 X66.01 Y72.02 F6000.0
G01 X65.38 Y72.81 F6000.0
G01 X65.28 Y72.97 F6000.0
G01 X64.74 Y73.81 F6000.0
G01 X64.11 Y74.82 F6000.0
G01 X63.93 Y75.06 F6000.0
G01 X63.34 Y75.86 F6000.0
G01 X62.58 Y76.91 F6000.0
G01 X62.38 Y77.15 F6000.0
G01 X61.74 Y77.92 F6000.0
G01 X60.9 Y78.94 F6000.0
G01 X60.74 Y79.11 F6000.0
G01 X60.05 Y79.83 F6000.0
G01 X59.2 Y80.73 F6000.0
G01 X58.85 Y81.06 F6000.0
G01 X58.12 Y81.73 F6000.0
G01 X57.38 Y82.41 F6000.0
G01 X56.3 Y83.41 F6000.0
G01 X56.17 Y83.52 F6000.0
G01 X55.39 Y84.15 F6000.0
G01 X54.48 Y84.88 F6000.0
G01 X54.44 Y84.9 F6000.0
G01 X53.54 Y85.43 F6000.0
G01 X52.69 Y85.92 F6000.0
G01 X52.49 Y85.08 F6000.0
G01 X52.48 Y85.07 F6000.0
G01 X51.97 Y83.14 F6000.0
G01 X51.7 Y82.16 F6000.0
G01 X51.66 Y82.06 F6000.0
G01 X51.32 Y81.12 F6000.0
G01 X50.98 Y80.18 F6000.0
G01 X50.6 Y79.13 F6000.0
G01 X50.59 Y79.11 F6000.0
G01 X49.75 Y77.3 F6000.0
G01 X49.33 Y76.38 F6000.0
G01 X49.21 Y76.18 F6000.0
G01 X48.69 Y75.33 F6000.0
G01 X48.05 Y74.28 F6000.0
G01 X48.02 Y74.24 F6000.0
G01 X47.44 Y73.37 F6000.0
G01 X47.31 Y72.69 F6000.0
G01 Y72.67 F6000.0
G01 X47.46 Y71.69 F6000.0
G01 X47.61 Y70.7 F6000.0
G01 X47.76 Y69.69 F6000.0
G01 X48.03 Y69.73 F6000.0
G01 X49.28 Y69.92 F6000.0
G01 X49.31 Y70.03 F6000.0
G01 X49.58 Y71.12 F6000.0
G01 X49.65 Y71.48 F6000.0
G01 X49.92 Y72.81 F6000.0
G01 X50.02 Y73.09 F6000.0
G01 X50.45 Y74.31 F6000.0
G01 X50.53 Y74.44 F6000.0
G01 X51.09 Y75.44 F6000.0
G01 X51.76 Y76.02 F6000.0
G01 X52.61 Y76.15 F6000.0
G01 X53.06 Y76.22 F6000.0
G01 X53.17 Y76.64 F6000.0
G01 X53.22 Y77.0 F6000.0
G01 Y76.59 F6000.0
G01 X53.29 Y76.07 F6000.0
G01 X53.77 Y75.68 F6000.0
G01 X54.42 Y75.1 F6000.0
G01 X54.9 Y74.23 F6000.0
G01 X54.94 Y74.09 F6000.0
G01 X55.26 Y72.99 F6000.0
G01 X55.32 Y72.63 F6000.0
G01 X55.53 Y71.28 F6000.0
G01 X55.55 Y71.1 F6000.0
G01 X55.69 Y69.93 F6000.0
G01 X56.23 F6000.0
G01 X56.7 Y69.86 F6000.0
G01 X58.16 Y69.68 F6000.0
G01 X58.17 Y69.67 F6000.0
G01 X59.12 Y69.38 F6000.0
G01 X60.08 Y69.08 F6000.0
G01 X60.26 Y69.02 F6000.0
G01 X61.38 Y68.64 F6000.0
G01 X61.59 Y68.66 F6000.0
G01 X62.8 Y68.74 F6000.0
G01 F6000.0
M5
G00 X55.28 Y70.95 F6000.0
M3 F6000.0
G01 X55.24 Y71.33 F6000.0
G01 X55.11 Y72.7 F6000.0
G01 X55.07 Y72.87 F6000.0
G01 X54.84 Y74.02 F6000.0
G01 X54.72 Y74.33 F6000.0
G01 X54.42 Y74.06 F6000.0
G01 X53.58 Y73.54 F6000.0
G01 X52.67 Y73.37 F6000.0
G01 X51.78 Y73.55 F6000.0
G01 X51.03 Y74.08 F6000.0
G01 X50.62 Y74.43 F6000.0
G01 X50.38 Y73.91 F6000.0
G01 X50.35 Y73.79 F6000.0
G01 X50.07 Y72.7 F6000.0
G01 X50.03 Y72.44 F6000.0
G01 X49.88 Y71.46 F6000.0
G01 X49.69 Y70.21 F6000.0
G01 X49.77 Y70.08 F6000.0
G01 X50.13 Y70.02 F6000.0
G01 X50.32 F6000.0
G01 X51.32 F6000.0
G01 X52.51 F6000.0
G01 X52.91 Y70.03 F6000.0
G01 X53.91 Y70.04 F6000.0
G01 X55.32 Y70.06 F6000.0
G01 X55.28 Y70.95 F6000.0
M5
G00 X54.59 Y75.7 F6000.0
M3 F6000.0
G01 X54.8 Y76.22 F6000.0
G01 X54.96 Y76.38 F6000.0
G01 X54.92 Y76.08 F6000.0
G01 X54.72 Y75.56 F6000.0
G01 X54.63 Y75.53 F6000.0
G01 X54.59 Y75.7 F6000.0
G01 F6000.0
M5
G00 X51.45 Y76.81 F6000.0
M3 F6000.0
G01 X51.47 Y77.22 F6000.0
G01 X51.51 Y77.17 F6000.0
G01 Y76.44 F6000.0
G01 X51.47 Y76.4 F6000.0
G01 X51.45 Y76.81 F6000.0
G01 F6000.0
M5
G00 X55.59 Y79.45 F6000.0
M3 F6000.0
G01 X55.5 Y79.51 F6000.0
G01 X54.62 Y79.98 F6000.0
G01 X53.64 Y80.51 F6000.0
G01 X52.87 Y80.98 F6000.0
G01 X53.12 Y81.39 F6000.0
G01 X53.78 Y81.64 F6000.0
G01 X54.53 Y81.57 F6000.0
G01 X55.29 Y81.15 F6000.0
G01 X55.3 Y81.14 F6000.0
G01 X56.02 Y80.42 F6000.0
G01 X56.07 Y80.34 F6000.0
G01 X56.65 Y79.43 F6000.0
G01 X56.92 Y78.87 F6000.0
G01 X56.9 Y78.68 F6000.0
G01 X56.67 Y78.81 F6000.0
G01 X55.59 Y79.45 F6000.0
G01 F6000.0
M5
G00 X56.58 Y79.28 F6000.0
M3 F6000.0
G01 X56.27 Y79.65 F6000.0
G01 X55.33 Y80.81 F6000.0
G01 X54.53 Y81.29 F6000.0
G01 X53.65 Y81.37 F6000.0
G01 X53.24 Y81.25 F6000.0
G01 X53.17 Y81.08 F6000.0
G01 X54.03 Y80.59 F6000.0
G01 X54.4 Y80.39 F6000.0
G01 X55.65 Y79.73 F6000.0
G01 X56.39 Y79.25 F6000.0
G01 X56.58 Y79.28 F6000.0
G01 F6000.0
M5
G00 X64.55 Y76.52 F6000.0
M3 F6000.0
G01 X64.39 Y76.92 F6000.0
G01 X63.87 Y78.27 F6000.0
G01 X63.73 Y78.61 F6000.0
G01 X63.23 Y79.89 F6000.0
G01 X63.02 Y80.29 F6000.0
G01 X62.37 Y81.6 F6000.0
G01 X62.33 Y81.66 F6000.0
G01 X61.79 Y82.5 F6000.0
G01 X61.25 Y83.34 F6000.0
G01 X60.7 Y84.18 F6000.0
G01 X60.12 Y85.09 F6000.0
G01 X59.91 Y85.41 F6000.0
G01 X59.13 Y86.55 F6000.0
G01 X59.21 Y86.47 F6000.0
G01 X59.99 Y85.67 F6000.0
G01 X60.1 Y85.52 F6000.0
G01 X60.69 Y84.71 F6000.0
G01 X61.4 Y83.76 F6000.0
G01 X61.41 Y83.74 F6000.0
G01 X61.93 Y82.88 F6000.0
G01 X62.47 Y82.01 F6000.0
G01 X62.51 Y81.92 F6000.0
G01 X62.97 Y81.03 F6000.0
G01 X63.47 Y80.06 F6000.0
G01 X63.49 Y80.02 F6000.0
G01 X63.89 Y79.11 F6000.0
G01 X64.31 Y78.16 F6000.0
G01 X64.42 Y77.83 F6000.0
G01 X64.85 Y76.55 F6000.0
G01 X65.0 Y75.65 F6000.0
G01 X64.55 Y76.52 F6000.0
G01 F6000.0
M5
G00 X66.64 Y81.65 F6000.0
M3 F6000.0
G01 X66.67 Y81.79 F6000.0
G01 X66.72 Y81.73 F6000.0
G01 Y81.48 F6000.0
G01 X66.64 Y81.65 F6000.0
G01 F6000.0
M5
G00 X73.12 Y83.11 F6000.0
M3 F6000.0
G01 X73.08 Y83.4 F6000.0
G01 X72.81 Y85.38 F6000.0
G01 X72.64 Y86.66 F6000.0
G01 X72.62 Y86.77 F6000.0
G01 X72.18 Y88.72 F6000.0
G01 X71.96 Y89.69 F6000.0
G01 X71.72 Y90.77 F6000.0
G01 X71.65 Y91.04 F6000.0
G01 X71.31 Y92.27 F6000.0
G01 X71.29 Y92.51 F6000.0
G01 X71.38 Y92.49 F6000.0
G01 X71.42 Y92.35 F6000.0
G01 X71.73 Y91.4 F6000.0
G01 X72.09 Y90.3 F6000.0
G01 X72.13 Y90.13 F6000.0
G01 X72.36 Y89.16 F6000.0
G01 X72.59 Y88.18 F6000.0
G01 X72.86 Y87.03 F6000.0
G01 X72.91 Y86.63 F6000.0
G01 X73.02 Y85.64 F6000.0
G01 X73.19 Y84.25 F6000.0
G01 Y83.94 F6000.0
G01 X73.21 Y82.63 F6000.0
G01 X73.12 Y83.11 F6000.0
G01 F6000.0
M5
G00 X76.4 Y84.65 F6000.0
M3 F6000.0
G01 X76.34 Y84.68 F6000.0
G01 X75.41 Y85.22 F6000.0
G01 X75.87 Y85.18 F6000.0
G01 X76.22 Y85.0 F6000.0
G01 X76.35 Y84.96 F6000.0
G01 X77.15 Y84.77 F6000.0
G01 X77.6 Y84.61 F6000.0
G01 X77.75 Y84.66 F6000.0
G01 X77.69 Y84.97 F6000.0
G01 X77.43 Y86.27 F6000.0
G01 X77.39 Y86.62 F6000.0
G01 X77.24 Y87.95 F6000.0
G01 X77.66 Y88.21 F6000.0
G01 X77.84 Y88.23 F6000.0
G01 X79.01 Y88.39 F6000.0
G01 X79.99 Y88.53 F6000.0
G01 X80.27 Y88.72 F6000.0
G01 X79.98 Y88.98 F6000.0
G01 X78.98 Y89.94 F6000.0
G01 X78.65 Y90.25 F6000.0
G01 X77.91 Y90.93 F6000.0
G01 X76.84 Y91.91 F6000.0
G01 X76.64 Y92.13 F6000.0
G01 X75.77 Y93.08 F6000.0
G01 X76.4 Y92.57 F6000.0
G01 X76.47 Y92.51 F6000.0
G01 X77.22 Y91.84 F6000.0
G01 X77.97 Y91.18 F6000.0
G01 X78.78 Y90.45 F6000.0
G01 X79.07 Y90.18 F6000.0
G01 X80.1 Y89.24 F6000.0
G01 X80.55 Y88.52 F6000.0
G01 X80.44 Y88.3 F6000.0
G01 X80.13 Y88.14 F6000.0
G01 X79.98 Y88.12 F6000.0
G01 X78.85 Y87.96 F6000.0
G01 X78.77 Y87.95 F6000.0
G01 X77.69 Y87.86 F6000.0
G01 X77.7 Y87.46 F6000.0
G01 X77.72 Y87.34 F6000.0
G01 X77.94 Y86.24 F6000.0
G01 X77.97 Y86.01 F6000.0
G01 X78.12 Y84.78 F6000.0
G01 X78.03 Y84.25 F6000.0
G01 X77.75 Y84.12 F6000.0
G01 X77.54 Y84.2 F6000.0
G01 X76.4 Y84.65 F6000.0
G01 F6000.0
M5
G00 X76.36 Y93.21 F6000.0
M3 F6000.0
G01 X76.45 Y93.24 F6000.0
G01 X77.52 Y93.48 F6000.0
G01 X78.28 Y93.73 F6000.0
G01 X78.24 Y93.75 F6000.0
G01 X77.27 Y94.13 F6000.0
G01 X77.26 F6000.0
G01 X76.31 Y94.47 F6000.0
G01 X76.33 F6000.0
G01 X77.34 Y94.38 F6000.0
G01 X77.46 Y94.35 F6000.0
G01 X78.55 Y94.1 F6000.0
G01 X78.88 Y93.75 F6000.0
G01 X78.77 Y93.54 F6000.0
G01 X78.44 Y93.37 F6000.0
G01 X78.26 Y93.35 F6000.0
G01 X77.09 Y93.17 F6000.0
G01 X76.34 Y93.14 F6000.0
G01 X76.26 Y93.17 F6000.0
G01 X76.36 Y93.21 F6000.0
G01 F6000.0
M5
G00 X76.26 Y94.77 F6000.0
M3 F6000.0
G01 X76.07 Y94.96 F6000.0
G01 X76.3 Y95.22 F6000.0
G01 X76.4 Y95.27 F6000.0
G01 X77.41 Y95.73 F6000.0
G01 X78.26 Y96.2 F6000.0
G01 X78.19 Y96.21 F6000.0
G01 X77.15 Y96.41 F6000.0
G01 X76.78 Y96.49 F6000.0
G01 X75.44 Y96.78 F6000.0
G01 X75.37 Y96.81 F6000.0
G01 X74.38 Y97.22 F6000.0
G01 X74.36 Y97.31 F6000.0
G01 X74.58 Y97.29 F6000.0
G01 X74.62 Y97.28 F6000.0
G01 X75.6 Y97.08 F6000.0
G01 X76.63 Y96.87 F6000.0
G01 X76.85 Y96.82 F6000.0
G01 X78.05 Y96.53 F6000.0
G01 X78.63 Y96.2 F6000.0
G01 X78.62 Y96.03 F6000.0
G01 X78.41 Y95.84 F6000.0
G01 X78.37 Y95.83 F6000.0
G01 X77.42 Y95.39 F6000.0
G01 X76.7 Y95.06 F6000.0
G01 X76.49 Y94.84 F6000.0
G01 X76.52 Y94.69 F6000.0
G01 X76.26 Y94.77 F6000.0
G01 F6000.0
M5
G00 X74.75 Y97.94 F6000.0
M3 F6000.0
G01 X75.6 Y98.47 F6000.0
G01 X76.36 Y98.9 F6000.0
G01 X76.27 Y98.91 F6000.0
G01 X75.17 F6000.0
G01 X74.78 Y98.94 F6000.0
G01 X73.39 Y99.04 F6000.0
G01 X73.67 Y99.12 F6000.0
G01 X73.74 F6000.0
G01 X74.8 Y99.16 F6000.0
G01 X75.28 Y99.13 F6000.0
G01 X76.75 Y99.05 F6000.0
G01 X76.45 Y98.67 F6000.0
G01 X76.39 Y98.64 F6000.0
G01 X75.45 Y98.14 F6000.0
G01 X74.79 Y97.87 F6000.0
G01 X74.7 F6000.0
G01 X74.75 Y97.94 F6000.0
G01 F6000.0
M5
G00 X67.43 Y95.93 F6000.0
M3 F6000.0
G01 X67.53 Y95.99 F6000.0
G01 X68.45 Y96.61 F6000.0
G01 X68.61 Y96.72 F6000.0
G01 X69.42 Y97.3 F6000.0
G01 X70.39 Y97.99 F6000.0
G01 X70.59 Y98.17 F6000.0
G01 X71.32 Y98.85 F6000.0
G01 X72.26 Y99.7 F6000.0
G01 X72.55 Y99.94 F6000.0
G01 X73.32 Y100.58 F6000.0
G01 X74.38 Y101.46 F6000.0
G01 X74.75 Y101.76 F6000.0
G01 X75.9 Y102.7 F6000.0
G01 X75.99 Y102.78 F6000.0
G01 X76.7 Y103.48 F6000.0
G01 X77.42 Y104.18 F6000.0
G01 X78.22 Y104.96 F6000.0
G01 X78.51 Y105.25 F6000.0
G01 X79.22 Y105.95 F6000.0
G01 X79.93 Y106.65 F6000.0
G01 X80.93 Y107.65 F6000.0
G01 X80.75 Y107.45 F6000.0
G01 X80.06 Y106.72 F6000.0
G01 X79.38 Y105.99 F6000.0
G01 X78.01 Y104.53 F6000.0
G01 X77.14 Y103.6 F6000.0
G01 X77.03 Y103.52 F6000.0
G01 X76.27 Y102.87 F6000.0
G01 X75.5 Y102.23 F6000.0
G01 X74.63 Y101.5 F6000.0
G01 X74.34 Y101.25 F6000.0
G01 X73.58 Y100.59 F6000.0
G01 X72.54 Y99.68 F6000.0
G01 X72.52 Y99.66 F6000.0
G01 X71.81 Y98.95 F6000.0
G01 X71.08 Y98.23 F6000.0
G01 X70.99 Y98.16 F6000.0
G01 X70.21 Y97.53 F6000.0
G01 X69.34 Y96.83 F6000.0
G01 X69.29 Y96.8 F6000.0
G01 X68.39 Y96.38 F6000.0
G01 X67.43 Y95.93 F6000.0
G01 F6000.0
M5
G00 X48.56 Y102.4 F6000.0
M3 F6000.0
G01 X49.01 Y102.62 F6000.0
G01 X49.91 Y103.05 F6000.0
G01 X51.25 Y103.7 F6000.0
G01 X51.49 Y103.79 F6000.0
G01 X52.43 Y104.13 F6000.0
G01 X53.62 Y104.56 F6000.0
G01 X53.77 Y104.59 F6000.0
G01 X54.74 Y104.79 F6000.0
G01 X55.87 Y105.03 F6000.0
G01 X56.05 Y105.04 F6000.0
G01 X57.05 Y105.1 F6000.0
G01 X58.23 Y105.17 F6000.0
G01 X58.66 Y105.15 F6000.0
G01 X60.08 Y105.09 F6000.0
G01 X60.33 Y105.04 F6000.0
G01 X61.55 Y104.81 F6000.0
G01 X61.68 Y104.75 F6000.0
G01 X62.73 Y104.3 F6000.0
G01 X62.82 Y104.23 F6000.0
G01 X63.69 Y103.54 F6000.0
G01 X64.25 Y102.99 F6000.0
G01 X64.63 Y103.26 F6000.0
G01 X65.12 Y103.44 F6000.0
G01 X65.14 Y103.5 F6000.0
G01 X65.25 Y103.72 F6000.0
G01 X65.44 Y104.02 F6000.0
G01 X65.33 Y104.52 F6000.0
G01 X65.0 Y105.08 F6000.0
G01 X64.49 Y105.53 F6000.0
G01 X64.13 Y105.64 F6000.0
G01 X62.82 Y106.07 F6000.0
G01 X62.58 Y106.11 F6000.0
G01 X61.59 Y106.26 F6000.0
G01 X60.37 Y106.45 F6000.0
G01 X60.32 F6000.0
G01 X59.32 Y106.47 F6000.0
G01 X58.27 Y106.48 F6000.0
G01 X58.16 Y106.47 F6000.0
G01 X57.17 Y106.37 F6000.0
G01 X56.07 Y106.25 F6000.0
G01 X55.95 Y106.22 F6000.0
G01 X54.98 Y106.0 F6000.0
G01 X53.89 Y105.76 F6000.0
G01 X53.82 Y105.73 F6000.0
G01 X52.88 Y105.4 F6000.0
G01 X51.87 Y105.04 F6000.0
G01 X51.54 Y104.86 F6000.0
G01 X50.67 Y104.38 F6000.0
G01 X49.47 Y103.72 F6000.0
G01 X49.18 Y103.5 F6000.0
G01 X48.37 Y102.91 F6000.0
G01 X47.28 Y102.09 F6000.0
G01 X47.25 Y102.06 F6000.0
G01 X46.54 Y101.31 F6000.0
G01 X46.65 Y101.28 F6000.0
G01 X47.08 Y101.53 F6000.0
G01 X47.39 Y101.72 F6000.0
G01 X48.56 Y102.4 F6000.0
G01 F6000.0
M5
G00 X41.85 Y97.61 F6000.0
M3 F6000.0
G01 X41.65 Y97.82 F6000.0
G01 X41.55 Y97.8 F6000.0
G01 X41.57 Y97.67 F6000.0
G01 X41.78 Y97.46 F6000.0
G01 X41.85 Y97.61 F6000.0
G01 F6000.0
M5
G00 X43.05 Y91.5 F6000.0
M3 F6000.0
G01 X43.48 Y91.93 F6000.0
G01 X43.53 Y92.04 F6000.0
G01 X43.68 Y92.37 F6000.0
G01 X44.15 Y92.9 F6000.0
G01 X44.69 Y93.38 F6000.0
G01 X45.03 Y93.56 F6000.0
G01 X45.13 Y93.61 F6000.0
G01 X45.65 Y94.13 F6000.0
G01 X45.76 Y94.2 F6000.0
G01 X46.75 Y94.76 F6000.0
G01 X47.05 Y94.87 F6000.0
G01 X47.09 Y94.84 F6000.0
G01 X47.07 Y94.82 F6000.0
G01 X46.25 Y94.21 F6000.0
G01 X45.95 Y93.95 F6000.0
G01 X45.2 Y93.29 F6000.0
G01 X44.15 Y92.37 F6000.0
G01 X44.03 Y92.27 F6000.0
G01 X43.19 Y91.49 F6000.0
G01 X43.02 Y91.38 F6000.0
G01 X43.05 Y91.5 F6000.0
G01 F6000.0
M5
G00 X36.24 Y93.16 F6000.0
M3 F6000.0
G01 X36.67 Y93.76 F6000.0
G01 X36.84 Y93.88 F6000.0
G01 X36.75 Y93.68 F6000.0
G01 X36.32 Y93.09 F6000.0
G01 X36.05 Y92.76 F6000.0
G01 X36.24 Y93.16 F6000.0
M5
G00 X34.98 Y94.17 F6000.0
M3 F6000.0
G01 X35.18 F6000.0
G01 X36.38 F6000.0
G01 X36.6 Y94.1 F6000.0
G01 X36.56 Y94.07 F6000.0
G01 X36.54 F6000.0
G01 X35.53 Y94.05 F6000.0
G01 X35.48 F6000.0
G01 X34.43 Y94.06 F6000.0
G01 X34.98 Y94.17 F6000.0
G01 F6000.0
M5
G00 X35.76 Y84.22 F6000.0
M3 F6000.0
G01 X35.85 Y84.25 F6000.0
G01 X36.79 Y84.57 F6000.0
G01 X37.83 Y84.92 F6000.0
G01 X37.9 Y84.95 F6000.0
G01 X38.91 Y85.35 F6000.0
G01 X38.78 F6000.0
G01 X37.78 Y85.38 F6000.0
G01 X36.66 Y85.42 F6000.0
G01 X36.27 Y85.45 F6000.0
G01 X35.27 Y85.51 F6000.0
G01 X33.88 Y85.6 F6000.0
G01 X33.35 Y85.7 F6000.0
G01 X33.14 Y84.76 F6000.0
G01 X32.97 Y83.78 F6000.0
G01 X33.01 F6000.0
G01 X34.05 Y83.87 F6000.0
G01 X34.42 Y83.94 F6000.0
G01 X35.76 Y84.22 F6000.0
M5
G00 X34.09 Y76.09 F6000.0
M3 F6000.0
G01 X34.11 Y76.23 F6000.0
G01 X34.17 Y76.17 F6000.0
G01 X34.16 Y75.92 F6000.0
G01 X34.09 Y76.09 F6000.0
G01 F6000.0
M5
G00 X37.9 Y73.33 F6000.0
M3 F6000.0
G01 X37.8 Y74.18 F6000.0
G01 X37.78 Y74.07 F6000.0
G01 X37.58 Y72.98 F6000.0
G01 X37.55 Y72.32 F6000.0
G01 X37.7 Y72.18 F6000.0
G01 X37.87 Y72.39 F6000.0
G01 X37.9 Y73.33 F6000.0
G01 F6000.0
M5
G00 X36.84 Y69.56 F6000.0
M3 F6000.0
G01 X36.72 Y70.19 F6000.0
G01 X36.5 Y70.22 F6000.0
G01 X36.44 Y69.54 F6000.0
G01 Y69.53 F6000.0
G01 X36.55 Y68.54 F6000.0
G01 X36.64 Y68.36 F6000.0
G01 X36.73 Y68.6 F6000.0
G01 X36.84 Y69.56 F6000.0
G01 F6000.0
M5
G00 X38.5 Y66.78 F6000.0
M3 F6000.0
G01 X38.47 Y67.23 F6000.0
G01 X38.35 Y68.68 F6000.0
G01 X38.32 Y68.83 F6000.0
G01 X38.06 Y69.95 F6000.0
G01 X37.58 Y70.08 F6000.0
G01 X37.19 Y70.12 F6000.0
G01 X37.16 Y69.89 F6000.0
G01 X37.04 Y68.67 F6000.0
G01 Y68.3 F6000.0
G01 X37.03 Y66.94 F6000.0
G01 X37.27 Y66.42 F6000.0
G01 X37.72 Y65.91 F6000.0
G01 X38.13 Y65.57 F6000.0
G01 X38.36 Y65.55 F6000.0
G01 X38.37 Y65.67 F6000.0
G01 X38.5 Y66.78 F6000.0
G01 F6000.0
M5
G00 X67.52 Y51.17 F6000.0
M3 F6000.0
G01 X67.61 Y51.22 F6000.0
G01 X68.52 Y51.64 F6000.0
G01 X69.52 Y52.1 F6000.0
G01 X70.07 Y52.44 F6000.0
G01 X70.5 Y53.22 F6000.0
G01 X70.53 Y53.29 F6000.0
G01 X71.24 Y55.16 F6000.0
G01 X71.62 Y56.16 F6000.0
G01 X71.75 Y56.57 F6000.0
G01 X72.06 Y57.52 F6000.0
G01 X72.36 Y58.47 F6000.0
G01 X72.8 Y59.83 F6000.0
G01 X72.91 Y60.18 F6000.0
G01 X73.33 Y61.48 F6000.0
G01 Y61.32 F6000.0
G01 X73.12 Y60.41 F6000.0
G01 X72.99 Y59.99 F6000.0
G01 X72.39 Y58.08 F6000.0
G01 X72.1 Y57.13 F6000.0
G01 X71.67 Y55.75 F6000.0
G01 X71.49 Y55.31 F6000.0
G01 X71.11 Y54.38 F6000.0
G01 X70.74 Y53.45 F6000.0
G01 X70.19 Y52.09 F6000.0
G01 X69.94 Y51.53 F6000.0
G01 X70.63 Y51.81 F6000.0
G01 X70.81 Y51.93 F6000.0
G01 X71.83 Y52.61 F6000.0
G01 X72.49 Y52.91 F6000.0
G01 X72.56 F6000.0
G01 X72.66 Y53.05 F6000.0
G01 X73.34 Y54.0 F6000.0
G01 X73.61 Y54.36 F6000.0
G01 X74.2 Y55.16 F6000.0
G01 X75.07 Y56.32 F6000.0
G01 X75.21 Y56.55 F6000.0
G01 X75.73 Y57.41 F6000.0
G01 X76.26 Y58.26 F6000.0
G01 X76.92 Y59.34 F6000.0
G01 X77.08 Y59.65 F6000.0
G01 X77.55 Y60.54 F6000.0
G01 X78.01 Y61.42 F6000.0
G01 X78.64 Y62.62 F6000.0
G01 X78.72 Y62.81 F6000.0
G01 X79.12 Y63.73 F6000.0
G01 X79.52 Y64.64 F6000.0
G01 X80.0 Y65.75 F6000.0
G01 X80.07 Y66.0 F6000.0
G01 X80.35 Y66.96 F6000.0
G01 X80.64 Y67.92 F6000.0
G01 X81.0 Y69.12 F6000.0
G01 X81.11 Y69.56 F6000.0
G01 X81.34 Y70.53 F6000.0
G01 X81.58 Y71.5 F6000.0
G01 X81.92 Y72.92 F6000.0
G01 X82.07 Y73.42 F6000.0
G01 X82.11 Y73.37 F6000.0
G01 Y73.36 F6000.0
G01 X81.91 Y72.38 F6000.0
G01 X81.52 Y70.42 F6000.0
G01 X81.32 Y69.44 F6000.0
G01 X81.12 Y68.46 F6000.0
G01 X80.92 Y67.48 F6000.0
G01 X80.79 Y67.11 F6000.0
G01 X80.47 Y66.16 F6000.0
G01 X80.02 Y64.84 F6000.0
G01 X79.96 Y64.71 F6000.0
G01 X79.55 Y63.8 F6000.0
G01 X79.14 Y62.89 F6000.0
G01 X78.67 Y61.85 F6000.0
G01 X78.53 Y61.61 F6000.0
G01 X78.04 Y60.74 F6000.0
G01 X77.54 Y59.87 F6000.0
G01 X77.05 Y59.0 F6000.0
G01 X76.42 Y57.88 F6000.0
G01 X76.17 Y57.51 F6000.0
G01 X75.61 Y56.68 F6000.0
G01 X75.06 Y55.84 F6000.0
G01 X74.25 Y54.64 F6000.0
G01 X73.76 Y53.91 F6000.0
G01 X74.52 Y54.24 F6000.0
G01 X74.79 Y54.4 F6000.0
G01 X75.91 Y55.08 F6000.0
G01 X76.22 Y55.35 F6000.0
G01 X77.31 Y56.25 F6000.0
G01 X77.48 Y56.39 F6000.0
G01 X78.44 Y57.15 F6000.0
G01 X78.5 Y57.25 F6000.0
G01 X78.58 Y57.37 F6000.0
G01 X79.19 Y58.33 F6000.0
G01 X79.32 Y58.52 F6000.0
G01 X80.01 Y59.55 F6000.0
G01 X80.12 Y59.76 F6000.0
G01 X80.68 Y60.86 F6000.0
G01 X80.77 Y61.13 F6000.0
G01 X81.21 Y62.33 F6000.0
G01 X81.31 Y62.7 F6000.0
G01 X81.65 Y64.04 F6000.0
G01 X81.88 Y64.94 F6000.0
G01 X81.95 Y65.12 F6000.0
G01 X81.98 Y65.08 F6000.0
G01 X81.94 Y64.78 F6000.0
G01 X81.76 Y63.5 F6000.0
G01 X81.64 Y63.03 F6000.0
G01 X81.26 Y61.58 F6000.0
G01 X81.25 Y61.57 F6000.0
G01 X80.96 Y60.61 F6000.0
G01 X81.31 Y60.42 F6000.0
G01 X81.69 Y60.32 F6000.0
G01 X81.73 Y60.48 F6000.0
G01 X82.02 Y61.61 F6000.0
G01 X82.04 Y61.93 F6000.0
G01 X82.12 Y62.92 F6000.0
G01 X82.23 Y64.23 F6000.0
G01 X82.24 Y64.39 F6000.0
G01 X82.28 Y65.39 F6000.0
G01 X82.33 Y66.55 F6000.0
G01 X82.34 Y66.45 F6000.0
G01 X82.44 Y65.36 F6000.0
G01 X82.45 Y65.0 F6000.0
G01 X82.51 Y63.65 F6000.0
G01 X82.49 Y63.28 F6000.0
G01 X82.41 Y61.92 F6000.0
G01 X82.36 Y61.62 F6000.0
G01 X82.15 Y60.33 F6000.0
G01 X82.1 Y60.15 F6000.0
G01 X81.75 Y59.01 F6000.0
G01 X81.53 Y58.59 F6000.0
G01 X80.83 Y57.28 F6000.0
G01 X80.82 Y57.27 F6000.0
G01 X80.19 Y56.5 F6000.0
G01 X79.56 Y55.71 F6000.0
G01 X79.18 Y55.38 F6000.0
G01 X78.04 Y54.4 F6000.0
G01 X77.66 Y54.19 F6000.0
G01 X76.41 Y53.48 F6000.0
G01 X75.94 Y53.25 F6000.0
G01 X75.91 Y53.16 F6000.0
G01 X75.99 Y53.17 F6000.0
G01 X77.05 Y53.39 F6000.0
G01 X77.41 Y53.52 F6000.0
G01 X78.71 Y54.0 F6000.0
G01 X79.12 Y54.23 F6000.0
G01 X80.4 Y54.94 F6000.0
G01 F6000.0
G01 X81.29 Y55.41 F6000.0
G01 X81.39 Y55.5 F6000.0
G01 X81.4 Y55.52 F6000.0
G01 X82.13 Y56.22 F6000.0
G01 X82.15 Y56.24 F6000.0
G01 X82.92 Y56.92 F6000.0
G01 X83.54 Y57.66 F6000.0
G01 X84.01 Y58.52 F6000.0
G01 X84.03 Y58.56 F6000.0
G01 X84.36 Y59.56 F6000.0
G01 X84.41 Y60.0 F6000.0
G01 X84.53 Y60.99 F6000.0
G01 X84.71 Y62.42 F6000.0
G01 Y62.58 F6000.0
G01 X84.72 Y65.58 F6000.0
G01 Y66.75 F6000.0
G01 Y66.79 F6000.0
G01 X84.68 Y67.79 F6000.0
G01 X84.65 Y68.79 F6000.0
G01 X84.61 Y69.79 F6000.0
G01 X84.58 Y70.79 F6000.0
G01 X84.55 Y71.79 F6000.0
G01 X84.51 Y72.79 F6000.0
G01 X84.48 Y73.79 F6000.0
G01 X84.44 Y74.79 F6000.0
G01 X84.41 Y75.83 F6000.0
G01 X84.38 Y76.33 F6000.0
G01 X84.31 Y77.32 F6000.0
G01 X84.25 Y78.32 F6000.0
G01 X84.13 Y80.32 F6000.0
G01 X84.03 Y81.81 F6000.0
G01 X83.98 Y82.18 F6000.0
G01 X83.83 Y83.17 F6000.0
G01 X83.63 Y84.52 F6000.0
G01 X83.56 Y84.83 F6000.0
G01 X83.34 Y85.81 F6000.0
G01 X83.05 Y87.09 F6000.0
G01 X82.98 Y87.33 F6000.0
G01 X82.69 Y88.28 F6000.0
G01 X82.32 Y89.48 F6000.0
G01 X82.26 Y89.62 F6000.0
G01 X81.89 Y90.54 F6000.0
G01 X81.45 Y91.61 F6000.0
G01 X81.39 Y91.73 F6000.0
G01 X80.91 Y92.76 F6000.0
G01 X80.65 Y92.29 F6000.0
G01 X80.49 Y92.05 F6000.0
G01 X80.48 Y92.1 F6000.0
G01 X80.58 Y92.42 F6000.0
G01 X80.89 Y93.37 F6000.0
G01 X81.2 Y94.32 F6000.0
G01 X81.51 Y95.27 F6000.0
G01 X81.82 Y96.22 F6000.0
G01 X82.23 Y97.49 F6000.0
G01 X82.24 Y97.53 F6000.0
G01 X82.46 Y98.51 F6000.0
G01 X82.68 Y99.48 F6000.0
G01 X82.91 Y100.46 F6000.0
G01 X83.14 Y101.47 F6000.0
G01 X83.16 Y101.76 F6000.0
G01 X83.28 Y103.05 F6000.0
G01 Y103.23 F6000.0
G01 X83.24 Y104.42 F6000.0
G01 X83.22 Y104.53 F6000.0
G01 X83.01 Y105.63 F6000.0
G01 X82.98 Y105.71 F6000.0
G01 X82.61 Y106.73 F6000.0
G01 X82.58 Y106.81 F6000.0
G01 X82.29 Y107.85 F6000.0
G01 X82.15 Y108.39 F6000.0
G01 X81.89 Y108.55 F6000.0
G01 X81.69 Y108.49 F6000.0
G01 X80.72 Y108.23 F6000.0
G01 X79.55 Y107.92 F6000.0
G01 X79.47 Y107.9 F6000.0
G01 X78.52 Y107.62 F6000.0
G01 X77.56 Y107.33 F6000.0
G01 X76.53 Y107.02 F6000.0
G01 X76.29 Y106.97 F6000.0
G01 X75.31 Y106.75 F6000.0
G01 X74.34 Y106.53 F6000.0
G01 X73.12 Y106.26 F6000.0
G01 X72.9 Y106.21 F6000.0
G01 X71.92 Y106.0 F6000.0
G01 X70.94 Y105.78 F6000.0
G01 X69.75 Y105.51 F6000.0
G01 X69.5 Y105.42 F6000.0
G01 X68.56 Y105.05 F6000.0
G01 X67.38 Y104.59 F6000.0
G01 X67.19 Y104.48 F6000.0
G01 X66.33 Y103.97 F6000.0
G01 X65.27 Y103.34 F6000.0
G01 X64.62 Y102.75 F6000.0
G01 X64.59 Y102.25 F6000.0
G01 X64.67 Y101.76 F6000.0
G01 X64.41 Y102.08 F6000.0
G01 X64.16 Y102.39 F6000.0
G01 X63.69 Y101.88 F6000.0
G01 X63.5 Y101.65 F6000.0
G01 X62.68 Y100.66 F6000.0
G01 X62.11 Y100.01 F6000.0
G01 X62.05 Y100.04 F6000.0
G01 X62.13 Y100.3 F6000.0
G01 X62.14 Y100.31 F6000.0
G01 X62.63 Y101.19 F6000.0
G01 X62.7 Y101.27 F6000.0
G01 X63.39 Y102.13 F6000.0
G01 X63.8 Y102.82 F6000.0
G01 X63.14 Y103.43 F6000.0
G01 X63.0 Y103.51 F6000.0
G01 X62.01 Y104.09 F6000.0
G01 X61.57 Y104.22 F6000.0
G01 X60.18 Y104.64 F6000.0
G01 X59.9 Y104.65 F6000.0
G01 X58.91 Y104.71 F6000.0
G01 X57.63 Y104.79 F6000.0
G01 X57.16 Y104.78 F6000.0
G01 X55.68 Y104.73 F6000.0
G01 X55.4 Y104.67 F6000.0
G01 X54.13 Y104.42 F6000.0
G01 X53.83 Y104.33 F6000.0
G01 X52.57 Y103.95 F6000.0
G01 X52.82 Y103.61 F6000.0
G01 X53.46 Y103.08 F6000.0
G01 X53.73 Y102.79 F6000.0
G01 X54.15 Y102.88 F6000.0
G01 X55.55 Y103.16 F6000.0
G01 X55.63 Y103.17 F6000.0
G01 X56.62 Y103.33 F6000.0
G01 X57.61 Y103.48 F6000.0
G01 X58.67 Y103.65 F6000.0
G01 X59.12 Y103.68 F6000.0
G01 X60.57 Y103.77 F6000.0
G01 X60.56 Y103.72 F6000.0
G01 X60.28 Y103.69 F6000.0
G01 X59.88 Y103.63 F6000.0
G01 X58.49 Y103.44 F6000.0
G01 X58.1 Y103.36 F6000.0
G01 X57.12 Y103.16 F6000.0
G01 X55.74 Y102.87 F6000.0
G01 X55.32 Y102.8 F6000.0
G01 X53.9 Y102.57 F6000.0
G01 X53.83 Y102.53 F6000.0
G01 X53.03 Y102.16 F6000.0
G01 X52.86 Y102.11 F6000.0
G01 X51.91 Y101.8 F6000.0
G01 X50.8 Y101.44 F6000.0
G01 X50.54 Y101.34 F6000.0
G01 X49.61 Y100.97 F6000.0
G01 X48.42 Y100.49 F6000.0
G01 X48.16 Y100.37 F6000.0
G01 X47.25 Y99.94 F6000.0
G01 X46.08 Y99.39 F6000.0
G01 X45.91 Y99.3 F6000.0
G01 X45.03 Y98.81 F6000.0
G01 X43.98 Y98.24 F6000.0
G01 X43.7 Y98.1 F6000.0
G01 X42.51 Y97.54 F6000.0
G01 X42.45 Y97.52 F6000.0
G01 X42.07 Y97.2 F6000.0
G01 X40.93 Y96.23 F6000.0
G01 X40.6 Y95.95 F6000.0
G01 X39.07 Y94.66 F6000.0
G01 X37.98 Y93.73 F6000.0
G01 X37.64 Y93.45 F6000.0
G01 X36.54 Y92.52 F6000.0
G01 X36.52 Y92.42 F6000.0
G01 X36.37 Y92.05 F6000.0
G01 X35.85 Y91.4 F6000.0
G01 X35.81 Y91.34 F6000.0
G01 X35.2 Y90.47 F6000.0
G01 X35.31 Y90.46 F6000.0
G01 X36.3 Y90.4 F6000.0
G01 X37.41 Y90.33 F6000.0
G01 X37.49 F6000.0
G01 X38.49 Y90.37 F6000.0
G01 X39.49 Y90.4 F6000.0
G01 X40.56 Y90.44 F6000.0
G01 X40.94 Y90.52 F6000.0
G01 X42.9 Y90.91 F6000.0
G01 X44.27 Y91.17 F6000.0
G01 X44.47 Y91.22 F6000.0
G01 X45.44 Y91.44 F6000.0
G01 X46.62 Y91.7 F6000.0
G01 X46.55 Y91.67 F6000.0
G01 X45.55 Y91.27 F6000.0
G01 X45.47 Y91.25 F6000.0
G01 X44.51 Y90.96 F6000.0
G01 X43.47 Y90.65 F6000.0
G01 X43.03 Y90.58 F6000.0
G01 X42.04 Y90.42 F6000.0
G01 X40.61 Y90.18 F6000.0
G01 X40.52 F6000.0
G01 X39.52 Y90.14 F6000.0
G01 X38.52 Y90.1 F6000.0
G01 X37.43 Y90.07 F6000.0
G01 X37.35 F6000.0
G01 X36.35 Y90.15 F6000.0
G01 X35.35 Y90.22 F6000.0
G01 X34.28 Y90.31 F6000.0
G01 X33.87 Y90.39 F6000.0
G01 X32.89 Y90.6 F6000.0
G01 X31.51 Y90.9 F6000.0
G01 X31.17 Y91.03 F6000.0
G01 X29.91 Y91.55 F6000.0
G01 X29.67 Y91.71 F6000.0
G01 X28.61 Y92.45 F6000.0
G01 X28.4 Y92.68 F6000.0
G01 X27.53 Y93.66 F6000.0
G01 X27.31 Y94.04 F6000.0
G01 X26.59 Y95.27 F6000.0
G01 X26.58 Y95.28 F6000.0
G01 X26.12 Y96.17 F6000.0
G01 X25.91 Y96.39 F6000.0
G01 X25.96 Y95.99 F6000.0
G01 X26.13 Y94.6 F6000.0
G01 X26.14 Y94.55 F6000.0
G01 X26.37 Y93.58 F6000.0
G01 X26.61 Y92.56 F6000.0
G01 X26.77 Y92.15 F6000.0
G01 X27.28 Y90.81 F6000.0
G01 X27.46 Y90.51 F6000.0
G01 X28.15 Y89.34 F6000.0
G01 X28.36 Y89.12 F6000.0
G01 X29.24 Y88.15 F6000.0
G01 X29.49 Y87.96 F6000.0
G01 X30.55 Y87.2 F6000.0
G01 X30.88 Y87.05 F6000.0
G01 X32.12 Y86.49 F6000.0
G01 X32.55 Y86.38 F6000.0
G01 X33.95 Y86.01 F6000.0
G01 X34.01 Y86.0 F6000.0
G01 X35.01 Y85.87 F6000.0
G01 X36.06 Y85.73 F6000.0
G01 X36.23 Y85.74 F6000.0
G01 X37.23 Y85.76 F6000.0
G01 X38.4 Y85.78 F6000.0
G01 X38.52 Y85.8 F6000.0
G01 X39.51 Y85.94 F6000.0
G01 X40.61 Y86.09 F6000.0
G01 X41.16 Y86.15 F6000.0
G01 X40.6 Y85.88 F6000.0
G01 X40.58 Y85.87 F6000.0
G01 X39.66 Y85.48 F6000.0
G01 X38.71 Y85.08 F6000.0
G01 X38.39 Y84.96 F6000.0
G01 X37.46 Y84.61 F6000.0
G01 X36.21 Y84.14 F6000.0
G01 X35.98 Y84.09 F6000.0
G01 X35.0 Y83.87 F6000.0
G01 X33.8 Y83.61 F6000.0
G01 X33.65 Y83.6 F6000.0
G01 X32.65 Y83.54 F6000.0
G01 X31.51 Y83.48 F6000.0
G01 X31.43 Y83.49 F6000.0
G01 X30.43 Y83.62 F6000.0
G01 X29.36 Y83.77 F6000.0
G01 X29.13 Y83.86 F6000.0
G01 X28.2 Y84.22 F6000.0
G01 X27.04 Y84.67 F6000.0
G01 X26.88 Y84.77 F6000.0
G01 X26.04 Y85.31 F6000.0
G01 X25.04 Y85.95 F6000.0
G01 X25.02 Y85.96 F6000.0
G01 X24.23 Y86.59 F6000.0
G01 X24.25 Y86.43 F6000.0
G01 X24.44 Y85.28 F6000.0
G01 X24.53 Y84.95 F6000.0
G01 X24.91 Y83.65 F6000.0
G01 X25.02 Y83.42 F6000.0
G01 X25.6 Y82.29 F6000.0
G01 X25.74 Y82.12 F6000.0
G01 X26.51 Y81.18 F6000.0
G01 X26.68 Y81.06 F6000.0
G01 X27.65 Y80.33 F6000.0
G01 X27.87 Y80.24 F6000.0
G01 X29.01 Y79.74 F6000.0
G01 X29.31 Y79.68 F6000.0
G01 X30.59 Y79.41 F6000.0
G01 X31.0 Y79.4 F6000.0
G01 X32.4 Y79.34 F6000.0
G01 X32.42 F6000.0
G01 X33.42 Y79.44 F6000.0
G01 X34.43 Y79.53 F6000.0
G01 X34.62 Y79.57 F6000.0
G01 X35.6 Y79.78 F6000.0
G01 X36.76 Y80.02 F6000.0
G01 X36.96 Y80.09 F6000.0
G01 X37.9 Y80.43 F6000.0
G01 X39.03 Y80.83 F6000.0
G01 X39.31 Y80.97 F6000.0
G01 X40.21 Y81.42 F6000.0
G01 X41.38 Y82.02 F6000.0
G01 X41.39 F6000.0
G01 X42.23 Y82.56 F6000.0
G01 X43.08 Y83.09 F6000.0
G01 X43.94 Y83.63 F6000.0
G01 X44.02 Y83.69 F6000.0
G01 X46.48 Y85.41 F6000.0
G01 X47.3 Y85.98 F6000.0
G01 X48.12 Y86.55 F6000.0
G01 X49.03 Y87.18 F6000.0
G01 X49.32 Y87.37 F6000.0
G01 X50.44 Y88.1 F6000.0
G01 X50.55 Y88.19 F6000.0
G01 X51.18 Y88.8 F6000.0
G01 X51.5 Y89.05 F6000.0
G01 X52.58 Y89.94 F6000.0
G01 X52.59 F6000.0
G01 X53.42 Y90.5 F6000.0
G01 X53.5 Y90.6 F6000.0
G01 X53.63 Y90.74 F6000.0
G01 X53.76 Y90.81 F6000.0
G01 X53.94 Y91.01 F6000.0
G01 X54.6 Y91.76 F6000.0
G01 X55.44 Y92.7 F6000.0
G01 X55.6 Y92.87 F6000.0
G01 X56.3 Y93.59 F6000.0
G01 X57.15 Y94.48 F6000.0
G01 X57.09 Y94.38 F6000.0
G01 X56.45 Y93.45 F6000.0
G01 X56.23 Y93.2 F6000.0
G01 X55.57 Y92.44 F6000.0
G01 X54.69 Y91.43 F6000.0
G01 X54.49 Y91.25 F6000.0
G01 X53.01 Y89.9 F6000.0
G01 X52.07 Y89.04 F6000.0
G01 X52.02 Y89.01 F6000.0
G01 X49.62 Y87.22 F6000.0
G01 X48.82 Y86.62 F6000.0
G01 X48.01 Y86.02 F6000.0
G01 X47.17 Y85.39 F6000.0
G01 X46.88 Y85.2 F6000.0
G01 X46.05 Y84.65 F6000.0
G01 X44.93 Y83.9 F6000.0
G01 X44.85 Y83.86 F6000.0
G01 X43.88 Y83.36 F6000.0
G01 X43.77 Y83.3 F6000.0
G01 X43.71 Y83.25 F6000.0
G01 X42.88 Y82.58 F6000.0
G01 X42.58 Y82.42 F6000.0
G01 X41.71 Y81.93 F6000.0
G01 X40.54 Y81.27 F6000.0
G01 X40.39 Y81.18 F6000.0
G01 X39.37 Y80.59 F6000.0
G01 X39.03 Y80.01 F6000.0
G01 X38.99 Y79.46 F6000.0
G01 X39.25 Y79.62 F6000.0
G01 X40.09 Y80.15 F6000.0
G01 X41.2 Y80.85 F6000.0
G01 X41.4 Y80.99 F6000.0
G01 X42.23 Y81.55 F6000.0
G01 X43.27 Y82.25 F6000.0
G01 X43.18 Y82.16 F6000.0
G01 X42.35 Y81.38 F6000.0
G01 X42.29 Y81.33 F6000.0
G01 X41.51 Y80.7 F6000.0
G01 X40.67 Y80.02 F6000.0
G01 X40.38 Y79.85 F6000.0
G01 X39.22 Y79.19 F6000.0
G01 X38.77 Y78.89 F6000.0
G01 X38.49 Y77.95 F6000.0
G01 X38.47 Y77.71 F6000.0
G01 X38.31 Y76.48 F6000.0
G01 X38.29 Y76.02 F6000.0
G01 X38.23 Y74.55 F6000.0
G01 X38.24 Y74.2 F6000.0
G01 X38.26 Y72.85 F6000.0
G01 X38.41 Y72.08 F6000.0
G01 X38.54 Y72.28 F6000.0
G01 X38.58 Y73.15 F6000.0
G01 X38.62 Y73.63 F6000.0
G01 X38.74 Y75.11 F6000.0
G01 X38.8 Y75.32 F6000.0
G01 X39.09 Y76.51 F6000.0
G01 X39.19 Y76.65 F6000.0
G01 X39.22 Y76.54 F6000.0
G01 X39.2 Y76.41 F6000.0
G01 X39.04 Y75.29 F6000.0
G01 X38.99 Y74.8 F6000.0
G01 X38.85 Y73.31 F6000.0
G01 X38.86 Y73.2 F6000.0
G01 X38.94 Y72.1 F6000.0
G01 X39.57 Y71.78 F6000.0
G01 X39.6 Y71.77 F6000.0
G01 X40.52 Y71.37 F6000.0
G01 X41.47 Y70.97 F6000.0
G01 X41.73 Y70.85 F6000.0
G01 X42.91 Y70.32 F6000.0
G01 Y70.37 F6000.0
G01 Y71.42 F6000.0
G01 Y71.59 F6000.0
G01 X42.92 Y72.59 F6000.0
G01 X42.94 Y73.77 F6000.0
G01 X42.95 Y73.89 F6000.0
G01 X43.03 Y75.02 F6000.0
G01 X43.04 Y74.76 F6000.0
G01 X43.06 Y73.5 F6000.0
G01 X43.07 Y73.44 F6000.0
G01 X43.12 Y72.45 F6000.0
G01 X43.19 Y71.39 F6000.0
G01 X43.27 Y70.81 F6000.0
G01 X43.72 Y71.52 F6000.0
G01 X44.16 Y72.24 F6000.0
G01 X44.11 Y72.41 F6000.0
G01 X43.75 Y73.53 F6000.0
G01 X43.69 Y73.8 F6000.0
G01 X43.44 Y74.77 F6000.0
G01 X43.13 Y76.02 F6000.0
G01 F6000.0
G01 X42.91 Y77.0 F6000.0
G01 X42.81 Y77.09 F6000.0
G01 X42.68 Y77.01 F6000.0
G01 X42.27 Y76.83 F6000.0
G01 X41.73 F6000.0
G01 X41.17 Y77.01 F6000.0
G01 X40.7 Y77.33 F6000.0
G01 X40.42 Y77.61 F6000.0
G01 X40.35 Y77.57 F6000.0
G01 X39.4 Y77.05 F6000.0
G01 X39.37 Y77.04 F6000.0
G01 X38.44 Y76.58 F6000.0
G01 X38.69 Y76.75 F6000.0
G01 X39.5 Y77.32 F6000.0
G01 X40.56 Y78.07 F6000.0
G01 X40.84 Y78.28 F6000.0
G01 X41.64 Y78.88 F6000.0
G01 X42.44 Y79.48 F6000.0
G01 X43.52 Y80.29 F6000.0
G01 X44.24 Y80.89 F6000.0
G01 X44.3 Y80.87 F6000.0
G01 X44.21 Y80.67 F6000.0
G01 X43.99 Y80.44 F6000.0
G01 X43.07 Y79.49 F6000.0
G01 X43.0 Y79.43 F6000.0
G01 X42.15 Y78.74 F6000.0
G01 X42.45 Y78.42 F6000.0
G01 X42.74 Y78.11 F6000.0
G01 X42.81 Y78.48 F6000.0
G01 X42.9 Y78.59 F6000.0
G01 X43.06 Y77.93 F6000.0
G01 X43.15 Y77.53 F6000.0
G01 X43.36 Y76.55 F6000.0
G01 X43.66 Y75.16 F6000.0
G01 X43.7 Y75.02 F6000.0
G01 X43.97 Y74.05 F6000.0
G01 X44.28 Y72.94 F6000.0
G01 X44.4 Y72.65 F6000.0
G01 X44.77 Y71.72 F6000.0
G01 X45.26 Y70.5 F6000.0
G01 X45.38 Y70.31 F6000.0
G01 X46.01 Y69.27 F6000.0
G01 X46.91 Y69.46 F6000.0
G01 X47.51 Y69.74 F6000.0
G01 X47.46 Y70.06 F6000.0
G01 X47.26 Y71.38 F6000.0
G01 X47.24 Y71.54 F6000.0
G01 X47.17 Y72.54 F6000.0
G01 X47.1 Y73.54 F6000.0
G01 X47.02 Y74.7 F6000.0
G01 X47.03 Y75.11 F6000.0
G01 X47.07 Y76.11 F6000.0
G01 X47.13 Y77.52 F6000.0
G01 X47.22 Y77.93 F6000.0
G01 X47.31 Y77.59 F6000.0
G01 Y77.36 F6000.0
G01 X47.3 Y76.14 F6000.0
G01 X47.28 Y75.72 F6000.0
G01 X47.19 Y74.31 F6000.0
G01 X47.22 Y73.75 F6000.0
G01 X47.38 Y73.77 F6000.0
G01 X47.58 Y74.04 F6000.0
G01 X47.75 Y74.36 F6000.0
G01 X48.39 Y75.58 F6000.0
G01 X48.47 Y75.73 F6000.0
G01 X48.93 Y76.62 F6000.0
G01 X49.4 Y77.5 F6000.0
G01 X49.94 Y78.55 F6000.0
G01 X50.11 Y78.94 F6000.0
G01 X50.51 Y79.86 F6000.0
G01 X51.08 Y81.18 F6000.0
G01 X51.15 Y81.39 F6000.0
G01 X51.44 Y82.35 F6000.0
G01 X51.72 Y83.31 F6000.0
G01 X52.08 Y84.48 F6000.0
G01 X52.17 Y84.79 F6000.0
G01 X52.53 Y86.06 F6000.0
G01 X52.73 Y86.58 F6000.0
G01 X53.08 Y86.28 F6000.0
G01 X53.84 Y85.81 F6000.0
G01 X54.09 Y85.61 F6000.0
G01 X55.12 Y84.8 F6000.0
G01 X55.4 Y84.58 F6000.0
G01 X56.19 Y83.96 F6000.0
G01 X57.26 Y83.13 F6000.0
G01 X57.54 Y82.87 F6000.0
G01 X58.27 Y82.2 F6000.0
G01 X59.29 Y81.27 F6000.0
G01 X59.55 Y80.99 F6000.0
G01 X60.24 Y80.26 F6000.0
G01 X61.18 Y79.26 F6000.0
G01 X61.42 Y78.96 F6000.0
G01 X62.05 Y78.19 F6000.0
G01 X62.92 Y77.11 F6000.0
G01 F6000.0
G01 X63.47 Y76.28 F6000.0
G01 X65.14 Y73.78 F6000.0
G01 X65.69 Y72.95 F6000.0
G01 X65.72 Y72.91 F6000.0
G01 X66.22 Y72.04 F6000.0
G01 X66.74 Y71.12 F6000.0
G01 X66.77 Y71.06 F6000.0
G01 X67.19 Y70.07 F6000.0
G01 X67.23 Y70.39 F6000.0
G01 Y70.42 F6000.0
G01 X67.29 Y71.45 F6000.0
G01 Y71.76 F6000.0
G01 X67.28 Y72.76 F6000.0
G01 Y73.76 F6000.0
G01 X67.27 Y75.06 F6000.0
G01 X67.25 Y75.42 F6000.0
G01 X67.19 Y76.42 F6000.0
G01 X67.12 Y77.42 F6000.0
G01 X67.03 Y78.77 F6000.0
G01 X66.99 Y79.18 F6000.0
G01 X66.83 Y80.58 F6000.0
G01 X66.77 Y81.11 F6000.0
G01 X66.89 Y80.65 F6000.0
G01 X66.94 Y80.25 F6000.0
G01 X67.05 Y79.26 F6000.0
G01 X67.16 Y78.27 F6000.0
G01 X67.28 Y77.27 F6000.0
G01 X67.44 Y75.88 F6000.0
G01 Y75.7 F6000.0
G01 X67.46 Y74.7 F6000.0
G01 X67.48 Y73.71 F6000.0
G01 X67.54 Y70.71 F6000.0
G01 X67.57 Y69.53 F6000.0
G01 Y69.31 F6000.0
G01 X67.55 Y68.31 F6000.0
G01 X67.54 Y67.31 F6000.0
G01 X67.51 Y65.31 F6000.0
G01 X67.49 Y64.08 F6000.0
G01 X67.48 Y63.88 F6000.0
G01 X67.43 Y62.88 F6000.0
G01 X67.32 Y60.88 F6000.0
G01 X67.26 Y59.67 F6000.0
G01 X67.22 Y59.32 F6000.0
G01 X67.11 Y58.33 F6000.0
G01 X67.0 Y57.34 F6000.0
G01 X66.84 Y55.99 F6000.0
G01 X66.81 Y55.83 F6000.0
G01 X66.62 Y54.85 F6000.0
G01 X66.44 Y53.86 F6000.0
G01 X66.22 Y52.72 F6000.0
G01 X66.12 Y52.28 F6000.0
G01 X65.82 Y50.86 F6000.0
G01 Y50.55 F6000.0
G01 X65.92 Y50.47 F6000.0
G01 X66.26 Y50.62 F6000.0
G01 X67.52 Y51.17 F6000.0
G01 F6000.0
M5
G00 X73.39 Y61.93 F6000.0
M3 F6000.0
G01 X73.42 Y62.07 F6000.0
G01 X73.47 Y62.01 F6000.0
G01 Y61.76 F6000.0
G01 X73.39 Y61.93 F6000.0
G01 F6000.0
M5
G00 X91.72 Y21.75 F6000.0
M3 F6000.0
G01 Y22.01 F6000.0
G01 X91.65 Y27.01 F6000.0
G01 X91.64 Y28.01 F6000.0
G01 X91.6 Y31.01 F6000.0
G01 X91.58 Y32.27 F6000.0
G01 Y32.53 F6000.0
G01 X91.57 Y33.53 F6000.0
G01 X91.54 Y35.53 F6000.0
G01 X91.53 Y36.53 F6000.0
G01 X91.51 Y37.53 F6000.0
G01 X91.5 Y38.53 F6000.0
G01 X91.49 Y39.53 F6000.0
G01 X91.47 Y40.8 F6000.0
G01 X91.46 Y40.96 F6000.0
G01 X91.37 Y41.95 F6000.0
G01 X91.27 Y43.11 F6000.0
G01 X91.25 Y43.25 F6000.0
G01 X91.1 Y44.24 F6000.0
G01 X90.92 Y45.38 F6000.0
G01 X90.83 Y45.78 F6000.0
G01 X90.59 Y46.75 F6000.0
G01 X90.26 Y48.12 F6000.0
G01 X90.12 Y48.49 F6000.0
G01 X89.76 Y49.42 F6000.0
G01 X89.26 Y50.71 F6000.0
G01 X89.06 Y51.08 F6000.0
G01 X88.58 Y51.95 F6000.0
G01 X87.89 Y53.19 F6000.0
G01 X87.6 Y53.58 F6000.0
G01 X87.01 Y54.39 F6000.0
G01 X86.14 Y55.59 F6000.0
G01 X85.93 Y55.88 F6000.0
G01 X85.13 Y56.97 F6000.0
G01 X85.03 Y57.06 F6000.0
G01 X84.57 Y57.42 F6000.0
G01 X84.24 Y57.82 F6000.0
G01 X83.96 Y57.48 F6000.0
G01 X83.78 Y57.3 F6000.0
G01 X83.07 Y56.58 F6000.0
G01 X82.19 Y55.68 F6000.0
G01 X81.86 Y55.44 F6000.0
G01 X80.73 Y54.59 F6000.0
G01 X80.39 Y54.39 F6000.0
G01 X79.18 Y53.71 F6000.0
G01 X78.88 Y53.59 F6000.0
G01 X77.66 Y53.11 F6000.0
G01 X77.47 Y53.07 F6000.0
G01 X76.3 Y52.84 F6000.0
G01 X75.31 Y52.85 F6000.0
G01 X75.0 Y53.0 F6000.0
G01 X75.28 Y53.19 F6000.0
G01 X76.38 Y53.96 F6000.0
G01 X76.77 Y54.22 F6000.0
G01 X77.99 Y55.03 F6000.0
G01 X78.23 Y55.24 F6000.0
G01 X79.23 Y56.09 F6000.0
G01 X79.39 Y56.28 F6000.0
G01 X80.19 Y57.23 F6000.0
G01 X80.33 Y57.47 F6000.0
G01 X80.99 Y58.58 F6000.0
G01 X81.03 Y58.65 F6000.0
G01 X81.48 Y59.64 F6000.0
G01 X81.49 Y59.84 F6000.0
G01 X81.37 Y59.96 F6000.0
G01 X80.97 Y60.25 F6000.0
G01 X80.82 F6000.0
G01 X80.65 Y59.96 F6000.0
G01 X80.41 Y59.57 F6000.0
G01 X79.66 Y58.33 F6000.0
G01 X79.58 Y58.23 F6000.0
G01 X78.95 Y57.45 F6000.0
G01 X78.23 Y56.58 F6000.0
G01 X77.97 Y56.35 F6000.0
G01 X77.22 Y55.69 F6000.0
G01 X76.21 Y54.81 F6000.0
G01 X75.42 Y54.33 F6000.0
G01 X74.97 Y54.25 F6000.0
G01 X74.87 Y54.16 F6000.0
G01 X74.02 Y53.65 F6000.0
G01 X73.21 Y53.24 F6000.0
G01 X72.5 Y52.71 F6000.0
G01 X72.37 Y52.61 F6000.0
G01 X71.57 Y52.0 F6000.0
G01 X70.64 Y51.29 F6000.0
G01 X69.86 Y50.89 F6000.0
G01 X69.34 Y50.79 F6000.0
G01 X69.06 Y50.77 F6000.0
G01 X68.81 Y50.5 F6000.0
G01 X68.53 Y50.2 F6000.0
G01 X67.57 Y49.17 F6000.0
G01 X67.22 Y48.87 F6000.0
G01 X65.69 Y47.59 F6000.0
G01 X64.58 Y46.65 F6000.0
G01 X64.36 Y46.48 F6000.0
G01 X63.37 Y45.67 F6000.0
G01 X63.24 Y45.58 F6000.0
G01 X62.28 Y44.91 F6000.0
G01 X62.13 Y44.79 F6000.0
G01 X61.38 Y44.2 F6000.0
G01 X61.1 Y44.07 F6000.0
G01 X59.92 Y43.51 F6000.0
G01 X59.0 Y43.26 F6000.0
G01 X58.2 Y43.19 F6000.0
G01 X57.42 Y43.33 F6000.0
G01 X56.59 Y43.66 F6000.0
G01 X56.53 Y43.71 F6000.0
G01 X55.65 Y44.33 F6000.0
G01 X55.51 Y44.44 F6000.0
G01 X55.15 Y44.62 F6000.0
G01 X54.71 Y45.14 F6000.0
G01 X54.61 Y45.29 F6000.0
G01 X53.92 Y46.25 F6000.0
G01 X53.87 Y46.32 F6000.0
G01 X53.21 Y47.19 F6000.0
G01 X53.2 Y47.3 F6000.0
G01 X53.1 Y47.44 F6000.0
G01 X52.87 Y47.81 F6000.0
G01 X52.7 Y48.2 F6000.0
G01 X52.34 Y48.81 F6000.0
G01 X52.06 Y49.28 F6000.0
G01 X52.04 Y49.5 F6000.0
G01 X52.06 Y49.64 F6000.0
G01 X51.95 Y49.61 F6000.0
G01 X51.84 Y49.57 F6000.0
G01 X51.86 Y49.64 F6000.0
G01 X51.74 Y50.16 F6000.0
G01 X51.55 Y50.77 F6000.0
G01 X51.47 Y50.94 F6000.0
G01 X51.27 Y51.0 F6000.0
G01 X50.75 Y51.13 F6000.0
G01 X50.03 Y51.3 F6000.0
G01 X49.56 Y51.42 F6000.0
G01 X49.05 Y51.66 F6000.0
G01 X48.62 Y51.84 F6000.0
G01 X47.27 Y52.42 F6000.0
G01 X47.04 Y52.55 F6000.0
G01 X46.17 Y53.03 F6000.0
G01 X45.07 Y53.64 F6000.0
G01 X44.95 Y53.71 F6000.0
G01 X44.0 Y54.31 F6000.0
G01 X43.74 Y53.72 F6000.0
G01 X43.68 Y53.54 F6000.0
G01 X43.35 Y52.6 F6000.0
G01 X42.95 Y51.47 F6000.0
G01 X42.88 Y51.21 F6000.0
G01 X42.61 Y50.24 F6000.0
G01 X42.27 Y49.02 F6000.0
G01 X42.23 Y48.54 F6000.0
G01 X42.14 Y47.55 F6000.0
G01 X42.06 Y46.55 F6000.0
G01 X41.93 Y45.08 F6000.0
G01 Y44.65 F6000.0
G01 X41.94 Y42.65 F6000.0
G01 Y41.65 F6000.0
G01 X41.95 Y40.23 F6000.0
G01 X41.96 Y39.96 F6000.0
G01 X42.04 Y38.7 F6000.0
G01 X42.12 F6000.0
G01 X43.19 Y38.74 F6000.0
G01 X43.86 Y38.76 F6000.0
G01 X43.96 F6000.0
G01 X43.87 Y38.74 F6000.0
G01 X43.86 F6000.0
G01 X42.88 Y38.55 F6000.0
G01 X41.9 Y38.37 F6000.0
G01 X40.91 Y38.18 F6000.0
G01 X40.8 Y38.14 F6000.0
G01 X39.76 Y37.75 F6000.0
G01 X39.75 Y37.74 F6000.0
G01 X38.86 Y37.22 F6000.0
G01 X38.78 Y37.13 F6000.0
G01 X38.05 Y36.29 F6000.0
G01 X37.97 Y36.02 F6000.0
G01 X37.58 Y34.8 F6000.0
G01 X37.39 Y33.86 F6000.0
G01 X37.45 Y34.8 F6000.0
G01 X37.48 Y34.97 F6000.0
G01 X37.68 Y36.13 F6000.0
G01 X37.73 Y36.2 F6000.0
G01 X38.28 Y37.12 F6000.0
G01 X38.38 Y37.2 F6000.0
G01 X39.3 Y37.86 F6000.0
G01 X39.6 Y37.97 F6000.0
G01 X40.83 Y38.42 F6000.0
G01 X40.86 Y38.43 F6000.0
G01 X41.84 Y38.74 F6000.0
G01 X41.76 Y39.37 F6000.0
G01 X41.75 Y39.72 F6000.0
G01 X41.71 Y40.71 F6000.0
G01 X41.67 Y41.71 F6000.0
G01 X41.63 Y43.06 F6000.0
G01 X41.64 Y43.41 F6000.0
G01 X41.67 Y44.41 F6000.0
G01 X41.7 Y45.41 F6000.0
G01 X41.74 Y46.77 F6000.0
G01 X41.75 F6000.0
G01 X41.9 Y47.76 F6000.0
G01 X42.05 Y48.75 F6000.0
G01 X42.2 Y49.74 F6000.0
G01 X42.25 Y49.91 F6000.0
G01 X42.51 Y50.87 F6000.0
G01 X42.83 Y52.0 F6000.0
G01 X42.91 Y52.23 F6000.0
G01 X43.27 Y53.17 F6000.0
G01 X43.71 Y54.33 F6000.0
G01 X43.77 Y54.46 F6000.0
G01 X44.21 Y55.36 F6000.0
G01 X44.71 Y56.39 F6000.0
G01 X44.91 Y56.69 F6000.0
G01 X45.66 Y57.82 F6000.0
G01 X46.02 Y58.21 F6000.0
G01 X45.79 Y57.83 F6000.0
G01 X45.72 Y57.7 F6000.0
G01 X45.26 Y56.82 F6000.0
G01 X44.73 Y55.81 F6000.0
G01 X44.66 Y55.65 F6000.0
G01 X44.23 Y54.55 F6000.0
G01 X44.43 Y54.45 F6000.0
G01 X45.31 Y53.97 F6000.0
G01 X46.19 Y53.5 F6000.0
G01 X47.06 Y53.02 F6000.0
G01 X48.14 Y52.44 F6000.0
G01 X48.45 Y52.33 F6000.0
G01 X49.7 Y51.88 F6000.0
G01 X50.09 Y51.79 F6000.0
G01 X51.45 Y51.47 F6000.0
G01 X51.9 Y51.41 F6000.0
G01 X53.35 Y51.22 F6000.0
G01 X53.37 F6000.0
G01 X54.37 Y51.17 F6000.0
G01 X55.38 Y51.13 F6000.0
G01 X55.85 Y51.16 F6000.0
G01 X56.85 Y51.22 F6000.0
G01 X58.31 Y51.3 F6000.0
G01 X58.63 Y51.36 F6000.0
G01 X59.61 Y51.56 F6000.0
G01 X60.9 Y51.81 F6000.0
G01 X61.07 Y51.87 F6000.0
G01 X62.01 Y52.22 F6000.0
G01 X63.11 Y52.63 F6000.0
G01 X63.15 Y52.66 F6000.0
G01 X63.99 Y53.19 F6000.0
G01 X64.88 Y53.76 F6000.0
G01 X64.96 Y53.82 F6000.0
G01 X65.83 Y54.5 F6000.0
G01 X65.92 Y54.49 F6000.0
G01 X65.82 Y54.27 F6000.0
G01 X65.7 Y54.14 F6000.0
G01 X64.88 Y53.3 F6000.0
G01 X64.47 Y53.07 F6000.0
G01 X63.19 Y52.35 F6000.0
G01 X63.04 Y52.29 F6000.0
G01 X62.1 Y51.94 F6000.0
G01 X61.02 Y51.53 F6000.0
G01 X60.77 Y51.47 F6000.0
G01 X59.8 Y51.23 F6000.0
G01 X58.59 Y50.94 F6000.0
G01 X58.2 Y50.91 F6000.0
G01 X57.2 Y50.84 F6000.0
G01 X55.81 Y50.74 F6000.0
G01 X55.37 Y50.76 F6000.0
G01 X54.37 Y50.81 F6000.0
G01 X52.93 Y50.88 F6000.0
G01 X52.89 F6000.0
G01 X51.85 Y50.95 F6000.0
G01 X51.87 Y50.91 F6000.0
G01 X52.3 Y50.01 F6000.0
G01 X52.74 Y49.07 F6000.0
G01 X52.78 Y49.0 F6000.0
G01 X53.29 Y48.14 F6000.0
G01 X53.8 Y47.28 F6000.0
G01 X54.35 Y46.34 F6000.0
G01 X54.54 Y46.1 F6000.0
G01 X55.34 Y45.07 F6000.0
G01 X55.44 Y44.97 F6000.0
G01 X56.28 Y44.2 F6000.0
G01 X56.32 Y44.19 F6000.0
G01 X57.24 Y43.72 F6000.0
G01 X57.26 F6000.0
G01 X58.26 Y43.57 F6000.0
G01 X58.32 Y43.58 F6000.0
G01 X59.37 Y43.71 F6000.0
G01 X59.47 Y43.74 F6000.0
G01 X60.51 Y44.11 F6000.0
G01 X60.69 Y44.21 F6000.0
G01 X61.73 Y44.79 F6000.0
G01 X61.99 Y44.98 F6000.0
G01 X63.06 Y45.76 F6000.0
G01 X63.37 Y46.01 F6000.0
G01 X64.15 Y46.63 F6000.0
G01 X65.25 Y47.49 F6000.0
G01 X65.27 Y47.52 F6000.0
G01 X66.04 Y48.16 F6000.0
G01 X66.81 Y48.8 F6000.0
G01 X67.61 Y49.46 F6000.0
G01 X67.85 Y49.73 F6000.0
G01 X68.77 Y50.74 F6000.0
G01 X69.29 Y51.33 F6000.0
G01 X69.67 Y51.61 F6000.0
G01 X69.9 Y52.02 F6000.0
G01 X69.79 Y51.97 F6000.0
G01 X68.91 Y51.5 F6000.0
G01 X68.02 Y51.04 F6000.0
G01 X67.03 Y50.52 F6000.0
G01 X66.92 Y50.47 F6000.0
G01 X65.91 Y50.0 F6000.0
G01 X65.55 Y49.98 F6000.0
G01 X65.37 Y50.11 F6000.0
G01 X65.41 Y50.41 F6000.0
G01 X65.56 Y51.39 F6000.0
G01 X65.76 Y52.68 F6000.0
G01 X65.79 Y52.87 F6000.0
G01 X65.96 Y53.85 F6000.0
G01 X66.12 Y54.84 F6000.0
G01 X66.29 Y55.82 F6000.0
G01 X66.46 Y56.81 F6000.0
G01 X66.63 Y57.8 F6000.0
G01 X66.83 Y58.97 F6000.0
G01 Y58.98 F6000.0
G01 X66.89 Y59.98 F6000.0
G01 X66.96 Y60.98 F6000.0
G01 X67.09 Y62.97 F6000.0
G01 X67.16 Y63.98 F6000.0
G01 X67.17 Y64.38 F6000.0
G01 X67.19 Y65.38 F6000.0
G01 X67.21 Y66.38 F6000.0
G01 X67.25 Y67.78 F6000.0
G01 X67.16 Y67.77 F6000.0
G01 X66.18 Y67.58 F6000.0
G01 X65.12 Y67.36 F6000.0
G01 X64.85 Y67.29 F6000.0
G01 X62.92 Y66.75 F6000.0
G01 X61.69 Y66.41 F6000.0
G01 X60.82 Y66.08 F6000.0
G01 X60.21 Y65.69 F6000.0
G01 X59.74 Y65.16 F6000.0
G01 X59.3 Y64.38 F6000.0
G01 X59.2 Y64.24 F6000.0
G01 X58.54 Y63.27 F6000.0
G01 X58.41 Y63.19 F6000.0
G01 X57.39 Y62.64 F6000.0
G01 X57.38 F6000.0
G01 X56.4 Y62.46 F6000.0
G01 X55.41 Y62.28 F6000.0
G01 X55.09 F6000.0
G01 X54.09 Y62.27 F6000.0
G01 X52.77 Y62.26 F6000.0
G01 X52.45 Y62.3 F6000.0
G01 X51.46 Y62.4 F6000.0
G01 X50.16 Y62.54 F6000.0
G01 X49.7 Y62.68 F6000.0
G01 X48.27 Y63.09 F6000.0
G01 X47.59 Y63.61 F6000.0
G01 X47.03 Y64.35 F6000.0
G01 X46.63 Y65.25 F6000.0
G01 Y65.27 F6000.0
G01 X46.43 Y66.27 F6000.0
G01 X46.28 Y67.07 F6000.0
G01 X45.85 Y67.62 F6000.0
G01 X45.33 Y68.01 F6000.0
G01 X44.78 Y68.17 F6000.0
G01 X44.31 Y68.15 F6000.0
G01 X43.95 Y67.96 F6000.0
G01 X43.91 Y67.86 F6000.0
G01 X43.41 Y66.88 F6000.0
G01 X43.35 Y66.75 F6000.0
G01 X42.93 Y65.68 F6000.0
G01 X42.9 Y65.64 F6000.0
G01 X42.25 Y64.82 F6000.0
G01 X41.52 Y64.35 F6000.0
G01 X40.96 Y64.3 F6000.0
G01 X40.8 Y64.33 F6000.0
G01 X39.65 Y64.52 F6000.0
G01 X39.61 F6000.0
G01 X38.6 Y64.77 F6000.0
G01 Y64.72 F6000.0
G01 X38.61 Y63.72 F6000.0
G01 Y62.68 F6000.0
G01 X38.63 Y62.4 F6000.0
G01 X38.71 Y61.11 F6000.0
G01 X38.73 Y61.04 F6000.0
G01 X38.91 Y59.98 F6000.0
G01 X39.27 Y59.09 F6000.0
G01 X39.82 Y58.27 F6000.0
G01 X40.06 Y58.01 F6000.0
G01 X41.0 Y57.04 F6000.0
G01 X41.48 Y56.7 F6000.0
G01 X41.78 Y56.65 F6000.0
G01 X42.07 Y56.86 F6000.0
G01 X43.17 Y57.65 F6000.0
G01 X43.38 Y57.84 F6000.0
G01 X44.35 Y58.7 F6000.0
G01 X44.59 Y59.14 F6000.0
G01 X44.69 Y59.66 F6000.0
G01 X44.72 F6000.0
G01 X44.78 Y59.27 F6000.0
G01 X44.89 Y58.77 F6000.0
G01 X45.06 Y58.59 F6000.0
G01 X45.77 Y58.51 F6000.0
G01 X45.5 Y58.43 F6000.0
G01 X45.48 Y58.41 F6000.0
G01 X44.65 Y57.84 F6000.0
G01 X43.8 Y57.26 F6000.0
G01 X43.48 Y56.95 F6000.0
G01 X42.42 Y55.95 F6000.0
G01 X42.74 Y55.63 F6000.0
G01 X43.08 Y55.34 F6000.0
G01 X43.13 Y55.22 F6000.0
G01 X43.26 Y55.28 F6000.0
G01 X43.69 Y55.86 F6000.0
G01 X43.93 Y56.22 F6000.0
G01 X44.49 Y57.04 F6000.0
G01 X45.29 Y58.22 F6000.0
G01 X44.87 Y57.36 F6000.0
G01 X44.68 Y57.0 F6000.0
G01 X44.22 Y56.11 F6000.0
G01 X43.57 Y54.85 F6000.0
G01 X43.4 Y54.44 F6000.0
G01 X43.01 Y53.52 F6000.0
G01 X42.44 Y52.19 F6000.0
G01 X42.33 Y51.79 F6000.0
G01 X42.04 Y50.83 F6000.0
G01 X41.65 Y49.47 F6000.0
G01 X41.57 Y49.05 F6000.0
G01 X41.4 Y48.07 F6000.0
G01 X41.15 Y46.67 F6000.0
G01 X41.11 Y46.17 F6000.0
G01 X41.04 Y45.17 F6000.0
G01 X40.93 Y43.68 F6000.0
G01 X40.94 Y43.55 F6000.0
G01 X40.97 Y41.55 F6000.0
G01 X40.99 Y40.41 F6000.0
G01 X41.0 Y40.3 F6000.0
G01 X41.03 Y39.18 F6000.0
G01 X40.97 Y38.93 F6000.0
G01 X40.96 Y39.03 F6000.0
G01 X40.83 Y40.03 F6000.0
G01 X40.69 Y41.12 F6000.0
G01 X40.68 Y41.49 F6000.0
G01 X40.65 Y42.49 F6000.0
G01 X40.61 Y43.87 F6000.0
G01 X40.64 Y44.25 F6000.0
G01 X40.73 Y45.24 F6000.0
G01 X40.85 Y46.62 F6000.0
G01 Y46.64 F6000.0
G01 X41.06 Y47.62 F6000.0
G01 X41.26 Y48.6 F6000.0
G01 X41.46 Y49.59 F6000.0
G01 X41.55 Y49.87 F6000.0
G01 X41.83 Y50.83 F6000.0
G01 X42.11 Y51.79 F6000.0
G01 X42.48 Y53.03 F6000.0
G01 X42.57 Y53.27 F6000.0
G01 X43.01 Y54.44 F6000.0
G01 X43.1 Y54.84 F6000.0
G01 X42.62 Y55.31 F6000.0
G01 X42.03 Y55.79 F6000.0
G01 X42.02 Y55.78 F6000.0
G01 X41.2 Y55.18 F6000.0
G01 X40.89 Y54.97 F6000.0
G01 X40.06 Y54.42 F6000.0
G01 X39.23 Y53.86 F6000.0
G01 X38.39 Y53.31 F6000.0
G01 X37.56 Y52.76 F6000.0
G01 X36.42 Y52.0 F6000.0
G01 X35.8 Y51.51 F6000.0
G01 X36.03 Y51.04 F6000.0
G01 X36.37 Y50.74 F6000.0
G01 X36.76 Y51.0 F6000.0
G01 X37.59 Y51.57 F6000.0
G01 X38.41 Y52.13 F6000.0
G01 X39.24 Y52.7 F6000.0
G01 X40.45 Y53.53 F6000.0
G01 X40.83 Y53.79 F6000.0
G01 X42.04 Y54.62 F6000.0
G01 X42.49 Y54.85 F6000.0
G01 X42.6 Y54.79 F6000.0
G01 X42.46 Y54.68 F6000.0
G01 X41.52 Y53.96 F6000.0
G01 X41.18 Y53.72 F6000.0
G01 X40.35 Y53.15 F6000.0
G01 X39.19 Y52.34 F6000.0
G01 X39.02 Y52.23 F6000.0
G01 X38.2 Y51.66 F6000.0
G01 X37.21 Y50.97 F6000.0
G01 X37.14 Y50.94 F6000.0
G01 X36.17 Y50.47 F6000.0
G01 X35.62 Y50.9 F6000.0
G01 X35.21 Y51.25 F6000.0
G01 X35.47 Y50.34 F6000.0
G01 X35.77 Y49.46 F6000.0
G01 X35.31 Y50.33 F6000.0
G01 X35.28 Y50.37 F6000.0
G01 X34.75 Y51.28 F6000.0
G01 X34.72 Y51.31 F6000.0
G01 X34.05 Y52.12 F6000.0
G01 X33.34 Y52.75 F6000.0
G01 X32.72 Y53.06 F6000.0
G01 X31.86 Y53.04 F6000.0
G01 X31.13 Y52.57 F6000.0
G01 X30.88 Y52.31 F6000.0
G01 X30.87 Y52.25 F6000.0
G01 X31.33 Y52.12 F6000.0
G01 X31.99 Y51.51 F6000.0
G01 X32.05 Y51.44 F6000.0
G01 X32.73 Y50.57 F6000.0
G01 X32.8 Y50.45 F6000.0
G01 X33.39 Y49.46 F6000.0
G01 X33.53 Y49.09 F6000.0
G01 X34.04 Y47.78 F6000.0
G01 X34.07 Y47.46 F6000.0
G01 X34.19 Y46.16 F6000.0
G01 F6000.0
G01 X34.14 Y45.16 F6000.0
G01 X34.52 Y45.23 F6000.0
G01 X35.24 Y45.58 F6000.0
G01 X35.82 Y46.21 F6000.0
G01 X36.11 Y46.97 F6000.0
G01 X36.12 Y47.92 F6000.0
G01 X36.1 Y48.02 F6000.0
G01 X35.86 Y49.09 F6000.0
G01 X35.91 Y49.08 F6000.0
G01 X36.12 Y48.69 F6000.0
G01 X36.13 Y48.67 F6000.0
G01 X36.43 Y47.69 F6000.0
G01 X36.37 Y46.69 F6000.0
G01 X35.97 Y45.81 F6000.0
G01 Y45.8 F6000.0
G01 X35.24 Y45.11 F6000.0
G01 X34.51 Y44.97 F6000.0
G01 X34.16 Y44.95 F6000.0
G01 X33.85 Y44.53 F6000.0
G01 X33.21 Y43.88 F6000.0
G01 X32.45 Y43.59 F6000.0
G01 X31.79 Y43.91 F6000.0
G01 X31.31 Y44.23 F6000.0
G01 X31.16 Y43.75 F6000.0
G01 X31.14 Y43.72 F6000.0
G01 X30.71 Y42.78 F6000.0
G01 X30.28 Y42.45 F6000.0
G01 X30.17 Y42.39 F6000.0
G01 X30.13 Y42.22 F6000.0
G01 X29.84 Y42.1 F6000.0
G01 X28.92 Y42.12 F6000.0
G01 X28.35 Y42.2 F6000.0
G01 X27.93 Y41.8 F6000.0
G01 X27.9 Y41.77 F6000.0
G01 X27.13 Y41.07 F6000.0
G01 X26.63 Y40.87 F6000.0
G01 X26.02 Y40.81 F6000.0
G01 X25.89 Y40.84 F6000.0
G01 X24.78 Y41.09 F6000.0
G01 X24.75 Y41.11 F6000.0
G01 X23.9 Y41.7 F6000.0
G01 X23.79 Y41.82 F6000.0
G01 X22.96 Y42.63 F6000.0
G01 X22.83 Y42.79 F6000.0
G01 X22.08 Y43.73 F6000.0
G01 X21.99 Y43.88 F6000.0
G01 X21.39 Y44.87 F6000.0
G01 X21.15 Y45.47 F6000.0
G01 X21.19 Y45.41 F6000.0
G01 X21.84 Y44.56 F6000.0
G01 X22.06 Y44.29 F6000.0
G01 X22.89 Y43.23 F6000.0
G01 X23.06 Y43.06 F6000.0
G01 X23.92 Y42.19 F6000.0
G01 X24.0 Y42.13 F6000.0
G01 X24.88 Y41.48 F6000.0
G01 X25.74 Y41.14 F6000.0
G01 X26.26 F6000.0
G01 X26.8 Y41.3 F6000.0
G01 X26.89 Y41.36 F6000.0
G01 X27.78 Y42.03 F6000.0
G01 X28.25 Y42.47 F6000.0
G01 X28.8 Y42.52 F6000.0
G01 X28.81 F6000.0
G01 X29.82 Y42.56 F6000.0
G01 X30.46 Y42.97 F6000.0
G01 X30.93 Y43.41 F6000.0
G01 X30.94 Y43.7 F6000.0
G01 X30.95 Y44.99 F6000.0
G01 X30.93 Y45.34 F6000.0
G01 X30.86 Y46.69 F6000.0
G01 X30.8 Y46.93 F6000.0
G01 X30.53 Y48.13 F6000.0
G01 X30.44 Y48.31 F6000.0
G01 X29.92 Y49.39 F6000.0
G01 X29.78 Y49.57 F6000.0
G01 X29.02 Y50.54 F6000.0
G01 X28.92 Y50.64 F6000.0
G01 X28.06 Y51.39 F6000.0
G01 X27.15 Y51.75 F6000.0
G01 X26.16 Y51.64 F6000.0
G01 X26.02 Y51.58 F6000.0
G01 X24.98 Y51.08 F6000.0
G01 X24.95 Y51.06 F6000.0
G01 X24.03 Y50.59 F6000.0
G01 X23.31 Y50.47 F6000.0
G01 X23.26 Y50.46 F6000.0
G01 X22.22 Y50.24 F6000.0
G01 X22.2 Y50.22 F6000.0
G01 X21.43 Y49.53 F6000.0
G01 X21.4 Y49.48 F6000.0
G01 X20.93 Y48.53 F6000.0
G01 X20.88 Y48.36 F6000.0
G01 X20.57 Y47.22 F6000.0
G01 X20.53 Y46.96 F6000.0
G01 X20.36 Y45.71 F6000.0
G01 Y45.44 F6000.0
G01 X20.34 Y44.16 F6000.0
G01 Y44.11 F6000.0
G01 X20.4 Y43.06 F6000.0
G01 X19.72 F6000.0
G01 X19.66 Y43.05 F6000.0
G01 X18.6 Y42.93 F6000.0
G01 X17.72 Y42.5 F6000.0
G01 X17.27 Y42.01 F6000.0
G01 X17.32 Y41.91 F6000.0
G01 X17.5 Y42.04 F6000.0
G01 X18.17 Y42.4 F6000.0
G01 X19.05 Y42.62 F6000.0
G01 X19.85 Y42.65 F6000.0
G01 X20.27 Y42.45 F6000.0
G01 X20.44 Y42.39 F6000.0
G01 X20.89 Y42.77 F6000.0
G01 X20.94 Y42.81 F6000.0
G01 X21.77 Y43.46 F6000.0
G01 X21.96 Y43.51 F6000.0
G01 X21.63 Y43.11 F6000.0
G01 X21.44 Y42.87 F6000.0
G01 X20.65 Y41.84 F6000.0
G01 X20.47 Y41.52 F6000.0
G01 X19.8 Y40.33 F6000.0
G01 X19.61 Y39.88 F6000.0
G01 X19.04 Y38.49 F6000.0
G01 X18.98 Y38.31 F6000.0
G01 X18.68 Y37.36 F6000.0
G01 X18.33 Y36.23 F6000.0
G01 X18.26 Y35.92 F6000.0
G01 X18.05 Y34.94 F6000.0
G01 X17.85 Y33.96 F6000.0
G01 X17.58 Y32.66 F6000.0
G01 X17.57 Y32.62 F6000.0
G01 X17.27 Y28.63 F6000.0
G01 X17.19 Y27.59 F6000.0
G01 X17.17 Y27.26 F6000.0
G01 X17.1 Y26.26 F6000.0
G01 X17.03 Y25.26 F6000.0
G01 X16.96 Y24.26 F6000.0
G01 X16.87 Y22.93 F6000.0
G01 X16.85 Y22.81 F6000.0
G01 X16.66 Y21.71 F6000.0
G01 X16.41 Y21.01 F6000.0
G01 X16.24 Y20.73 F6000.0
G01 X16.27 Y20.96 F6000.0
G01 X16.3 Y21.15 F6000.0
G01 X16.45 Y22.14 F6000.0
G01 X16.64 Y23.31 F6000.0
G01 X16.65 Y23.52 F6000.0
G01 X16.72 Y24.51 F6000.0
G01 X16.79 Y25.51 F6000.0
G01 X16.87 Y26.71 F6000.0
G01 X16.89 Y27.09 F6000.0
G01 X16.98 Y29.09 F6000.0
G01 X17.04 Y30.46 F6000.0
G01 X17.07 Y31.03 F6000.0
G01 X17.01 Y31.05 F6000.0
G01 X16.05 Y31.33 F6000.0
G01 X15.03 Y31.62 F6000.0
G01 X15.02 F6000.0
G01 X14.08 Y31.95 F6000.0
G01 X13.13 Y32.28 F6000.0
G01 X12.19 Y32.61 F6000.0
G01 X12.18 Y32.62 F6000.0
G01 X11.28 Y33.08 F6000.0
G01 X10.73 Y33.54 F6000.0
G01 X10.39 Y34.26 F6000.0
G01 X10.41 Y34.5 F6000.0
G01 X10.58 Y34.54 F6000.0
G01 X10.69 Y34.6 F6000.0
G01 X10.75 Y34.99 F6000.0
G01 X10.76 Y35.2 F6000.0
G01 X10.78 Y36.2 F6000.0
G01 X10.8 Y37.41 F6000.0
G01 Y37.58 F6000.0
G01 X10.84 Y39.58 F6000.0
G01 X10.85 Y40.58 F6000.0
G01 X10.87 Y41.75 F6000.0
G01 X10.99 Y42.5 F6000.0
G01 X11.21 Y42.99 F6000.0
G01 X11.69 Y43.74 F6000.0
G01 X12.33 Y44.41 F6000.0
G01 X12.34 F6000.0
G01 X13.18 Y44.96 F6000.0
G01 X14.03 Y45.5 F6000.0
G01 X14.18 Y45.56 F6000.0
G01 X15.12 Y45.88 F6000.0
G01 X16.22 Y46.25 F6000.0
G01 X16.52 Y46.29 F6000.0
G01 X17.51 Y46.42 F6000.0
G01 X18.81 Y46.6 F6000.0
G01 X19.04 Y46.61 F6000.0
G01 X20.28 Y46.67 F6000.0
G01 X20.36 Y47.23 F6000.0
G01 X20.41 Y47.42 F6000.0
G01 X20.74 Y48.58 F6000.0
G01 X20.83 Y48.75 F6000.0
G01 X21.38 Y49.81 F6000.0
G01 X21.79 Y50.25 F6000.0
G01 X22.25 Y50.55 F6000.0
G01 X22.78 Y50.69 F6000.0
G01 X23.36 Y50.68 F6000.0
G01 X23.88 Y50.66 F6000.0
G01 X24.14 Y50.8 F6000.0
G01 X24.25 Y50.86 F6000.0
G01 X25.18 Y51.48 F6000.0
G01 X26.03 Y51.88 F6000.0
G01 X26.81 Y51.98 F6000.0
G01 X27.56 Y51.9 F6000.0
G01 X28.31 Y51.47 F6000.0
G01 X28.59 Y51.23 F6000.0
G01 X29.61 Y50.33 F6000.0
G01 X29.8 Y50.05 F6000.0
G01 X30.55 Y48.94 F6000.0
G01 X30.67 Y48.6 F6000.0
G01 X31.14 Y47.31 F6000.0
G01 X31.18 Y46.89 F6000.0
G01 X31.35 Y45.48 F6000.0
G01 Y45.43 F6000.0
G01 X31.36 Y44.39 F6000.0
G01 X31.94 Y44.19 F6000.0
G01 X32.5 Y44.06 F6000.0
G01 X32.96 Y44.2 F6000.0
G01 X33.47 Y44.63 F6000.0
G01 X33.78 Y45.32 F6000.0
G01 X33.88 Y46.22 F6000.0
G01 X33.87 Y46.26 F6000.0
G01 X33.76 Y47.29 F6000.0
G01 X33.74 Y47.35 F6000.0
G01 X33.44 Y48.37 F6000.0
G01 X33.4 Y48.45 F6000.0
G01 X32.96 Y49.45 F6000.0
G01 X32.91 Y49.53 F6000.0
G01 X32.36 Y50.46 F6000.0
G01 X32.34 Y50.48 F6000.0
G01 X31.69 Y51.27 F6000.0
G01 X31.05 Y51.86 F6000.0
G01 X30.45 Y52.17 F6000.0
G01 X29.81 Y52.26 F6000.0
G01 X29.02 Y52.14 F6000.0
G01 X28.14 Y51.99 F6000.0
G01 X28.45 Y52.27 F6000.0
G01 X29.35 Y52.59 F6000.0
G01 X30.34 Y52.58 F6000.0
G01 X30.79 Y52.56 F6000.0
G01 X31.16 Y52.85 F6000.0
G01 X31.93 Y53.29 F6000.0
G01 X32.89 Y53.31 F6000.0
G01 X32.92 Y53.29 F6000.0
G01 X33.81 Y52.76 F6000.0
G01 X33.93 Y52.63 F6000.0
G01 X34.7 Y51.75 F6000.0
G01 X35.02 Y51.24 F6000.0
G01 X35.44 Y51.58 F6000.0
G01 X35.71 Y51.76 F6000.0
G01 X36.55 Y52.31 F6000.0
G01 X37.65 Y53.05 F6000.0
G01 X37.95 Y53.25 F6000.0
G01 X38.79 Y53.8 F6000.0
G01 X39.62 Y54.35 F6000.0
G01 X40.76 Y55.1 F6000.0
G01 X40.88 Y55.19 F6000.0
