
;Inkscape Lasertools G-code
;https://github.com/ChrisWag91/Inkscape-Lasertools-Plugin

G90	;Absolute programming
G21	;Programming in millimeters (mm)
M5
M03 S1 ;Activate laser and set power to 0 (CUSTOM)

; START perimeter strategy
G01 F6000.0
M5
G00 X39.06 Y15.24 F6000.0
M3 F6000.0
G01 Y15.35 F6000.0
G01 Y36.35 F6000.0
G01 Y37.46 F6000.0
G01 X39.29 Y37.75 F6000.0
G01 X39.92 Y38.53 F6000.0
G01 X40.54 Y39.31 F6000.0
G01 X41.79 Y40.87 F6000.0
G01 X42.41 Y41.65 F6000.0
G01 X43.04 Y42.43 F6000.0
G01 X44.91 Y44.77 F6000.0
G01 X45.54 Y45.55 F6000.0
G01 X46.16 Y46.33 F6000.0
G01 X47.41 Y47.89 F6000.0
G01 X48.04 Y48.67 F6000.0
G01 X48.89 Y49.74 F6000.0
G01 X49.07 Y49.82 F6000.0
G01 X49.98 Y50.22 F6000.0
G01 X50.9 Y50.62 F6000.0
G01 X51.82 Y51.02 F6000.0
G01 X52.73 Y51.42 F6000.0
G01 X53.65 Y51.83 F6000.0
G01 X54.56 Y52.23 F6000.0
G01 X55.48 Y52.63 F6000.0
G01 X56.4 Y53.03 F6000.0
G01 X57.31 Y53.43 F6000.0
G01 X58.41 Y53.91 F6000.0
G01 X58.83 Y53.88 F6000.0
G01 X59.83 Y53.8 F6000.0
G01 X62.82 Y53.56 F6000.0
G01 X64.25 Y53.45 F6000.0
G01 X64.41 Y53.36 F6000.0
G01 X65.3 Y52.91 F6000.0
G01 X66.19 Y52.45 F6000.0
G01 X67.25 Y51.91 F6000.0
G01 X67.35 Y51.67 F6000.0
G01 X67.74 Y50.75 F6000.0
G01 X68.23 Y49.58 F6000.0
G01 X68.16 Y49.22 F6000.0
G01 X67.87 Y47.89 F6000.0
G01 X67.68 Y47.73 F6000.0
G01 X66.72 Y46.93 F6000.0
G01 X66.64 Y46.91 F6000.0
G01 X65.59 Y46.67 F6000.0
G01 X64.73 Y47.02 F6000.0
G01 X64.36 Y47.47 F6000.0
M5
G00 X64.73 Y47.02 F6000.0
M3 F6000.0
G01 X64.19 Y46.96 F6000.0
M5
G00 X64.23 Y45.9 F6000.0
M3 F6000.0
G01 X63.78 Y45.41 F6000.0
G01 X63.24 Y45.22 F6000.0
M5
G00 X64.99 Y46.03 F6000.0
M3 F6000.0
G01 X64.81 Y45.36 F6000.0
M5
G00 X66.04 Y44.91 F6000.0
M3 F6000.0
G01 X66.33 Y44.11 F6000.0
G01 X66.72 Y43.73 F6000.0
M5
G00 X66.15 Y45.88 F6000.0
M3 F6000.0
G01 X66.04 Y44.91 F6000.0
G01 X65.61 Y44.34 F6000.0
M5
G00 X65.59 Y46.67 F6000.0
M3 F6000.0
G01 X64.99 Y46.03 F6000.0
G01 X64.23 Y45.9 F6000.0
G01 X63.66 Y46.18 F6000.0
G01 X63.3 Y46.62 F6000.0
M5
G00 X66.72 Y46.93 F6000.0
M3 F6000.0
G01 X66.68 Y46.84 F6000.0
G01 X66.15 Y45.88 F6000.0
G01 X65.6 Y45.44 F6000.0
G01 X65.05 Y45.38 F6000.0
M5
G00 X67.8 Y46. F6000.0
M3 F6000.0
G01 X67.86 Y45.38 F6000.0
M5
G00 X68.13 Y46.69 F6000.0
M3 F6000.0
G01 X68.69 Y46.22 F6000.0
M5
G00 X69.5 Y47.72 F6000.0
M3 F6000.0
G01 X69.92 Y47.38 F6000.0
M5
G00 X70.24 Y48.34 F6000.0
M3 F6000.0
G01 X71.08 Y48.64 F6000.0
G01 X71.49 Y49.23 F6000.0
G01 X72.09 Y49.42 F6000.0
M5
G00 X71.2 Y51.06 F6000.0
M3 F6000.0
G01 X71.72 Y50.94 F6000.0
M5
G00 X71.63 Y52.07 F6000.0
M3 F6000.0
G01 X72.02 Y52.65 F6000.0
G01 X72.53 Y52.9 F6000.0
M5
G00 X71.73 Y52.66 F6000.0
M3 F6000.0
G01 X72.37 Y52.88 F6000.0
G01 X72.68 Y53.31 F6000.0
M5
G00 X71.95 Y54.35 F6000.0
M3 F6000.0
G01 X72.57 Y54.47 F6000.0
M5
G00 X71.65 Y55.3 F6000.0
M3 F6000.0
G01 X71.97 Y55.94 F6000.0
G01 X71.86 Y56.52 F6000.0
G01 X71.53 Y56.93 F6000.0
M5
G00 X69.87 Y58.07 F6000.0
M3 F6000.0
G01 X69.75 Y58.58 F6000.0
M5
G00 X69.27 Y58.83 F6000.0
M3 F6000.0
G01 X69.98 Y58.74 F6000.0
G01 X70.44 Y59.02 F6000.0
M5
G00 X69.57 Y59.67 F6000.0
M3 F6000.0
G01 X70.1 Y60.28 F6000.0
G01 X70.7 Y60.59 F6000.0
M5
G00 X70.57 Y61.69 F6000.0
M3 F6000.0
G01 X70.83 Y61.96 F6000.0
G01 X71.51 Y62.69 F6000.0
G01 X72.19 Y63.43 F6000.0
G01 X72.87 Y64.16 F6000.0
G01 X73.81 Y65.16 F6000.0
G01 X73.94 Y65.18 F6000.0
G01 X74.92 Y65.34 F6000.0
G01 X75.91 Y65.5 F6000.0
G01 X76.9 Y65.66 F6000.0
G01 X78.02 Y65.84 F6000.0
G01 X78.23 Y65.73 F6000.0
G01 X80.0 Y64.8 F6000.0
G01 X81.1 Y64.23 F6000.0
G01 X81.11 Y64.21 F6000.0
G01 X81.62 Y63.35 F6000.0
G01 X82.14 Y62.49 F6000.0
G01 X82.66 Y61.62 F6000.0
G01 X82.72 Y61.15 F6000.0
G01 X82.93 Y59.7 F6000.0
G01 X82.79 Y59.45 F6000.0
G01 X82.17 Y58.33 F6000.0
G01 X81.46 Y57.86 F6000.0
G01 X80.74 Y57.84 F6000.0
M5
G00 X81.46 Y57.86 F6000.0
M3 F6000.0
G01 X81.04 Y57.23 F6000.0
G01 X80.41 Y57.03 F6000.0
G01 X79.85 Y57.2 F6000.0
M5
G00 X80.41 Y57.03 F6000.0
M3 F6000.0
G01 X79.98 Y56.66 F6000.0
M5
G00 X80.2 Y54.65 F6000.0
M3 F6000.0
G01 X80.63 Y54.57 F6000.0
G01 X81.61 Y54.4 F6000.0
G01 X83.03 Y54.15 F6000.0
G01 X83.33 Y53.88 F6000.0
G01 X84.36 Y52.92 F6000.0
G01 X84.47 Y52.72 F6000.0
G01 X85.03 Y51.62 F6000.0
G01 X85.02 Y51.55 F6000.0
G01 X84.83 Y50.49 F6000.0
G01 F6000.0
G01 X84.2 Y49.7 F6000.0
G01 X83.69 Y49.5 F6000.0
M5
G00 X84.2 Y49.7 F6000.0
M3 F6000.0
G01 X84.02 Y48.85 F6000.0
G01 X83.46 Y48.3 F6000.0
M5
G00 X84.87 Y48.79 F6000.0
M3 F6000.0
G01 X85.05 Y48.21 F6000.0
M5
G00 X85.05 Y49.5 F6000.0
M3 F6000.0
G01 X85.55 Y49.06 F6000.0
M5
G00 X86.24 Y50.15 F6000.0
M3 F6000.0
G01 X86.71 Y49.78 F6000.0
M5
G00 X87. Y50.61 F6000.0
M3 F6000.0
G01 X87.52 Y50.87 F6000.0
M5
G00 X87.42 Y50.99 F6000.0
M3 F6000.0
G01 F6000.0
G01 X88.23 Y50.41 F6000.0
G01 X88.93 Y50.4 F6000.0
G01 X89.35 Y50.05 F6000.0
M5
G00 X88.93 Y50.4 F6000.0
M3 F6000.0
G01 X89.44 Y50.64 F6000.0
M5
G00 X88.89 Y51.67 F6000.0
M3 F6000.0
G01 X89.58 Y51.65 F6000.0
M5
G00 X88.2 Y52.24 F6000.0
M3 F6000.0
G01 X88.89 Y51.67 F6000.0
G01 X89.18 Y51.05 F6000.0
G01 X89.65 Y50.74 F6000.0
M5
G00 X88.7 Y52.95 F6000.0
M3 F6000.0
G01 X89.36 Y53.12 F6000.0
G01 X89.89 Y52.92 F6000.0
M5
G00 X88.89 Y54.39 F6000.0
M3 F6000.0
G01 X89.47 Y54.56 F6000.0
M5
G00 X88.86 Y55.13 F6000.0
M3 F6000.0
G01 X88.98 Y55.65 F6000.0
M5
G00 X88.56 Y55.04 F6000.0
M3 F6000.0
G01 X89.02 Y55.59 F6000.0
M5
G00 X88.17 Y54.57 F6000.0
M3 F6000.0
G01 X88.86 Y55.13 F6000.0
G01 X89.42 Y55.28 F6000.0
M5
G00 X87.56 Y55.52 F6000.0
M3 F6000.0
G01 X87.04 Y56.17 F6000.0
G01 X86.96 Y56.73 F6000.0
M5
G00 X86.51 Y57.31 F6000.0
M3 F6000.0
G01 X86.31 Y58.1 F6000.0
M5
G00 X87.02 Y58.15 F6000.0
M3 F6000.0
G01 X87.08 Y58.91 F6000.0
G01 X86.73 Y59.5 F6000.0
M5
G00 X86.72 Y59.61 F6000.0
M3 F6000.0
G01 X86.81 Y59.62 F6000.0
G01 X87.87 Y59.84 F6000.0
G01 X88.55 Y59.5 F6000.0
M5
G00 X88.85 Y60.03 F6000.0
M3 F6000.0
G01 X89.38 Y60.31 F6000.0
M5
G00 X88.61 Y60.55 F6000.0
M3 F6000.0
G01 X88.96 Y61.38 F6000.0
G01 X89.42 Y61.69 F6000.0
M5
G00 X88.96 Y61.38 F6000.0
M3 F6000.0
G01 X88.95 Y62.17 F6000.0
G01 X89.16 Y62.76 F6000.0
M5
G00 X88.95 Y62.17 F6000.0
M3 F6000.0
G01 X88.56 Y62.68 F6000.0
G01 X88.55 Y63.22 F6000.0
M5
G00 X86.75 Y63.03 F6000.0
M3 F6000.0
G01 X87.26 Y63.55 F6000.0
G01 X87.85 Y63.74 F6000.0
G01 X88.39 Y63.65 F6000.0
M5
G00 X87.31 Y64.59 F6000.0
M3 F6000.0
G01 X87.94 Y64.85 F6000.0
M5
G00 X87.06 Y65.45 F6000.0
M3 F6000.0
G01 X87.25 Y66.18 F6000.0
G01 X87.7 Y66.61 F6000.0
M5
G00 X87.86 Y66.84 F6000.0
M3 F6000.0
G01 X88.19 Y67.33 F6000.0
M5
G00 X86.39 Y66.33 F6000.0
M3 F6000.0
G01 X86.7 Y67.05 F6000.0
M5
G00 X85.66 Y65.57 F6000.0
M3 F6000.0
G01 X85.24 Y66.31 F6000.0
G01 X84.67 Y66.56 F6000.0
M5
G00 X84.46 Y66.13 F6000.0
M3 F6000.0
G01 X84.78 Y66.63 F6000.0
M5
G00 X84.71 Y66.03 F6000.0
M3 F6000.0
G01 X84.52 Y66.88 F6000.0
G01 X84.72 Y67.49 F6000.0
G01 X85.09 Y67.88 F6000.0
M5
G00 X84.05 Y68.29 F6000.0
M3 F6000.0
G01 X84.54 Y68.77 F6000.0
G01 X84.66 Y69.36 F6000.0
M5
G00 X84.3 Y69.31 F6000.0
M3 F6000.0
G01 X84.76 Y69.0 F6000.0
M5
G00 X83.73 Y69.87 F6000.0
M3 F6000.0
G01 X83.76 Y70.68 F6000.0
G01 X84.01 Y71.18 F6000.0
M5
G00 X83.76 Y70.68 F6000.0
M3 F6000.0
G01 X83.48 Y71.18 F6000.0
M5
G00 X82.89 Y70.51 F6000.0
M3 F6000.0
G01 X82.9 Y70.5 F6000.0
G01 X83.82 Y70.07 F6000.0
G01 X84.3 Y69.31 F6000.0
G01 X84.4 Y68.67 F6000.0
M5
G00 X83.33 Y68.17 F6000.0
M3 F6000.0
G01 X83.66 Y68.79 F6000.0
M5
G00 X83.22 Y69.02 F6000.0
M3 F6000.0
G01 X83.73 Y69.87 F6000.0
G01 X84.26 Y70.26 F6000.0
M5
G00 X83.82 Y70.07 F6000.0
M3 F6000.0
G01 X84.74 F6000.0
G01 X85.3 Y70.34 F6000.0
M5
G00 X86.34 Y71.94 F6000.0
M3 F6000.0
G01 X86.96 Y71.69 F6000.0
M5
G00 X86.26 Y72.81 F6000.0
M3 F6000.0
G01 X86.68 Y73.13 F6000.0
M5
G00 X86.04 Y73.45 F6000.0
M3 F6000.0
G01 X86.61 Y73.6 F6000.0
M5
G00 X87.56 Y74.39 F6000.0
M3 F6000.0
G01 X88.27 Y74.2 F6000.0
M5
G00 X86.96 Y75.06 F6000.0
M3 F6000.0
G01 X87.67 Y75.25 F6000.0
G01 X88.01 Y75.7 F6000.0
M5
G00 X87.66 Y76.16 F6000.0
M3 F6000.0
G01 X88.41 Y76.0 F6000.0
G01 X88.91 Y75.64 F6000.0
M5
G00 X87.83 Y76.89 F6000.0
M3 F6000.0
G01 X88.4 Y76.68 F6000.0
M5
G00 X88.17 Y77.7 F6000.0
M3 F6000.0
G01 X88.82 Y77.98 F6000.0
G01 X89.38 Y77.81 F6000.0
M5
G00 X87.31 Y77.66 F6000.0
M3 F6000.0
G01 X88.17 Y77.7 F6000.0
G01 X88.73 Y77.45 F6000.0
M5
G00 X86.78 Y76.79 F6000.0
M3 F6000.0
G01 X86.82 Y76.77 F6000.0
G01 X87.66 Y76.16 F6000.0
G01 X87.96 Y75.7 F6000.0
M5
G00 X86.47 Y75.53 F6000.0
M3 F6000.0
G01 X86.56 Y76.25 F6000.0
M5
G00 X85.98 Y75.39 F6000.0
M3 F6000.0
G01 X86.53 Y75.91 F6000.0
M5
G00 X85.21 Y76.02 F6000.0
M3 F6000.0
G01 Y76.62 F6000.0
G01 X84.95 Y77.09 F6000.0
M5
G00 X84.59 Y77.38 F6000.0
M3 F6000.0
G01 X83.92 Y77.95 F6000.0
G01 X83.36 Y78.05 F6000.0
M5
G00 X83.64 Y78.42 F6000.0
M3 F6000.0
G01 X84.28 Y78.73 F6000.0
G01 X84.81 Y78.75 F6000.0
M5
G00 X85.05 Y78.99 F6000.0
M3 F6000.0
G01 X85.27 Y78.81 F6000.0
G01 X86.26 Y78.01 F6000.0
G01 X86.33 Y77.86 F6000.0
G01 X86.78 Y76.79 F6000.0
G01 X86.71 Y76.09 F6000.0
G01 X86.35 Y75.64 F6000.0
M5
G00 X85.9 Y74.72 F6000.0
M3 F6000.0
G01 X86.47 Y75.53 F6000.0
G01 X86.98 Y75.78 F6000.0
M5
G00 X85.54 Y74.7 F6000.0
M3 F6000.0
G01 X86.24 Y74.99 F6000.0
G01 X86.87 Y74.82 F6000.0
G01 X87.37 Y74.99 F6000.0
M5
G00 X85.05 Y75.57 F6000.0
M3 F6000.0
G01 X85.55 Y75.98 F6000.0
M5
G00 X84.86 Y76.35 F6000.0
M3 F6000.0
G01 X84.85 Y76.38 F6000.0
G01 X84.59 Y77.38 F6000.0
G01 X84.91 Y78.16 F6000.0
G01 X85.48 Y78.58 F6000.0
M5
G00 X84.89 Y77.86 F6000.0
M3 F6000.0
G01 X85.25 Y77.21 F6000.0
M5
G00 X84.36 Y77.21 F6000.0
M3 F6000.0
G01 X84.27 Y76.58 F6000.0
G01 X84.52 Y76.09 F6000.0
M5
G00 X84.2 Y75.95 F6000.0
M3 F6000.0
G01 X83.55 Y76.22 F6000.0
G01 X82.93 Y76.13 F6000.0
M5
G00 X83.1 Y75.74 F6000.0
M3 F6000.0
G01 X83.23 Y75.87 F6000.0
G01 X84.11 Y76.67 F6000.0
G01 X85.02 Y76.72 F6000.0
G01 X85.59 Y77.15 F6000.0
G01 X86.21 Y77.13 F6000.0
M5
G00 X86.26 Y78.01 F6000.0
M3 F6000.0
G01 X86.31 Y77.99 F6000.0
G01 X87.31 Y77.66 F6000.0
G01 X87.83 Y76.89 F6000.0
G01 X87.77 Y76.12 F6000.0
G01 X87.38 Y75.55 F6000.0
G01 X86.84 Y75.37 F6000.0
M5
G00 X84.83 Y75.26 F6000.0
M3 F6000.0
G01 X84.2 Y75.95 F6000.0
G01 X84.09 Y76.76 F6000.0
G01 X84.39 Y77.42 F6000.0
G01 X84.88 Y77.84 F6000.0
M5
G00 X84.25 Y77.56 F6000.0
M3 F6000.0
G01 X84.58 Y78.12 F6000.0
M5
G00 X84.09 Y76.76 F6000.0
M3 F6000.0
G01 X83.63 Y77.25 F6000.0
M5
G00 X83.52 Y77. F6000.0
M3 F6000.0
G01 X84.25 Y77.56 F6000.0
G01 X85.01 Y77.65 F6000.0
G01 X85.51 Y77.96 F6000.0
M5
G00 X84.45 Y76.46 F6000.0
M3 F6000.0
G01 X85.14 Y76.41 F6000.0
M5
G00 X84.1 Y76.54 F6000.0
M3 F6000.0
G01 X84.13 Y77.22 F6000.0
M5
G00 X84.11 Y76.67 F6000.0
M3 F6000.0
G01 X84.35 Y77.4 F6000.0
M5
G00 X84.03 Y76.66 F6000.0
M3 F6000.0
G01 X84.05 Y77.58 F6000.0
G01 X84.27 Y78.08 F6000.0
M5
G00 X83.49 Y79.21 F6000.0
M3 F6000.0
G01 X83.72 Y79.94 F6000.0
G01 X84.08 Y80.37 F6000.0
M5
G00 X84.11 Y80.58 F6000.0
M3 F6000.0
G01 X84.14 Y80.59 F6000.0
G01 X85.12 Y80.79 F6000.0
G01 X86.12 Y80.99 F6000.0
G01 X86.2 Y80.95 F6000.0
G01 X87.15 Y80.44 F6000.0
G01 X87.56 Y79.88 F6000.0
G01 X88.04 Y79.57 F6000.0
M5
G00 X87.15 Y80.44 F6000.0
M3 F6000.0
G01 X88.05 Y80.31 F6000.0
G01 X88.62 Y79.81 F6000.0
G01 X89.14 Y79.72 F6000.0
M5
G00 X86.94 Y81.74 F6000.0
M3 F6000.0
G01 X87.06 Y82.34 F6000.0
M5
G00 X85.81 Y82.85 F6000.0
M3 F6000.0
G01 X86.68 Y83.06 F6000.0
G01 X87.25 Y82.78 F6000.0
M5
G00 X85.5 Y83.83 F6000.0
M3 F6000.0
G01 X85.81 Y84.52 F6000.0
M5
G00 X84.71 Y83.22 F6000.0
M3 F6000.0
G01 X85.5 Y83.83 F6000.0
G01 X86.18 Y83.91 F6000.0
G01 X86.6 Y84.3 F6000.0
M5
G00 X83.5 Y83.66 F6000.0
M3 F6000.0
G01 X83.37 Y84.44 F6000.0
G01 X83.69 Y85.06 F6000.0
M5
G00 X83.17 Y82.78 F6000.0
M3 F6000.0
G01 X83.5 Y83.66 F6000.0
G01 X83.93 Y84.0 F6000.0
M5
G00 X80.66 Y83.93 F6000.0
M3 F6000.0
G01 X80.67 Y84.52 F6000.0
M5
G00 X80.3 Y83.21 F6000.0
M3 F6000.0
G01 X80.66 Y83.93 F6000.0
G01 X81.16 Y84.25 F6000.0
G01 X81.47 Y84.68 F6000.0
M5
G00 X78.98 Y83.6 F6000.0
M3 F6000.0
G01 X78.93 Y83.66 F6000.0
G01 X78.23 Y84.47 F6000.0
G01 X78.01 Y85.28 F6000.0
M5
G00 X78.23 Y84.47 F6000.0
M3 F6000.0
G01 X77.45 Y84.64 F6000.0
M5
G00 X77.06 Y83.17 F6000.0
M3 F6000.0
G01 X76.89 Y83.84 F6000.0
M5
G00 X76.89 Y82.36 F6000.0
M3 F6000.0
G01 X77.06 Y83.17 F6000.0
G01 X77.5 Y83.73 F6000.0
M5
G00 X79.4 Y82.37 F6000.0
M3 F6000.0
G01 X79.35 Y82.51 F6000.0
G01 X78.98 Y83.6 F6000.0
G01 X79.15 Y84.5 F6000.0
G01 X78.97 Y85.0 F6000.0
M5
G00 X75.89 Y86.72 F6000.0
M3 F6000.0
G01 X75.97 Y87.35 F6000.0
M5
G00 X75.38 Y86.18 F6000.0
M3 F6000.0
G01 X75.89 Y86.72 F6000.0
G01 X76.47 Y86.85 F6000.0
M5
G00 X74.98 Y85.58 F6000.0
M3 F6000.0
G01 X74.75 Y86.25 F6000.0
M5
G00 X74.28 Y86.06 F6000.0
M3 F6000.0
G01 X74.61 Y86.92 F6000.0
M5
G00 X73.55 Y87.73 F6000.0
M3 F6000.0
G01 X73.47 Y88.38 F6000.0
G01 X73.63 Y88.91 F6000.0
M5
G00 X72.49 Y88.74 F6000.0
M3 F6000.0
G01 X73.08 Y89.16 F6000.0
M5
G00 X72.45 Y87.82 F6000.0
M3 F6000.0
G01 X71.86 Y88.12 F6000.0
G01 X71.55 Y88.61 F6000.0
M5
G00 X71.6 Y88.5 F6000.0
M3 F6000.0
G01 X71.85 Y89.13 F6000.0
G01 X72.32 Y89.43 F6000.0
M5
G00 X71.01 Y89.16 F6000.0
M3 F6000.0
G01 X71.29 Y89.73 F6000.0
G01 X71.27 Y90.28 F6000.0
M5
G00 X70.72 Y91.24 F6000.0
M3 F6000.0
G01 X71.18 Y91.6 F6000.0
M5
G00 X71.49 Y92.22 F6000.0
M3 F6000.0
G01 X72.05 Y92.38 F6000.0
M5
G00 X70.83 Y92.48 F6000.0
M3 F6000.0
G01 X71.19 Y92.88 F6000.0
M5
G00 X70.25 Y92.99 F6000.0
M3 F6000.0
G01 X70.16 Y93.57 F6000.0
M5
G00 X69.89 Y93.47 F6000.0
M3 F6000.0
G01 X70.37 Y93.8 F6000.0
M5
G00 X68.95 Y93.6 F6000.0
M3 F6000.0
G01 X69.28 Y94.13 F6000.0
G01 X69.8 Y94.3 F6000.0
M5
G00 X68.53 Y94.5 F6000.0
M3 F6000.0
G01 X68.2 Y95.2 F6000.0
G01 Y95.84 F6000.0
M5
G00 X68.2 Y95.2 F6000.0
M3 F6000.0
G01 X67.75 Y95.64 F6000.0
G01 X67.21 Y95.81 F6000.0
M5
G00 X65.97 Y96.35 F6000.0
M3 F6000.0
G01 X66.18 Y97.01 F6000.0
G01 X66.05 Y97.62 F6000.0
M5
G00 X65.12 Y96.47 F6000.0
M3 F6000.0
G01 X64.58 Y96.94 F6000.0
M5
G00 X65.41 Y95.69 F6000.0
M3 F6000.0
G01 X65.12 Y96.47 F6000.0
G01 X65.19 Y97.14 F6000.0
M5
G00 X64.17 Y94.96 F6000.0
M3 F6000.0
G01 X63.35 Y94.97 F6000.0
G01 X62.79 Y94.75 F6000.0
M5
G00 X65.14 Y94.35 F6000.0
M3 F6000.0
G01 X65.08 Y94.39 F6000.0
G01 X64.17 Y94.96 F6000.0
G01 X63.83 Y95.59 F6000.0
G01 X63.35 Y95.88 F6000.0
M5
G00 X66.29 Y93.84 F6000.0
M3 F6000.0
G01 X66.33 Y94.5 F6000.0
M5
G00 X67.48 Y93.66 F6000.0
M3 F6000.0
G01 X67.11 Y94.08 F6000.0
M5
G00 X68.27 Y93.31 F6000.0
M3 F6000.0
G01 X68.44 Y93.92 F6000.0
M5
G00 X68.29 Y93.09 F6000.0
M3 F6000.0
G01 X68.33 Y93.3 F6000.0
G01 X68.53 Y94.5 F6000.0
G01 X69.18 Y95.11 F6000.0
G01 X69.78 Y95.23 F6000.0
M5
G00 X69.65 Y92.45 F6000.0
M3 F6000.0
G01 X69.76 Y93.06 F6000.0
M5
G00 X69.85 Y92.31 F6000.0
M3 F6000.0
G01 X70.25 Y92.99 F6000.0
G01 X70.78 Y93.4 F6000.0
M5
G00 X69.17 Y91.83 F6000.0
M3 F6000.0
G01 X68.89 Y92.4 F6000.0
M5
G00 X68.92 Y91.65 F6000.0
M3 F6000.0
G01 X68.98 Y91.69 F6000.0
G01 X69.85 Y92.31 F6000.0
G01 X70.83 Y92.48 F6000.0
G01 X71.49 Y92.22 F6000.0
G01 X71.84 Y91.82 F6000.0
M5
G00 X69.19 Y90.96 F6000.0
M3 F6000.0
G01 X69.17 Y91.83 F6000.0
G01 X69.65 Y92.45 F6000.0
G01 X70.2 Y92.6 F6000.0
M5
G00 X67.64 Y92.67 F6000.0
M3 F6000.0
G01 F6000.0
G01 X67.48 Y93.66 F6000.0
G01 X67.8 Y94.31 F6000.0
G01 X68.23 Y94.63 F6000.0
M5
G00 X65.69 Y92.89 F6000.0
M3 F6000.0
G01 X65.59 Y93.15 F6000.0
G01 X65.14 Y94.35 F6000.0
G01 X65.18 Y94.53 F6000.0
G01 X65.41 Y95.69 F6000.0
G01 X65.97 Y96.35 F6000.0
G01 X66.52 Y96.56 F6000.0
M5
G00 X66.5 Y92.07 F6000.0
M3 F6000.0
G01 X65.78 Y92.3 F6000.0
M5
G00 X66.21 Y90.96 F6000.0
M3 F6000.0
G01 X65.84 Y91.37 F6000.0
M5
G00 X65.44 Y90.76 F6000.0
M3 F6000.0
G01 Y90.83 F6000.0
G01 X65.56 Y91.82 F6000.0
G01 X65.69 Y92.89 F6000.0
G01 X65.73 Y92.94 F6000.0
G01 X66.29 Y93.84 F6000.0
G01 X66.9 Y94.21 F6000.0
G01 X67.44 Y94.22 F6000.0
M5
G00 X67.4 Y91.61 F6000.0
M3 F6000.0
G01 X67.59 Y91.92 F6000.0
G01 X68.29 Y93.09 F6000.0
G01 X69.1 Y93.51 F6000.0
G01 X69.89 Y93.47 F6000.0
G01 X70.5 Y93.21 F6000.0
G01 X71.08 Y93.24 F6000.0
M5
G00 X68.8 Y90.05 F6000.0
M3 F6000.0
G01 X69.19 Y90.96 F6000.0
G01 X69.92 Y91.38 F6000.0
G01 X70.64 Y91.31 F6000.0
M5
G00 X70.25 Y88.62 F6000.0
M3 F6000.0
G01 Y89.38 F6000.0
G01 X70.62 Y89.88 F6000.0
G01 X70.75 Y90.41 F6000.0
M5
G00 X69.74 Y88.56 F6000.0
M3 F6000.0
G01 X69.66 Y89.27 F6000.0
G01 X69.31 Y89.77 F6000.0
M5
G00 X68.6 Y88.88 F6000.0
M3 F6000.0
G01 X68.11 Y89.32 F6000.0
M5
G00 X67.59 Y89.25 F6000.0
M3 F6000.0
G01 X67.52 Y89.73 F6000.0
G01 X67.29 Y91.2 F6000.0
G01 X67.35 Y91.45 F6000.0
G01 X67.64 Y92.67 F6000.0
G01 X68.27 Y93.31 F6000.0
G01 X68.95 Y93.6 F6000.0
G01 X69.49 Y93.44 F6000.0
M5
G00 X67.29 Y91.2 F6000.0
M3 F6000.0
G01 X67.23 Y91.26 F6000.0
G01 X66.5 Y92.07 F6000.0
G01 X66.44 Y92.83 F6000.0
M5
G00 X66.74 Y89.63 F6000.0
M3 F6000.0
G01 X66.28 Y90.3 F6000.0
G01 X66.21 Y90.96 F6000.0
G01 X66.49 Y91.41 F6000.0
M5
G00 X65. Y89.61 F6000.0
M3 F6000.0
G01 X64.58 Y90.0 F6000.0
M5
G00 X64.66 Y89.24 F6000.0
M3 F6000.0
G01 X64.13 Y89.15 F6000.0
M5
G00 X63.86 Y88.17 F6000.0
M3 F6000.0
G01 X63.66 Y88.55 F6000.0
G01 X63.0 Y89.82 F6000.0
G01 F6000.0
G01 X63.16 Y90.82 F6000.0
G01 X63.54 Y91.33 F6000.0
M5
G00 X63.16 Y90.82 F6000.0
M3 F6000.0
G01 X63.04 Y91.4 F6000.0
M5
G00 X61.76 Y90.5 F6000.0
M3 F6000.0
G01 F6000.0
G01 X60.76 Y90.66 F6000.0
G01 X60.33 Y91.11 F6000.0
M5
G00 X60.76 Y90.66 F6000.0
M3 F6000.0
G01 X60.16 Y90.3 F6000.0
G01 X59.61 Y90.27 F6000.0
M5
G00 X60.16 Y90.3 F6000.0
M3 F6000.0
G01 X59.92 Y89.82 F6000.0
M5
G00 X60.47 Y89.3 F6000.0
M3 F6000.0
G01 X60.6 Y90.07 F6000.0
M5
G00 X61.32 Y89.45 F6000.0
M3 F6000.0
G01 X61.79 Y89.84 F6000.0
M5
G00 X63. Y89.82 F6000.0
M3 F6000.0
G01 X62.82 Y89.92 F6000.0
G01 X61.76 Y90.5 F6000.0
G01 X61.29 Y91.3 F6000.0
G01 X60.7 Y91.76 F6000.0
G01 X60.53 Y92.37 F6000.0
M5
G00 X60.7 Y91.76 F6000.0
M3 F6000.0
G01 X60.08 Y91.94 F6000.0
G01 X59.77 Y92.39 F6000.0
M5
G00 X59.09 Y90.52 F6000.0
M3 F6000.0
G01 X58.77 Y91.16 F6000.0
M5
G00 X58.43 Y90.09 F6000.0
M3 F6000.0
G01 X57.93 Y90.32 F6000.0
M5
G00 X57.12 Y89.34 F6000.0
M3 F6000.0
G01 X57.59 Y89.67 F6000.0
M5
G00 X57.26 Y89.12 F6000.0
M3 F6000.0
G01 X57.59 Y89.63 F6000.0
M5
G00 X57.75 Y89.05 F6000.0
M3 F6000.0
G01 X58.34 Y89.04 F6000.0
M5
G00 X58.98 Y89.5 F6000.0
M3 F6000.0
G01 X58.43 Y90.09 F6000.0
G01 X58.26 Y90.76 F6000.0
M5
G00 X56.27 Y91.08 F6000.0
M3 F6000.0
G01 X56.09 Y91.68 F6000.0
G01 X55.66 Y92.03 F6000.0
M5
G00 X55.96 Y91.57 F6000.0
M3 F6000.0
G01 X56.03 Y92.12 F6000.0
M5
G00 X55.39 Y91.03 F6000.0
M3 F6000.0
G01 X55.96 Y91.57 F6000.0
G01 X56.52 Y91.8 F6000.0
M5
G00 X56.23 Y90.69 F6000.0
M3 F6000.0
G01 X56.85 Y90.88 F6000.0
M5
G00 X56.04 Y90.4 F6000.0
M3 F6000.0
G01 X56.27 Y91.08 F6000.0
G01 X56.7 Y91.55 F6000.0
G01 X57.2 Y91.75 F6000.0
M5
G00 X56.11 Y89.21 F6000.0
M3 F6000.0
G01 X56.12 F6000.0
G01 X57.12 Y89.34 F6000.0
G01 X57.75 Y89.05 F6000.0
G01 X58.07 Y88.62 F6000.0
M5
G00 X57.26 Y88.68 F6000.0
M3 F6000.0
G01 X56.58 Y89.3 F6000.0
G01 X56.05 Y89.36 F6000.0
M5
G00 X56.61 Y88.83 F6000.0
M3 F6000.0
G01 X56.66 Y89.52 F6000.0
M5
G00 X56.48 Y88.49 F6000.0
M3 F6000.0
G01 X56.97 Y88.19 F6000.0
M5
G00 X56.2 Y88.12 F6000.0
M3 F6000.0
G01 X55.88 Y88.88 F6000.0
G01 X56.08 Y89.52 F6000.0
G01 X55.92 Y90.09 F6000.0
M5
G00 X55.04 Y89.69 F6000.0
M3 F6000.0
G01 X55.13 Y89.75 F6000.0
G01 X56.04 Y90.4 F6000.0
G01 X56.75 Y90.52 F6000.0
M5
G00 X54.26 Y90.68 F6000.0
M3 F6000.0
G01 Y90.74 F6000.0
G01 X54.32 Y91.81 F6000.0
G01 X54.62 Y92.39 F6000.0
G01 X54.65 Y92.97 F6000.0
M5
G00 X53.76 Y92.56 F6000.0
M3 F6000.0
G01 X53.2 Y92.83 F6000.0
M5
G00 X54.32 Y91.81 F6000.0
M3 F6000.0
G01 X53.76 Y92.56 F6000.0
G01 X53.78 Y93.11 F6000.0
M5
G00 X51.53 Y92.02 F6000.0
M3 F6000.0
G01 X51.57 Y92.72 F6000.0
M5
G00 X51. Y91.36 F6000.0
M3 F6000.0
G01 X51.53 Y92.02 F6000.0
G01 X52.16 Y92.34 F6000.0
G01 X52.51 Y92.75 F6000.0
M5
G00 X51.25 Y91.05 F6000.0
M3 F6000.0
G01 F6000.0
G01 X50.43 Y91.63 F6000.0
G01 X50.17 Y92.32 F6000.0
M5
G00 X50.43 Y91.63 F6000.0
M3 F6000.0
G01 X49.84 Y91.73 F6000.0
M5
G00 X50.04 Y90.89 F6000.0
M3 F6000.0
G01 X50.14 Y91.66 F6000.0
G01 X49.85 Y92.13 F6000.0
M5
G00 X48.72 Y91.48 F6000.0
M3 F6000.0
G01 X48.39 Y91.97 F6000.0
M5
G00 X47.9 Y91.25 F6000.0
M3 F6000.0
G01 X47.23 Y91.16 F6000.0
M5
G00 X46.77 Y90.54 F6000.0
M3 F6000.0
G01 X47.08 Y91.01 F6000.0
M5
G00 X45.92 Y91.1 F6000.0
M3 F6000.0
G01 X45.36 Y91.77 F6000.0
G01 X44.81 Y91.99 F6000.0
M5
G00 X44.64 Y92.16 F6000.0
M3 F6000.0
G01 X44.56 Y92.7 F6000.0
M5
G00 X45.35 Y92.74 F6000.0
M3 F6000.0
G01 X45.66 Y93.46 F6000.0
G01 X45.68 Y94.08 F6000.0
M5
G00 X46.12 Y92.99 F6000.0
M3 F6000.0
G01 X46.56 Y93.35 F6000.0
M5
G00 X43.75 Y91.94 F6000.0
M3 F6000.0
G01 X43.21 Y92.31 F6000.0
M5
G00 X44.31 Y91.13 F6000.0
M3 F6000.0
G01 X43.75 Y91.94 F6000.0
G01 X43.77 Y92.75 F6000.0
G01 X44.07 Y93.19 F6000.0
M5
G00 X43.54 Y90.51 F6000.0
M3 F6000.0
G01 X42.86 Y90.58 F6000.0
G01 X42.39 Y90.27 F6000.0
M5
G00 X41.3 Y88.52 F6000.0
M3 F6000.0
G01 X41.58 Y89.19 F6000.0
G01 X42.01 Y89.64 F6000.0
M5
G00 X42.2 Y87.85 F6000.0
M3 F6000.0
G01 X42.07 Y88.46 F6000.0
M5
G00 X41.82 Y86.95 F6000.0
M3 F6000.0
G01 X42.2 Y87.85 F6000.0
G01 X42.75 Y88.3 F6000.0
G01 X42.92 Y88.83 F6000.0
M5
G00 X42.91 Y86.93 F6000.0
M3 F6000.0
G01 X42.81 Y87.55 F6000.0
M5
G00 X42.94 Y86.83 F6000.0
M3 F6000.0
G01 X43.46 Y87.09 F6000.0
M5
G00 X43.74 Y86.25 F6000.0
M3 F6000.0
G01 X44.59 Y86.21 F6000.0
G01 X45.02 Y85.9 F6000.0
M5
G00 X45.08 Y85.72 F6000.0
M3 F6000.0
G01 X44.56 Y85.32 F6000.0
M5
G00 X44.59 Y86.21 F6000.0
M3 F6000.0
G01 X45.24 Y86.53 F6000.0
G01 X45.8 Y86.4 F6000.0
M5
G00 X45.73 Y86.73 F6000.0
M3 F6000.0
G01 X45.65 Y87.18 F6000.0
G01 X45.42 Y88.62 F6000.0
G01 X45.5 Y88.85 F6000.0
G01 X45.95 Y90.01 F6000.0
G01 X46.77 Y90.54 F6000.0
G01 X47.33 Y90.51 F6000.0
M5
G00 X46.95 Y89.38 F6000.0
M3 F6000.0
G01 X46.35 Y89.57 F6000.0
M5
G00 X45.95 Y90.01 F6000.0
M3 F6000.0
G01 Y90.06 F6000.0
G01 X45.92 Y91.1 F6000.0
G01 X46.22 Y91.6 F6000.0
M5
G00 X44.56 Y89.83 F6000.0
M3 F6000.0
G01 X44.46 Y89.89 F6000.0
G01 X43.54 Y90.51 F6000.0
G01 X43.13 Y91.23 F6000.0
M5
G00 X45.42 Y88.62 F6000.0
M3 F6000.0
G01 X45.27 Y88.82 F6000.0
G01 X44.56 Y89.83 F6000.0
G01 X44.53 Y89.99 F6000.0
G01 X44.31 Y91.13 F6000.0
G01 X44.33 Y91.17 F6000.0
G01 X44.64 Y92.16 F6000.0
G01 X45.35 Y92.74 F6000.0
G01 X46.12 Y92.99 F6000.0
G01 X46.76 Y92.91 F6000.0
G01 X47.25 Y93.13 F6000.0
M5
G00 X48.83 Y90.77 F6000.0
M3 F6000.0
G01 X48.81 Y90.78 F6000.0
G01 X47.9 Y91.25 F6000.0
G01 X47.61 Y91.91 F6000.0
M5
G00 X48.72 Y89.76 F6000.0
M3 F6000.0
G01 X49.02 Y90.25 F6000.0
M5
G00 X49.42 Y89.77 F6000.0
M3 F6000.0
G01 X49.38 Y89.84 F6000.0
G01 X48.83 Y90.77 F6000.0
G01 X48.72 Y91.48 F6000.0
G01 X48.98 Y92.05 F6000.0
M5
G00 X51.42 Y90.49 F6000.0
M3 F6000.0
G01 X51.0 Y91.0 F6000.0
G01 X50.48 Y91.14 F6000.0
M5
G00 X51.85 Y90.11 F6000.0
M3 F6000.0
G01 X51.82 Y90.16 F6000.0
G01 X51.25 Y91.05 F6000.0
G01 Y91.97 F6000.0
M5
G00 X51.52 Y89.46 F6000.0
M3 F6000.0
G01 X51.51 Y89.48 F6000.0
G01 X51.42 Y90.49 F6000.0
G01 X51.73 Y91.01 F6000.0
M5
G00 X53.4 Y89.63 F6000.0
M3 F6000.0
G01 X53.51 Y89.77 F6000.0
G01 X54.26 Y90.68 F6000.0
G01 X54.35 Y90.7 F6000.0
G01 X55.39 Y91.03 F6000.0
G01 X56.23 Y90.69 F6000.0
G01 X56.58 Y90.23 F6000.0
M5
G00 X55.28 Y88.44 F6000.0
M3 F6000.0
G01 X55.01 Y89.07 F6000.0
M5
G00 X54.8 Y88.44 F6000.0
M3 F6000.0
G01 X55.02 Y89.0 F6000.0
M5
G00 X55.9 Y87.88 F6000.0
M3 F6000.0
G01 X55.13 Y87.75 F6000.0
G01 X54.58 Y87.43 F6000.0
M5
G00 X54.18 Y87.83 F6000.0
M3 F6000.0
G01 X54.04 Y88.5 F6000.0
M5
G00 X53.82 Y87.4 F6000.0
M3 F6000.0
G01 X54.06 Y87.9 F6000.0
M5
G00 X55.15 Y87.52 F6000.0
M3 F6000.0
G01 X54.47 Y88.14 F6000.0
G01 X53.94 Y88.22 F6000.0
M5
G00 X53.2 Y87.07 F6000.0
M3 F6000.0
G01 X53.12 Y87.75 F6000.0
M5
G00 X52.38 Y87.41 F6000.0
M3 F6000.0
G01 X51.78 Y88.01 F6000.0
G01 X51.73 Y88.64 F6000.0
M5
G00 X51.79 Y88.77 F6000.0
M3 F6000.0
G01 X51.8 Y88.94 F6000.0
G01 X51.85 Y90.11 F6000.0
G01 X52.37 Y90.84 F6000.0
G01 X52.48 Y91.39 F6000.0
M5
G00 X50.28 Y89.21 F6000.0
M3 F6000.0
G01 X49.8 Y89.56 F6000.0
M5
G00 X49.55 Y88.25 F6000.0
M3 F6000.0
G01 X49.52 Y88.27 F6000.0
G01 X48.65 Y88.85 F6000.0
G01 X48.19 Y89.69 F6000.0
G01 X48.28 Y90.37 F6000.0
G01 X48.55 Y90.88 F6000.0
M5
G00 X47.9 Y89.29 F6000.0
M3 F6000.0
G01 X47.97 Y90.14 F6000.0
G01 X47.78 Y90.77 F6000.0
M5
G00 X47.47 Y88.88 F6000.0
M3 F6000.0
G01 X46.95 Y89.38 F6000.0
G01 X46.78 Y89.9 F6000.0
M5
G00 X46.29 Y88.39 F6000.0
M3 F6000.0
G01 X45.6 Y88.45 F6000.0
G01 X45.13 Y88.7 F6000.0
M5
G00 X45.6 Y88.45 F6000.0
M3 F6000.0
G01 X45.12 Y88.17 F6000.0
M5
G00 X45.36 Y87.96 F6000.0
M3 F6000.0
G01 X44.74 Y88.04 F6000.0
M5
G00 X45.15 Y87.1 F6000.0
M3 F6000.0
G01 X44.38 Y86.72 F6000.0
G01 X43.66 Y86.69 F6000.0
M5
G00 X44.38 Y86.72 F6000.0
M3 F6000.0
G01 X44.02 Y86.28 F6000.0
M5
G00 X45.24 Y86.53 F6000.0
M3 F6000.0
G01 X45.57 Y87.06 F6000.0
M5
G00 X45.52 Y86.59 F6000.0
M3 F6000.0
G01 X44.89 Y86.83 F6000.0
G01 X44.58 Y87.27 F6000.0
M5
G00 X46.1 Y87.19 F6000.0
M3 F6000.0
G01 X45.15 Y87.1 F6000.0
G01 X44.44 Y87.3 F6000.0
M5
G00 X46.1 Y85.99 F6000.0
M3 F6000.0
G01 X46.08 Y85.98 F6000.0
G01 X45.08 Y85.72 F6000.0
G01 X44.33 Y85.9 F6000.0
M5
G00 X44.12 Y84.3 F6000.0
M3 F6000.0
G01 X44.61 Y84.7 F6000.0
M5
G00 X45.1 Y83.66 F6000.0
M3 F6000.0
G01 X44.97 Y83.74 F6000.0
G01 X44.11 Y84.25 F6000.0
G01 X43.12 Y84.83 F6000.0
G01 X43.07 Y84.94 F6000.0
G01 X42.66 Y85.98 F6000.0
G01 X42.91 Y86.93 F6000.0
G01 X43.4 Y87.36 F6000.0
M5
G00 X42.52 Y86.11 F6000.0
M3 F6000.0
G01 X42.94 Y86.46 F6000.0
M5
G00 X42.66 Y85.98 F6000.0
M3 F6000.0
G01 X41.99 Y86.36 F6000.0
G01 X41.77 Y86.87 F6000.0
M5
G00 X41.99 Y86.36 F6000.0
M3 F6000.0
G01 X41.46 Y86.42 F6000.0
M5
G00 X40.99 Y86.54 F6000.0
M3 F6000.0
G01 X41.62 Y87.11 F6000.0
G01 X42.19 Y87.21 F6000.0
M5
G00 X41.87 Y86.09 F6000.0
M3 F6000.0
G01 X42.52 Y86.11 F6000.0
G01 X42.99 Y85.84 F6000.0
M5
G00 X43.12 Y84.83 F6000.0
M3 F6000.0
G01 X42.98 F6000.0
G01 X41.84 Y84.82 F6000.0
G01 X41.27 Y85.14 F6000.0
M5
G00 X41.27 Y85.36 F6000.0
M3 F6000.0
G01 X41.17 Y86.04 F6000.0
G01 X40.81 Y86.45 F6000.0
M5
G00 X40.49 Y86.2 F6000.0
M3 F6000.0
G01 X40.48 Y86.22 F6000.0
G01 X40.36 Y87.25 F6000.0
G01 X40.55 Y87.87 F6000.0
M5
G00 X40.43 Y87.7 F6000.0
M3 F6000.0
G01 X40.45 Y88.56 F6000.0
G01 X40.83 Y89.13 F6000.0
G01 X40.84 Y89.69 F6000.0
M5
G00 X40.15 Y89.16 F6000.0
M3 F6000.0
G01 X39.65 Y89.41 F6000.0
M5
G00 X38.95 Y89.61 F6000.0
M3 F6000.0
G01 X39.22 Y90.13 F6000.0
M5
G00 X37.7 Y89.78 F6000.0
M3 F6000.0
G01 X37.11 Y90.27 F6000.0
G01 X36.58 Y90.41 F6000.0
M5
G00 X36.98 Y88.7 F6000.0
M3 F6000.0
G01 X36.55 Y89.12 F6000.0
M5
G00 X36.86 Y88.6 F6000.0
M3 F6000.0
G01 X37.21 Y89.16 F6000.0
M5
G00 X38.14 Y88.89 F6000.0
M3 F6000.0
G01 X37.7 Y89.78 F6000.0
G01 X37.71 Y90.32 F6000.0
M5
G00 X38.98 Y88.41 F6000.0
M3 F6000.0
G01 X38.42 Y89.0 F6000.0
M5
G00 X37.11 Y87.9 F6000.0
M3 F6000.0
G01 X36.51 Y88.14 F6000.0
M5
G00 X35.97 Y88.29 F6000.0
M3 F6000.0
G01 X36.09 Y88.93 F6000.0
G01 X36.44 Y89.35 F6000.0
M5
G00 X36.93 Y87.41 F6000.0
M3 F6000.0
G01 X36.37 Y87.63 F6000.0
M5
G00 X35.74 Y87.44 F6000.0
M3 F6000.0
G01 X35.78 Y88.18 F6000.0
M5
G00 X35.25 Y87.43 F6000.0
M3 F6000.0
G01 X35.29 Y87.48 F6000.0
G01 X35.97 Y88.29 F6000.0
G01 X36.86 Y88.6 F6000.0
G01 X37.47 Y88.4 F6000.0
M5
G00 X37.82 Y87.03 F6000.0
M3 F6000.0
G01 X37.78 Y87.08 F6000.0
G01 X37.11 Y87.9 F6000.0
G01 X36.98 Y88.7 F6000.0
G01 X37.11 Y89.37 F6000.0
G01 X37.51 Y89.74 F6000.0
M5
G00 X39.29 Y87.5 F6000.0
M3 F6000.0
G01 X38.98 Y88.41 F6000.0
G01 X39.22 Y89.23 F6000.0
G01 X39.57 Y89.65 F6000.0
M5
G00 X40.45 Y88.56 F6000.0
M3 F6000.0
G01 X40.15 Y89.16 F6000.0
G01 X40.24 Y89.74 F6000.0
M5
G00 X40.36 Y87.25 F6000.0
M3 F6000.0
G01 X40.08 Y87.74 F6000.0
M5
G00 X39.88 Y86.44 F6000.0
M3 F6000.0
G01 X39.95 Y86.61 F6000.0
G01 X40.43 Y87.7 F6000.0
G01 X40.5 Y87.77 F6000.0
G01 X41.3 Y88.52 F6000.0
G01 X42.14 Y88.63 F6000.0
G01 X42.68 Y88.95 F6000.0
M5
G00 X40.59 Y85.84 F6000.0
M3 F6000.0
G01 X40.95 Y86.24 F6000.0
M5
G00 X39.65 Y85.6 F6000.0
M3 F6000.0
G01 X40.59 Y85.84 F6000.0
G01 X41.16 Y85.6 F6000.0
M5
G00 X41.84 Y84.82 F6000.0
M3 F6000.0
G01 X41.24 Y84.31 F6000.0
G01 X40.57 Y84.1 F6000.0
G01 X40.0 Y84.25 F6000.0
M5
G00 X39.78 Y84.52 F6000.0
M3 F6000.0
G01 X39.61 Y84.88 F6000.0
G01 X39.01 Y86.14 F6000.0
G01 X39.05 Y86.33 F6000.0
G01 X39.29 Y87.5 F6000.0
G01 X39.74 Y88.11 F6000.0
G01 X39.76 Y88.69 F6000.0
M5
G00 X38.19 Y86.68 F6000.0
M3 F6000.0
G01 X37.65 Y86.79 F6000.0
M5
G00 X37.39 Y86.62 F6000.0
M3 F6000.0
G01 X36.93 Y87.41 F6000.0
G01 X36.94 Y88.01 F6000.0
M5
G00 X35.19 Y86.63 F6000.0
M3 F6000.0
G01 X35.15 Y86.69 F6000.0
G01 X34.63 Y87.62 F6000.0
G01 X34.66 Y88.22 F6000.0
M5
G00 X34.25 Y88.49 F6000.0
M3 F6000.0
G01 X34.24 Y88.56 F6000.0
G01 X34.03 Y89.6 F6000.0
G01 X34.35 Y90.23 F6000.0
M5
G00 X34.03 Y89.6 F6000.0
M3 F6000.0
G01 X33.6 Y89.97 F6000.0
M5
G00 X33.15 Y88.99 F6000.0
M3 F6000.0
G01 X33.22 Y89.77 F6000.0
M5
G00 X32.13 Y89.46 F6000.0
M3 F6000.0
G01 X31.57 Y89.95 F6000.0
G01 X31.01 Y90.12 F6000.0
M5
G00 X32.31 Y90.55 F6000.0
M3 F6000.0
G01 X31.98 Y91.26 F6000.0
G01 X31.48 Y91.66 F6000.0
G01 X30.91 Y91.76 F6000.0
M5
G00 X28.27 Y90.43 F6000.0
M3 F6000.0
G01 X28.12 Y90.98 F6000.0
M5
G00 X27.77 Y91.24 F6000.0
M3 F6000.0
G01 Y91.79 F6000.0
M5
G00 X26.65 Y91.41 F6000.0
M3 F6000.0
G01 X26.27 Y92.24 F6000.0
G01 X26.35 Y92.93 F6000.0
G01 X26.67 Y93.44 F6000.0
M5
G00 X26.27 Y92.24 F6000.0
M3 F6000.0
G01 X25.74 Y92.51 F6000.0
M5
G00 X26.43 Y90.48 F6000.0
M3 F6000.0
G01 X26.32 Y91.01 F6000.0
M5
G00 X26.59 Y90.32 F6000.0
M3 F6000.0
G01 X26.01 Y90.64 F6000.0
G01 X25.73 Y91.12 F6000.0
M5
G00 X26.16 Y89.87 F6000.0
M3 F6000.0
G01 X25.89 Y90.35 F6000.0
M5
G00 X26.14 Y89.26 F6000.0
M3 F6000.0
G01 X25.41 Y88.96 F6000.0
G01 X24.84 Y89.05 F6000.0
M5
G00 X24.23 Y89.36 F6000.0
M3 F6000.0
G01 X24.05 Y89.47 F6000.0
G01 X23.02 Y90.11 F6000.0
G01 X22.61 Y90.84 F6000.0
G01 X22.55 Y91.38 F6000.0
M5
G00 X22.61 Y90.84 F6000.0
M3 F6000.0
G01 X22.1 Y91.23 F6000.0
G01 X21.53 Y91.28 F6000.0
M5
G00 X23.02 Y90.11 F6000.0
M3 F6000.0
G01 X22.3 Y90.12 F6000.0
G01 X21.83 Y90.49 F6000.0
M5
G00 X23.65 Y91.17 F6000.0
M3 F6000.0
G01 X23.01 Y91.41 F6000.0
G01 X22.43 Y91.32 F6000.0
M5
G00 X24.14 Y90.4 F6000.0
M3 F6000.0
G01 X23.65 Y91.17 F6000.0
G01 X23.53 Y91.74 F6000.0
M5
G00 X26.28 Y89.12 F6000.0
M3 F6000.0
G01 X25.64 Y89.45 F6000.0
G01 X25.06 Y89.46 F6000.0
M5
G00 X25.06 Y87.72 F6000.0
M3 F6000.0
G01 X24.93 Y87.74 F6000.0
G01 X23.82 Y87.92 F6000.0
G01 X23.18 Y88.42 F6000.0
G01 X22.91 Y89.0 F6000.0
G01 X22.46 Y89.31 F6000.0
M5
G00 X23.82 Y87.92 F6000.0
M3 F6000.0
G01 X23.09 Y87.58 F6000.0
G01 X22.71 Y86.97 F6000.0
G01 X22.23 Y86.65 F6000.0
M5
G00 X22.19 Y85.32 F6000.0
M3 F6000.0
G01 X21.89 Y85.79 F6000.0
M5
G00 X22.28 Y84.63 F6000.0
M3 F6000.0
G01 X21.74 Y84.77 F6000.0
M5
G00 X22.87 Y83.85 F6000.0
M3 F6000.0
G01 X21.89 Y83.67 F6000.0
M5
G00 X22.43 Y82.97 F6000.0
M3 F6000.0
G01 X21.65 Y83.2 F6000.0
G01 X21.24 Y83.78 F6000.0
M5
G00 X20.93 Y81.91 F6000.0
M3 F6000.0
G01 X20.37 Y81.7 F6000.0
M5
G00 X21.36 Y81.39 F6000.0
M3 F6000.0
G01 X20.7 Y81.63 F6000.0
G01 X20.34 Y82.06 F6000.0
M5
G00 X19.79 Y80.83 F6000.0
M3 F6000.0
G01 X19.18 Y81.02 F6000.0
M5
G00 X19.57 Y80.41 F6000.0
M3 F6000.0
G01 X19.14 Y80.94 F6000.0
G01 X19.11 Y81.54 F6000.0
M5
G00 X19.77 Y80.2 F6000.0
M3 F6000.0
G01 X19.25 Y79.94 F6000.0
M5
G00 X19.79 Y79.65 F6000.0
M3 F6000.0
G01 X19.74 F6000.0
G01 X18.69 Y79.66 F6000.0
G01 X18.09 Y80.01 F6000.0
G01 X17.49 Y80.0 F6000.0
M5
G00 X18.11 Y79.32 F6000.0
M3 F6000.0
G01 X17.82 Y78.82 F6000.0
M5
G00 X18.8 Y78.68 F6000.0
M3 F6000.0
G01 X18.45 Y79.27 F6000.0
M5
G00 X18.69 Y79.66 F6000.0
M3 F6000.0
G01 X18.11 Y79.32 F6000.0
G01 X17.57 Y79.34 F6000.0
M5
G00 X17.91 Y77.29 F6000.0
M3 F6000.0
G01 X17.33 Y77.13 F6000.0
M5
G00 X17.78 Y76.2 F6000.0
M3 F6000.0
G01 X17.25 Y76.04 F6000.0
M5
G00 X17.23 Y75.46 F6000.0
M3 F6000.0
G01 X16.4 Y75.67 F6000.0
G01 X15.96 Y76.11 F6000.0
G01 X15.45 Y76.33 F6000.0
M5
G00 X15.85 Y74.43 F6000.0
M3 F6000.0
G01 X15.31 Y74.25 F6000.0
M5
G00 X15.33 Y73.16 F6000.0
M3 F6000.0
G01 X14.77 Y72.6 F6000.0
M5
G00 X16.14 Y72.49 F6000.0
M3 F6000.0
G01 X16.51 Y71.93 F6000.0
M5
G00 X16.52 Y71.96 F6000.0
M3 F6000.0
G01 X15.9 Y71.57 F6000.0
G01 X15.59 Y71.06 F6000.0
M5
G00 X15.83 Y70.85 F6000.0
M3 F6000.0
G01 X15.39 Y70.29 F6000.0
M5
G00 X15.75 Y69.04 F6000.0
M3 F6000.0
G01 X15.54 Y69.59 F6000.0
M5
G00 X16.79 Y69.61 F6000.0
M3 F6000.0
G01 X16.57 Y70.18 F6000.0
M5
G00 X16.63 Y71.06 F6000.0
M3 F6000.0
G01 X16.46 Y70.35 F6000.0
G01 X16.12 Y69.9 F6000.0
M5
G00 X16.81 Y68.71 F6000.0
M3 F6000.0
G01 X16.79 Y69.61 F6000.0
G01 X17.0 Y70.16 F6000.0
M5
G00 X17.63 Y69.16 F6000.0
M3 F6000.0
G01 X17.98 Y69.64 F6000.0
M5
G00 X18.51 Y71.02 F6000.0
M3 F6000.0
G01 X18.55 Y70.44 F6000.0
M5
G00 X18.77 Y71.66 F6000.0
M3 F6000.0
G01 X19.15 Y71.16 F6000.0
M5
G00 X18.7 Y72.87 F6000.0
M3 F6000.0
G01 Y72.76 F6000.0
G01 X18.77 Y71.66 F6000.0
G01 X18.51 Y71.02 F6000.0
G01 X18.05 Y70.64 F6000.0
M5
G00 X17.39 Y72.08 F6000.0
M3 F6000.0
G01 X17.31 Y71.97 F6000.0
G01 X16.63 Y71.06 F6000.0
G01 X15.83 Y70.85 F6000.0
G01 X15.26 Y71.07 F6000.0
M5
G00 X16.18 Y73.41 F6000.0
M3 F6000.0
G01 X16.14 Y72.49 F6000.0
G01 X15.69 Y71.88 F6000.0
G01 X15.09 Y71.73 F6000.0
G01 X14.66 Y71.39 F6000.0
M5
G00 X15.71 Y68.24 F6000.0
M3 F6000.0
G01 X15.08 Y68.49 F6000.0
M5
G00 X14.28 Y67.71 F6000.0
M3 F6000.0
G01 X13.84 Y68.02 F6000.0
M5
G00 X13.33 Y67.06 F6000.0
M3 F6000.0
G01 X13.31 Y67.05 F6000.0
G01 X12.36 Y66.64 F6000.0
G01 X11.74 Y66.81 F6000.0
M5
G00 X12.36 Y66.64 F6000.0
M3 F6000.0
G01 X11.86 Y65.88 F6000.0
G01 X11.32 Y65.62 F6000.0
M5
G00 X11.86 Y65.88 F6000.0
M3 F6000.0
G01 X11.78 Y65.1 F6000.0
G01 X11.38 Y64.63 F6000.0
M5
G00 X13.77 Y62.76 F6000.0
M3 F6000.0
G01 X13.65 Y61.92 F6000.0
G01 X13.3 Y61.47 F6000.0
M5
G00 X12.79 Y61.15 F6000.0
M3 F6000.0
G01 X12.05 Y61.51 F6000.0
M5
G00 X11.92 Y60.06 F6000.0
M3 F6000.0
G01 X11.38 Y60.22 F6000.0
M5
G00 X12.57 Y59.32 F6000.0
M3 F6000.0
G01 X11.94 Y59.09 F6000.0
G01 X11.58 Y58.64 F6000.0
M5
G00 X11.95 Y57.53 F6000.0
M3 F6000.0
G01 X11.94 Y57.52 F6000.0
G01 X10.95 Y57.3 F6000.0
G01 X10.38 Y57.48 F6000.0
M5
G00 X10.95 Y57.3 F6000.0
M3 F6000.0
G01 X10.47 Y56.98 F6000.0
M5
G00 X12.09 Y56.24 F6000.0
M3 F6000.0
G01 X11.51 Y56.65 F6000.0
M5
G00 X12.25 Y56.5 F6000.0
M3 F6000.0
G01 X12.0 Y55.9 F6000.0
G01 X11.6 Y55.49 F6000.0
M5
G00 X11.58 Y55.4 F6000.0
M3 F6000.0
G01 X11.05 Y54.97 F6000.0
G01 X10.46 Y54.89 F6000.0
M5
G00 X9.95 Y54.73 F6000.0
M3 F6000.0
G01 X9.2 Y54.78 F6000.0
G01 X8.63 Y55.08 F6000.0
M5
G00 X10.16 Y53.96 F6000.0
M3 F6000.0
G01 X9.79 Y53.49 F6000.0
M5
G00 X10.75 Y54.25 F6000.0
M3 F6000.0
G01 X10.16 Y53.96 F6000.0
G01 X9.59 Y53.97 F6000.0
M5
G00 X10.91 Y52.89 F6000.0
M3 F6000.0
G01 X10.54 Y52.33 F6000.0
M5
G00 X11.55 Y53.3 F6000.0
M3 F6000.0
G01 X11.52 Y52.44 F6000.0
G01 X11.86 Y51.97 F6000.0
M5
G00 X12.61 Y51.21 F6000.0
M3 F6000.0
G01 X12.04 Y51.27 F6000.0
M5
G00 X12.67 Y49.98 F6000.0
M3 F6000.0
G01 X12.44 Y49.38 F6000.0
M5
G00 X11.86 Y49.71 F6000.0
M3 F6000.0
G01 X11.49 Y49.12 F6000.0
M5
G00 X12.43 Y48.42 F6000.0
M3 F6000.0
G01 X11.88 Y48.26 F6000.0
M5
G00 X13.12 Y48.33 F6000.0
M3 F6000.0
G01 X12.63 Y47.8 F6000.0
G01 X12.05 Y47.62 F6000.0
G01 X11.54 Y47.77 F6000.0
M5
G00 X13.91 Y48.51 F6000.0
M3 F6000.0
G01 X13.68 Y47.8 F6000.0
M5
G00 X14.1 Y48.77 F6000.0
M3 F6000.0
G01 X14.26 Y48.24 F6000.0
M5
G00 X14.96 Y48.68 F6000.0
M3 F6000.0
G01 X15.02 Y48.06 F6000.0
M5
G00 X15.26 Y47.31 F6000.0
M3 F6000.0
G01 X14.73 Y47.0 F6000.0
M5
G00 X16.07 Y47.2 F6000.0
M3 F6000.0
G01 X15.65 Y46.54 F6000.0
M5
G00 X17.04 Y46.38 F6000.0
M3 F6000.0
G01 X17.08 Y46.31 F6000.0
G01 X17.57 Y45.34 F6000.0
G01 F6000.0
G01 X17.62 Y44.33 F6000.0
G01 X17.23 Y43.71 F6000.0
G01 X16.8 Y43.39 F6000.0
M5
G00 X17.23 Y43.71 F6000.0
M3 F6000.0
G01 X17.25 Y43.11 F6000.0
M5
G00 X17.62 Y44.33 F6000.0
M3 F6000.0
G01 X17.92 Y43.7 F6000.0
G01 X18.35 Y43.38 F6000.0
M5
G00 X17.57 Y45.34 F6000.0
M3 F6000.0
G01 X18.12 Y45.09 F6000.0
G01 X18.64 Y45.17 F6000.0
M5
G00 X19.68 Y46.16 F6000.0
M3 F6000.0
G01 X20.19 Y46.02 F6000.0
M5
G00 X19.21 Y46.79 F6000.0
M3 F6000.0
G01 X19.68 Y46.16 F6000.0
G01 X19.84 Y45.6 F6000.0
M5
G00 X19.99 Y47.39 F6000.0
M3 F6000.0
G01 X20.7 Y47.31 F6000.0
G01 X21.08 Y46.94 F6000.0
M5
G00 X20.7 Y47.31 F6000.0
M3 F6000.0
G01 X21.22 Y47.57 F6000.0
M5
G00 X19.11 Y47.86 F6000.0
M3 F6000.0
G01 X19.99 Y47.39 F6000.0
G01 X20.35 Y46.82 F6000.0
G01 X20.36 Y46.26 F6000.0
M5
G00 X18.43 Y48.86 F6000.0
M3 F6000.0
G01 X18.49 Y48.77 F6000.0
G01 X19.11 Y47.86 F6000.0
G01 Y47.82 F6000.0
G01 X19.21 Y46.79 F6000.0
G01 X18.9 Y46.15 F6000.0
M5
G00 X17.3 Y47.68 F6000.0
M3 F6000.0
G01 X17.27 Y47.52 F6000.0
G01 X17.04 Y46.38 F6000.0
G01 X16.45 Y45.76 F6000.0
M5
G00 X15.8 Y48.95 F6000.0
M3 F6000.0
G01 X16.3 Y48.77 F6000.0
M5
G00 X15.52 Y49.54 F6000.0
M3 F6000.0
G01 X15.29 Y48.9 F6000.0
M5
G00 X15.39 Y49.59 F6000.0
M3 F6000.0
G01 X15.8 Y48.95 F6000.0
G01 X15.73 Y48.39 F6000.0
M5
G00 X14.53 Y49.18 F6000.0
M3 F6000.0
G01 X13.91 Y48.51 F6000.0
G01 X13.12 Y48.33 F6000.0
G01 X12.43 Y48.42 F6000.0
G01 X12.03 Y48.8 F6000.0
M5
G00 X13.56 Y49.33 F6000.0
M3 F6000.0
G01 X13.27 Y48.79 F6000.0
M5
G00 X14.28 Y49.72 F6000.0
M3 F6000.0
G01 X14.1 Y48.77 F6000.0
G01 X13.7 Y48.19 F6000.0
M5
G00 X13.49 Y50.66 F6000.0
M3 F6000.0
G01 X13.46 Y50.64 F6000.0
G01 X12.67 Y49.98 F6000.0
G01 X11.86 Y49.71 F6000.0
G01 X11.32 Y49.81 F6000.0
M5
G00 X13.97 Y51.68 F6000.0
M3 F6000.0
G01 X13.35 Y51.95 F6000.0
G01 X12.75 Y51.9 F6000.0
M5
G00 X13.89 Y52.51 F6000.0
M3 F6000.0
G01 X13.58 Y53.11 F6000.0
G01 X13.08 Y53.42 F6000.0
M5
G00 X13.84 Y53.24 F6000.0
M3 F6000.0
G01 X13.24 Y53.38 F6000.0
G01 X12.8 Y53.68 F6000.0
M5
G00 X12.01 Y54.18 F6000.0
M3 F6000.0
G01 X11.55 Y53.3 F6000.0
G01 X10.91 Y52.89 F6000.0
G01 X10.24 Y52.86 F6000.0
G01 X9.73 Y53.15 F6000.0
M5
G00 X11.05 Y54.97 F6000.0
M3 F6000.0
G01 X10.93 Y54.44 F6000.0
M5
G00 X12.34 Y55.46 F6000.0
M3 F6000.0
G01 X11.58 Y55.4 F6000.0
G01 X10.97 Y55.62 F6000.0
M5
G00 X12.43 Y56.81 F6000.0
M3 F6000.0
G01 X12.0 Y56.5 F6000.0
M5
G00 X13.21 Y56.93 F6000.0
M3 F6000.0
G01 X12.43 Y56.81 F6000.0
G01 X11.76 Y56.97 F6000.0
G01 X11.19 Y56.83 F6000.0
M5
G00 X12.8 Y57.73 F6000.0
M3 F6000.0
G01 X12.22 Y58.09 F6000.0
M5
G00 X12.76 Y58.45 F6000.0
M3 F6000.0
G01 X12.41 Y59.0 F6000.0
M5
G00 X13.63 Y58.99 F6000.0
M3 F6000.0
G01 X13.58 Y59.01 F6000.0
G01 X12.57 Y59.32 F6000.0
G01 X11.92 Y60.06 F6000.0
G01 X11.89 Y60.85 F6000.0
G01 X11.44 Y61.39 F6000.0
M5
G00 X13.4 Y60.42 F6000.0
M3 F6000.0
G01 X12.79 Y61.15 F6000.0
G01 X12.59 Y61.96 F6000.0
M5
G00 X14.4 Y63.68 F6000.0
M3 F6000.0
G01 X14.37 Y63.64 F6000.0
G01 X13.77 Y62.76 F6000.0
G01 X13.16 Y62.52 F6000.0
G01 X12.59 Y62.57 F6000.0
M5
G00 X14.66 Y64.59 F6000.0
M3 F6000.0
G01 X13.98 Y64.53 F6000.0
M5
G00 X15.38 Y63.69 F6000.0
M3 F6000.0
G01 X14.92 Y64.07 F6000.0
M5
G00 X15.6 Y64.22 F6000.0
M3 F6000.0
G01 X15.46 Y64.16 F6000.0
G01 X14.4 Y63.68 F6000.0
G01 X13.65 Y63.8 F6000.0
G01 X13.1 Y63.53 F6000.0
G01 X12.55 Y63.51 F6000.0
M5
G00 X15.77 Y62.85 F6000.0
M3 F6000.0
G01 X15.06 Y62.9 F6000.0
G01 X14.6 Y63.18 F6000.0
M5
G00 X16.75 Y62.25 F6000.0
M3 F6000.0
G01 X16.16 Y61.8 F6000.0
G01 X15.62 Y61.69 F6000.0
M5
G00 X17.14 Y61.87 F6000.0
M3 F6000.0
G01 X16.87 Y62.43 F6000.0
M5
G00 X18.2 Y62.28 F6000.0
M3 F6000.0
G01 X18.17 Y62.22 F6000.0
G01 X17.73 Y61.24 F6000.0
G01 X17.16 Y60.81 F6000.0
G01 X16.95 Y60.27 F6000.0
M5
G00 X17.36 Y60.09 F6000.0
M3 F6000.0
G01 X16.42 Y60.39 F6000.0
G01 X16.03 Y60.9 F6000.0
M5
G00 X16.42 Y60.39 F6000.0
M3 F6000.0
G01 X15.74 Y60.25 F6000.0
G01 X15.29 Y59.92 F6000.0
M5
G00 X14.67 Y59.66 F6000.0
M3 F6000.0
G01 X14.31 Y60.14 F6000.0
G01 X14.26 Y60.66 F6000.0
M5
G00 X13.8 Y58.88 F6000.0
M3 F6000.0
G01 X13.23 Y59.34 F6000.0
M5
G00 X14.78 Y58.83 F6000.0
M3 F6000.0
G01 X14.67 Y59.66 F6000.0
G01 X14.99 Y60.22 F6000.0
M5
G00 X17.07 Y61.03 F6000.0
M3 F6000.0
G01 X16.66 Y61.5 F6000.0
G01 X16.12 Y61.59 F6000.0
M5
G00 X17.73 Y61.24 F6000.0
M3 F6000.0
G01 X17.74 Y61.23 F6000.0
G01 X18.0 Y60.26 F6000.0
G01 X17.77 Y59.6 F6000.0
G01 X17.98 Y59.02 F6000.0
M5
G00 X18.1 Y59.23 F6000.0
M3 F6000.0
G01 X17.3 Y59.31 F6000.0
M5
G00 X18. Y60.26 F6000.0
M3 F6000.0
G01 X18.39 Y59.78 F6000.0
G01 X18.54 Y59.25 F6000.0
M5
G00 X18.39 Y59.78 F6000.0
M3 F6000.0
G01 X18.91 Y59.56 F6000.0
M5
G00 X18.82 Y60.36 F6000.0
M3 F6000.0
G01 X18.11 Y60.92 F6000.0
G01 X17.49 Y61.08 F6000.0
M5
G00 X19.18 Y61.48 F6000.0
M3 F6000.0
G01 X19.03 Y62.47 F6000.0
G01 X19.4 Y63.09 F6000.0
M5
G00 X19.78 Y63.24 F6000.0
M3 F6000.0
G01 X19.41 Y63.02 F6000.0
G01 X18.2 Y62.28 F6000.0
G01 X17.97 Y62.27 F6000.0
G01 X16.75 Y62.25 F6000.0
G01 X16.69 Y62.29 F6000.0
G01 X15.77 Y62.85 F6000.0
G01 X15.38 Y63.69 F6000.0
G01 X15.47 Y64.22 F6000.0
M5
G00 X16.3 Y66. F6000.0
M3 F6000.0
G01 X15.96 Y66.19 F6000.0
G01 X14.75 Y66.85 F6000.0
G01 X14.28 Y67.71 F6000.0
G01 X14.27 Y68.42 F6000.0
G01 X13.93 Y68.84 F6000.0
M5
G00 X12.65 Y67.72 F6000.0
M3 F6000.0
G01 X12.08 Y67.78 F6000.0
M5
G00 X14.75 Y66.85 F6000.0
M3 F6000.0
G01 X14.53 Y66.88 F6000.0
G01 X13.33 Y67.06 F6000.0
G01 X12.65 Y67.72 F6000.0
G01 X12.32 Y68.45 F6000.0
M5
G00 X16.21 Y67.5 F6000.0
M3 F6000.0
G01 X15.71 Y68.24 F6000.0
G01 X15.75 Y69.04 F6000.0
G01 X16.11 Y69.59 F6000.0
M5
G00 X16.85 Y74.27 F6000.0
M3 F6000.0
G01 X16.83 Y74.23 F6000.0
G01 X16.18 Y73.41 F6000.0
G01 X15.33 Y73.16 F6000.0
G01 X14.78 Y73.4 F6000.0
M5
G00 X18.01 Y74.75 F6000.0
M3 F6000.0
G01 X17.89 Y74.7 F6000.0
G01 X16.85 Y74.27 F6000.0
G01 X16.84 F6000.0
G01 X15.85 Y74.43 F6000.0
G01 X15.42 Y74.9 F6000.0
M5
G00 X17.98 Y75.23 F6000.0
M3 F6000.0
G01 X17.85 Y74.58 F6000.0
M5
G00 X18.68 Y75.89 F6000.0
M3 F6000.0
G01 X17.98 Y75.23 F6000.0
G01 X17.34 Y74.97 F6000.0
G01 X17.04 Y74.44 F6000.0
M5
G00 X19.66 Y74.65 F6000.0
M3 F6000.0
G01 X19.65 Y74.64 F6000.0
G01 X19.18 Y73.76 F6000.0
G01 X18.7 Y72.87 F6000.0
G01 X18.47 Y72.73 F6000.0
G01 X17.39 Y72.08 F6000.0
G01 X16.52 Y71.96 F6000.0
G01 X15.89 Y72.27 F6000.0
G01 X15.63 Y72.81 F6000.0
M5
G00 X18.96 Y77.07 F6000.0
M3 F6000.0
G01 X18.92 F6000.0
G01 X17.91 Y77.29 F6000.0
G01 X17.36 Y77.98 F6000.0
G01 X17.26 Y78.7 F6000.0
G01 X17.53 Y79.16 F6000.0
M5
G00 X19.95 Y78.54 F6000.0
M3 F6000.0
G01 X19.39 Y78.17 F6000.0
M5
G00 X20.92 Y78.73 F6000.0
M3 F6000.0
G01 X19.95 Y78.54 F6000.0
G01 X19.41 Y78.82 F6000.0
M5
G00 X20.5 Y80.2 F6000.0
M3 F6000.0
G01 X20.27 Y79.64 F6000.0
M5
G00 X20.54 Y80.21 F6000.0
M3 F6000.0
G01 X19.77 Y80.2 F6000.0
G01 X19.21 Y80.51 F6000.0
M5
G00 X21.18 Y80.59 F6000.0
M3 F6000.0
G01 X21.2 Y79.92 F6000.0
G01 X21.0 Y79.38 F6000.0
M5
G00 X21.2 Y79.92 F6000.0
M3 F6000.0
G01 X21.49 Y79.42 F6000.0
M5
G00 X21.92 Y79.72 F6000.0
M3 F6000.0
G01 X21.7 Y79.8 F6000.0
G01 X20.54 Y80.21 F6000.0
G01 X19.79 Y80.83 F6000.0
G01 X19.5 Y81.43 F6000.0
M5
G00 X21.79 Y81.63 F6000.0
M3 F6000.0
G01 X21.73 Y81.54 F6000.0
G01 X21.18 Y80.59 F6000.0
G01 X20.5 Y80.2 F6000.0
G01 X19.86 Y80.09 F6000.0
M5
G00 X21.84 Y80.71 F6000.0
M3 F6000.0
G01 X21.36 Y81.39 F6000.0
G01 X21.33 Y81.94 F6000.0
M5
G00 X23.2 Y82.16 F6000.0
M3 F6000.0
G01 X22.96 Y82.07 F6000.0
G01 X21.79 Y81.63 F6000.0
G01 X20.93 Y81.91 F6000.0
G01 X20.55 Y82.49 F6000.0
M5
G00 X24.29 Y83.35 F6000.0
M3 F6000.0
G01 X24.05 Y83.43 F6000.0
G01 X22.87 Y83.85 F6000.0
G01 X22.28 Y84.63 F6000.0
G01 X22.19 Y85.32 F6000.0
G01 X22.31 Y85.85 F6000.0
M5
G00 X24.17 Y84.6 F6000.0
M3 F6000.0
G01 X23.74 Y85.08 F6000.0
G01 X23.68 Y85.6 F6000.0
M5
G00 X24.59 Y85.37 F6000.0
M3 F6000.0
G01 X24.57 Y86.09 F6000.0
G01 X24.77 Y86.69 F6000.0
M5
G00 X24.57 Y86.09 F6000.0
M3 F6000.0
G01 X24.25 Y86.63 F6000.0
M5
G00 X26.24 Y86.58 F6000.0
M3 F6000.0
G01 X25.74 Y86.18 F6000.0
G01 X25.48 Y85.7 F6000.0
M5
G00 X26.91 Y85.55 F6000.0
M3 F6000.0
G01 X26.46 Y85.24 F6000.0
M5
G00 X26.78 Y86.52 F6000.0
M3 F6000.0
G01 X26.74 Y86.55 F6000.0
G01 X25.92 Y87.12 F6000.0
G01 X25.06 Y87.72 F6000.0
G01 X24.87 Y88.09 F6000.0
G01 X24.23 Y89.36 F6000.0
G01 X24.22 Y89.38 F6000.0
G01 X24.14 Y90.4 F6000.0
G01 X24.32 Y91.06 F6000.0
G01 X24.74 Y91.48 F6000.0
M5
G00 X27.45 Y90.47 F6000.0
M3 F6000.0
G01 X27.11 Y91.13 F6000.0
M5
G00 X28.28 Y89.86 F6000.0
M3 F6000.0
G01 X28.73 Y90.39 F6000.0
M5
G00 X28.12 Y89.63 F6000.0
M3 F6000.0
G01 X27.65 Y90.17 F6000.0
G01 X27.14 Y90.38 F6000.0
M5
G00 X27.43 Y89.43 F6000.0
M3 F6000.0
G01 Y89.45 F6000.0
G01 X27.45 Y90.47 F6000.0
G01 X27.77 Y91.24 F6000.0
G01 X28.35 Y91.56 F6000.0
M5
G00 X27.09 Y89.15 F6000.0
M3 F6000.0
G01 X26.14 Y89.26 F6000.0
G01 X25.59 Y89.58 F6000.0
G01 X25.36 Y90.07 F6000.0
M5
G00 X26.77 Y88.27 F6000.0
M3 F6000.0
G01 X26.28 Y89.12 F6000.0
G01 X26.16 Y89.87 F6000.0
G01 X26.43 Y90.48 F6000.0
G01 X26.88 Y90.81 F6000.0
M5
G00 X28.35 Y88.47 F6000.0
M3 F6000.0
G01 X28.16 Y88.57 F6000.0
G01 X27.09 Y89.15 F6000.0
G01 X27.04 Y89.27 F6000.0
G01 X26.59 Y90.32 F6000.0
G01 X26.6 Y90.37 F6000.0
G01 X26.65 Y91.41 F6000.0
G01 X27.2 Y92.02 F6000.0
G01 X27.82 Y92.17 F6000.0
M5
G00 X29.49 Y88.63 F6000.0
M3 F6000.0
G01 X28.76 Y89.21 F6000.0
G01 X28.52 Y89.72 F6000.0
M5
G00 X29.76 Y88.16 F6000.0
M3 F6000.0
G01 X29.84 Y89.06 F6000.0
G01 X29.49 Y89.61 F6000.0
M5
G00 X30.33 Y88.06 F6000.0
M3 F6000.0
G01 X30.4 Y88.74 F6000.0
G01 X30.78 Y89.2 F6000.0
M5
G00 X29.79 Y87.45 F6000.0
M3 F6000.0
G01 X29.76 Y87.55 F6000.0
G01 X29.49 Y88.63 F6000.0
G01 X29.6 Y89.46 F6000.0
G01 X29.32 Y90.12 F6000.0
M5
G00 X29.29 Y87.19 F6000.0
M3 F6000.0
G01 X29.11 Y87.43 F6000.0
G01 X28.35 Y88.47 F6000.0
G01 X28.33 Y88.56 F6000.0
G01 X28.12 Y89.63 F6000.0
G01 X28.27 Y90.43 F6000.0
G01 X28.7 Y90.88 F6000.0
M5
G00 X26.68 Y87.42 F6000.0
M3 F6000.0
G01 X26.03 Y87.91 F6000.0
G01 X25.38 Y87.93 F6000.0
M5
G00 X27.2 Y86.58 F6000.0
M3 F6000.0
G01 X26.24 F6000.0
G01 X25.59 Y87.01 F6000.0
G01 X25.24 Y87.53 F6000.0
M5
G00 X28.17 Y85.8 F6000.0
M3 F6000.0
G01 X27.52 Y85.52 F6000.0
G01 X26.91 Y85.55 F6000.0
G01 X26.47 Y85.87 F6000.0
M5
G00 X27.96 Y84.28 F6000.0
M3 F6000.0
G01 X27.84 Y84.52 F6000.0
G01 X27.37 Y85.4 F6000.0
G01 X26.78 Y86.52 F6000.0
G01 Y86.89 F6000.0
G01 X26.77 Y88.27 F6000.0
G01 X26.85 Y88.41 F6000.0
G01 X27.43 Y89.43 F6000.0
G01 X28.28 Y89.86 F6000.0
G01 X29.01 Y89.94 F6000.0
G01 X29.55 Y89.62 F6000.0
M5
G00 X31.75 Y87.09 F6000.0
M3 F6000.0
G01 X32.01 Y87.72 F6000.0
M5
G00 X32.6 Y88.08 F6000.0
M3 F6000.0
G01 X32.53 Y88.3 F6000.0
G01 X32.13 Y89.46 F6000.0
G01 X32.14 Y89.51 F6000.0
G01 X32.31 Y90.55 F6000.0
G01 X32.74 Y90.96 F6000.0
M5
G00 X33.88 Y88. F6000.0
M3 F6000.0
G01 X33.26 Y88.03 F6000.0
M5
G00 X32.61 Y87.26 F6000.0
M3 F6000.0
G01 X33.04 Y87.69 F6000.0
M5
G00 X33.68 Y87.07 F6000.0
M3 F6000.0
G01 X33.14 Y87.49 F6000.0
G01 X32.83 Y88.0 F6000.0
M5
G00 X33.86 Y87.14 F6000.0
M3 F6000.0
G01 X33.91 Y87.33 F6000.0
G01 X34.25 Y88.49 F6000.0
G01 X34.71 Y89.09 F6000.0
G01 X35.33 Y89.33 F6000.0
M5
G00 X34.63 Y87.62 F6000.0
M3 F6000.0
G01 X33.88 Y88.0 F6000.0
G01 X33.48 Y88.44 F6000.0
M5
G00 X33.23 Y86.28 F6000.0
M3 F6000.0
G01 X32.72 Y86.03 F6000.0
M5
G00 X32.33 Y85.99 F6000.0
M3 F6000.0
G01 X32.34 Y86.04 F6000.0
G01 X32.47 Y87.03 F6000.0
G01 X32.6 Y88.08 F6000.0
G01 X32.62 Y88.11 F6000.0
G01 X33.15 Y88.99 F6000.0
G01 X33.64 Y89.35 F6000.0
M5
G00 X34.02 Y86.17 F6000.0
M3 F6000.0
G01 X33.23 Y86.28 F6000.0
G01 X32.7 Y86.75 F6000.0
M5
G00 X31.87 Y85.86 F6000.0
M3 F6000.0
G01 X32.51 Y85.95 F6000.0
M5
G00 X30.94 Y86.36 F6000.0
M3 F6000.0
G01 X30.97 Y86.39 F6000.0
G01 X31.75 Y87.09 F6000.0
G01 X32.61 Y87.26 F6000.0
G01 X33.31 Y87.12 F6000.0
G01 X33.92 Y87.25 F6000.0
M5
G00 X34.41 Y85.69 F6000.0
M3 F6000.0
G01 X34.48 Y86.26 F6000.0
M5
G00 X35.09 Y85.25 F6000.0
M3 F6000.0
G01 X34.93 Y85.39 F6000.0
G01 X34.02 Y86.17 F6000.0
G01 X33.68 Y87.07 F6000.0
G01 X33.81 Y87.62 F6000.0
M5
G00 X34.07 Y85.11 F6000.0
M3 F6000.0
G01 X33.9 Y85.7 F6000.0
M5
G00 X33.38 Y84.47 F6000.0
M3 F6000.0
G01 X32.77 Y84.46 F6000.0
M5
G00 X32.56 Y83.94 F6000.0
M3 F6000.0
G01 X32.04 Y84.47 F6000.0
G01 X31.94 Y85.1 F6000.0
G01 X32.05 Y85.65 F6000.0
M5
G00 X31.01 Y83.54 F6000.0
M3 F6000.0
G01 X30.88 Y83.69 F6000.0
G01 X30.25 Y84.47 F6000.0
G01 X29.5 Y85.41 F6000.0
G01 X29.45 Y85.8 F6000.0
G01 X29.29 Y87.19 F6000.0
G01 X29.3 Y87.22 F6000.0
G01 X29.76 Y88.16 F6000.0
G01 X30.34 Y88.54 F6000.0
G01 X30.56 Y89.12 F6000.0
M5
G00 X29.52 Y86.08 F6000.0
M3 F6000.0
G01 X29.56 Y86.27 F6000.0
G01 X29.79 Y87.45 F6000.0
G01 X30.33 Y88.06 F6000.0
G01 X30.92 Y88.29 F6000.0
M5
G00 X29.5 Y85.41 F6000.0
M3 F6000.0
G01 X29.32 Y85.46 F6000.0
G01 X28.17 Y85.8 F6000.0
G01 X28.08 Y85.88 F6000.0
G01 X27.2 Y86.58 F6000.0
G01 X26.68 Y87.42 F6000.0
G01 X26.69 Y88.19 F6000.0
G01 X26.46 Y88.68 F6000.0
M5
G00 X27.17 Y81.93 F6000.0
M3 F6000.0
G01 X26.29 Y81.73 F6000.0
G01 X25.61 Y82.01 F6000.0
M5
G00 X25.24 Y81.81 F6000.0
M3 F6000.0
G01 X25.2 Y81.82 F6000.0
G01 X24.22 Y81.98 F6000.0
G01 X23.2 Y82.16 F6000.0
G01 X23.16 Y82.2 F6000.0
G01 X22.43 Y82.97 F6000.0
G01 X22.35 Y83.71 F6000.0
M5
G00 X26.29 Y81.73 F6000.0
M3 F6000.0
G01 X25.77 Y81.27 F6000.0
G01 X25.55 Y80.72 F6000.0
M5
G00 X27.29 Y80.29 F6000.0
M3 F6000.0
G01 X26.88 Y79.7 F6000.0
M5
G00 X27.66 Y80.16 F6000.0
M3 F6000.0
G01 X27.27 Y80.42 F6000.0
G01 X26.45 Y80.98 F6000.0
G01 X25.24 Y81.81 F6000.0
G01 X25.03 Y82.15 F6000.0
G01 X24.29 Y83.35 F6000.0
G01 X24.28 Y83.47 F6000.0
G01 X24.17 Y84.6 F6000.0
G01 X24.59 Y85.37 F6000.0
G01 X25.15 Y85.62 F6000.0
M5
G00 X28.26 Y81.74 F6000.0
M3 F6000.0
G01 X28.21 Y81.75 F6000.0
G01 X27.17 Y81.93 F6000.0
G01 X26.59 Y82.36 F6000.0
M5
G00 X28.11 Y80.79 F6000.0
M3 F6000.0
G01 X27.29 Y80.29 F6000.0
G01 X26.55 Y80.32 F6000.0
M5
G00 X29.21 Y80.83 F6000.0
M3 F6000.0
G01 X29.16 F6000.0
G01 X28.11 Y80.79 F6000.0
G01 X27.56 Y80.98 F6000.0
M5
G00 X31.15 Y80.2 F6000.0
M3 F6000.0
G01 X31.13 F6000.0
G01 X30.18 Y80.52 F6000.0
G01 X29.21 Y80.83 F6000.0
G01 X29.1 Y80.94 F6000.0
G01 X28.26 Y81.74 F6000.0
G01 X28.13 Y82.44 F6000.0
G01 X27.74 Y82.82 F6000.0
M5
G00 X31.67 Y83.05 F6000.0
M3 F6000.0
G01 X30.94 F6000.0
G01 X30.44 Y83.26 F6000.0
M5
G00 X31.99 Y81.31 F6000.0
M3 F6000.0
G01 X31.39 Y81.26 F6000.0
M5
G00 X32.01 Y80.57 F6000.0
M3 F6000.0
G01 X31.61 Y79.92 F6000.0
G01 X31.6 Y79.33 F6000.0
M5
G00 X32.8 Y81.06 F6000.0
M3 F6000.0
G01 X32.01 Y80.57 F6000.0
G01 X31.47 Y80.53 F6000.0
M5
G00 X32.9 Y82.53 F6000.0
M3 F6000.0
G01 X32.75 Y82.59 F6000.0
G01 X31.67 Y83.05 F6000.0
G01 X31.19 Y83.56 F6000.0
M5
G00 X33.7 Y83.04 F6000.0
M3 F6000.0
G01 X33.22 Y82.76 F6000.0
M5
G00 X34.52 Y83.08 F6000.0
M3 F6000.0
G01 X33.7 Y83.04 F6000.0
G01 X33.15 Y83.3 F6000.0
G01 X32.61 Y83.32 F6000.0
M5
G00 X34.01 Y84.1 F6000.0
M3 F6000.0
G01 X33.38 Y84.47 F6000.0
G01 X33.05 Y84.95 F6000.0
M5
G00 X35.66 Y83.66 F6000.0
M3 F6000.0
G01 X35.55 Y83.99 F6000.0
G01 X35.09 Y85.25 F6000.0
G01 X35.1 Y85.45 F6000.0
G01 X35.19 Y86.63 F6000.0
G01 X35.74 Y87.44 F6000.0
G01 X36.29 Y87.62 F6000.0
M5
G00 X37.22 Y85.44 F6000.0
M3 F6000.0
G01 X37.23 Y85.54 F6000.0
G01 X37.39 Y86.62 F6000.0
G01 X37.85 Y87.38 F6000.0
G01 Y88.13 F6000.0
G01 X37.53 Y88.6 F6000.0
M5
G00 X39.01 Y86.14 F6000.0
M3 F6000.0
G01 X38.19 Y86.68 F6000.0
G01 X37.78 Y87.33 F6000.0
G01 Y87.9 F6000.0
M5
G00 X38.55 Y85.78 F6000.0
M3 F6000.0
G01 X39.14 Y86.35 F6000.0
G01 X39.68 Y86.53 F6000.0
M5
G00 X38.32 Y84.98 F6000.0
M3 F6000.0
G01 X38.3 Y85.04 F6000.0
G01 X38.07 Y86.01 F6000.0
G01 X37.82 Y87.03 F6000.0
G01 X37.9 Y87.47 F6000.0
G01 X38.14 Y88.89 F6000.0
G01 X38.17 Y88.92 F6000.0
G01 X38.95 Y89.61 F6000.0
G01 X39.81 Y89.91 F6000.0
G01 X40.37 Y89.85 F6000.0
M5
G00 X41.05 Y84.41 F6000.0
M3 F6000.0
G01 X41.27 Y85.36 F6000.0
G01 X41.63 Y85.85 F6000.0
M5
G00 X42.36 Y84.56 F6000.0
M3 F6000.0
G01 X42.91 Y84.97 F6000.0
G01 X43.49 F6000.0
M5
G00 X43.29 Y84.26 F6000.0
M3 F6000.0
G01 X44.12 Y84.3 F6000.0
G01 X44.59 Y84.03 F6000.0
M5
G00 X45.61 Y83.09 F6000.0
M3 F6000.0
G01 X45.58 Y83.76 F6000.0
M5
G00 X46.13 Y83.44 F6000.0
M3 F6000.0
G01 X45.95 Y82.75 F6000.0
G01 X45.52 Y82.42 F6000.0
M5
G00 X45.26 Y82.25 F6000.0
M3 F6000.0
G01 X44.92 Y82.8 F6000.0
G01 X44.37 Y83.0 F6000.0
M5
G00 X43.25 Y82.58 F6000.0
M3 F6000.0
G01 X43.81 Y82.78 F6000.0
M5
G00 X42.31 Y82.8 F6000.0
M3 F6000.0
G01 X43.01 Y83.39 F6000.0
G01 X43.58 Y83.59 F6000.0
G01 X43.99 Y83.93 F6000.0
M5
G00 X42.45 Y84.06 F6000.0
M3 F6000.0
G01 X42.25 Y84.78 F6000.0
M5
G00 X41.33 Y83.89 F6000.0
M3 F6000.0
G01 X40.35 Y84.07 F6000.0
G01 X39.62 Y84.52 F6000.0
M5
G00 X40.35 Y84.07 F6000.0
M3 F6000.0
G01 X39.61 Y83.77 F6000.0
G01 X38.99 Y83.97 F6000.0
G01 X38.65 Y84.43 F6000.0
M5
G00 X39.03 Y83.38 F6000.0
M3 F6000.0
G01 X38.33 Y83.21 F6000.0
M5
G00 X37.68 Y83.43 F6000.0
M3 F6000.0
G01 X37.07 Y83.85 F6000.0
G01 X36.78 Y84.39 F6000.0
M5
G00 X37.04 Y84.22 F6000.0
M3 F6000.0
G01 X37.42 Y84.92 F6000.0
G01 X37.91 Y85.2 F6000.0
M5
G00 X37.47 Y83.25 F6000.0
M3 F6000.0
G01 X36.95 Y83.49 F6000.0
M5
G00 X36.22 Y83.65 F6000.0
M3 F6000.0
G01 X35.95 Y84.34 F6000.0
G01 X36.08 Y84.87 F6000.0
M5
G00 X35.95 Y84.34 F6000.0
M3 F6000.0
G01 X35.54 Y84.7 F6000.0
M5
G00 X35.79 Y82.3 F6000.0
M3 F6000.0
G01 X35.58 Y82.42 F6000.0
G01 X34.52 Y83.08 F6000.0
G01 X34.49 Y83.14 F6000.0
G01 X34.01 Y84.1 F6000.0
G01 Y84.11 F6000.0
G01 X34.07 Y85.11 F6000.0
G01 X34.41 Y85.69 F6000.0
G01 X34.96 Y85.92 F6000.0
M5
G00 X37. Y82.61 F6000.0
M3 F6000.0
G01 X36.35 Y82.33 F6000.0
G01 X35.8 Y82.45 F6000.0
M5
G00 X35.24 Y81.75 F6000.0
M3 F6000.0
G01 X34.57 Y81.96 F6000.0
G01 X34.16 Y82.39 F6000.0
M5
G00 X34.57 Y81.96 F6000.0
M3 F6000.0
G01 X34.02 Y81.89 F6000.0
M5
G00 X34.23 Y81.21 F6000.0
M3 F6000.0
G01 X34.01 Y81.19 F6000.0
G01 X32.8 Y81.06 F6000.0
G01 X31.99 Y81.31 F6000.0
G01 X31.54 Y81.8 F6000.0
M5
G00 X34.62 Y80.06 F6000.0
M3 F6000.0
G01 X34.71 Y79.42 F6000.0
M5
G00 X35.32 Y80.49 F6000.0
M3 F6000.0
G01 X35.33 Y80.58 F6000.0
G01 X35.55 Y82.57 F6000.0
G01 X35.66 Y83.66 F6000.0
G01 X35.78 Y83.8 F6000.0
G01 X36.44 Y84.55 F6000.0
G01 X37.22 Y85.44 F6000.0
G01 X37.4 Y85.49 F6000.0
G01 X38.55 Y85.78 F6000.0
G01 X38.61 Y85.77 F6000.0
G01 X39.65 Y85.6 F6000.0
G01 X40.16 Y85.26 F6000.0
G01 X40.34 Y84.75 F6000.0
M5
G00 X39.86 Y83.14 F6000.0
M3 F6000.0
G01 X39.03 Y83.38 F6000.0
G01 X38.67 Y83.85 F6000.0
M5
G00 X39.78 Y83.1 F6000.0
M3 F6000.0
G01 X40.07 Y83.39 F6000.0
G01 X41.05 Y84.41 F6000.0
G01 X41.21 Y84.43 F6000.0
G01 X42.36 Y84.56 F6000.0
G01 X43.29 Y84.26 F6000.0
G01 X43.68 Y83.89 F6000.0
M5
G00 X42.22 Y83.17 F6000.0
M3 F6000.0
G01 X42.16 Y83.22 F6000.0
G01 X41.33 Y83.89 F6000.0
G01 X41.02 Y84.7 F6000.0
G01 X41.09 Y85.38 F6000.0
G01 X41.44 Y85.82 F6000.0
M5
G00 X41.15 Y82.51 F6000.0
M3 F6000.0
G01 X41.24 Y82.54 F6000.0
G01 X42.31 Y82.8 F6000.0
G01 X43.25 Y82.58 F6000.0
G01 X43.71 Y82.23 F6000.0
M5
G00 X42.52 Y81.83 F6000.0
M3 F6000.0
G01 X42.09 Y81.97 F6000.0
G01 X40.7 Y82.42 F6000.0
G01 X40.66 Y82.45 F6000.0
G01 X39.86 Y83.14 F6000.0
G01 X39.66 Y83.76 F6000.0
M5
G00 X39.02 Y82.19 F6000.0
M3 F6000.0
G01 X38.85 Y82.04 F6000.0
G01 X37.92 Y81.25 F6000.0
G01 X37.82 Y81.22 F6000.0
G01 X36.77 Y80.91 F6000.0
G01 X35.8 Y81.11 F6000.0
G01 X35.24 Y81.75 F6000.0
G01 X35.08 Y82.31 F6000.0
M5
G00 X35.8 Y81.11 F6000.0
M3 F6000.0
G01 X35.03 Y80.72 F6000.0
G01 X34.47 Y80.7 F6000.0
M5
G00 X35.03 Y80.72 F6000.0
M3 F6000.0
G01 X34.62 Y80.06 F6000.0
G01 X34.04 Y79.67 F6000.0
G01 X33.45 Y79.63 F6000.0
M5
G00 X34.65 Y78.11 F6000.0
M3 F6000.0
G01 X34.08 Y78.08 F6000.0
M5
G00 X34.54 Y77.24 F6000.0
M3 F6000.0
G01 X34.18 Y76.35 F6000.0
G01 X33.74 Y75.92 F6000.0
M5
G00 X33.72 Y75.97 F6000.0
M3 F6000.0
G01 X33.78 Y76.69 F6000.0
G01 X33.52 Y77.19 F6000.0
M5
G00 X33.54 Y77.16 F6000.0
M3 F6000.0
G01 X33.27 Y77.5 F6000.0
G01 X32.65 Y78.29 F6000.0
G01 X32.03 Y79.07 F6000.0
G01 X31.15 Y80.2 F6000.0
G01 X31.14 Y80.37 F6000.0
G01 X31.06 Y82.37 F6000.0
G01 X31.01 Y83.54 F6000.0
G01 X31.2 Y83.88 F6000.0
G01 X31.67 Y84.76 F6000.0
G01 X32.33 Y85.99 F6000.0
G01 X32.7 Y86.26 F6000.0
G01 X33.86 Y87.14 F6000.0
G01 X34.06 Y87.18 F6000.0
G01 X35.25 Y87.43 F6000.0
G01 X36.02 Y87.21 F6000.0
M5
G00 X37.79 Y82.64 F6000.0
M3 F6000.0
G01 X37.83 Y82.83 F6000.0
G01 X38.05 Y83.81 F6000.0
G01 X38.32 Y84.98 F6000.0
G01 X38.37 Y85.03 F6000.0
G01 X39.1 Y85.71 F6000.0
G01 X39.88 Y86.44 F6000.0
G01 X39.94 Y86.45 F6000.0
G01 X40.99 Y86.54 F6000.0
G01 X41.87 Y86.09 F6000.0
G01 X42.33 Y85.48 F6000.0
G01 X42.87 Y85.34 F6000.0
M5
G00 X40.7 Y82.42 F6000.0
M3 F6000.0
G01 X40.36 Y82.37 F6000.0
G01 X39.02 Y82.19 F6000.0
G01 X38.99 Y82.2 F6000.0
G01 X38.02 Y82.54 F6000.0
G01 X37.47 Y83.25 F6000.0
G01 X37.48 Y83.78 F6000.0
M5
G00 X38.02 Y82.54 F6000.0
M3 F6000.0
G01 X37.35 Y82.33 F6000.0
G01 X36.93 Y81.96 F6000.0
M5
G00 X36.77 Y80.91 F6000.0
M3 F6000.0
G01 X36.37 Y80.34 F6000.0
G01 X35.92 Y80.07 F6000.0
M5
G00 X36.46 Y80.56 F6000.0
M3 F6000.0
G01 X36.3 Y80.6 F6000.0
G01 X35.34 Y80.88 F6000.0
G01 X34.23 Y81.21 F6000.0
G01 X33.92 Y81.52 F6000.0
G01 X32.9 Y82.53 F6000.0
G01 X32.85 Y82.74 F6000.0
G01 X32.56 Y83.94 F6000.0
G01 X32.68 Y84.75 F6000.0
G01 X33.09 Y85.13 F6000.0
M5
G00 X38.16 Y82.46 F6000.0
M3 F6000.0
G01 X38.07 Y82.47 F6000.0
G01 X37.0 Y82.61 F6000.0
G01 X36.47 Y82.91 F6000.0
M5
G00 X37.92 Y81.25 F6000.0
M3 F6000.0
G01 X37.9 Y81.15 F6000.0
G01 X37.7 Y80.07 F6000.0
G01 X37.21 Y79.51 F6000.0
G01 X36.64 Y79.23 F6000.0
G01 X36.29 Y78.81 F6000.0
M5
G00 X37.21 Y79.51 F6000.0
M3 F6000.0
G01 X36.98 Y78.9 F6000.0
M5
G00 X37.85 Y78.78 F6000.0
M3 F6000.0
G01 X38.12 Y78.27 F6000.0
M5
G00 X38.57 Y78.69 F6000.0
M3 F6000.0
G01 X38.22 Y78.52 F6000.0
G01 X36.99 Y77.88 F6000.0
G01 X36.73 Y77.86 F6000.0
G01 X35.48 Y77.75 F6000.0
G01 X34.65 Y78.11 F6000.0
G01 X34.06 Y78.65 F6000.0
G01 X33.92 Y79.31 F6000.0
M5
G00 X35.48 Y77.75 F6000.0
M3 F6000.0
G01 X35.45 Y77.74 F6000.0
G01 X34.54 Y77.24 F6000.0
G01 X34.0 Y77.19 F6000.0
M5
G00 X34.18 Y76.35 F6000.0
M3 F6000.0
G01 X34.16 Y75.64 F6000.0
M5
G00 X34.12 Y75.31 F6000.0
M3 F6000.0
G01 X34.59 Y75.76 F6000.0
G01 X35.13 Y75.86 F6000.0
M5
G00 X35.32 Y75.49 F6000.0
M3 F6000.0
G01 X35.22 Y74.83 F6000.0
M5
G00 X35.88 Y76.02 F6000.0
M3 F6000.0
G01 X35.97 Y75.28 F6000.0
G01 X36.33 Y74.86 F6000.0
M5
G00 X36.18 Y76.91 F6000.0
M3 F6000.0
G01 X35.88 Y76.02 F6000.0
G01 X35.32 Y75.49 F6000.0
G01 X34.72 Y75.39 F6000.0
M5
G00 X33.11 Y75.18 F6000.0
M3 F6000.0
G01 F6000.0
G01 X33.72 Y75.97 F6000.0
G01 X34.19 Y76.25 F6000.0
M5
G00 X32.28 Y75.68 F6000.0
M3 F6000.0
G01 X31.96 Y76.5 F6000.0
G01 X32.14 Y77.17 F6000.0
M5
G00 X31.96 Y76.5 F6000.0
M3 F6000.0
G01 X31.34 Y76.91 F6000.0
G01 X31.0 Y77.47 F6000.0
G01 X30.48 Y77.7 F6000.0
M5
G00 X29.79 Y75.26 F6000.0
M3 F6000.0
G01 X28.98 Y75.21 F6000.0
M5
G00 X29.28 Y75.26 F6000.0
M3 F6000.0
G01 X29.07 Y75.32 F6000.0
G01 X27.14 Y75.86 F6000.0
G01 X26.18 Y76.13 F6000.0
G01 X25.0 Y76.47 F6000.0
G01 X24.68 Y76.73 F6000.0
G01 X23.9 Y77.36 F6000.0
G01 X22.79 Y78.25 F6000.0
G01 X22.61 Y78.55 F6000.0
G01 X21.92 Y79.72 F6000.0
G01 X21.84 Y80.71 F6000.0
G01 X22.18 Y81.22 F6000.0
M5
G00 X22.79 Y78.25 F6000.0
M3 F6000.0
G01 X22.34 Y78.36 F6000.0
G01 X20.92 Y78.73 F6000.0
G01 X20.74 Y78.87 F6000.0
G01 X19.79 Y79.65 F6000.0
G01 X19.57 Y80.41 F6000.0
G01 X19.79 Y81.06 F6000.0
G01 X20.18 Y81.46 F6000.0
M5
G00 X20.05 Y76.34 F6000.0
M3 F6000.0
G01 X19.84 Y76.27 F6000.0
G01 X18.68 Y75.89 F6000.0
G01 X17.78 Y76.2 F6000.0
G01 X17.49 Y76.66 F6000.0
M5
G00 X21.8 Y75.98 F6000.0
M3 F6000.0
G01 X21.58 Y75.84 F6000.0
G01 X20.73 Y75.31 F6000.0
G01 X19.66 Y74.65 F6000.0
G01 X19.33 Y74.67 F6000.0
G01 X18.01 Y74.75 F6000.0
G01 X17.99 Y74.77 F6000.0
G01 X17.23 Y75.46 F6000.0
G01 X16.88 Y76.22 F6000.0
G01 X16.32 Y76.5 F6000.0
M5
G00 X25. Y76.47 F6000.0
M3 F6000.0
G01 X24.89 Y76.45 F6000.0
G01 X23.9 Y76.3 F6000.0
G01 X22.91 Y76.14 F6000.0
G01 X21.8 Y75.98 F6000.0
G01 X21.42 Y76.06 F6000.0
G01 X20.05 Y76.34 F6000.0
G01 X19.92 Y76.42 F6000.0
G01 X18.96 Y77.07 F6000.0
G01 X18.71 Y77.91 F6000.0
G01 X18.8 Y78.68 F6000.0
G01 X19.15 Y79.21 F6000.0
M5
G00 X24.75 Y70.91 F6000.0
M3 F6000.0
G01 X24.31 Y71.33 F6000.0
M5
G00 X25.52 Y71.33 F6000.0
M3 F6000.0
G01 X24.99 Y71.28 F6000.0
M5
G00 X25.51 Y69.59 F6000.0
M3 F6000.0
G01 X24.93 Y69.26 F6000.0
G01 X24.35 Y69.37 F6000.0
M5
G00 X22.8 Y68.46 F6000.0
M3 F6000.0
G01 X22.53 Y69.07 F6000.0
M5
G00 X22.72 Y67.6 F6000.0
M3 F6000.0
G01 X22.8 Y68.46 F6000.0
G01 X23.12 Y68.89 F6000.0
M5
G00 X23.48 Y67.79 F6000.0
M3 F6000.0
G01 X23.88 Y68.26 F6000.0
M5
G00 X21.55 Y67.63 F6000.0
M3 F6000.0
G01 X21.05 Y67.92 F6000.0
M5
G00 X20.29 Y66.92 F6000.0
M3 F6000.0
G01 X19.63 Y67.36 F6000.0
G01 X18.96 Y67.4 F6000.0
M5
G00 X19.71 Y66.06 F6000.0
M3 F6000.0
G01 X19.18 Y65.69 F6000.0
G01 X18.65 Y65.74 F6000.0
M5
G00 X19.18 Y65.69 F6000.0
M3 F6000.0
G01 X18.88 Y65.25 F6000.0
M5
G00 X17.6 Y64.32 F6000.0
M3 F6000.0
G01 F6000.0
G01 X16.6 Y64.27 F6000.0
G01 X15.6 Y64.22 F6000.0
G01 X15.59 F6000.0
G01 X14.66 Y64.59 F6000.0
G01 X14.38 Y65.08 F6000.0
M5
G00 X19.03 Y62.47 F6000.0
M3 F6000.0
G01 X18.66 Y62.98 F6000.0
G01 X18.65 Y63.52 F6000.0
M5
G00 X20.68 Y66.08 F6000.0
M3 F6000.0
G01 X19.71 Y66.06 F6000.0
G01 X19.23 Y66.28 F6000.0
M5
G00 X21.79 Y65.39 F6000.0
M3 F6000.0
G01 X21.66 Y65.47 F6000.0
G01 X20.68 Y66.08 F6000.0
G01 X20.29 Y66.92 F6000.0
G01 X20.45 Y67.65 F6000.0
M5
G00 X22.05 Y66.7 F6000.0
M3 F6000.0
G01 X22.03 Y66.72 F6000.0
G01 X21.55 Y67.63 F6000.0
G01 X21.62 Y68.28 F6000.0
M5
G00 X26.78 Y69.34 F6000.0
M3 F6000.0
G01 X26.64 Y69.37 F6000.0
G01 X25.51 Y69.59 F6000.0
G01 X24.91 Y70.23 F6000.0
G01 X24.75 Y70.91 F6000.0
G01 X24.88 Y71.51 F6000.0
M5
G00 X26.65 Y70.47 F6000.0
M3 F6000.0
G01 X26.12 Y71.03 F6000.0
G01 X25.52 Y71.33 F6000.0
G01 X25.19 Y71.81 F6000.0
M5
G00 X27.83 Y72.53 F6000.0
M3 F6000.0
G01 X27.29 Y72.69 F6000.0
M5
G00 X28.76 Y72.98 F6000.0
M3 F6000.0
G01 X28.37 Y73.71 F6000.0
G01 X28.51 Y74.41 F6000.0
G01 X28.39 Y75.0 F6000.0
M5
G00 X30.78 Y74.66 F6000.0
M3 F6000.0
G01 X30.72 Y74.7 F6000.0
G01 X29.79 Y75.26 F6000.0
G01 X29.55 Y75.87 F6000.0
G01 X29.06 Y76.16 F6000.0
M5
G00 X32.09 Y74.56 F6000.0
M3 F6000.0
G01 X32.1 Y74.62 F6000.0
G01 X32.28 Y75.68 F6000.0
G01 X32.7 Y76.17 F6000.0
M5
G00 X31.21 Y73.44 F6000.0
M3 F6000.0
G01 X31.16 Y73.58 F6000.0
G01 X30.78 Y74.66 F6000.0
G01 X30.86 Y75.32 F6000.0
G01 X30.65 Y75.85 F6000.0
M5
G00 X30.9 Y71.84 F6000.0
M3 F6000.0
G01 X30.96 Y72.15 F6000.0
G01 X31.21 Y73.44 F6000.0
G01 X31.34 Y73.61 F6000.0
G01 X32.09 Y74.56 F6000.0
G01 X32.17 Y74.61 F6000.0
G01 X33.11 Y75.18 F6000.0
G01 X33.12 F6000.0
G01 X34.12 Y75.31 F6000.0
G01 X34.87 Y75.13 F6000.0
G01 X35.33 Y74.73 F6000.0
M5
G00 X34.06 Y72.81 F6000.0
M3 F6000.0
G01 X33.6 Y73.3 F6000.0
M5
G00 X34.02 Y72.84 F6000.0
M3 F6000.0
G01 X34.45 Y73.61 F6000.0
G01 X34.99 Y74.01 F6000.0
G01 X35.56 Y74.13 F6000.0
M5
G00 X36.05 Y72.04 F6000.0
M3 F6000.0
G01 X35.86 Y72.78 F6000.0
M5
G00 X36.82 Y71.72 F6000.0
M3 F6000.0
G01 X36.98 Y72.32 F6000.0
M5
G00 X37.67 Y71.86 F6000.0
M3 F6000.0
G01 X38.2 Y72.18 F6000.0
M5
G00 X35.93 Y70.95 F6000.0
M3 F6000.0
G01 X35.94 Y71.0 F6000.0
G01 X36.05 Y72.04 F6000.0
G01 X36.37 Y72.59 F6000.0
M5
G00 X34.33 Y71.83 F6000.0
M3 F6000.0
G01 X34.32 Y71.84 F6000.0
G01 X34.06 Y72.81 F6000.0
G01 X34.27 Y73.39 F6000.0
M5
G00 X33.7 Y72.4 F6000.0
M3 F6000.0
G01 X33.56 Y73.14 F6000.0
G01 X33.71 Y73.68 F6000.0
M5
G00 X32.83 Y72. F6000.0
M3 F6000.0
G01 X33.02 Y72.13 F6000.0
G01 X34.02 Y72.84 F6000.0
G01 X34.96 Y72.99 F6000.0
G01 X35.58 Y72.72 F6000.0
G01 X35.93 Y72.29 F6000.0
M5
G00 X33.73 Y71.6 F6000.0
M3 F6000.0
G01 X34.33 Y71.67 F6000.0
M5
G00 X33.49 Y71.57 F6000.0
M3 F6000.0
G01 X33.01 Y71.94 F6000.0
M5
G00 X33.57 Y70.64 F6000.0
M3 F6000.0
G01 X33.47 Y70.75 F6000.0
G01 X32.79 Y71.48 F6000.0
G01 X32.11 Y72.22 F6000.0
G01 X31.43 Y72.95 F6000.0
G01 X30.75 Y73.68 F6000.0
G01 X30.06 Y74.41 F6000.0
G01 X29.28 Y75.26 F6000.0
G01 X29.25 Y75.33 F6000.0
G01 X28.63 Y77.23 F6000.0
G01 X28.31 Y78.18 F6000.0
G01 X28.0 Y79.13 F6000.0
G01 X27.66 Y80.16 F6000.0
G01 Y80.22 F6000.0
G01 X27.74 Y81.22 F6000.0
G01 X27.81 Y82.22 F6000.0
G01 X27.89 Y83.22 F6000.0
G01 X27.96 Y84.28 F6000.0
G01 X28.09 Y84.42 F6000.0
G01 X28.74 Y85.18 F6000.0
G01 X29.52 Y86.08 F6000.0
G01 X29.74 Y86.13 F6000.0
G01 X30.94 Y86.36 F6000.0
G01 X30.96 Y86.35 F6000.0
G01 X31.87 Y85.86 F6000.0
G01 X32.17 Y85.25 F6000.0
G01 X32.68 Y84.9 F6000.0
M5
G00 X37.7 Y80.07 F6000.0
M3 F6000.0
G01 X37.99 Y79.41 F6000.0
G01 X37.85 Y78.78 F6000.0
G01 X37.44 Y78.45 F6000.0
M5
G00 X36.99 Y77.88 F6000.0
M3 F6000.0
G01 X36.91 Y77.78 F6000.0
G01 X36.18 Y76.91 F6000.0
G01 X35.47 Y76.63 F6000.0
G01 X35.07 Y76.08 F6000.0
M5
G00 X37.99 Y79.41 F6000.0
M3 F6000.0
G01 X38.41 Y79.04 F6000.0
M5
G00 X39.24 Y79.89 F6000.0
M3 F6000.0
G01 X38.66 Y79.74 F6000.0
M5
G00 X39.82 Y81.41 F6000.0
M3 F6000.0
G01 X39.41 Y81.67 F6000.0
G01 X38.16 Y82.46 F6000.0
G01 X38.14 Y82.5 F6000.0
G01 X37.68 Y83.43 F6000.0
G01 X37.7 Y84.21 F6000.0
M5
G00 X41.87 Y81.53 F6000.0
M3 F6000.0
G01 F6000.0
G01 X42.83 Y81.27 F6000.0
G01 X43.24 Y80.72 F6000.0
M5
G00 X42.83 Y81.27 F6000.0
M3 F6000.0
G01 X43.55 Y81.38 F6000.0
G01 X44.09 Y81.27 F6000.0
M5
G00 X45.34 Y81.11 F6000.0
M3 F6000.0
G01 X44.7 Y81.39 F6000.0
M5
G00 X43.87 Y79.9 F6000.0
M3 F6000.0
G01 X43.44 Y79.97 F6000.0
G01 X42.01 Y80.18 F6000.0
G01 X41.25 Y80.74 F6000.0
G01 X41.08 Y81.26 F6000.0
M5
G00 X41.25 Y80.74 F6000.0
M3 F6000.0
G01 X40.55 Y80.86 F6000.0
M5
G00 X41.89 Y80.78 F6000.0
M3 F6000.0
G01 X42.27 Y80.31 F6000.0
M5
G00 X42.01 Y80.18 F6000.0
M3 F6000.0
G01 X41.88 Y80.11 F6000.0
G01 X40.88 Y79.55 F6000.0
G01 X39.97 Y79.58 F6000.0
G01 X39.24 Y79.89 F6000.0
G01 X38.88 Y80.41 F6000.0
M5
G00 X40.88 Y79.55 F6000.0
M3 F6000.0
G01 X40.55 Y78.87 F6000.0
G01 X40.03 Y78.55 F6000.0
M5
G00 X40.55 Y78.87 F6000.0
M3 F6000.0
G01 X40.6 Y78.21 F6000.0
M5
G00 X41.99 Y78.4 F6000.0
M3 F6000.0
G01 X41.77 Y78.42 F6000.0
G01 X39.78 Y78.59 F6000.0
G01 X38.57 Y78.69 F6000.0
G01 X38.26 Y78.96 F6000.0
G01 X37.51 Y79.62 F6000.0
G01 X36.46 Y80.56 F6000.0
G01 X36.3 Y80.96 F6000.0
G01 X35.79 Y82.3 F6000.0
G01 X35.85 Y82.5 F6000.0
G01 X36.22 Y83.65 F6000.0
G01 F6000.0
G01 X37.04 Y84.22 F6000.0
G01 X37.94 Y84.23 F6000.0
G01 X38.36 Y84.55 F6000.0
M5
G00 X45.95 Y82.75 F6000.0
M3 F6000.0
G01 X46.15 Y82.14 F6000.0
M5
G00 X47.1 Y82.1 F6000.0
M3 F6000.0
G01 X46.4 F6000.0
M5
G00 X46.66 Y81.16 F6000.0
M3 F6000.0
G01 X46.59 Y81.93 F6000.0
G01 X46.88 Y82.43 F6000.0
M5
G00 X48.04 Y82.91 F6000.0
M3 F6000.0
G01 X47.59 Y83.7 F6000.0
G01 X47.63 Y84.44 F6000.0
G01 X47.43 Y84.97 F6000.0
M5
G00 X47.31 Y85.67 F6000.0
M3 F6000.0
G01 X47.19 Y85.7 F6000.0
G01 X46.1 Y85.99 F6000.0
G01 X45.52 Y86.59 F6000.0
G01 X45.39 Y87.23 F6000.0
M5
G00 X46.52 Y87.97 F6000.0
M3 F6000.0
G01 X45.87 Y88.45 F6000.0
G01 X45.18 Y88.51 F6000.0
G01 X44.64 Y88.79 F6000.0
M5
G00 X47.01 Y88.3 F6000.0
M3 F6000.0
G01 X46.66 Y87.8 F6000.0
M5
G00 X47.02 Y87.87 F6000.0
M3 F6000.0
G01 X46.29 Y88.39 F6000.0
G01 X46.04 Y88.86 F6000.0
M5
G00 X47.23 Y87.94 F6000.0
M3 F6000.0
G01 X47.34 Y88.17 F6000.0
G01 X47.9 Y89.29 F6000.0
G01 X48.72 Y89.76 F6000.0
G01 X49.4 Y89.83 F6000.0
G01 X49.9 Y90.08 F6000.0
M5
G00 X48.65 Y88.85 F6000.0
M3 F6000.0
G01 X47.71 Y88.75 F6000.0
G01 X47.01 Y88.3 F6000.0
G01 X46.41 Y88.32 F6000.0
M5
G00 X47.61 Y88.04 F6000.0
M3 F6000.0
G01 X47.47 Y88.88 F6000.0
G01 X47.75 Y89.54 F6000.0
G01 X48.12 Y89.93 F6000.0
M5
G00 X49.04 Y88.39 F6000.0
M3 F6000.0
G01 X48.85 Y89.03 F6000.0
G01 X48.37 Y89.35 F6000.0
M5
G00 X48.72 Y88.14 F6000.0
M3 F6000.0
G01 X49.44 Y88.81 F6000.0
G01 X49.67 Y89.5 F6000.0
G01 X49.61 Y90.09 F6000.0
M5
G00 X50.92 Y88.25 F6000.0
M3 F6000.0
G01 X50.88 Y88.32 F6000.0
G01 X50.28 Y89.21 F6000.0
G01 X50.23 Y89.83 F6000.0
G01 X50.47 Y90.34 F6000.0
M5
G00 X50.83 Y88. F6000.0
M3 F6000.0
G01 X51.51 Y88.48 F6000.0
G01 X51.74 Y89.01 F6000.0
M5
G00 X51.97 Y87.61 F6000.0
M3 F6000.0
G01 X52.19 Y88.17 F6000.0
M5
G00 X51.19 Y86.75 F6000.0
M3 F6000.0
G01 X51.14 Y87.01 F6000.0
G01 X50.92 Y88.25 F6000.0
G01 X50.99 Y88.41 F6000.0
G01 X51.52 Y89.46 F6000.0
G01 X52.12 Y89.78 F6000.0
M5
G00 X49.89 Y87.81 F6000.0
M3 F6000.0
G01 X50.83 Y88.0 F6000.0
G01 X51.42 Y87.8 F6000.0
M5
G00 X50.42 Y87.1 F6000.0
M3 F6000.0
G01 X50.99 Y86.93 F6000.0
M5
G00 X50.31 Y86.7 F6000.0
M3 F6000.0
G01 X50.15 Y87.03 F6000.0
G01 X49.55 Y88.25 F6000.0
G01 X49.53 Y88.51 F6000.0
G01 X49.42 Y89.77 F6000.0
G01 X49.49 Y89.89 F6000.0
G01 X50.04 Y90.89 F6000.0
G01 X50.07 Y90.9 F6000.0
G01 X51.0 Y91.36 F6000.0
G01 X51.61 Y91.25 F6000.0
M5
G00 X48.77 Y87.57 F6000.0
M3 F6000.0
G01 X48.3 Y88.05 F6000.0
G01 X48.26 Y88.59 F6000.0
M5
G00 X47.09 Y87.01 F6000.0
M3 F6000.0
G01 X47.06 Y87.06 F6000.0
G01 X46.52 Y87.97 F6000.0
G01 Y88.73 F6000.0
G01 X46.1 Y89.28 F6000.0
M5
G00 X47.33 Y86.72 F6000.0
M3 F6000.0
G01 X47.18 Y86.78 F6000.0
G01 X46.1 Y87.19 F6000.0
G01 X46.08 Y87.22 F6000.0
G01 X45.36 Y87.96 F6000.0
G01 X45.29 Y88.52 F6000.0
M5
G00 X48.89 Y86.47 F6000.0
M3 F6000.0
G01 X48.88 Y86.52 F6000.0
G01 X48.77 Y87.57 F6000.0
G01 X49.04 Y88.39 F6000.0
G01 X49.51 Y88.79 F6000.0
M5
G00 X50.34 Y85.83 F6000.0
M3 F6000.0
G01 X49.91 Y85.5 F6000.0
M5
G00 X50.64 Y84.97 F6000.0
M3 F6000.0
G01 X50.76 Y85.38 F6000.0
G01 X51.19 Y86.75 F6000.0
G01 X51.24 Y86.81 F6000.0
G01 X51.97 Y87.61 F6000.0
G01 X52.74 Y87.99 F6000.0
G01 X53.06 Y88.47 F6000.0
M5
G00 X53.84 Y86.54 F6000.0
M3 F6000.0
G01 X53.89 Y86.7 F6000.0
G01 X54.18 Y87.83 F6000.0
G01 X54.8 Y88.44 F6000.0
G01 X55.43 Y88.62 F6000.0
M5
G00 X56.19 Y87.15 F6000.0
M3 F6000.0
G01 X56.2 Y88.12 F6000.0
G01 X56.61 Y88.83 F6000.0
G01 X57.26 Y89.12 F6000.0
G01 X57.78 Y89.01 F6000.0
M5
G00 X57.76 Y87.36 F6000.0
M3 F6000.0
G01 X57.71 F6000.0
G01 X56.66 Y87.47 F6000.0
G01 X55.9 Y87.88 F6000.0
G01 X55.57 Y88.41 F6000.0
M5
G00 X56.66 Y87.47 F6000.0
M3 F6000.0
G01 X55.98 Y87.02 F6000.0
G01 X55.64 Y86.49 F6000.0
M5
G00 X55.61 Y86.2 F6000.0
M3 F6000.0
G01 X55.54 Y86.39 F6000.0
G01 X55.15 Y87.52 F6000.0
G01 X55.28 Y88.44 F6000.0
G01 X55.63 Y88.94 F6000.0
G01 X56.13 Y89.13 F6000.0
M5
G00 X56.8 Y87.11 F6000.0
M3 F6000.0
G01 X56.6 Y87.68 F6000.0
M5
G00 X56.84 Y86.46 F6000.0
M3 F6000.0
G01 X56.82 Y87.02 F6000.0
M5
G00 X56.57 Y86.41 F6000.0
M3 F6000.0
G01 X56.15 Y87.09 F6000.0
M5
G00 X55.14 Y86.44 F6000.0
M3 F6000.0
G01 X54.56 Y86.84 F6000.0
G01 X54.35 Y87.34 F6000.0
M5
G00 X54.56 Y86.84 F6000.0
M3 F6000.0
G01 X53.97 Y86.89 F6000.0
M5
G00 X54.67 Y86.78 F6000.0
M3 F6000.0
G01 X55.14 Y87.32 F6000.0
G01 X55.23 Y87.88 F6000.0
M5
G00 X55.65 Y85.66 F6000.0
M3 F6000.0
G01 X54.99 Y85.54 F6000.0
G01 X54.43 Y85.66 F6000.0
M5
G00 X54.44 Y84.68 F6000.0
M3 F6000.0
G01 X54.62 Y84.73 F6000.0
G01 X55.76 Y85.07 F6000.0
G01 X56.52 Y84.99 F6000.0
G01 X56.98 Y84.58 F6000.0
M5
G00 X56.88 Y84.43 F6000.0
M3 F6000.0
G01 X57.04 Y84.55 F6000.0
G01 X58.0 Y85.27 F6000.0
G01 X58.83 Y85.24 F6000.0
G01 X59.39 Y85.0 F6000.0
M5
G00 X59.62 Y84.94 F6000.0
M3 F6000.0
G01 X59.18 Y85.83 F6000.0
G01 X59.2 Y86.44 F6000.0
M5
G00 X59.19 Y86.36 F6000.0
M3 F6000.0
G01 X58.88 Y86.57 F6000.0
G01 X57.76 Y87.36 F6000.0
G01 X57.69 Y87.55 F6000.0
G01 X57.26 Y88.68 F6000.0
G01 X57.38 Y89.41 F6000.0
M5
G00 X59.51 Y88.25 F6000.0
M3 F6000.0
G01 X59.45 Y88.41 F6000.0
G01 X58.98 Y89.5 F6000.0
G01 X58.99 Y89.51 F6000.0
G01 X59.09 Y90.52 F6000.0
G01 X59.36 Y91.03 F6000.0
M5
G00 X59.26 Y87.36 F6000.0
M3 F6000.0
G01 X59.3 Y87.97 F6000.0
G01 X58.99 Y88.41 F6000.0
M5
G00 X58.95 Y86.75 F6000.0
M3 F6000.0
G01 X59.26 Y87.36 F6000.0
G01 X59.69 Y87.71 F6000.0
M5
G00 X60.03 Y87.1 F6000.0
M3 F6000.0
G01 X59.63 Y87.83 F6000.0
G01 X59.6 Y88.55 F6000.0
M5
G00 X60.72 Y86.46 F6000.0
M3 F6000.0
G01 X60.09 Y87.01 F6000.0
G01 X59.88 Y87.72 F6000.0
M5
G00 X60.05 Y86.13 F6000.0
M3 F6000.0
G01 X60.03 Y87.1 F6000.0
G01 X60.51 Y87.73 F6000.0
G01 X60.55 Y88.28 F6000.0
M5
G00 X61.63 Y86.78 F6000.0
M3 F6000.0
G01 X62.07 Y87.12 F6000.0
M5
G00 X62.71 Y86.84 F6000.0
M3 F6000.0
G01 X62.32 Y87.43 F6000.0
M5
G00 X63.24 Y87.6 F6000.0
M3 F6000.0
G01 X63.31 Y88.27 F6000.0
M5
G00 X64.38 Y87.88 F6000.0
M3 F6000.0
G01 X64.5 Y88.41 F6000.0
M5
G00 X65.11 Y88.37 F6000.0
M3 F6000.0
G01 X64.64 Y88.07 F6000.0
M5
G00 X63.96 Y87.33 F6000.0
M3 F6000.0
G01 X63.84 Y88.05 F6000.0
G01 X64.02 Y88.59 F6000.0
M5
G00 X65.28 Y88.99 F6000.0
M3 F6000.0
G01 X64.66 Y89.24 F6000.0
G01 X64.37 Y89.7 F6000.0
M5
G00 X65.81 Y88.45 F6000.0
M3 F6000.0
G01 X65.11 Y88.37 F6000.0
G01 X64.56 Y88.63 F6000.0
M5
G00 X64.74 Y86.42 F6000.0
M3 F6000.0
G01 X65.5 Y86.8 F6000.0
G01 X65.83 Y87.32 F6000.0
M5
G00 X66.56 Y86.74 F6000.0
M3 F6000.0
G01 X66.69 Y87.07 F6000.0
G01 X67.08 Y88.0 F6000.0
G01 X67.59 Y89.25 F6000.0
G01 X67.78 Y89.37 F6000.0
G01 X68.8 Y90.05 F6000.0
G01 X69.63 Y90.19 F6000.0
M5
G00 X68.81 Y88.09 F6000.0
M3 F6000.0
G01 X68.03 Y88.22 F6000.0
G01 X67.46 Y88.08 F6000.0
M5
G00 X66.87 Y88.04 F6000.0
M3 F6000.0
G01 X66.8 Y88.07 F6000.0
G01 X65.81 Y88.45 F6000.0
G01 X65.28 Y88.99 F6000.0
G01 X65.0 Y89.61 F6000.0
G01 Y90.21 F6000.0
M5
G00 X63.68 Y86.41 F6000.0
M3 F6000.0
G01 X63.96 Y87.33 F6000.0
G01 X64.38 Y87.88 F6000.0
G01 X64.92 Y88.02 F6000.0
M5
G00 X65.37 Y85.99 F6000.0
M3 F6000.0
G01 X66.05 F6000.0
M5
G00 X65.66 Y85.52 F6000.0
M3 F6000.0
G01 X64.98 Y85.82 F6000.0
G01 X64.45 Y85.85 F6000.0
M5
G00 X64.28 Y84.71 F6000.0
M3 F6000.0
G01 X64.25 Y84.95 F6000.0
G01 X64.13 Y85.94 F6000.0
G01 X64.01 Y86.93 F6000.0
G01 X63.86 Y88.17 F6000.0
G01 X63.87 Y88.18 F6000.0
G01 X64.39 Y89.04 F6000.0
G01 X64.91 Y89.89 F6000.0
G01 X65.44 Y90.76 F6000.0
G01 X65.5 Y90.78 F6000.0
G01 X66.42 Y91.18 F6000.0
G01 X67.4 Y91.61 F6000.0
G01 X67.66 Y91.62 F6000.0
G01 X68.92 Y91.65 F6000.0
G01 X68.93 Y91.64 F6000.0
G01 X69.85 Y91.21 F6000.0
G01 X70.72 Y91.24 F6000.0
G01 X71.31 Y90.95 F6000.0
G01 X71.64 Y90.51 F6000.0
M5
G00 X70.75 Y87.83 F6000.0
M3 F6000.0
G01 X70.78 Y87.86 F6000.0
G01 X71.6 Y88.5 F6000.0
G01 X72.49 Y88.74 F6000.0
G01 X73.02 Y88.59 F6000.0
M5
G00 X71.79 Y87.48 F6000.0
M3 F6000.0
G01 X72.58 Y87.57 F6000.0
G01 X73.05 Y87.98 F6000.0
M5
G00 X73.15 Y86.82 F6000.0
M3 F6000.0
G01 X73.09 Y86.91 F6000.0
G01 X72.45 Y87.82 F6000.0
G01 X72.48 Y88.46 F6000.0
M5
G00 X72.62 Y86.12 F6000.0
M3 F6000.0
G01 X72.45 Y86.7 F6000.0
M5
G00 X71.07 Y86.56 F6000.0
M3 F6000.0
G01 X71.64 Y87.01 F6000.0
G01 X71.9 Y87.49 F6000.0
M5
G00 X71.52 Y85.54 F6000.0
M3 F6000.0
G01 X70.89 Y86.06 F6000.0
G01 X70.78 Y86.58 F6000.0
M5
G00 X69.84 Y86.27 F6000.0
M3 F6000.0
G01 X69.97 Y86.3 F6000.0
G01 X71.07 Y86.56 F6000.0
G01 X71.8 Y86.4 F6000.0
M5
G00 X72.52 Y85.29 F6000.0
M3 F6000.0
G01 X72.62 Y86.12 F6000.0
G01 X73.0 Y86.53 F6000.0
M5
G00 X73.31 Y85.23 F6000.0
M3 F6000.0
G01 X73.28 Y85.53 F6000.0
G01 X73.15 Y86.82 F6000.0
G01 X73.55 Y87.73 F6000.0
G01 X73.95 Y88.11 F6000.0
M5
G00 X73.97 Y85.3 F6000.0
M3 F6000.0
G01 X73.2 Y85.27 F6000.0
G01 X72.58 Y85.54 F6000.0
G01 X71.99 Y85.43 F6000.0
M5
G00 X71.39 Y85.14 F6000.0
M3 F6000.0
G01 X71.97 Y85.28 F6000.0
M5
G00 X71.96 Y84.41 F6000.0
M3 F6000.0
G01 X71.92 Y84.51 F6000.0
G01 X71.52 Y85.54 F6000.0
G01 X71.65 Y86.16 F6000.0
M5
G00 X70.59 Y85.51 F6000.0
M3 F6000.0
G01 X71.39 Y85.14 F6000.0
G01 X71.71 Y84.55 F6000.0
G01 X72.25 Y84.33 F6000.0
M5
G00 X72.3 Y83.41 F6000.0
M3 F6000.0
G01 X72.24 Y83.47 F6000.0
G01 X71.55 Y84.19 F6000.0
G01 X70.86 Y84.91 F6000.0
G01 X70.11 Y85.69 F6000.0
G01 X70.04 Y86.01 F6000.0
G01 X69.76 Y87.31 F6000.0
G01 X69.83 Y87.49 F6000.0
G01 X70.25 Y88.62 F6000.0
G01 X71.01 Y89.16 F6000.0
G01 X71.69 Y89.12 F6000.0
M5
G00 X69.44 Y87.79 F6000.0
M3 F6000.0
G01 X69.74 Y88.56 F6000.0
G01 X70.26 Y88.85 F6000.0
M5
G00 X69.76 Y87.31 F6000.0
M3 F6000.0
G01 X69.67 Y87.38 F6000.0
G01 X68.81 Y88.09 F6000.0
G01 X68.6 Y88.88 F6000.0
G01 X68.84 Y89.48 F6000.0
G01 X68.83 Y90.03 F6000.0
M5
G00 X68.34 Y86.8 F6000.0
M3 F6000.0
G01 X68.52 Y86.96 F6000.0
G01 X69.44 Y87.79 F6000.0
G01 X69.59 F6000.0
G01 X70.75 Y87.83 F6000.0
G01 X70.79 Y87.82 F6000.0
G01 X71.79 Y87.48 F6000.0
G01 X72.14 Y86.9 F6000.0
G01 X72.09 Y86.37 F6000.0
M5
G00 X70.81 Y84.75 F6000.0
M3 F6000.0
G01 X71.24 Y84.36 F6000.0
M5
G00 X70.5 Y84.25 F6000.0
M3 F6000.0
G01 X70.28 Y85.2 F6000.0
G01 X70.53 Y85.87 F6000.0
M5
G00 X70.11 Y85.69 F6000.0
M3 F6000.0
G01 X70.0 Y85.72 F6000.0
G01 X69.06 Y86.05 F6000.0
G01 X68.01 Y86.42 F6000.0
G01 X67.73 Y86.82 F6000.0
G01 X66.87 Y88.04 F6000.0
G01 X66.84 Y88.34 F6000.0
G01 X66.74 Y89.63 F6000.0
G01 X67.01 Y90.44 F6000.0
G01 X67.56 Y90.93 F6000.0
G01 X68.15 Y90.98 F6000.0
M5
G00 X68.01 Y86.42 F6000.0
M3 F6000.0
G01 X67.78 Y86.41 F6000.0
G01 X66.56 Y86.39 F6000.0
G01 X65.7 Y86.83 F6000.0
G01 X65.41 Y87.36 F6000.0
M5
G00 X66.56 Y86.39 F6000.0
M3 F6000.0
G01 X65.91 Y85.94 F6000.0
G01 X65.58 Y85.34 F6000.0
G01 X65.08 Y85.03 F6000.0
M5
G00 X65.22 Y84.2 F6000.0
M3 F6000.0
G01 X65.47 Y84.72 F6000.0
M5
G00 X66.11 Y84.68 F6000.0
M3 F6000.0
G01 X65.66 Y85.52 F6000.0
G01 X65.78 Y86.12 F6000.0
M5
G00 X66.72 Y85.36 F6000.0
M3 F6000.0
G01 X66.95 Y86.08 F6000.0
G01 X66.9 Y86.63 F6000.0
M5
G00 X66.8 Y83.78 F6000.0
M3 F6000.0
G01 X67.2 Y84.26 F6000.0
M5
G00 X67.59 Y83.36 F6000.0
M3 F6000.0
G01 X67.41 Y84.0 F6000.0
M5
G00 X68.06 Y83.78 F6000.0
M3 F6000.0
G01 X67.83 Y84.48 F6000.0
G01 X68.02 Y85.03 F6000.0
M5
G00 X66.92 Y83.27 F6000.0
M3 F6000.0
G01 X66.06 Y83.43 F6000.0
G01 X65.49 Y83.91 F6000.0
M5
G00 X65.72 Y83.77 F6000.0
M3 F6000.0
G01 X66.31 Y83.78 F6000.0
M5
G00 X65.99 Y83.6 F6000.0
M3 F6000.0
G01 Y83.64 F6000.0
G01 X66.11 Y84.68 F6000.0
G01 X66.72 Y85.36 F6000.0
G01 X67.22 Y85.56 F6000.0
M5
G00 X66.06 Y83.43 F6000.0
M3 F6000.0
G01 X65.51 Y83.31 F6000.0
M5
G00 X66.05 Y83.03 F6000.0
M3 F6000.0
G01 X65.57 Y83.32 F6000.0
M5
G00 X65.03 Y82.69 F6000.0
M3 F6000.0
G01 X64.85 Y83.64 F6000.0
G01 X64.48 Y84.08 F6000.0
M5
G00 X64.28 Y83.92 F6000.0
M3 F6000.0
G01 X65.08 Y84.06 F6000.0
G01 X65.72 Y83.77 F6000.0
G01 X66.03 Y83.33 F6000.0
M5
G00 X66.36 Y82.59 F6000.0
M3 F6000.0
G01 X66.65 Y83.25 F6000.0
G01 X67.11 Y83.61 F6000.0
M5
G00 X67.62 Y82.58 F6000.0
M3 F6000.0
G01 X67.28 Y83.25 F6000.0
G01 X66.77 Y83.68 F6000.0
G01 X66.2 Y83.84 F6000.0
M5
G00 X65.08 Y84.06 F6000.0
M3 F6000.0
G01 X65.55 Y84.4 F6000.0
M5
G00 X64.31 Y84.56 F6000.0
M3 F6000.0
G01 X63.67 Y85.13 F6000.0
G01 X63.56 Y85.65 F6000.0
M5
G00 X62.69 Y85.6 F6000.0
M3 F6000.0
G01 Y85.72 F6000.0
G01 X62.71 Y86.84 F6000.0
G01 X63.24 Y87.6 F6000.0
G01 X63.89 Y87.95 F6000.0
M5
G00 X62.42 Y85.77 F6000.0
M3 F6000.0
G01 X62.69 Y86.25 F6000.0
M5
G00 X61.7 Y85.16 F6000.0
M3 F6000.0
G01 X61.46 Y85.9 F6000.0
G01 X61.51 Y86.59 F6000.0
G01 X61.76 Y87.09 F6000.0
M5
G00 X60.91 Y85.52 F6000.0
M3 F6000.0
G01 X60.72 Y86.46 F6000.0
G01 X61.01 Y87.12 F6000.0
M5
G00 X59.99 Y85.18 F6000.0
M3 F6000.0
G01 X59.5 Y85.37 F6000.0
M5
G00 X59.18 Y85.83 F6000.0
M3 F6000.0
G01 X58.46 Y86.26 F6000.0
G01 X58.24 Y86.82 F6000.0
M5
G00 X58.31 Y86.28 F6000.0
M3 F6000.0
G01 X58.17 Y86.94 F6000.0
M5
G00 X58.46 Y86.26 F6000.0
M3 F6000.0
G01 X57.78 Y86.22 F6000.0
M5
G00 X58. Y85.27 F6000.0
M3 F6000.0
G01 X58.01 Y85.3 F6000.0
G01 X58.31 Y86.28 F6000.0
G01 X58.95 Y86.75 F6000.0
G01 X59.6 Y86.77 F6000.0
M5
G00 X60.26 Y84.59 F6000.0
M3 F6000.0
G01 X60.46 Y85.36 F6000.0
G01 X60.24 Y85.89 F6000.0
M5
G00 X60.39 Y84.52 F6000.0
M3 F6000.0
G01 X59.99 Y85.18 F6000.0
G01 X59.95 Y85.8 F6000.0
M5
G00 X61.05 Y84.62 F6000.0
M3 F6000.0
G01 X61.52 Y84.88 F6000.0
M5
G00 X61.97 Y84.28 F6000.0
M3 F6000.0
G01 X62.09 Y84.5 F6000.0
G01 X62.69 Y85.6 F6000.0
G01 X62.8 Y85.69 F6000.0
G01 X63.68 Y86.41 F6000.0
G01 X63.71 F6000.0
G01 X64.74 Y86.42 F6000.0
G01 X65.37 Y85.99 F6000.0
G01 X65.55 Y85.36 F6000.0
M5
G00 X64.52 Y83.53 F6000.0
M3 F6000.0
G01 X64.51 Y83.56 F6000.0
G01 X64.31 Y84.56 F6000.0
G01 X64.46 Y85.2 F6000.0
M5
G00 X63.33 Y84.37 F6000.0
M3 F6000.0
G01 X64.01 Y84.72 F6000.0
G01 X64.64 Y84.59 F6000.0
M5
G00 X62.47 Y84.57 F6000.0
M3 F6000.0
G01 X62.74 Y85.1 F6000.0
M5
G00 X61.5 Y84.11 F6000.0
M3 F6000.0
G01 Y84.15 F6000.0
G01 X61.7 Y85.16 F6000.0
G01 X62.42 Y85.77 F6000.0
G01 X63.08 Y86.0 F6000.0
G01 X63.69 Y85.81 F6000.0
M5
G00 X62.04 Y83.43 F6000.0
M3 F6000.0
G01 X61.49 Y83.48 F6000.0
M5
G00 X61. Y84.27 F6000.0
M3 F6000.0
G01 X60.96 Y84.88 F6000.0
G01 X61.13 Y85.39 F6000.0
M5
G00 X59.43 Y83.97 F6000.0
M3 F6000.0
G01 X59.45 F6000.0
G01 X60.26 Y84.59 F6000.0
G01 X61.05 Y84.62 F6000.0
G01 X61.56 Y84.43 F6000.0
M5
G00 X60.6 Y83.11 F6000.0
M3 F6000.0
G01 X60.57 Y83.32 F6000.0
G01 X60.39 Y84.52 F6000.0
G01 X60.42 Y84.58 F6000.0
G01 X60.91 Y85.52 F6000.0
G01 X61.43 Y85.82 F6000.0
M5
G00 X60.16 Y83.09 F6000.0
M3 F6000.0
G01 X59.92 Y83.16 F6000.0
G01 X58.97 Y83.44 F6000.0
G01 X57.77 Y83.8 F6000.0
G01 X57.52 Y84.13 F6000.0
G01 X56.7 Y85.28 F6000.0
G01 X56.69 Y85.35 F6000.0
G01 X56.57 Y86.41 F6000.0
G01 X56.8 Y87.11 F6000.0
G01 X57.18 Y87.52 F6000.0
M5
G00 X56.48 Y85.73 F6000.0
M3 F6000.0
G01 X56.84 Y86.46 F6000.0
G01 X57.32 Y86.8 F6000.0
M5
G00 X56.7 Y85.28 F6000.0
M3 F6000.0
G01 X56.65 Y85.3 F6000.0
G01 X55.65 Y85.66 F6000.0
G01 X55.14 Y86.44 F6000.0
G01 X54.99 Y87.09 F6000.0
G01 X54.56 Y87.5 F6000.0
M5
G00 X52.76 Y86.34 F6000.0
M3 F6000.0
G01 X52.74 Y86.4 F6000.0
G01 X52.38 Y87.41 F6000.0
G01 X52.65 Y88.18 F6000.0
G01 X52.56 Y88.84 F6000.0
G01 X52.27 Y89.32 F6000.0
M5
G00 X51.06 Y86. F6000.0
M3 F6000.0
G01 X50.34 Y85.83 F6000.0
G01 X49.7 Y85.9 F6000.0
G01 X49.31 Y86.3 F6000.0
M5
G00 X48.41 Y85.23 F6000.0
M3 F6000.0
G01 X48.16 Y85.57 F6000.0
G01 X47.33 Y86.72 F6000.0
G01 X47.3 Y86.81 F6000.0
G01 X47.02 Y87.87 F6000.0
G01 X47.17 Y88.76 F6000.0
G01 X46.91 Y89.31 F6000.0
G01 X46.87 Y89.85 F6000.0
M5
G00 X48.29 Y84.5 F6000.0
M3 F6000.0
G01 X48.08 Y84.46 F6000.0
G01 X46.9 Y84.18 F6000.0
G01 X46.08 Y84.29 F6000.0
G01 X45.54 Y84.72 F6000.0
M5
G00 X46.9 Y84.18 F6000.0
M3 F6000.0
G01 X46.87 Y84.16 F6000.0
G01 X46.13 Y83.44 F6000.0
G01 X45.26 Y83.09 F6000.0
G01 X44.74 Y83.15 F6000.0
M5
G00 X47.6 Y83.7 F6000.0
M3 F6000.0
G01 X47.16 Y84.02 F6000.0
M5
G00 X48.43 Y83.12 F6000.0
M3 F6000.0
G01 Y83.17 F6000.0
G01 X48.42 Y84.17 F6000.0
G01 X48.41 Y85.23 F6000.0
G01 X48.47 Y85.38 F6000.0
G01 X48.89 Y86.47 F6000.0
G01 X49.45 Y86.85 F6000.0
G01 X49.64 Y87.43 F6000.0
M5
G00 X51.89 Y85.74 F6000.0
M3 F6000.0
G01 X51.06 Y86.0 F6000.0
G01 X50.66 Y86.57 F6000.0
M5
G00 X52.44 Y85.68 F6000.0
M3 F6000.0
G01 X51.91 Y85.65 F6000.0
M5
G00 X52.74 Y85.3 F6000.0
M3 F6000.0
G01 X52.96 Y85.55 F6000.0
G01 X53.84 Y86.54 F6000.0
G01 X54.67 Y86.78 F6000.0
G01 X55.39 Y86.7 F6000.0
M5
G00 X55.76 Y85.07 F6000.0
M3 F6000.0
G01 X56.48 Y85.73 F6000.0
G01 X57.04 Y85.86 F6000.0
M5
G00 X56.52 Y84.99 F6000.0
M3 F6000.0
G01 X57.12 Y85.32 F6000.0
G01 X57.38 Y85.87 F6000.0
M5
G00 X57.77 Y83.8 F6000.0
M3 F6000.0
G01 X57.65 Y83.78 F6000.0
G01 X56.65 Y83.66 F6000.0
G01 X55.54 Y83.52 F6000.0
G01 X55.19 Y83.72 F6000.0
G01 X53.97 Y84.43 F6000.0
G01 X53.9 Y84.52 F6000.0
G01 X53.2 Y85.39 F6000.0
G01 X53.02 Y85.98 F6000.0
M5
G00 X53.2 Y85.39 F6000.0
M3 F6000.0
G01 X52.44 Y85.68 F6000.0
G01 X52.0 Y86.06 F6000.0
M5
G00 X52.74 Y84.98 F6000.0
M3 F6000.0
G01 X52.69 Y85.03 F6000.0
G01 X51.89 Y85.74 F6000.0
G01 X51.74 Y86.33 F6000.0
M5
G00 X52.9 Y84.57 F6000.0
M3 F6000.0
G01 X52.05 Y84.33 F6000.0
G01 X51.61 Y83.77 F6000.0
G01 X51.05 Y83.56 F6000.0
M5
G00 X51.61 Y83.77 F6000.0
M3 F6000.0
G01 X51.57 Y83.2 F6000.0
M5
G00 X50.38 Y83.47 F6000.0
M3 F6000.0
G01 X50.23 Y83.54 F6000.0
G01 X49.34 Y83.99 F6000.0
G01 X48.29 Y84.5 F6000.0
G01 X48.12 Y84.7 F6000.0
G01 X47.31 Y85.67 F6000.0
G01 X47.28 Y85.84 F6000.0
G01 X47.09 Y87.01 F6000.0
G01 X47.13 Y87.08 F6000.0
G01 X47.61 Y88.04 F6000.0
G01 X48.11 Y88.39 F6000.0
M5
G00 X49.74 Y84.4 F6000.0
M3 F6000.0
G01 X50.09 Y84.81 F6000.0
M5
G00 X48.8 Y83.99 F6000.0
M3 F6000.0
G01 X48.78 Y84.93 F6000.0
G01 X48.54 Y85.44 F6000.0
M5
G00 X48.87 Y83.52 F6000.0
M3 F6000.0
G01 X48.29 Y83.91 F6000.0
M5
G00 X49.31 Y82.73 F6000.0
M3 F6000.0
G01 X48.87 Y83.52 F6000.0
G01 X48.94 Y84.09 F6000.0
M5
G00 X50.28 Y82.34 F6000.0
M3 F6000.0
G01 X50.63 Y83.06 F6000.0
G01 X51.21 Y83.37 F6000.0
G01 X51.56 Y83.81 F6000.0
M5
G00 X53.46 Y82.94 F6000.0
M3 F6000.0
G01 X53.44 Y83.02 F6000.0
G01 X53.1 Y83.96 F6000.0
G01 X52.74 Y84.98 F6000.0
G01 X52.75 Y85.16 F6000.0
G01 X52.76 Y86.34 F6000.0
G01 X53.2 Y87.07 F6000.0
G01 X53.82 Y87.4 F6000.0
G01 X54.4 Y87.44 F6000.0
M5
G00 X53.97 Y84.43 F6000.0
M3 F6000.0
G01 X53.93 F6000.0
G01 X52.9 Y84.57 F6000.0
G01 X52.22 Y84.95 F6000.0
M5
G00 X53.45 Y82.38 F6000.0
M3 F6000.0
G01 X52.84 Y82.03 F6000.0
G01 X52.51 Y81.59 F6000.0
M5
G00 X52.72 Y80.37 F6000.0
M3 F6000.0
G01 X52.46 Y80.72 F6000.0
G01 X51.85 Y81.52 F6000.0
G01 X51.25 Y82.32 F6000.0
G01 X50.38 Y83.47 F6000.0
G01 Y83.59 F6000.0
G01 X50.34 Y85.59 F6000.0
G01 X50.31 Y86.7 F6000.0
G01 X50.47 Y86.93 F6000.0
G01 X51.05 Y87.74 F6000.0
G01 X51.79 Y88.77 F6000.0
G01 X52.16 Y88.97 F6000.0
G01 X53.4 Y89.63 F6000.0
G01 X53.72 Y89.64 F6000.0
G01 X55.04 Y89.69 F6000.0
G01 X55.12 Y89.65 F6000.0
G01 X56.11 Y89.21 F6000.0
G01 X56.48 Y88.49 F6000.0
G01 X56.5 Y87.86 F6000.0
G01 X56.18 Y87.43 F6000.0
M5
G00 X55.25 Y84.39 F6000.0
M3 F6000.0
G01 X55.33 Y84.8 F6000.0
G01 X55.61 Y86.2 F6000.0
G01 X55.64 Y86.25 F6000.0
G01 X56.19 Y87.15 F6000.0
G01 X56.88 Y87.55 F6000.0
M5
G00 X58.22 Y83.81 F6000.0
M3 F6000.0
G01 X58.33 Y83.83 F6000.0
G01 X59.43 Y83.97 F6000.0
G01 X60.08 Y83.81 F6000.0
G01 X60.56 Y83.5 F6000.0
M5
G00 X60.72 Y82.78 F6000.0
M3 F6000.0
G01 X60.25 Y83.16 F6000.0
M5
G00 X59.77 Y83. F6000.0
M3 F6000.0
G01 X59.73 Y83.47 F6000.0
G01 X59.62 Y84.94 F6000.0
G01 X59.66 Y85.06 F6000.0
G01 X60.05 Y86.13 F6000.0
G01 X60.86 Y86.69 F6000.0
G01 X61.63 Y86.78 F6000.0
G01 X62.08 Y86.49 F6000.0
M5
G00 X62.69 Y82.2 F6000.0
M3 F6000.0
G01 X62.52 Y83.01 F6000.0
G01 X62.04 Y83.43 F6000.0
G01 X61.78 Y83.92 F6000.0
M5
G00 X61.21 Y81.85 F6000.0
M3 F6000.0
G01 X60.33 Y81.83 F6000.0
G01 X59.89 Y81.45 F6000.0
M5
G00 X60.06 Y81.44 F6000.0
M3 F6000.0
G01 X59.92 Y81.59 F6000.0
G01 X59.12 Y82.5 F6000.0
G01 X59.09 Y82.57 F6000.0
G01 X58.74 Y83.59 F6000.0
G01 X58.84 Y84.25 F6000.0
G01 X58.63 Y84.74 F6000.0
M5
G00 X58.74 Y83.59 F6000.0
M3 F6000.0
G01 X58.33 Y84.06 F6000.0
M5
G00 X58.1 Y82.97 F6000.0
M3 F6000.0
G01 X57.28 Y83.03 F6000.0
G01 X56.77 Y82.84 F6000.0
M5
G00 X56.83 Y82.45 F6000.0
M3 F6000.0
G01 X56.33 Y82.91 F6000.0
G01 X55.75 Y82.95 F6000.0
M5
G00 X55.89 Y82.56 F6000.0
M3 F6000.0
G01 X56.51 Y81.94 F6000.0
G01 X56.75 Y81.31 F6000.0
G01 X57.17 Y80.97 F6000.0
M5
G00 X57.14 Y81.19 F6000.0
M3 F6000.0
G01 X56.22 Y81.41 F6000.0
G01 X55.72 Y81.98 F6000.0
M5
G00 X56.22 Y81.41 F6000.0
M3 F6000.0
G01 X55.52 Y81.27 F6000.0
G01 X55.03 Y80.88 F6000.0
M5
G00 X53.99 Y81.61 F6000.0
M3 F6000.0
G01 X54.04 Y80.99 F6000.0
G01 X53.87 Y80.48 F6000.0
M5
G00 X54.99 Y79.09 F6000.0
M3 F6000.0
G01 X54.41 Y79.55 F6000.0
G01 X54.16 Y80.06 F6000.0
M5
G00 X55.65 Y79.03 F6000.0
M3 F6000.0
G01 X55.18 Y78.34 F6000.0
G01 X54.48 Y78.13 F6000.0
G01 X53.92 Y78.28 F6000.0
M5
G00 X54.48 Y78.13 F6000.0
M3 F6000.0
G01 X54.11 Y77.74 F6000.0
M5
G00 X53.84 Y77.6 F6000.0
M3 F6000.0
G01 X54.08 Y78.12 F6000.0
M5
G00 X55.17 Y78.25 F6000.0
M3 F6000.0
G01 X54.45 Y78.48 F6000.0
M5
G00 X55.78 Y77.33 F6000.0
M3 F6000.0
G01 X55.75 Y77.38 F6000.0
G01 X55.17 Y78.25 F6000.0
G01 X54.99 Y79.09 F6000.0
G01 X55.09 Y79.79 F6000.0
M5
G00 X56.6 Y79.64 F6000.0
M3 F6000.0
G01 X56.54 Y79.61 F6000.0
G01 X55.65 Y79.03 F6000.0
G01 X54.94 Y78.97 F6000.0
G01 X54.39 Y79.17 F6000.0
M5
G00 X53.22 Y77.11 F6000.0
M3 F6000.0
G01 X53.05 Y77.63 F6000.0
M5
G00 X52. Y77.73 F6000.0
M3 F6000.0
G01 X52.7 Y77.62 F6000.0
G01 X53.18 Y77.83 F6000.0
M5
G00 X53.62 Y76.41 F6000.0
M3 F6000.0
G01 X54.06 Y76.75 F6000.0
M5
G00 X54.26 Y76.27 F6000.0
M3 F6000.0
G01 X54.79 Y76.53 F6000.0
M5
G00 X54.91 Y75.86 F6000.0
M3 F6000.0
G01 X54.3 Y75.63 F6000.0
M5
G00 X53.95 Y76. F6000.0
M3 F6000.0
G01 X53.88 Y76.26 F6000.0
G01 X53.61 Y77.22 F6000.0
G01 X53.34 Y78.19 F6000.0
G01 X53.07 Y79.15 F6000.0
G01 X52.72 Y80.37 F6000.0
G01 X52.82 Y80.7 F6000.0
G01 X53.09 Y81.66 F6000.0
G01 X53.46 Y82.94 F6000.0
G01 X53.58 Y83.04 F6000.0
G01 X54.35 Y83.67 F6000.0
G01 X55.25 Y84.39 F6000.0
G01 X55.56 Y84.4 F6000.0
G01 X56.88 Y84.43 F6000.0
G01 X57.09 Y84.33 F6000.0
G01 X58.22 Y83.81 F6000.0
G01 X58.69 Y83.0 F6000.0
G01 X59.36 Y82.7 F6000.0
G01 X59.71 Y82.25 F6000.0
M5
G00 X59.36 Y82.7 F6000.0
M3 F6000.0
G01 X59.99 Y82.67 F6000.0
M5
G00 X59.12 Y82.5 F6000.0
M3 F6000.0
G01 X59.06 Y82.52 F6000.0
G01 X58.1 Y82.97 F6000.0
G01 X57.66 Y83.46 F6000.0
M5
G00 X57.08 Y83.55 F6000.0
M3 F6000.0
G01 X56.88 Y84.19 F6000.0
G01 X56.44 Y84.5 F6000.0
M5
G00 X56.37 Y83.22 F6000.0
M3 F6000.0
G01 X57.17 Y83.47 F6000.0
G01 X57.78 Y83.32 F6000.0
G01 X58.2 Y82.97 F6000.0
M5
G00 X56.51 Y81.94 F6000.0
M3 F6000.0
G01 X57.25 Y81.7 F6000.0
G01 X57.66 Y81.22 F6000.0
M5
G00 X58.14 Y79.88 F6000.0
M3 F6000.0
G01 X57.86 Y79.83 F6000.0
G01 X56.6 Y79.64 F6000.0
G01 X55.79 Y80.01 F6000.0
G01 X55.41 Y80.69 F6000.0
G01 X54.87 Y81.06 F6000.0
M5
G00 X54.45 Y82.52 F6000.0
M3 F6000.0
G01 Y82.51 F6000.0
G01 X53.99 Y81.61 F6000.0
G01 X53.45 Y81.23 F6000.0
M5
G00 X55.49 Y83.55 F6000.0
M3 F6000.0
G01 X56.37 Y83.22 F6000.0
G01 X56.76 Y82.77 F6000.0
M5
G00 X55.54 Y83.52 F6000.0
M3 F6000.0
G01 X55.37 Y83.36 F6000.0
G01 X54.45 Y82.52 F6000.0
G01 F6000.0
G01 X53.45 Y82.38 F6000.0
G01 X52.68 Y82.64 F6000.0
M5
G00 X49.47 Y81.62 F6000.0
M3 F6000.0
G01 X49.46 Y81.68 F6000.0
G01 X49.31 Y82.73 F6000.0
G01 X49.66 Y83.32 F6000.0
G01 X50.1 Y83.67 F6000.0
M5
G00 X47.98 Y81.44 F6000.0
M3 F6000.0
G01 X47.94 Y81.47 F6000.0
G01 X47.1 Y82.1 F6000.0
G01 X46.93 Y82.81 F6000.0
M5
G00 X46.79 Y80.03 F6000.0
M3 F6000.0
G01 F6000.0
G01 X45.95 Y81.85 F6000.0
G01 X45.52 Y82.75 F6000.0
G01 X45.1 Y83.66 F6000.0
G01 X45.11 Y83.72 F6000.0
G01 X45.31 Y84.7 F6000.0
G01 X45.52 Y85.68 F6000.0
G01 X45.73 Y86.73 F6000.0
G01 X46.09 Y87.02 F6000.0
G01 X47.23 Y87.94 F6000.0
G01 X47.48 Y87.98 F6000.0
G01 X48.72 Y88.14 F6000.0
G01 X48.82 Y88.11 F6000.0
G01 X49.89 Y87.81 F6000.0
G01 X50.42 Y87.1 F6000.0
G01 X50.41 Y86.31 F6000.0
M5
G00 X48.88 Y79.97 F6000.0
M3 F6000.0
G01 X48.7 Y80.28 F6000.0
G01 X47.98 Y81.44 F6000.0
G01 X47.99 Y81.67 F6000.0
G01 X48.04 Y82.91 F6000.0
G01 X48.13 Y83.04 F6000.0
G01 X48.8 Y83.99 F6000.0
G01 X48.81 Y84.0 F6000.0
G01 X49.74 Y84.4 F6000.0
G01 X50.64 Y84.44 F6000.0
M5
G00 X50.73 Y79.25 F6000.0
M3 F6000.0
G01 X50.74 Y79.82 F6000.0
M5
G00 X50.28 Y78.37 F6000.0
M3 F6000.0
G01 X50.73 Y79.25 F6000.0
G01 X51.28 Y79.68 F6000.0
M5
G00 X51.34 Y78.25 F6000.0
M3 F6000.0
G01 X52.04 Y78.48 F6000.0
M5
G00 X52.87 Y76.24 F6000.0
M3 F6000.0
G01 X53.22 Y77.11 F6000.0
G01 X53.84 Y77.6 F6000.0
G01 X54.52 Y77.78 F6000.0
G01 X54.97 Y78.12 F6000.0
M5
G00 X57.37 Y78.34 F6000.0
M3 F6000.0
G01 X56.82 Y78.71 F6000.0
M5
G00 X58.02 Y78.89 F6000.0
M3 F6000.0
G01 X57.56 Y79.66 F6000.0
G01 X57.03 Y80.02 F6000.0
M5
G00 X58.19 Y79.89 F6000.0
M3 F6000.0
G01 X58.3 Y80.11 F6000.0
G01 X58.75 Y81.0 F6000.0
G01 X59.2 Y81.89 F6000.0
G01 X59.77 Y83.0 F6000.0
G01 X60.01 Y83.13 F6000.0
G01 X60.87 Y83.64 F6000.0
G01 X61.97 Y84.28 F6000.0
G01 X62.15 Y84.29 F6000.0
G01 X63.33 Y84.37 F6000.0
G01 X63.35 Y84.36 F6000.0
G01 X64.28 Y83.92 F6000.0
G01 X64.65 Y83.3 F6000.0
M5
G00 X65.25 Y82.03 F6000.0
M3 F6000.0
G01 X65.36 Y82.08 F6000.0
G01 X66.36 Y82.59 F6000.0
G01 X67.11 Y82.42 F6000.0
G01 X67.49 Y81.96 F6000.0
M5
G00 X67.8 Y81.81 F6000.0
M3 F6000.0
G01 X68.05 Y82.33 F6000.0
M5
G00 X67.72 Y82.39 F6000.0
M3 F6000.0
G01 X67.65 Y82.46 F6000.0
G01 X66.92 Y83.27 F6000.0
G01 X66.87 Y83.87 F6000.0
M5
G00 X67.18 Y82.43 F6000.0
M3 F6000.0
G01 Y82.44 F6000.0
G01 X67.59 Y83.36 F6000.0
G01 X68.05 Y83.75 F6000.0
G01 X68.57 Y83.87 F6000.0
M5
G00 X69.23 Y83.07 F6000.0
M3 F6000.0
G01 X68.79 Y83.9 F6000.0
G01 X68.74 Y84.63 F6000.0
G01 X68.38 Y85.19 F6000.0
M5
G00 X70.28 Y85.2 F6000.0
M3 F6000.0
G01 X69.97 Y85.64 F6000.0
M5
G00 X70.05 Y83.77 F6000.0
M3 F6000.0
G01 X70.27 Y84.48 F6000.0
G01 X70.68 Y84.97 F6000.0
M5
G00 X70.85 Y83.56 F6000.0
M3 F6000.0
G01 X70.26 Y83.55 F6000.0
M5
G00 X70.34 Y82.92 F6000.0
M3 F6000.0
G01 X70.36 Y83.09 F6000.0
G01 X70.5 Y84.25 F6000.0
G01 X70.51 Y84.26 F6000.0
G01 X71.22 Y84.97 F6000.0
G01 X71.37 Y85.51 F6000.0
M5
G00 X71.73 Y83. F6000.0
M3 F6000.0
G01 X71.71 Y83.01 F6000.0
G01 X70.85 Y83.56 F6000.0
G01 X70.57 Y84.24 F6000.0
M5
G00 X70.36 Y82.02 F6000.0
M3 F6000.0
G01 X70.89 Y82.63 F6000.0
G01 X71.04 Y83.14 F6000.0
M5
G00 X71.84 Y82.36 F6000.0
M3 F6000.0
G01 X72.16 Y83.02 F6000.0
M5
G00 X72.84 Y83.19 F6000.0
M3 F6000.0
G01 X72.42 Y83.59 F6000.0
G01 X71.92 Y83.76 F6000.0
M5
G00 X72.38 Y82.23 F6000.0
M3 F6000.0
G01 X72.76 Y82.86 F6000.0
G01 X72.69 Y83.46 F6000.0
M5
G00 X73.03 Y82.52 F6000.0
M3 F6000.0
G01 X72.33 Y82.83 F6000.0
G01 X72.01 Y83.3 F6000.0
M5
G00 X71.63 Y81.88 F6000.0
M3 F6000.0
G01 X72.38 Y82.23 F6000.0
G01 X72.94 Y82.16 F6000.0
M5
G00 X73.54 Y82.37 F6000.0
M3 F6000.0
G01 X73.63 Y83.23 F6000.0
G01 X73.43 Y83.88 F6000.0
M5
G00 X73.94 Y82.65 F6000.0
M3 F6000.0
G01 X73.82 Y83.35 F6000.0
G01 X73.36 Y83.77 F6000.0
M5
G00 X74.72 Y84.75 F6000.0
M3 F6000.0
G01 X73.97 Y85.3 F6000.0
G01 X73.61 Y85.85 F6000.0
M5
G00 X75.2 Y83.18 F6000.0
M3 F6000.0
G01 X75.1 Y83.48 F6000.0
G01 X74.72 Y84.75 F6000.0
G01 X74.98 Y85.58 F6000.0
G01 X75.44 Y86.08 F6000.0
M5
G00 X75.18 Y82.45 F6000.0
M3 F6000.0
G01 X75.71 Y82.62 F6000.0
M5
G00 X76.05 Y81.64 F6000.0
M3 F6000.0
G01 X76.09 Y81.67 F6000.0
G01 X76.89 Y82.36 F6000.0
G01 X77.57 Y82.54 F6000.0
M5
G00 X77.25 Y81.13 F6000.0
M3 F6000.0
G01 X77.9 Y81.24 F6000.0
G01 X78.39 Y81.53 F6000.0
M5
G00 X78.77 Y80.34 F6000.0
M3 F6000.0
G01 X78.79 Y80.4 F6000.0
G01 X79.08 Y81.35 F6000.0
G01 X79.4 Y82.37 F6000.0
G01 X79.48 Y82.45 F6000.0
G01 X80.3 Y83.21 F6000.0
G01 X81.03 Y83.34 F6000.0
M5
G00 X81.89 Y81.42 F6000.0
M3 F6000.0
G01 X82.19 Y81.73 F6000.0
G01 X83.17 Y82.78 F6000.0
G01 X83.46 Y82.86 F6000.0
G01 X84.71 Y83.22 F6000.0
G01 X84.78 Y83.2 F6000.0
G01 X85.81 Y82.85 F6000.0
G01 X86.23 Y82.39 F6000.0
M5
G00 X86.12 Y80.99 F6000.0
M3 F6000.0
G01 X86.16 Y81.03 F6000.0
G01 X86.94 Y81.74 F6000.0
G01 X87.62 Y81.98 F6000.0
M5
G00 X83.44 Y80.14 F6000.0
M3 F6000.0
G01 X83.96 Y80.52 F6000.0
G01 X84.24 Y81.01 F6000.0
M5
G00 X82.72 Y80.05 F6000.0
M3 F6000.0
G01 X82.87 Y80.71 F6000.0
M5
G00 X82.08 Y79.47 F6000.0
M3 F6000.0
G01 X81.84 Y80.27 F6000.0
G01 X81.31 Y80.64 F6000.0
M5
G00 X79.79 Y80.73 F6000.0
M3 F6000.0
G01 X79.61 Y81.23 F6000.0
M5
G00 X79.57 Y80.05 F6000.0
M3 F6000.0
G01 X79.79 Y80.73 F6000.0
G01 X80.21 Y81.16 F6000.0
M5
G00 X78.95 Y79.52 F6000.0
M3 F6000.0
G01 X78.99 Y80.26 F6000.0
G01 X79.39 Y80.77 F6000.0
M5
G00 X77.78 Y80.28 F6000.0
M3 F6000.0
G01 X78.29 Y80.02 F6000.0
M5
G00 X77.88 Y79.47 F6000.0
M3 F6000.0
G01 X78.23 Y78.98 F6000.0
M5
G00 X78.1 Y78.89 F6000.0
M3 F6000.0
G01 X78.16 Y79.47 F6000.0
M5
G00 X77.56 Y78.86 F6000.0
M3 F6000.0
G01 X77.22 Y79.36 F6000.0
M5
G00 X76.45 Y79.75 F6000.0
M3 F6000.0
G01 X76.27 Y80.52 F6000.0
G01 X76.35 Y81.2 F6000.0
M5
G00 X75.96 Y81.35 F6000.0
M3 F6000.0
G01 X76.12 Y81.91 F6000.0
M5
G00 X75.43 Y80.92 F6000.0
M3 F6000.0
G01 X75.96 Y81.35 F6000.0
G01 X76.51 Y81.37 F6000.0
M5
G00 X76.27 Y80.52 F6000.0
M3 F6000.0
G01 X75.78 Y80.95 F6000.0
G01 X75.24 Y80.99 F6000.0
M5
G00 X74.61 Y80.86 F6000.0
M3 F6000.0
G01 X74.83 Y81.76 F6000.0
G01 X75.23 Y82.34 F6000.0
G01 X75.25 Y82.93 F6000.0
M5
G00 X74.58 Y81.46 F6000.0
M3 F6000.0
G01 X74.72 Y81.85 F6000.0
G01 X75.2 Y83.18 F6000.0
G01 X75.96 Y83.75 F6000.0
G01 X76.59 Y83.94 F6000.0
M5
G00 X73.66 Y81.64 F6000.0
M3 F6000.0
G01 X73.64 Y81.68 F6000.0
G01 X73.03 Y82.52 F6000.0
G01 X72.84 Y83.19 F6000.0
G01 X73.07 Y83.72 F6000.0
M5
G00 X72.33 Y81.13 F6000.0
M3 F6000.0
G01 X72.19 Y81.59 F6000.0
G01 X71.73 Y83.0 F6000.0
G01 X71.76 Y83.21 F6000.0
G01 X71.96 Y84.41 F6000.0
G01 X71.97 Y84.43 F6000.0
G01 X72.52 Y85.29 F6000.0
G01 X73.11 Y85.6 F6000.0
M5
G00 X70.97 Y81.65 F6000.0
M3 F6000.0
G01 X71.02 Y81.69 F6000.0
G01 X71.84 Y82.36 F6000.0
G01 X72.69 Y82.52 F6000.0
G01 X73.08 Y82.93 F6000.0
M5
G00 X73.79 Y80.22 F6000.0
M3 F6000.0
G01 X73.77 Y80.43 F6000.0
G01 X73.66 Y81.64 F6000.0
G01 X73.67 Y81.66 F6000.0
G01 X73.94 Y82.65 F6000.0
G01 X74.4 Y82.99 F6000.0
M5
G00 X74.39 Y79.45 F6000.0
M3 F6000.0
G01 X74.98 Y79.75 F6000.0
G01 X75.53 Y79.71 F6000.0
M5
G00 X75.62 Y79.58 F6000.0
M3 F6000.0
G01 X74.94 Y79.74 F6000.0
G01 X74.38 Y79.56 F6000.0
M5
G00 X73.29 Y79.44 F6000.0
M3 F6000.0
G01 X73.57 Y80.25 F6000.0
G01 X74.14 Y80.68 F6000.0
G01 X74.42 Y81.2 F6000.0
M5
G00 X72.67 Y79.83 F6000.0
M3 F6000.0
G01 X72.64 Y80.13 F6000.0
G01 X72.43 Y82.12 F6000.0
G01 X72.3 Y83.41 F6000.0
G01 X72.31 Y83.44 F6000.0
G01 X72.8 Y84.32 F6000.0
G01 X73.31 Y85.23 F6000.0
G01 X73.41 Y85.32 F6000.0
G01 X74.28 Y86.06 F6000.0
G01 X74.33 F6000.0
G01 X75.38 Y86.18 F6000.0
G01 X75.94 Y86.04 F6000.0
M5
G00 X76.25 Y78.83 F6000.0
M3 F6000.0
G01 X75.62 Y79.58 F6000.0
G01 X75.47 Y80.28 F6000.0
M5
G00 X75.33 Y78.69 F6000.0
M3 F6000.0
G01 X75.73 Y79.27 F6000.0
G01 X76.18 Y79.56 F6000.0
M5
G00 X77.52 Y78.25 F6000.0
M3 F6000.0
G01 X77.42 Y78.86 F6000.0
M5
G00 X77.61 Y78.15 F6000.0
M3 F6000.0
G01 X77.56 Y78.86 F6000.0
G01 X77.89 Y79.36 F6000.0
M5
G00 X78.56 Y78.66 F6000.0
M3 F6000.0
G01 X78.95 Y79.52 F6000.0
G01 X79.57 Y80.05 F6000.0
G01 X80.2 Y80.19 F6000.0
M5
G00 X79.71 Y78.84 F6000.0
M3 F6000.0
G01 X79.05 Y78.86 F6000.0
G01 X78.51 Y78.64 F6000.0
M5
G00 X78.92 Y77.76 F6000.0
M3 F6000.0
G01 X79.13 Y78.35 F6000.0
G01 X79.51 Y78.73 F6000.0
M5
G00 X80.34 Y78.3 F6000.0
M3 F6000.0
G01 X79.71 Y78.84 F6000.0
G01 X79.6 Y79.41 F6000.0
M5
G00 X79.56 Y77.72 F6000.0
M3 F6000.0
G01 X78.89 Y77.55 F6000.0
G01 X78.49 Y77.2 F6000.0
M5
G00 X78.24 Y77.32 F6000.0
M3 F6000.0
G01 X78.92 Y77.76 F6000.0
G01 X79.64 Y77.68 F6000.0
M5
G00 X80.5 Y77.33 F6000.0
M3 F6000.0
G01 Y77.34 F6000.0
G01 X79.56 Y77.72 F6000.0
G01 X79.12 Y78.31 F6000.0
G01 X78.52 Y78.48 F6000.0
M5
G00 X77.79 Y77.15 F6000.0
M3 F6000.0
G01 X77.43 Y77.65 F6000.0
M5
G00 X77.29 Y77.17 F6000.0
M3 F6000.0
G01 X77.3 Y77.22 F6000.0
G01 X77.52 Y78.25 F6000.0
G01 X78.1 Y78.89 F6000.0
G01 X78.61 Y79.03 F6000.0
M5
G00 X78.99 Y76.91 F6000.0
M3 F6000.0
G01 X79.39 Y77.03 F6000.0
G01 X80.75 Y77.42 F6000.0
G01 X81.01 Y77.3 F6000.0
G01 X82.19 Y76.79 F6000.0
G01 X82.24 Y76.69 F6000.0
G01 X82.75 Y75.71 F6000.0
G01 X82.61 Y74.99 F6000.0
G01 X82.19 Y74.5 F6000.0
M5
G00 X82.35 Y73.73 F6000.0
M3 F6000.0
G01 X82.45 Y73.68 F6000.0
G01 X83.43 Y73.14 F6000.0
G01 X83.76 Y72.59 F6000.0
M5
G00 X84.31 Y72.89 F6000.0
M3 F6000.0
G01 X84.4 Y73.05 F6000.0
G01 X84.94 Y74.09 F6000.0
G01 X85.01 Y74.13 F6000.0
G01 X85.9 Y74.72 F6000.0
G01 X86.68 Y74.84 F6000.0
G01 X87.21 Y74.64 F6000.0
M5
G00 X85.13 Y73.81 F6000.0
M3 F6000.0
G01 X86.04 Y73.45 F6000.0
G01 X86.5 Y73.04 F6000.0
M5
G00 X85.55 Y72.67 F6000.0
M3 F6000.0
G01 X86.26 Y72.81 F6000.0
G01 X86.83 Y72.52 F6000.0
M5
G00 X85.32 Y73.14 F6000.0
M3 F6000.0
G01 X85.73 Y72.79 F6000.0
M5
G00 X85.16 Y72.55 F6000.0
M3 F6000.0
G01 X85.31 Y72.02 F6000.0
M5
G00 X84.15 Y73.22 F6000.0
M3 F6000.0
G01 X84.61 Y73.53 F6000.0
M5
G00 X84.94 Y74.09 F6000.0
M3 F6000.0
G01 Y74.18 F6000.0
G01 X84.83 Y75.26 F6000.0
G01 X85.21 Y76.02 F6000.0
G01 X85.68 Y76.39 F6000.0
M5
G00 X84.66 Y75.11 F6000.0
M3 F6000.0
G01 X84.68 Y75.23 F6000.0
G01 X84.86 Y76.35 F6000.0
G01 X85.33 Y76.89 F6000.0
G01 X85.88 Y77.0 F6000.0
M5
G00 X84.21 Y75.35 F6000.0
M3 F6000.0
G01 X85.05 Y75.57 F6000.0
G01 X85.7 Y75.37 F6000.0
G01 X86.24 Y75.5 F6000.0
M5
G00 X84.6 Y74.73 F6000.0
M3 F6000.0
G01 X85.1 Y74.46 F6000.0
M5
G00 X84.31 Y74.7 F6000.0
M3 F6000.0
G01 X84.42 F6000.0
G01 X85.54 F6000.0
G01 X86.2 Y74.36 F6000.0
G01 X86.82 Y74.48 F6000.0
M5
G00 X83.73 Y75.81 F6000.0
M3 F6000.0
G01 X84.1 Y76.54 F6000.0
G01 X84.65 Y76.96 F6000.0
G01 X84.92 Y77.49 F6000.0
M5
G00 X82.82 Y78.61 F6000.0
M3 F6000.0
G01 X83.49 Y79.21 F6000.0
G01 X84.11 Y79.41 F6000.0
M5
G00 X82.96 Y78.95 F6000.0
M3 F6000.0
G01 X82.86 Y79.65 F6000.0
G01 X82.98 Y80.18 F6000.0
M5
G00 X82.61 Y78.11 F6000.0
M3 F6000.0
G01 X82.96 Y78.95 F6000.0
G01 X83.46 Y79.43 F6000.0
M5
G00 X81.75 Y78.44 F6000.0
M3 F6000.0
G01 X81.76 Y78.48 F6000.0
G01 X82.08 Y79.47 F6000.0
G01 X82.72 Y80.05 F6000.0
G01 X83.44 Y80.14 F6000.0
G01 X83.96 Y79.84 F6000.0
M5
G00 X81.67 Y78.36 F6000.0
M3 F6000.0
G01 X81.21 Y78.9 F6000.0
M5
G00 X81.73 Y77.53 F6000.0
M3 F6000.0
G01 X81.67 Y78.36 F6000.0
G01 X81.9 Y78.99 F6000.0
G01 X81.88 Y79.58 F6000.0
M5
G00 X80.75 Y77.42 F6000.0
M3 F6000.0
G01 X80.9 Y77.57 F6000.0
G01 X81.75 Y78.44 F6000.0
G01 X81.79 Y78.45 F6000.0
G01 X82.82 Y78.61 F6000.0
G01 X83.64 Y78.42 F6000.0
G01 X84.23 Y78.02 F6000.0
M5
G00 X82.19 Y76.79 F6000.0
M3 F6000.0
G01 X82.36 Y76.81 F6000.0
G01 X83.52 Y77.0 F6000.0
G01 X83.55 Y76.98 F6000.0
G01 X84.45 Y76.46 F6000.0
G01 X84.97 Y75.68 F6000.0
G01 X85.06 Y75.05 F6000.0
M5
G00 X83.4 Y75.49 F6000.0
M3 F6000.0
G01 X83.05 Y76.27 F6000.0
G01 X83.16 Y76.81 F6000.0
M5
G00 X82.75 Y75.71 F6000.0
M3 F6000.0
G01 X83.53 Y75.29 F6000.0
G01 X84.09 Y75.36 F6000.0
M5
G00 X82.97 Y75.18 F6000.0
M3 F6000.0
G01 X83.73 Y75.81 F6000.0
G01 X84.39 Y76.02 F6000.0
G01 X84.69 Y76.5 F6000.0
M5
G00 X83.35 Y73.93 F6000.0
M3 F6000.0
G01 X83.36 Y74.21 F6000.0
G01 X83.4 Y75.49 F6000.0
G01 X83.48 Y75.64 F6000.0
G01 X84.03 Y76.66 F6000.0
G01 X84.69 Y77.22 F6000.0
G01 X84.93 Y77.72 F6000.0
M5
G00 X81.27 Y76.27 F6000.0
M3 F6000.0
G01 X81.18 Y76.4 F6000.0
G01 X80.5 Y77.33 F6000.0
G01 X80.34 Y78.3 F6000.0
G01 X80.57 Y78.82 F6000.0
M5
G00 X79.69 Y76.46 F6000.0
M3 F6000.0
G01 X79.83 Y77.25 F6000.0
G01 X80.14 Y77.7 F6000.0
M5
G00 X80.9 Y75.99 F6000.0
M3 F6000.0
G01 X81.32 Y76.53 F6000.0
M5
G00 X81.27 Y75.55 F6000.0
M3 F6000.0
G01 X81.69 Y75.59 F6000.0
G01 X83.1 Y75.74 F6000.0
G01 X83.18 Y75.71 F6000.0
G01 X84.21 Y75.35 F6000.0
G01 X84.6 Y74.73 F6000.0
G01 X84.57 Y74.19 F6000.0
M5
G00 X83.43 Y73.14 F6000.0
M3 F6000.0
G01 X84.15 Y73.22 F6000.0
G01 X84.75 Y73.04 F6000.0
M5
G00 X82.54 Y72.14 F6000.0
M3 F6000.0
G01 X82.74 Y72.58 F6000.0
G01 X83.35 Y73.93 F6000.0
G01 X83.63 Y74.19 F6000.0
G01 X84.66 Y75.11 F6000.0
G01 X84.83 Y75.14 F6000.0
G01 X85.98 Y75.39 F6000.0
G01 X86.0 F6000.0
G01 X86.96 Y75.06 F6000.0
G01 X87.56 Y74.39 F6000.0
G01 X87.68 Y73.61 F6000.0
G01 X87.44 Y73.02 F6000.0
